/* XPM */
static char * 3_2xpm_xpm[] = {
"128 128 2561 2",
"  	c #DCAC75",
". 	c #DAAB71",
"+ 	c #DBAD73",
"@ 	c #DDAF77",
"# 	c #D8A664",
"$ 	c #EDD9B6",
"% 	c #EDDAB6",
"& 	c #EDD8B6",
"* 	c #E6C89C",
"= 	c #E7C79E",
"- 	c #DAA76D",
"; 	c #D9A064",
"> 	c #D9A367",
", 	c #D8A265",
"' 	c #D2924B",
") 	c #D59957",
"! 	c #D69C5C",
"~ 	c #D79F61",
"{ 	c #D69D5D",
"] 	c #D49B59",
"^ 	c #D59D5B",
"/ 	c #D8A567",
"( 	c #D9A66A",
"_ 	c #D69E5B",
": 	c #D59F5D",
"< 	c #DAAB6D",
"[ 	c #D49A55",
"} 	c #D49A57",
"| 	c #D6A160",
"1 	c #D59E5C",
"2 	c #D59D59",
"3 	c #D39952",
"4 	c #D8A364",
"5 	c #D39851",
"6 	c #D7A35F",
"7 	c #D29852",
"8 	c #D1934A",
"9 	c #D1944B",
"0 	c #D3964E",
"a 	c #D39750",
"b 	c #DBAE70",
"c 	c #DCB172",
"d 	c #DCB174",
"e 	c #D9AA6B",
"f 	c #DAA76C",
"g 	c #DEB47F",
"h 	c #D9A96A",
"i 	c #DDB178",
"j 	c #D49B57",
"k 	c #D09146",
"l 	c #CF8C40",
"m 	c #E0BB80",
"n 	c #E3C38D",
"o 	c #D49C55",
"p 	c #D39850",
"q 	c #CE8639",
"r 	c #CE873D",
"s 	c #CD8639",
"t 	c #CE883B",
"u 	c #D19348",
"v 	c #D7A460",
"w 	c #DBAC73",
"x 	c #DBAD71",
"y 	c #E0B986",
"z 	c #E1BA86",
"A 	c #D9A767",
"B 	c #D49B56",
"C 	c #D2964F",
"D 	c #D2954D",
"E 	c #D09247",
"F 	c #CF8E42",
"G 	c #D1954D",
"H 	c #D39650",
"I 	c #CF8F43",
"J 	c #D39751",
"K 	c #DBAD70",
"L 	c #D5A059",
"M 	c #D8A665",
"N 	c #D5A15B",
"O 	c #D49D57",
"P 	c #D59E57",
"Q 	c #D6A45F",
"R 	c #EACCAB",
"S 	c #D0944A",
"T 	c #D79D5D",
"U 	c #D6A060",
"V 	c #DAAC6C",
"W 	c #D7A362",
"X 	c #DBAE73",
"Y 	c #D6A25C",
"Z 	c #D7A260",
"` 	c #D49954",
" .	c #D7A660",
"..	c #D09348",
"+.	c #D1954A",
"@.	c #DAA86A",
"#.	c #CE8B3E",
"$.	c #DDB27C",
"%.	c #DCB177",
"&.	c #D19248",
"*.	c #D39A55",
"=.	c #D2934C",
"-.	c #D59C5A",
";.	c #D2914B",
">.	c #D2904A",
",.	c #D19049",
"'.	c #D2944E",
").	c #D08A40",
"!.	c #CF863B",
"~.	c #D08C45",
"{.	c #D69E5D",
"].	c #D6A05E",
"^.	c #D8A766",
"/.	c #D49957",
"(.	c #DBAA72",
"_.	c #DCAA72",
":.	c #DDAF7A",
"<.	c #D49754",
"[.	c #D7A061",
"}.	c #E0B887",
"|.	c #E0B786",
"1.	c #E1BA8A",
"2.	c #E5C299",
"3.	c #E4BD92",
"4.	c #DCAC74",
"5.	c #E3C190",
"6.	c #E0B882",
"7.	c #DEB67D",
"8.	c #DBAD72",
"9.	c #D69D5C",
"0.	c #D59B59",
"a.	c #D79F5F",
"b.	c #D9A468",
"c.	c #DBAA6F",
"d.	c #DCB079",
"e.	c #D7A05F",
"f.	c #D59F5B",
"g.	c #D49B55",
"h.	c #E0BA87",
"i.	c #DAAA6C",
"j.	c #D7A462",
"k.	c #D69F5A",
"l.	c #D5A05B",
"m.	c #DBB072",
"n.	c #E7CB9A",
"o.	c #DAAC6B",
"p.	c #E4C893",
"q.	c #DDB476",
"r.	c #D5A05C",
"s.	c #D2964E",
"t.	c #D49A56",
"u.	c #D29750",
"v.	c #D6A161",
"w.	c #E2BF8E",
"x.	c #E3BE8F",
"y.	c #D7A161",
"z.	c #D09248",
"A.	c #D09044",
"B.	c #D8A564",
"C.	c #E6C797",
"D.	c #DFB97E",
"E.	c #CE893D",
"F.	c #D89F62",
"G.	c #D39753",
"H.	c #D49451",
"I.	c #CF8B41",
"J.	c #D08E43",
"K.	c #D39A52",
"L.	c #DAAD71",
"M.	c #DBAC72",
"N.	c #E5C398",
"O.	c #E3C093",
"P.	c #D49D58",
"Q.	c #D39953",
"R.	c #D1954B",
"S.	c #D09246",
"T.	c #CF9146",
"U.	c #D09145",
"V.	c #D1954C",
"W.	c #D49A54",
"X.	c #D2974F",
"Y.	c #CF9044",
"Z.	c #D3984F",
"`.	c #D49D54",
" +	c #D5A25C",
".+	c #D2994F",
"++	c #D59D5C",
"@+	c #D08F45",
"#+	c #DDB079",
"$+	c #D69E5C",
"%+	c #D09045",
"&+	c #D2964D",
"*+	c #D19247",
"=+	c #D1944C",
"-+	c #D09448",
";+	c #D59F5A",
">+	c #D1964B",
",+	c #D19349",
"'+	c #D7A562",
")+	c #E1BD8C",
"!+	c #D2984E",
"~+	c #D09347",
"{+	c #D9AA6A",
"]+	c #D8A968",
"^+	c #D09046",
"/+	c #D08F46",
"(+	c #D08E45",
"_+	c #D08B40",
":+	c #D2914A",
"<+	c #D69C5A",
"[+	c #D7A363",
"}+	c #DAAB6E",
"|+	c #CF8A3F",
"1+	c #CD8538",
"2+	c #CF883D",
"3+	c #D3924D",
"4+	c #D08B42",
"5+	c #D08B43",
"6+	c #D2914D",
"7+	c #CF8B3F",
"8+	c #D49855",
"9+	c #E1B78A",
"0+	c #D49654",
"a+	c #DDB277",
"b+	c #E1BB85",
"c+	c #DDB377",
"d+	c #DEB77E",
"e+	c #DEB67F",
"f+	c #DBA86E",
"g+	c #D7A365",
"h+	c #E3C28D",
"i+	c #E1BD89",
"j+	c #E2BF88",
"k+	c #E2BF8B",
"l+	c #DFB87F",
"m+	c #DCB074",
"n+	c #E1BD84",
"o+	c #E1BC87",
"p+	c #E3C38E",
"q+	c #D6A460",
"r+	c #EAD1AA",
"s+	c #E3C090",
"t+	c #E7CB9B",
"u+	c #E6C997",
"v+	c #E5C997",
"w+	c #DDB274",
"x+	c #E2C089",
"y+	c #D59E5A",
"z+	c #D2954E",
"A+	c #D69F5E",
"B+	c #D9A668",
"C+	c #D7A060",
"D+	c #D69D5B",
"E+	c #DCAE77",
"F+	c #DEB37C",
"G+	c #DDB276",
"H+	c #DCB072",
"I+	c #E3C58E",
"J+	c #D3964F",
"K+	c #D1924A",
"L+	c #CF8A40",
"M+	c #D2914C",
"N+	c #D3934C",
"O+	c #D7A361",
"P+	c #E1BA88",
"Q+	c #D49B54",
"R+	c #D6A35F",
"S+	c #D59E59",
"T+	c #DDB179",
"U+	c #D59F59",
"V+	c #D6A360",
"W+	c #D19148",
"X+	c #D6A261",
"Y+	c #D8A367",
"Z+	c #DAA66C",
"`+	c #D59A59",
" @	c #CE893B",
".@	c #E0B584",
"+@	c #D59C5B",
"@@	c #D9A76A",
"#@	c #D2934B",
"$@	c #CF8F46",
"%@	c #D09147",
"&@	c #D7A364",
"*@	c #CF9145",
"=@	c #D1964C",
"-@	c #D39950",
";@	c #D7A45F",
">@	c #D8A966",
",@	c #DFB681",
"'@	c #D4A058",
")@	c #D9A867",
"!@	c #DAA969",
"~@	c #CF8A3E",
"{@	c #D29650",
"]@	c #D39852",
"^@	c #D59E5B",
"/@	c #D8A363",
"(@	c #D9A96B",
"_@	c #DEB67B",
":@	c #DEB579",
"<@	c #E2BF89",
"[@	c #DBAD6C",
"}@	c #DFB881",
"|@	c #DBAE72",
"1@	c #CE8539",
"2@	c #CF883F",
"3@	c #D18C44",
"4@	c #D08840",
"5@	c #D18D47",
"6@	c #D18C46",
"7@	c #D18E48",
"8@	c #D69857",
"9@	c #D59757",
"0@	c #D59857",
"a@	c #D39451",
"b@	c #DDB378",
"c@	c #E5C595",
"d@	c #E1BC86",
"e@	c #E0B881",
"f@	c #DBAF70",
"g@	c #DBAF74",
"h@	c #E3C28E",
"i@	c #E4C494",
"j@	c #E1BC88",
"k@	c #DBAB72",
"l@	c #D9A86B",
"m@	c #E1BD88",
"n@	c #E0BA82",
"o@	c #DAAE6D",
"p@	c #DBB173",
"q@	c #D8A864",
"r@	c #D6A25D",
"s@	c #D9A967",
"t@	c #DFB87D",
"u@	c #E4C692",
"v@	c #DEB97C",
"w@	c #E3C48F",
"x@	c #E0BA7F",
"y@	c #E6CA98",
"z@	c #E5C996",
"A@	c #E6CB99",
"B@	c #DDB577",
"C@	c #E4C590",
"D@	c #D9AB6B",
"E@	c #D59D5A",
"F@	c #D7A162",
"G@	c #D7A466",
"H@	c #DBAB71",
"I@	c #E2BD8D",
"J@	c #E2BF8C",
"K@	c #E3C28A",
"L@	c #E3C58D",
"M@	c #DBAF6E",
"N@	c #D49C58",
"O@	c #D69C5B",
"P@	c #D9A569",
"Q@	c #D59655",
"R@	c #D08C42",
"S@	c #CF8D41",
"T@	c #D59956",
"U@	c #D69B5C",
"V@	c #DAA369",
"W@	c #DEAE7B",
"X@	c #DBA86F",
"Y@	c #D18F47",
"Z@	c #D39951",
"`@	c #D5A05A",
" #	c #CD863B",
".#	c #D18E45",
"+#	c #CD8335",
"@#	c #D08B41",
"##	c #CE8739",
"$#	c #D19048",
"%#	c #D9A76B",
"&#	c #CF8E43",
"*#	c #D69F5F",
"=#	c #D09245",
"-#	c #DBAC6F",
";#	c #E4C395",
">#	c #D59C58",
",#	c #D09349",
"'#	c #D1944A",
")#	c #D8A465",
"!#	c #DAAC6F",
"~#	c #D6A25F",
"{#	c #D6A05C",
"]#	c #DBAC6E",
"^#	c #D7A560",
"/#	c #D7A762",
"(#	c #D8A762",
"_#	c #DEB779",
":#	c #DDB677",
"<#	c #DFB97C",
"[#	c #DCB273",
"}#	c #CF883E",
"|#	c #D69F5D",
"1#	c #D59A57",
"2#	c #DAA86E",
"3#	c #D79C5E",
"4#	c #D49956",
"5#	c #D9A86A",
"6#	c #DCAF74",
"7#	c #E0BB84",
"8#	c #E0BA83",
"9#	c #E8CFA3",
"0#	c #DCB171",
"a#	c #E5C795",
"b#	c #E4C593",
"c#	c #E4C390",
"d#	c #DDB57A",
"e#	c #DCB175",
"f#	c #DBAE6F",
"g#	c #E3C08F",
"h#	c #DAA96E",
"i#	c #DAA86C",
"j#	c #D49854",
"k#	c #D59A58",
"l#	c #E0B684",
"m#	c #DFB582",
"n#	c #DCAD73",
"o#	c #D8A667",
"p#	c #DEB478",
"q#	c #E2C08A",
"r#	c #E1BD85",
"s#	c #E7CE9F",
"t#	c #E7CD9C",
"u#	c #E5C894",
"v#	c #E6CA97",
"w#	c #E6C894",
"x#	c #E6C996",
"y#	c #E3C58F",
"z#	c #EBD3AB",
"A#	c #E7CC9D",
"B#	c #E6C998",
"C#	c #E0BD83",
"D#	c #E3C48C",
"E#	c #E2C289",
"F#	c #DCB170",
"G#	c #D49E57",
"H#	c #CD8638",
"I#	c #D29851",
"J#	c #D9A467",
"K#	c #D69958",
"L#	c #DDAB75",
"M#	c #DCAB72",
"N#	c #DDAE78",
"O#	c #DAA96F",
"P#	c #D1924B",
"Q#	c #CF8D43",
"R#	c #D08E44",
"S#	c #D8A164",
"T#	c #D18F48",
"U#	c #D49551",
"V#	c #D29850",
"W#	c #D39551",
"X#	c #CB7F2E",
"Y#	c #CD8537",
"Z#	c #CC8435",
"`#	c #CE8B3F",
" $	c #CD8637",
".$	c #D59855",
"+$	c #D9A869",
"@$	c #D7A35E",
"#$	c #DAA86D",
"$$	c #DDB477",
"%$	c #D9A966",
"&$	c #D6A05F",
"*$	c #D9AB67",
"=$	c #DBAE6C",
"-$	c #DBB171",
";$	c #CF8D42",
">$	c #DEB17A",
",$	c #DFB482",
"'$	c #D49C57",
")$	c #E2BC89",
"!$	c #E6C69A",
"~$	c #D1974C",
"{$	c #D7A461",
"]$	c #D7A360",
"^$	c #DEB47C",
"/$	c #DAAB6C",
"($	c #D6A25B",
"_$	c #CE8C3F",
":$	c #CE8D40",
"<$	c #CF9043",
"[$	c #D39A53",
"}$	c #D9A864",
"|$	c #E2C088",
"1$	c #DBB070",
"2$	c #DFBA80",
"3$	c #DEB57A",
"4$	c #DEB578",
"5$	c #E0B885",
"6$	c #DEB57B",
"7$	c #E5C596",
"8$	c #E4C394",
"9$	c #E2BF8A",
"0$	c #E5C696",
"a$	c #DAAB6B",
"b$	c #DEB37B",
"c$	c #DDB279",
"d$	c #D59C59",
"e$	c #E7C9A0",
"f$	c #E1BA89",
"g$	c #DEAF7B",
"h$	c #DFB782",
"i$	c #E3C08E",
"j$	c #E6C99C",
"k$	c #E5C794",
"l$	c #E9CFA2",
"m$	c #DEB77A",
"n$	c #DDB679",
"o$	c #EEDCB9",
"p$	c #DEB67A",
"q$	c #DEB77C",
"r$	c #DDB579",
"s$	c #D08C44",
"t$	c #D9A666",
"u$	c #E1BE87",
"v$	c #DFBA7F",
"w$	c #E3C18B",
"x$	c #E4C693",
"y$	c #E8CD9D",
"z$	c #E9D0A2",
"A$	c #E3C48E",
"B$	c #E3C38A",
"C$	c #E5CA97",
"D$	c #E9D2A7",
"E$	c #EAD2A6",
"F$	c #E8CD9F",
"G$	c #EBD7AD",
"H$	c #E3C38B",
"I$	c #E6CA9B",
"J$	c #E0BC81",
"K$	c #D4A059",
"L$	c #D49D56",
"M$	c #D19147",
"N$	c #D9A66B",
"O$	c #DBAA71",
"P$	c #DBA970",
"Q$	c #D8A061",
"R$	c #DBAA73",
"S$	c #E1B585",
"T$	c #DCAD78",
"U$	c #DBAB73",
"V$	c #D19149",
"W$	c #D2924C",
"X$	c #D08D44",
"Y$	c #DAA86B",
"Z$	c #D8A668",
"`$	c #DEB27D",
" %	c #DCAF77",
".%	c #DBAA70",
"+%	c #D7A464",
"@%	c #D49A53",
"#%	c #D69F5C",
"$%	c #D6A05D",
"%%	c #D7A561",
"&%	c #D9AB68",
"*%	c #EED7BB",
"=%	c #DEB378",
"-%	c #E1BE8A",
";%	c #D8A669",
">%	c #D9A466",
",%	c #D1934B",
"'%	c #DFBA7D",
")%	c #E1BF86",
"!%	c #CF8C41",
"~%	c #D59D58",
"{%	c #D49955",
"]%	c #CE8C40",
"^%	c #CE8A3C",
"/%	c #CE8B40",
"(%	c #DEB67C",
"_%	c #E4C28E",
":%	c #E5C693",
"<%	c #DFB97F",
"[%	c #E0BB86",
"}%	c #E0BB82",
"|%	c #E2BE88",
"1%	c #E4C490",
"2%	c #EBD4AE",
"3%	c #E1BF89",
"4%	c #D8A466",
"5%	c #D9A669",
"6%	c #D39954",
"7%	c #D49B58",
"8%	c #E3BF92",
"9%	c #DEB17D",
"0%	c #D59A56",
"a%	c #E2BE8D",
"b%	c #ECD8B1",
"c%	c #E0BB83",
"d%	c #EAD4AB",
"e%	c #EAD4AA",
"f%	c #E9D0A3",
"g%	c #EEDCB8",
"h%	c #DBAE71",
"i%	c #E0B985",
"j%	c #EBD5AE",
"k%	c #E4C591",
"l%	c #DBB071",
"m%	c #D3944F",
"n%	c #E2BE87",
"o%	c #E1BE86",
"p%	c #E1BC84",
"q%	c #E2BF87",
"r%	c #E0BA81",
"s%	c #E3C28C",
"t%	c #E5C897",
"u%	c #E8CCA0",
"v%	c #E2C189",
"w%	c #E1BF85",
"x%	c #E1BE88",
"y%	c #D8A863",
"z%	c #D7A563",
"A%	c #CE873B",
"B%	c #D1914B",
"C%	c #D29951",
"D%	c #D49C56",
"E%	c #D09148",
"F%	c #DAA76B",
"G%	c #DAAA71",
"H%	c #DCAE76",
"I%	c #DDAE77",
"J%	c #D39B55",
"K%	c #D39B54",
"L%	c #E1BE84",
"M%	c #E0BC82",
"N%	c #E3C18C",
"O%	c #E4C492",
"P%	c #E4C491",
"Q%	c #DAA56B",
"R%	c #CF8B40",
"S%	c #DCAB75",
"T%	c #D39550",
"U%	c #D9A469",
"V%	c #D18F46",
"W%	c #D7A25F",
"X%	c #D49753",
"Y%	c #CE8A3D",
"Z%	c #D39854",
"`%	c #CE893C",
" &	c #D59B58",
".&	c #E9CEA4",
"+&	c #E2C08C",
"@&	c #E2BE89",
"#&	c #E8CEA1",
"$&	c #F4E7D2",
"%&	c #E0B987",
"&&	c #E7C7A0",
"*&	c #DFB583",
"=&	c #DFB380",
"-&	c #D8A264",
";&	c #D3954F",
">&	c #DAAA6E",
",&	c #E8CDA0",
"'&	c #EBD7AE",
")&	c #E1BD87",
"!&	c #DDB37A",
"~&	c #E1BC83",
"{&	c #EEDBB5",
"]&	c #EFDEBA",
"^&	c #DFB780",
"/&	c #DBAD6D",
"(&	c #E4C68F",
"_&	c #E5C899",
":&	c #E1BD86",
"<&	c #DFBA81",
"[&	c #DDB578",
"}&	c #D7A262",
"|&	c #D7A564",
"1&	c #D7A463",
"2&	c #DCB275",
"3&	c #DCB173",
"4&	c #E0BA86",
"5&	c #DBAC6D",
"6&	c #D9AA69",
"7&	c #D8A867",
"8&	c #CB802F",
"9&	c #D59F58",
"0&	c #D39B53",
"a&	c #CF8C3F",
"b&	c #D8A366",
"c&	c #DBA76D",
"d&	c #D8A162",
"e&	c #D8A165",
"f&	c #D9A46A",
"g&	c #D59B5A",
"h&	c #D69E5F",
"i&	c #DEB381",
"j&	c #DCAE75",
"k&	c #D8A566",
"l&	c #D2944D",
"m&	c #CE8D3F",
"n&	c #E0BB85",
"o&	c #E4C393",
"p&	c #D2964C",
"q&	c #E8CBA0",
"r&	c #DBB073",
"s&	c #D59F5C",
"t&	c #DCB276",
"u&	c #E0B980",
"v&	c #CE8B3D",
"w&	c #D39651",
"x&	c #D1934C",
"y&	c #CD8A3B",
"z&	c #DDB07A",
"A&	c #F1DFC6",
"B&	c #EACFAB",
"C&	c #E5C49C",
"D&	c #E8CAA7",
"E&	c #E5C39A",
"F&	c #E3BE93",
"G&	c #E2BA8C",
"H&	c #DEB27E",
"I&	c #DDAF79",
"J&	c #DAA66A",
"K&	c #E9D0A1",
"L&	c #F4E9D1",
"M&	c #EFDEBB",
"N&	c #EFDDBA",
"O&	c #DAAC6D",
"P&	c #D6A45E",
"Q&	c #E6C99B",
"R&	c #D49E56",
"S&	c #DCAF70",
"T&	c #ECD6AE",
"U&	c #E6CB9C",
"V&	c #DCB377",
"W&	c #D8A565",
"X&	c #D6A15F",
"Y&	c #E2C18B",
"Z&	c #D39752",
"`&	c #D79F5E",
" *	c #D3954E",
".*	c #DCA973",
"+*	c #D59A5A",
"@*	c #CD8437",
"#*	c #CD8435",
"$*	c #CD883A",
"%*	c #D6A25E",
"&*	c #D49D55",
"**	c #DDB07B",
"=*	c #E3BD8F",
"-*	c #DFB47F",
";*	c #D6A260",
">*	c #D18E47",
",*	c #D69D5E",
"'*	c #D69B5B",
")*	c #CD893C",
"!*	c #CF8B3E",
"~*	c #D2934D",
"{*	c #D8A163",
"]*	c #D08F44",
"^*	c #DFB880",
"/*	c #E6C995",
"(*	c #DAAD6C",
"_*	c #D19449",
":*	c #D5A25B",
"<*	c #E5C692",
"[*	c #D1964E",
"}*	c #E7CD9F",
"|*	c #E2BC8E",
"1*	c #E0BA80",
"2*	c #DCB272",
"3*	c #DAAB68",
"4*	c #E1C087",
"5*	c #E5C796",
"6*	c #DDB478",
"7*	c #D49A58",
"8*	c #ECD9B1",
"9*	c #E7CD9D",
"0*	c #E2C087",
"a*	c #D69B59",
"b*	c #E4BF94",
"c*	c #DFB37F",
"d*	c #E1BA87",
"e*	c #EACFAE",
"f*	c #E3BD90",
"g*	c #DEB07B",
"h*	c #D8A568",
"i*	c #E9CFA7",
"j*	c #E3C18E",
"k*	c #E7CC9C",
"l*	c #E4C592",
"m*	c #ECD7AF",
"n*	c #E3C490",
"o*	c #DEB379",
"p*	c #E4C794",
"q*	c #EDDAB4",
"r*	c #EAD5A9",
"s*	c #E6CA99",
"t*	c #E3C08A",
"u*	c #DEB87D",
"v*	c #E2C08B",
"w*	c #E4C493",
"x*	c #E4C290",
"y*	c #E0BC85",
"z*	c #D8A763",
"A*	c #D8A663",
"B*	c #E8CD9E",
"C*	c #E5C898",
"D*	c #E3C08C",
"E*	c #E4C293",
"F*	c #E6CA9A",
"G*	c #E8CEA0",
"H*	c #E9D1A4",
"I*	c #D7A663",
"J*	c #D39853",
"K*	c #CD893A",
"L*	c #D49F58",
"M*	c #D9A768",
"N*	c #E5C896",
"O*	c #D39C56",
"P*	c #DDB676",
"Q*	c #D6A15A",
"R*	c #DAAA69",
"S*	c #E7CD9E",
"T*	c #D9A86C",
"U*	c #DAAD6F",
"V*	c #E6CB9B",
"W*	c #D49E58",
"X*	c #E3C48D",
"Y*	c #EBD5A9",
"Z*	c #D2974D",
"`*	c #D1974E",
" =	c #D5A058",
".=	c #F2E4C5",
"+=	c #D29550",
"@=	c #DDB27A",
"#=	c #DCAF76",
"$=	c #E2BD8F",
"%=	c #EACCA9",
"&=	c #E7C8A3",
"*=	c #DFB784",
"==	c #E1BA8B",
"-=	c #E1B887",
";=	c #D7A163",
">=	c #F1E1C4",
",=	c #E2BB8C",
"'=	c #EFDCBE",
")=	c #DCB376",
"!=	c #D59F57",
"~=	c #EDD8B1",
"{=	c #DBAF73",
"]=	c #DFB981",
"^=	c #DCB078",
"/=	c #E4C296",
"(=	c #E0B886",
"_=	c #EBD5AC",
":=	c #E9D3A7",
"<=	c #E3C08B",
"[=	c #DDB479",
"}=	c #DFB980",
"|=	c #DEB57C",
"1=	c #D8A865",
"2=	c #DBAF71",
"3=	c #D2944C",
"4=	c #D09249",
"5=	c #E4C792",
"6=	c #E7CB98",
"7=	c #E8CE9F",
"8=	c #EBD5AD",
"9=	c #EBD6AF",
"0=	c #EBD4AC",
"a=	c #EBD4AD",
"b=	c #E7CDA0",
"c=	c #EAD2A8",
"d=	c #E8CFA0",
"e=	c #D5A25D",
"f=	c #D9AB6A",
"g=	c #EAD1A6",
"h=	c #E9D1A6",
"i=	c #E7CB9C",
"j=	c #E1BE85",
"k=	c #DEB87B",
"l=	c #D49C59",
"m=	c #E2BE86",
"n=	c #E0BE83",
"o=	c #E1BF87",
"p=	c #D09449",
"q=	c #D6A15D",
"r=	c #CF9045",
"s=	c #DDB37C",
"t=	c #DEB480",
"u=	c #E1BF88",
"v=	c #DAAD6D",
"w=	c #D2974E",
"x=	c #D39A54",
"y=	c #DBAC71",
"z=	c #F5EAD4",
"A=	c #F8F1E2",
"B=	c #F1E1C2",
"C=	c #F4E7CE",
"D=	c #EEDCBA",
"E=	c #EDD9B4",
"F=	c #DCAE74",
"G=	c #D8A66A",
"H=	c #F6EDD9",
"I=	c #DEB678",
"J=	c #E4C791",
"K=	c #E1BC85",
"L=	c #EBD6AC",
"M=	c #DCAD75",
"N=	c #E5C297",
"O=	c #E0B884",
"P=	c #E8CDA1",
"Q=	c #EDDCB7",
"R=	c #E0B981",
"S=	c #D7A264",
"T=	c #D49853",
"U=	c #D39B51",
"V=	c #DAAF6D",
"W=	c #E2C188",
"X=	c #E8CD9C",
"Y=	c #E9D2A5",
"Z=	c #EAD3A6",
"`=	c #E9D3A5",
" -	c #E9D2A3",
".-	c #E9D3A8",
"+-	c #E9D2A4",
"@-	c #E9D0A0",
"#-	c #E8D0A1",
"$-	c #EAD3A7",
"%-	c #E8D0A2",
"&-	c #EAD1A5",
"*-	c #E8CFA4",
"=-	c #E8CFA1",
"--	c #E2C28B",
";-	c #E6C999",
">-	c #E0BC84",
",-	c #E2BE8B",
"'-	c #E1BB82",
")-	c #DBAD6F",
"!-	c #E5C496",
"~-	c #E8CC9F",
"{-	c #D5A15A",
"]-	c #D7A566",
"^-	c #DAA76A",
"/-	c #E4C58E",
"(-	c #DCB270",
"_-	c #DAB06E",
":-	c #D8A661",
"<-	c #E6CB98",
"[-	c #DDB47A",
"}-	c #E4C694",
"|-	c #F0E1C0",
"1-	c #F2E3C9",
"2-	c #EAD3AA",
"3-	c #F5EBD4",
"4-	c #F4EBD3",
"5-	c #F3E9D0",
"6-	c #F3E6CC",
"7-	c #EBD4AA",
"8-	c #ECD7B0",
"9-	c #ECD5B3",
"0-	c #DAA96A",
"a-	c #D8A365",
"b-	c #D8A767",
"c-	c #D5A15C",
"d-	c #D7A661",
"e-	c #ECD8B0",
"f-	c #DCB073",
"g-	c #DCB077",
"h-	c #DFB783",
"i-	c #ECD8AF",
"j-	c #E5C694",
"k-	c #E9D0A6",
"l-	c #E7CFA0",
"m-	c #DFB87E",
"n-	c #DAAA6D",
"o-	c #E5C797",
"p-	c #E6C898",
"q-	c #E1BE89",
"r-	c #DCB070",
"s-	c #E4C38D",
"t-	c #E7CB99",
"u-	c #E8CE9E",
"v-	c #EAD5AA",
"w-	c #DCAF71",
"x-	c #D39B52",
"y-	c #D39C55",
"z-	c #DAAF6E",
"A-	c #DEB77B",
"B-	c #DDB678",
"C-	c #E7CA98",
"D-	c #E0BC83",
"E-	c #E7CC9E",
"F-	c #E3C28B",
"G-	c #DDB376",
"H-	c #D8A464",
"I-	c #D6A35D",
"J-	c #E2C28D",
"K-	c #DFBB7F",
"L-	c #D8A467",
"M-	c #D6A15E",
"N-	c #D7A261",
"O-	c #DBAF6D",
"P-	c #DDB475",
"Q-	c #DCB071",
"R-	c #D7A55F",
"S-	c #F0E1BE",
"T-	c #ECD7AE",
"U-	c #F4E9CF",
"V-	c #F2E7CA",
"W-	c #F2E3CA",
"X-	c #DAAA6F",
"Y-	c #EACEAC",
"Z-	c #EEDBB9",
"`-	c #EAD4AC",
" ;	c #EFDFBC",
".;	c #EEDDB8",
"+;	c #EDD9B7",
"@;	c #E2BD8C",
"#;	c #DFB87C",
"$;	c #E5C695",
"%;	c #DCB372",
"&;	c #E5C998",
"*;	c #ECD8B2",
"=;	c #E5C995",
"-;	c #E9D2A6",
";;	c #EEDBB8",
">;	c #F0E0BF",
",;	c #EEDEBA",
"';	c #EEDDB9",
");	c #E7CD9B",
"!;	c #E4C48D",
"~;	c #EAD4A8",
"{;	c #EDDBB4",
"];	c #D2984F",
"^;	c #D49F59",
"/;	c #D39A50",
"(;	c #D0954B",
"_;	c #D59D57",
":;	c #D39D54",
"<;	c #D6A15B",
"[;	c #DDB379",
"};	c #DAAE6E",
"|;	c #DDAD77",
"1;	c #DCAF72",
"2;	c #D6A15C",
"3;	c #D9A969",
"4;	c #DCB076",
"5;	c #E1BD83",
"6;	c #DCB176",
"7;	c #E6C89B",
"8;	c #D1964D",
"9;	c #DBB16F",
"0;	c #EDD9B1",
"a;	c #EBD8AE",
"b;	c #E5C793",
"c;	c #D7A565",
"d;	c #ECD7B2",
"e;	c #EAD2AA",
"f;	c #E6CA9C",
"g;	c #DDB17C",
"h;	c #E3BE91",
"i;	c #EBD2B1",
"j;	c #E5C593",
"k;	c #DFBB80",
"l;	c #EDDCB5",
"m;	c #EBD4AB",
"n;	c #E0B982",
"o;	c #E2BD8B",
"p;	c #DDB077",
"q;	c #E2C28C",
"r;	c #F0DFBF",
"s;	c #EAD1A7",
"t;	c #ECD7B1",
"u;	c #DEB87E",
"v;	c #ECDAB2",
"w;	c #EDDDB6",
"x;	c #EAD3A8",
"y;	c #DAAD6A",
"z;	c #EFDDB9",
"A;	c #E7CF9F",
"B;	c #F1E1C0",
"C;	c #D5A15F",
"D;	c #D49C54",
"E;	c #D8A562",
"F;	c #DCAE72",
"G;	c #DFB57F",
"H;	c #DEB576",
"I;	c #D9AA6D",
"J;	c #E7CCA0",
"K;	c #E8CFA2",
"L;	c #DDB374",
"M;	c #DAAB6A",
"N;	c #D8A964",
"O;	c #DCB474",
"P;	c #D5A057",
"Q;	c #EBD1B1",
"R;	c #E5C59C",
"S;	c #E7C89F",
"T;	c #E2BE8F",
"U;	c #D8A965",
"V;	c #E5C499",
"W;	c #E2BD87",
"X;	c #DDB375",
"Y;	c #EDDAB3",
"Z;	c #E8CEA2",
"`;	c #E4C695",
" >	c #E9D0A4",
".>	c #D6A262",
"+>	c #D9A769",
"@>	c #DAAB69",
"#>	c #E4C48E",
"$>	c #DCB075",
"%>	c #DBAE74",
"&>	c #DEB37A",
"*>	c #D9AA67",
"=>	c #D8A862",
"->	c #DCB274",
";>	c #D8A866",
">>	c #DDB278",
",>	c #DCAF73",
"'>	c #D5A35D",
")>	c #D7A662",
"!>	c #D8A662",
"~>	c #DBAB70",
"{>	c #DEB47D",
"]>	c #D39A51",
"^>	c #D9A667",
"/>	c #D8A463",
"(>	c #DFB87B",
"_>	c #D9A765",
":>	c #DBB06E",
"<>	c #DBB271",
"[>	c #D09043",
"}>	c #ECD4B6",
"|>	c #ECD3B2",
"1>	c #E2C18F",
"2>	c #E7CA9E",
"3>	c #DFB67C",
"4>	c #E3C38F",
"5>	c #DEB47E",
"6>	c #DAAD6E",
"7>	c #D9A567",
"8>	c #DDAD76",
"9>	c #D9A368",
"0>	c #D9A266",
"a>	c #D79B5E",
"b>	c #E0B683",
"c>	c #E2BF86",
"d>	c #DFBB81",
"e>	c #DEB67E",
"f>	c #DCB271",
"g>	c #DBB06F",
"h>	c #DAAD6B",
"i>	c #DEB57E",
"j>	c #DFBA7E",
"k>	c #D6A35C",
"l>	c #E9D0A5",
"m>	c #D9A568",
"n>	c #DAAC6E",
"o>	c #DEB778",
"p>	c #D9AB69",
"q>	c #D0954A",
"r>	c #D1974F",
"s>	c #D8A768",
"t>	c #EDD5B8",
"u>	c #ECD4B4",
"v>	c #DCAD77",
"w>	c #E2BF8D",
"x>	c #D7A160",
"y>	c #E1BB83",
"z>	c #E6CA9D",
"A>	c #E4C38F",
"B>	c #DCB375",
"C>	c #EEDBB4",
"D>	c #DBA56E",
"E>	c #CE863C",
"F>	c #DAAC69",
"G>	c #DAAD70",
"H>	c #DAA96B",
"I>	c #D9AA68",
"J>	c #D29950",
"K>	c #D9AB6C",
"L>	c #DDB27B",
"M>	c #D5A25E",
"N>	c #D8A765",
"O>	c #D7A35D",
"P>	c #E3C18D",
"Q>	c #DBAE6E",
"R>	c #D9A96D",
"S>	c #DFB97D",
"T>	c #DDB275",
"U>	c #DAAE70",
"V>	c #DBAF6F",
"W>	c #DAAC67",
"X>	c #D9AC69",
"Y>	c #DCAB73",
"Z>	c #DEB07C",
"`>	c #DDAC76",
" ,	c #DCB278",
".,	c #E1BB86",
"+,	c #DEB17B",
"@,	c #F6EDD6",
"#,	c #D19046",
"$,	c #DFB982",
"%,	c #E2C18A",
"&,	c #D49E5A",
"*,	c #DBAD6E",
"=,	c #DFB581",
"-,	c #EBD8AF",
";,	c #E8D1A2",
">,	c #E9D1A5",
",,	c #DFB67D",
"',	c #DCAA75",
"),	c #CE8438",
"!,	c #E2C086",
"~,	c #E0BA84",
"{,	c #DEB57D",
"],	c #E2C08D",
"^,	c #E1BB84",
"/,	c #DCB373",
"(,	c #D8A666",
"_,	c #CF8F44",
":,	c #D2954C",
"<,	c #D59B56",
"[,	c #D6A361",
"},	c #D7A763",
"|,	c #D8AA66",
"1,	c #DAAE6C",
"2,	c #E6C99A",
"3,	c #DEB380",
"4,	c #E1B988",
"5,	c #DEB77F",
"6,	c #E0BE84",
"7,	c #DFB77C",
"8,	c #DCB473",
"9,	c #D8AB67",
"0,	c #F4EAD1",
"a,	c #EDD9B3",
"b,	c #FBF7EB",
"c,	c #FEFDF7",
"d,	c #F3E8CB",
"e,	c #DAAB6F",
"f,	c #CE8A3E",
"g,	c #E7CB9E",
"h,	c #E4C690",
"i,	c #DDAA75",
"j,	c #E4C195",
"k,	c #E9D0AA",
"l,	c #E0B685",
"m,	c #D18F49",
"n,	c #CE863B",
"o,	c #D8AA65",
"p,	c #E4C291",
"q,	c #EACFA9",
"r,	c #EDD8B5",
"s,	c #E7CCA1",
"t,	c #D0934A",
"u,	c #D7A15F",
"v,	c #D9A76C",
"w,	c #D7A665",
"x,	c #D9A868",
"y,	c #D7A664",
"z,	c #DAAE6B",
"A,	c #DFB97B",
"B,	c #DDB576",
"C,	c #D6A162",
"D,	c #E0BD82",
"E,	c #DDB473",
"F,	c #D19249",
"G,	c #E1B98B",
"H,	c #D7A263",
"I,	c #E1BB89",
"J,	c #E9CEA2",
"K,	c #EAD2A5",
"L,	c #DCA972",
"M,	c #E4C196",
"N,	c #EBD6AB",
"O,	c #EAD4A7",
"P,	c #EAD2A4",
"Q,	c #D9AD6B",
"R,	c #E3BE92",
"S,	c #ECD3B4",
"T,	c #D09047",
"U,	c #D1944D",
"V,	c #D08F43",
"W,	c #D29651",
"X,	c #D8A563",
"Y,	c #D9A968",
"Z,	c #D8A764",
"`,	c #DEB17C",
" '	c #D5A15D",
".'	c #CF8E41",
"+'	c #CE8C3E",
"@'	c #F6EDD7",
"#'	c #F5ECD5",
"$'	c #E9D0A8",
"%'	c #DEB679",
"&'	c #EBD4A7",
"*'	c #E7CC9F",
"='	c #F4E8CE",
"-'	c #E5C895",
";'	c #DEB47A",
">'	c #DBAB6E",
",'	c #EAD1A4",
"''	c #E6C49B",
")'	c #E9D1A3",
"!'	c #EAD3A5",
"~'	c #EBD4A8",
"{'	c #CE893E",
"]'	c #E1BB8A",
"^'	c #CD883B",
"/'	c #D08D42",
"('	c #D2934A",
"_'	c #D19047",
":'	c #DFB77F",
"<'	c #D9AC68",
"['	c #DBB170",
"}'	c #E8CEA4",
"|'	c #EAD2AB",
"1'	c #E5C994",
"2'	c #E5CA96",
"3'	c #E5C893",
"4'	c #EAD4A6",
"5'	c #F4E8CF",
"6'	c #D39855",
"7'	c #D7A862",
"8'	c #DFBA82",
"9'	c #D9A86D",
"0'	c #E9CFA1",
"a'	c #CE883C",
"b'	c #E7CA9F",
"c'	c #EAD6AA",
"d'	c #CF893F",
"e'	c #CE873A",
"f'	c #D5A159",
"g'	c #CC8232",
"h'	c #D2904B",
"i'	c #E3BD8E",
"j'	c #E3BE90",
"k'	c #D8A266",
"l'	c #CF8D40",
"m'	c #E0BB81",
"n'	c #D59E5D",
"o'	c #D69F60",
"p'	c #CC8738",
"q'	c #CC8332",
"r'	c #CC8333",
"s'	c #CD8738",
"t'	c #E0B988",
"u'	c #D9AC6A",
"v'	c #E0BC80",
"w'	c #E3C590",
"x'	c #E5C993",
"y'	c #EBD7AC",
"z'	c #EDDDB7",
"A'	c #E4C391",
"B'	c #D69C5E",
"C'	c #D9AA6C",
"D'	c #EDD9B0",
"E'	c #E8D0A0",
"F'	c #E4C793",
"G'	c #D49652",
"H'	c #CC8537",
"I'	c #CB8031",
"J'	c #CC8130",
"K'	c #D2934E",
"L'	c #D49856",
"M'	c #E3BC91",
"N'	c #D29952",
"O'	c #D7A761",
"P'	c #E6CC99",
"Q'	c #D1974D",
"R'	c #CF8E44",
"S'	c #CD8A3C",
"T'	c #CD873A",
"U'	c #CD8739",
"V'	c #D3934D",
"W'	c #D79D5C",
"X'	c #D49755",
"Y'	c #D49D59",
"Z'	c #DBAF75",
"`'	c #DFB77E",
" )	c #EAD2A7",
".)	c #EBD6AD",
"+)	c #F8F2E1",
"@)	c #F7F0DC",
"#)	c #E1C085",
"$)	c #EBD6AA",
"%)	c #E2C08E",
"&)	c #F4E9CE",
"*)	c #E1BA85",
"=)	c #DCAC73",
"-)	c #E9CFA5",
";)	c #D59C57",
">)	c #CF893E",
",)	c #CB8130",
"')	c #F1DCC6",
"))	c #E1B889",
"!)	c #D39B56",
"~)	c #E1C088",
"{)	c #EAD5AB",
"])	c #E7CE9D",
"^)	c #E5C791",
"/)	c #E1BD82",
"()	c #CF9144",
"_)	c #D2954F",
":)	c #D59955",
"<)	c #CE883A",
"[)	c #D7A062",
"})	c #D59C5C",
"|)	c #E0B585",
"1)	c #D69E5E",
"2)	c #D9A267",
"3)	c #D39B57",
"4)	c #E3C290",
"5)	c #EBD7B0",
"6)	c #DEB479",
"7)	c #F6EED9",
"8)	c #F1E4C6",
"9)	c #F3E7CC",
"0)	c #F1E2C1",
"a)	c #E7CE9E",
"b)	c #F3E7CA",
"c)	c #F3E4CB",
"d)	c #E9CEA3",
"e)	c #CE853A",
"f)	c #DEAF7A",
"g)	c #E2C18C",
"h)	c #D9A866",
"i)	c #DAAC6A",
"j)	c #D8A869",
"k)	c #E4C496",
"l)	c #E7C99B",
"m)	c #F0E2C2",
"n)	c #F0E3C3",
"o)	c #ECD8AE",
"p)	c #ECDAB1",
"q)	c #DCB16F",
"r)	c #ECD7AD",
"s)	c #D2944B",
"t)	c #D69B5A",
"u)	c #DEB27C",
"v)	c #E6C899",
"w)	c #E4BF95",
"x)	c #D59856",
"y)	c #D49E55",
"z)	c #D39C54",
"A)	c #E0BD84",
"B)	c #ECD9B0",
"C)	c #EDDAB2",
"D)	c #ECD9B3",
"E)	c #E3C390",
"F)	c #F7EFDC",
"G)	c #E6CC9A",
"H)	c #F9F5E6",
"I)	c #E8D1A1",
"J)	c #F4EACF",
"K)	c #F5EAD0",
"L)	c #F5ECD4",
"M)	c #F4E9CD",
"N)	c #D6995A",
"O)	c #EDD9B2",
"P)	c #EAD6AB",
"Q)	c #E6C696",
"R)	c #EBD5AA",
"S)	c #E7CE9C",
"T)	c #D59B57",
"U)	c #E7CC9B",
"V)	c #DFBC80",
"W)	c #EFE1BF",
"X)	c #EDDAB5",
"Y)	c #E2C186",
"Z)	c #E4C58F",
"`)	c #E2C28A",
" !	c #E3C18A",
".!	c #E9CDA4",
"+!	c #D49B53",
"@!	c #E2B88A",
"#!	c #D8A063",
"$!	c #D49E59",
"%!	c #D8A868",
"&!	c #D6A35E",
"*!	c #D49F57",
"=!	c #D39C53",
"-!	c #DDB176",
";!	c #ECD9AF",
">!	c #EBD7AB",
",!	c #EAD5A8",
"'!	c #F4EAD2",
")!	c #F9F5E5",
"!!	c #EDDBB6",
"~!	c #D7A465",
"{!	c #D9A56A",
"]!	c #DFAF7C",
"^!	c #DCAB74",
"/!	c #EFE0BD",
"(!	c #E7CC98",
"_!	c #E3C291",
":!	c #E2BC8B",
"<!	c #E6CB96",
"[!	c #ECD8AD",
"}!	c #EDDCB6",
"|!	c #CE8D41",
"1!	c #E2C187",
"2!	c #E2C38A",
"3!	c #E8CC9E",
"4!	c #DCAD72",
"5!	c #DDB67B",
"6!	c #E7CB9F",
"7!	c #E4C795",
"8!	c #FBF9ED",
"9!	c #DAAE6F",
"0!	c #E3C28F",
"a!	c #D3944E",
"b!	c #D08F47",
"c!	c #D29049",
"d!	c #D59553",
"e!	c #D79D60",
"f!	c #DDAB76",
"g!	c #D9A165",
"h!	c #DFB481",
"i!	c #E7CC9A",
"j!	c #E5CA95",
"k!	c #ECD9B2",
"l!	c #EFDFBD",
"m!	c #EBD5AB",
"n!	c #E1BC8B",
"o!	c #F1E4C3",
"p!	c #EDDBB3",
"q!	c #F3E8CC",
"r!	c #D09048",
"s!	c #E6C89D",
"t!	c #ECD4AF",
"u!	c #DEB57F",
"v!	c #E8D0A4",
"w!	c #E6C895",
"x!	c #E8CC9D",
"y!	c #DBAD74",
"z!	c #E1C089",
"A!	c #E5C598",
"B!	c #DDB174",
"C!	c #E6C99E",
"D!	c #D08E46",
"E!	c #D08D43",
"F!	c #EACFA8",
"G!	c #E3BD92",
"H!	c #EBD4A9",
"I!	c #E8CE9D",
"J!	c #EAD5A7",
"K!	c #EEDCB7",
"L!	c #EBD8AD",
"M!	c #F1E2C4",
"N!	c #F3E8CE",
"O!	c #F0E0C0",
"P!	c #F4E8D0",
"Q!	c #F3E5CA",
"R!	c #E8CF9F",
"S!	c #EBD6AE",
"T!	c #D39653",
"U!	c #DCAD76",
"V!	c #E6C697",
"W!	c #DFB67F",
"X!	c #EEDDBA",
"Y!	c #E5C497",
"Z!	c #E5C495",
"`!	c #DAAA6A",
" ~	c #DBAC70",
".~	c #F1E3C3",
"+~	c #E5C296",
"@~	c #E6C69F",
"#~	c #E8CCA4",
"$~	c #E8CAA3",
"%~	c #E3BF90",
"&~	c #EDDBB7",
"*~	c #E4C48F",
"=~	c #E8CC9C",
"-~	c #E9D4A6",
";~	c #F4E8CD",
">~	c #E6CD9A",
",~	c #E5C892",
"'~	c #D79E60",
")~	c #DEB77D",
"!~	c #EDD9B5",
"~~	c #DCB475",
"{~	c #E4C691",
"]~	c #F3E9CE",
"^~	c #EEDAB5",
"/~	c #ECD4B2",
"(~	c #E5C697",
"_~	c #E3C38C",
":~	c #E2C38C",
"<~	c #DDB37D",
"[~	c #DCAF78",
"}~	c #E4C192",
"|~	c #E8CB9F",
"1~	c #E2C18D",
"2~	c #DEB87C",
"3~	c #DDB273",
"4~	c #E8CCA3",
"5~	c #FAF6E8",
"6~	c #E6CA96",
"7~	c #E6CB9A",
"8~	c #ECD7AC",
"9~	c #E7CDA1",
"0~	c #E5C594",
"a~	c #EAD4A9",
"b~	c #EAD3A9",
"c~	c #EDDAB8",
"d~	c #D9A76D",
"e~	c #DAAC70",
"f~	c #D9A366",
"g~	c #DBA96F",
"h~	c #D49752",
"i~	c #EBD1AC",
"j~	c #E6C798",
"k~	c #E7CA9B",
"l~	c #E3BE8D",
"m~	c #E3BE8E",
"n~	c #DBAF72",
"o~	c #D9A965",
"p~	c #F1E2C2",
"q~	c #F0E0BE",
"r~	c #EAD3AC",
"s~	c #EFDBBD",
"t~	c #F1E1C5",
"u~	c #DFB781",
"v~	c #D79E5F",
"w~	c #D8A76A",
"x~	c #EBD4B2",
"y~	c #E8CDA3",
"z~	c #EAD1A9",
"A~	c #DEB87A",
"B~	c #FAF6E7",
"C~	c #F7F0DB",
"D~	c #EEDEB8",
"E~	c #F5EBD3",
"F~	c #F8F1DD",
"G~	c #F4EACE",
"H~	c #EFE0BC",
"I~	c #E8CF9E",
"J~	c #CE8538",
"K~	c #D08D45",
"L~	c #CE883D",
"M~	c #CD883C",
"N~	c #F7EFE0",
"O~	c #DAA96D",
"P~	c #DBAE75",
"Q~	c #E3BC90",
"R~	c #E9CDAA",
"S~	c #E3BF8E",
"T~	c #E2C18E",
"U~	c #DDB779",
"V~	c #E0BD85",
"W~	c #E2BF85",
"X~	c #E3BF8D",
"Y~	c #FBF7EA",
"Z~	c #F9F2E2",
"`~	c #F5EBD5",
" {	c #FAF5E6",
".{	c #F3E6CD",
"+{	c #F6ECD7",
"@{	c #F1E3C4",
"#{	c #CE893F",
"${	c #CE863A",
"%{	c #EDDBB5",
"&{	c #DDB17A",
"*{	c #DDB67A",
"={	c #E3C18F",
"-{	c #DFB480",
";{	c #DDAF78",
">{	c #DDB078",
",{	c #DBA96E",
"'{	c #D6A35B",
"){	c #E2BD88",
"!{	c #E5C798",
"~{	c #E8CDA2",
"{{	c #E9CFA9",
"]{	c #EEDAB8",
"^{	c #F8F1DE",
"/{	c #FBF8EA",
"({	c #E2C288",
"_{	c #E4C596",
":{	c #DFBB82",
"<{	c #CD8436",
"[{	c #D5A05D",
"}{	c #DBA971",
"|{	c #ECD5AD",
"1{	c #D5A05E",
"2{	c #DAAB70",
"3{	c #DDB37B",
"4{	c #DDB575",
"5{	c #E6C79D",
"6{	c #D8A769",
"7{	c #E7CEA0",
"8{	c #ECD7B4",
"9{	c #EEDCBB",
"0{	c #E0BA7E",
"a{	c #E5C198",
"b{	c #E6C896",
"c{	c #E7C999",
"d{	c #D59554",
"e{	c #D79C5D",
"f{	c #E2B98C",
"g{	c #ECD6B1",
"h{	c #DFB67B",
"i{	c #E6C699",
"j{	c #E2BD86",
"k{	c #E3C194",
"l{	c #E3C091",
"m{	c #E6C99D",
"n{	c #E9CFA6",
"o{	c #E7CA9A",
"p{	c #E3BF8C",
"q{	c #EDD7B4",
"r{	c #E8D0A3",
"s{	c #E5C69B",
"t{	c #E3C493",
"u{	c #DDB177",
"v{	c #D08C41",
"w{	c #CB8030",
"x{	c #CF8C43",
"y{	c #E9CFA3",
"z{	c #D79F60",
"A{	c #D59858",
"B{	c #E2BB8D",
"C{	c #E3C092",
"D{	c #E4C297",
"E{	c #E9D1A2",
"F{	c #E1B888",
"G{	c #D49D5A",
"H{	c #E8CCA1",
"I{	c #E8CEA3",
"J{	c #EBD4B0",
"K{	c #E7CBA0",
"L{	c #F0DDC1",
"M{	c #E9D1A9",
"N{	c #DFB77B",
"O{	c #DDB47B",
"P{	c #DCB277",
"Q{	c #D6A461",
"R{	c #EDD8B3",
"S{	c #D49852",
"T{	c #E6CC9C",
"U{	c #E9CFA0",
"V{	c #EFDEBC",
"W{	c #EBD7B1",
"X{	c #E0B784",
"Y{	c #DFB983",
"Z{	c #D9A96C",
"`{	c #F1E0C4",
" ]	c #E2BD8A",
".]	c #E0B983",
"+]	c #E0BC86",
"@]	c #E7C99F",
"#]	c #E7CA9C",
"$]	c #EEDAB6",
"%]	c #E9CEA0",
"&]	c #DAAA6B",
"*]	c #E1BF84",
"=]	c #EAD2A9",
"-]	c #DEB37E",
";]	c #E0BB7F",
">]	c #DDB474",
",]	c #E6CC9B",
"']	c #DFB67E",
")]	c #D59E58",
"!]	c #D8A263",
"~]	c #D49450",
"{]	c #D28F48",
"]]	c #DCAE73",
"^]	c #EFDCBC",
"/]	c #ECD9B4",
"(]	c #EFDCBA",
"_]	c #F0DFC0",
":]	c #E0BD86",
"<]	c #E5C597",
"[]	c #F0DEC0",
"}]	c #F0E0C4",
"|]	c #ECD6AF",
"1]	c #E2C085",
"2]	c #DEB581",
"3]	c #E3C08D",
"4]	c #D18D45",
"5]	c #DAAE71",
"6]	c #E5C39B",
"7]	c #F0DFC1",
"8]	c #E9CFA4",
"9]	c #EEDBB7",
"0]	c #EDDAB9",
"a]	c #E5C49A",
"b]	c #E4C595",
"c]	c #E6C897",
"d]	c #E4C194",
"e]	c #DAA469",
"f]	c #D28F49",
"g]	c #D39450",
"h]	c #D3934E",
"i]	c #D18E46",
"j]	c #EDD8B2",
"k]	c #EFDCBB",
"l]	c #E3BF91",
"m]	c #E3C292",
"n]	c #DBB074",
"o]	c #E5C591",
"p]	c #E7CA99",
"q]	c #E8CB9E",
"r]	c #EDD9B8",
"s]	c #EAD2AC",
"t]	c #DBAD75",
"u]	c #D2924A",
"v]	c #D49953",
"w]	c #CD8838",
"x]	c #CC8637",
"y]	c #DEB37F",
"z]	c #D18D44",
"A]	c #D69D5F",
"B]	c #DCA971",
"C]	c #D39652",
"D]	c #DEB07A",
"E]	c #D3924F",
"F]	c #D28D47",
"G]	c #D18B43",
"H]	c #D59756",
"I]	c #E8CFA5",
"J]	c #E1BF8B",
"K]	c #E1BB88",
"L]	c #DEB580",
"M]	c #DCB17A",
"N]	c #E0B483",
"O]	c #D5A25A",
"P]	c #E7CBA4",
"Q]	c #E7C6A0",
"R]	c #CC8233",
"S]	c #D1924C",
"T]	c #DFB17E",
"U]	c #D39350",
"V]	c #D59959",
"W]	c #D3914D",
"X]	c #E6C098",
"Y]	c #D69F5B",
"Z]	c #DCAF75",
"`]	c #E7C8A2",
" ^	c #DBAB6F",
".^	c #EED9C0",
"+^	c #F9F0E7",
"@^	c #EED8BE",
"#^	c #DBA66F",
"$^	c #DAA56A",
"%^	c #CC8437",
"&^	c #D9AD6A",
"*^	c #CF8A3D",
"=^	c #CD893B",
"-^	c #D28E47",
";^	c #D79D5F",
">^	c #D49452",
",^	c #E4C193",
"'^	c #DDAE76",
")^	c #D59653",
"!^	c #D79E5E",
"~^	c #E0BC87",
"{^	c #E1BD8A",
"]^	c #DEB47B",
"^^	c #E7C9A2",
"/^	c #D9A365",
"(^	c #D3924E",
"_^	c #DBA871",
":^	c #D3934F",
"<^	c #CD8133",
"[^	c #CA7C2B",
"}^	c #D8A062",
"|^	c #D1904A",
"1^	c #D08E42",
"2^	c #D39A56",
"3^	c #E0B381",
"4^	c #E1B484",
"5^	c #D4944F",
"6^	c #D69757",
"7^	c #D39552",
"8^	c #D79B5D",
"9^	c #D89F63",
"0^	c #D49552",
"a^	c #D69A5B",
"b^	c #CE8338",
"c^	c #D49653",
"d^	c #C97521",
"e^	c #DCAC76",
"f^	c #DFB580",
"g^	c #D59D5D",
"h^	c #D9A465",
"i^	c #E3BD91",
"j^	c #DEAF7C",
"k^	c #D28D48",
"l^	c #D49351",
"m^	c #D18F4A",
"n^	c #D08A41",
"o^	c #D89E60",
"p^	c #D89D61",
"q^	c #E4BD95",
"r^	c #DAA46A",
"s^	c #D69A58",
"t^	c #D59755",
"u^	c #D8A569",
"v^	c #CA7B29",
"w^	c #CB7C2D",
"x^	c #CD8337",
"y^	c #D09149",
"z^	c #D08C43",
"A^	c #D59656",
"B^	c #DEB879",
"C^	c #DDB879",
"D^	c #D69C5D",
"E^	c #DDAD79",
"F^	c #CC7E2F",
"G^	c #CC8033",
"H^	c #D9A065",
"I^	c #D39351",
"J^	c #D79C5C",
"K^	c #D9A265",
"L^	c #E2B98D",
"M^	c #DCAA73",
"N^	c #D1934D",
"O^	c #CE8E42",
"P^	c #E0BF83",
"Q^	c #D2974C",
"R^	c #DCAF79",
"S^	c #D8A969",
"T^	c #D18D46",
"U^	c #D59654",
"V^	c #D1914A",
"W^	c #D2934F",
"X^	c #D3914C",
"Y^	c #E2B688",
"Z^	c #E4BC91",
"`^	c #DFB180",
" /	c #E4BE93",
"./	c #EBD3AD",
"+/	c #E5C79A",
"@/	c #D2904C",
"#/	c #D6A05A",
"$/	c #D3904A",
"%/	c #EBD3AA",
"&/	c #DCB476",
"*/	c #DBAE6D",
"=/	c #DAA56C",
"-/	c #D69A59",
";/	c #D9A164",
">/	c #D18F45",
",/	c #D2924E",
"'/	c #D49655",
")/	c #DBA86D",
"!/	c #DDAE79",
"~/	c #E5C097",
"{/	c #E6C796",
"]/	c #E4C292",
"^/	c #E7C59E",
"//	c #D59958",
"(/	c #E1BB87",
"_/	c #E1C086",
":/	c #E2BE8A",
"</	c #E5CB96",
"[/	c #DAAC72",
"}/	c #E0B280",
"|/	c #CE8A3F",
"1/	c #D79D5E",
"2/	c #D59754",
"3/	c #D49553",
"4/	c #D7A25E",
"5/	c #E9D0A9",
"6/	c #E2BA8D",
"7/	c #E6CB97",
"8/	c #D18C45",
"9/	c #CD8438",
"0/	c #D8A967",
"a/	c #E4C392",
"b/	c #E2BD89",
"c/	c #DEB681",
"d/	c #DCB374",
"e/	c #E9D3A6",
"f/	c #EFDDBD",
"g/	c #E0B782",
"h/	c #E7CF9E",
"i/	c #EDD7B8",
"j/	c #D9A96E",
"k/	c #D79F62",
"l/	c #CE8638",
"m/	c #E1B787",
"n/	c #E6C49D",
"o/	c #D8A064",
"p/	c #F9EFE5",
"q/	c #E8D1A3",
"r/	c #DFB882",
"s/	c #E1BE83",
"t/	c #E7CEA1",
"u/	c #F1E1C8",
"v/	c #E9CFA8",
"w/	c #D29048",
"x/	c #E5C29A",
"y/	c #DAA468",
"z/	c #E4C495",
"A/	c #E9D1A7",
"B/	c #D6A05B",
"C/	c #CC8436",
"D/	c #CC8334",
"E/	c #DAA96C",
"F/	c #DEB97B",
"G/	c #DDAC77",
"H/	c #E0B785",
"I/	c #E5C999",
"J/	c #EFDCB8",
"K/	c #DFB680",
"L/	c #E3BF8B",
"M/	c #EAD1AB",
"N/	c #D9A865",
"O/	c #F3E4D0",
"P/	c #F4E6D3",
"Q/	c #E8CBA7",
"R/	c #EFDFBB",
"S/	c #EEDDB6",
"T/	c #EEDDB7",
"U/	c #E0BE82",
"V/	c #E4C68E",
"W/	c #DFBB7E",
"X/	c #E4C790",
"Y/	c #DDB57B",
"Z/	c #E6C69C",
"`/	c #EAD1AC",
" (	c #F3E7D0",
".(	c #EED8BD",
"+(	c #E7C99C",
"@(	c #F3E6C9",
"#(	c #EFDEB9",
"$(	c #EEDCB5",
"%(	c #ECDAB0",
"&(	c #E6C994",
"*(	c #E4C892",
"=(	c #E0BD81",
"-(	c #E4C58D",
";(	c #E3C389",
">(	c #ECDAB3",
",(	c #F0DCBE",
"'(	c #E8C9A5",
")(	c #E7C8A1",
"!(	c #EFE0BF",
"~(	c #E7CF9D",
"{(	c #F0DEBF",
"](	c #DDB076",
"^(	c #E0BC7F",
"/(	c #DEB97A",
"((	c #E8CE9B",
"_(	c #DFB77D",
":(	c #EEDEB9",
"<(	c #E9D3A4",
"[(	c #E7C99E",
"}(	c #F0E2BF",
"|(	c #E3C491",
"1(	c #E1C188",
"2(	c #E0B97F",
"3(	c #DAA968",
"4(	c #E2BF91",
"5(	c #E3C391",
"6(	c #EEDABD",
"7(	c #F1DEC8",
"8(	c #F1E3C2",
"9(	c #EFDDB8",
"0(	c #CE893A",
"a(	c #EEDCB4",
"b(	c #E6C79A",
"c(	c #EFDCBF",
"d(	c #EAD0AA",
"e(	c #EED9BB",
"f(	c #F1E2C5",
"g(	c #F0E2C1",
"h(	c #F0E3C2",
"i(	c #E8D2A4",
"j(	c #EFDFBA",
"k(	c #F4E8CC",
"l(	c #F6ECD5",
"m(	c #DBB172",
"n(	c #E8CBA3",
"o(	c #E9CEA6",
"p(	c #E3C189",
"q(	c #EFDEBF",
"r(	c #F1E0C3",
"s(	c #F1E0C6",
"t(	c #F2E2CA",
"u(	c #F7F0DF",
"v(	c #EEDCB6",
"w(	c #D9AD69",
"x(	c #F1E2C0",
"y(	c #CC8131",
"z(	c #DEBA7C",
"A(	c #EFDBBC",
"B(	c #F0E0C5",
"C(	c #F6EBD9",
"D(	c #E8CDA5",
"E(	c #E0BA85",
"F(	c #E4C594",
"G(	c #EFDDBE",
"H(	c #F2E6C7",
"I(	c #E7CB9D",
"J(	c #E0BF84",
"K(	c #DDB778",
"L(	c #DFBA7C",
"M(	c #E6C698",
"N(	c #F2E1C8",
"O(	c #EDD6B3",
"P(	c #F2E4C4",
"Q(	c #E0B984",
"R(	c #EBD3A8",
"S(	c #E7CC99",
"T(	c #E2BE90",
"U(	c #F2E6CA",
"V(	c #F2E5C8",
"W(	c #F1E4C5",
"X(	c #E8D2A2",
"Y(	c #E7CD9A",
"Z(	c #D6A061",
"`(	c #EAD3AE",
" _	c #DFB684",
"._	c #F2E5C7",
"+_	c #F1E4C4",
"@_	c #F0E1BF",
"#_	c #E0B989",
"$_	c #CD8336",
"%_	c #E6C59D",
"&_	c #F2E6C8",
"*_	c #D89E61",
"=_	c #CD8536",
"-_	c #CB8131",
";_	c #F3E6C8",
">_	c #F0E0BC",
",_	c #CE8E41",
"'_	c #CF8F42",
")_	c #D6A159",
"!_	c #E6C69E",
"~_	c #EAD1A8",
"{_	c #F2E5C6",
"]_	c #CD853A",
"^_	c #DAA66B",
"/_	c #CE8439",
"(_	c #D79B5C",
"__	c #CB7D2D",
":_	c #CC8032",
"<_	c #CC8133",
"[_	c #D7A864",
"}_	c #DEB97D",
"|_	c #D2984D",
"1_	c #D2944F",
"2_	c #DEB27F",
"3_	c #EDD8B4",
"4_	c #EACDAD",
"5_	c #DBA76F",
"6_	c #CD8134",
"7_	c #E1BC81",
"8_	c #E0B888",
"9_	c #E0B583",
"0_	c #E8C7A2",
"a_	c #E9D2A8",
"b_	c #EEDAB9",
"c_	c #D3914E",
"d_	c #CE8337",
"e_	c #D39754",
"f_	c #E5C197",
"g_	c #E1BB8B",
"h_	c #D2924D",
"i_	c #DFB683",
"j_	c #E3C393",
"k_	c #DEB280",
"l_	c #DFB682",
"m_	c #D7A765",
"n_	c #D29751",
"o_	c #D29A52",
"p_	c #CF8C42",
"q_	c #ECD4AE",
"r_	c #CF893C",
"s_	c #D7A063",
"t_	c #CF893D",
"u_	c #DDB175",
"v_	c #C97724",
"w_	c #DFB17F",
"x_	c #E6CD9B",
"y_	c #CC8335",
"z_	c #D69A5A",
"A_	c #EFDCB7",
"B_	c #F1E3C5",
"C_	c #CF883C",
"D_	c #D39955",
"E_	c #F4EAD0",
"F_	c #F5EBD2",
"G_	c #F5EAD1",
"H_	c #D6A25A",
"I_	c #CF8941",
"J_	c #CC8030",
"K_	c #D3944D",
"L_	c #E3C191",
"M_	c #DCB178",
"N_	c #D29149",
"O_	c #E8CE9C",
"P_	c #DDAF7B",
"Q_	c #D49756",
"R_	c #DAA86F",
"S_	c #DBAC6C",
"T_	c #EEDBB6",
"U_	c #DAAF6C",
"V_	c #F3E7CB",
"W_	c #F3E9CF",
"X_	c #E0BE85",
"Y_	c #E6C795",
"Z_	c #E0B383",
"`_	c #DBA76E",
" :	c #D69959",
".:	c #E1B786",
"+:	c #EDD3B6",
"@:	c #ECD1B3",
"#:	c #E8CF9D",
"$:	c #F0E0BD",
"%:	c #F2E4C6",
"&:	c #D28E48",
"*:	c #DDAC75",
"=:	c #DEB07E",
"-:	c #D6A45D",
";:	c #F4EAD3",
">:	c #EFE1BE",
",:	c #EDDAB0",
"':	c #E5C792",
"):	c #DDAD78",
"!:	c #E2BA8B",
"~:	c #D49651",
"{:	c #DBA870",
"]:	c #F6EDDA",
"^:	c #F2E4C7",
"/:	c #E6C89A",
"(:	c #EBD7AF",
"_:	c #EBD3A9",
"::	c #E5C691",
"<:	c #DDB87A",
"[:	c #F2E6C9",
"}:	c #DDB17B",
"|:	c #F1E3C7",
"1:	c #FAF4E7",
"2:	c #FAF4E9",
"3:	c #F2E4C9",
"4:	c #ECD6AD",
"5:	c #E3C289",
"6:	c #D9A964",
"7:	c #E5C395",
"8:	c #DFB57E",
"9:	c #F7F1DE",
"0:	c #F7F0DD",
"a:	c #F6EED8",
"b:	c #F0DBC1",
"c:	c #D59A55",
"d:	c #DFB27F",
"e:	c #F5EAD5",
"f:	c #DBB272",
"g:	c #ECD6B0",
"h:	c #D9AC6C",
"i:	c #F3E5C7",
"j:	c #F0E2C0",
"k:	c #D8AA68",
"l:	c #E9D4A7",
"m:	c #D49554",
"n:	c #CC8234",
"o:	c #CB7E30",
"p:	c #CA7A28",
"q:	c #D39250",
"r:	c #D49C53",
"s:	c #E1BA84",
"t:	c #EFDDB7",
"u:	c #DFB17D",
"v:	c #F2E5C5",
"w:	c #EFE1BD",
"x:	c #E1BC89",
"y:	c #E1BB8C",
"z:	c #D9A167",
"A:	c #D79D61",
"B:	c #DFAD7B",
"C:	c #CE873C",
"D:	c #D08B44",
"E:	c #D69A5C",
"F:	c #D7995A",
"G:	c #D6995B",
"H:	c #DAA56D",
"I:	c #E6C79B",
"J:	c #E2BA8E",
"K:	c #DDAC78",
"L:	c #DAA46B",
"M:	c #D89F64",
"N:	c #DBA66E",
"O:	c #E9C9A8",
"P:	c #D7A164",
"Q:	c #CF8A41",
"R:	c #D28F4A",
"S:	c #D08A43",
"T:	c #D59452",
"U:	c #D3914B",
"V:	c #CC7F30",
"W:	c #C97A27",
"X:	c #CA7927",
"Y:	c #E1B986",
"Z:	c #EFDDC0",
"`:	c #D59F5E",
" <	c #D69D5A",
".<	c #DEAD7B",
"+<	c #DAA36A",
"@<	c #E3BB90",
"#<	c #ECD1B4",
"$<	c #EED4B9",
"%<	c #E4BD91",
"&<	c #DBAC74",
"*<	c #CF873E",
"=<	c #C87621",
"-<	c #D79A5D",
";<	c #DDAB77",
"><	c #E7CAA4",
",<	c #E1B987",
"'<	c #E8CBA5",
")<	c #E1BC8C",
"!<	c #D39452",
"~<	c #D9A166",
"{<	c #D9A369",
"]<	c #D89D5F",
"^<	c #EFD6BD",
"/<	c #E5BF97",
"(<	c #E1B687",
"_<	c #D8A468",
":<	c #D9A268",
"<<	c #E0B180",
"[<	c #DAA36B",
"}<	c #E6C29C",
"|<	c #CF8B42",
"1<	c #E6C39B",
"2<	c #DEAE7A",
"3<	c #DFAF7D",
"4<	c #D69858",
"5<	c #D69B5D",
"6<	c #E8D1A4",
"7<	c #DDAA74",
"8<	c #ECD7B3",
"9<	c #DAA268",
"0<	c #D79B5B",
"a<	c #CF8940",
"b<	c #D59E56",
"c<	c #E2BC8D",
"d<	c #E3BF8A",
"e<	c #E8C6A1",
"f<	c #DFB07C",
"g<	c #ECD5B2",
"h<	c #E5C59B",
"i<	c #E5C399",
"j<	c #D79E61",
"k<	c #D7A265",
"l<	c #D69957",
"m<	c #EDD7B1",
"n<	c #F2E4C8",
"o<	c #E0B687",
"p<	c #E0B880",
"q<	c #F6E8DA",
"r<	c #E1B88A",
"s<	c #E5C698",
"t<	c #DBAE6B",
"u<	c #CA7D2D",
"v<	c #D89F61",
"w<	c #D9AA66",
"x<	c #E7CA9D",
"y<	c #EFDBBF",
"z<	c #E0B883",
"A<	c #E4C397",
"B<	c #D8A065",
"C<	c #E9D0A7",
"D<	c #E3C68F",
"E<	c #DFB07E",
"F<	c #E5CA98",
"G<	c #D7A45E",
"H<	c #D8A561",
"I<	c #DCAE78",
"J<	c #D9A566",
"K<	c #E1BE82",
"L<	c #E4C294",
"M<	c #DEB07D",
"N<	c #E7CAA0",
"O<	c #EFE0BB",
"P<	c #E2BB8A",
"Q<	c #E0BA88",
"R<	c #E9CEA7",
"S<	c #ECD8B3",
"T<	c #EDD8B0",
"U<	c #D9A766",
"V<	c #DDB27D",
"W<	c #EFDCB9",
"X<	c #ECD3B6",
"Y<	c #E0BB87",
"Z<	c #DBA770",
"`<	c #E2BD8E",
" [	c #E4C894",
".[	c #E2B98A",
"+[	c #F0E0C1",
"@[	c #E1B586",
"#[	c #DCAA74",
"$[	c #EDDBB2",
"%[	c #D3994F",
"&[	c #F3E7CD",
"*[	c #DEB17E",
"=[	c #DCAD74",
"-[	c #E8CBA6",
";[	c #E6C59A",
">[	c #E5C69A",
",[	c #E9CDA7",
"'[	c #E5C498",
")[	c #ECD5AF",
"![	c #ECD5AE",
"~[	c #DEB680",
"{[	c #E2BE8E",
"][	c #DAAA70",
"^[	c #DFBC7F",
"/[	c #E1BF8A",
"([	c #DBA872",
"_[	c #DDB07C",
":[	c #DEB27B",
"<[	c #E2B98B",
"[[	c #E0B282",
"}[	c #ECD4B7",
"|[	c #ECD2B5",
"1[	c #E7CA97",
"2[	c #E2C38E",
"3[	c #E9D1A8",
"4[	c #E9CCA5",
"5[	c #E8CBA4",
"6[	c #E1B989",
"7[	c #D89F60",
"8[	c #F0DDC3",
"9[	c #EFDCC3",
"0[	c #DFB381",
"a[	c #E0B686",
"b[	c #F0E3C1",
"c[	c #EAD3AB",
"d[	c #D79E62",
"e[	c #F0DFBC",
"f[	c #DFB97A",
"g[	c #E3C192",
"h[	c #D18E44",
"i[	c #ECD4B1",
"j[	c #E8CDA4",
"k[	c #D3924C",
"l[	c #DFB47D",
"m[	c #E8CBA2",
"n[	c #E2BB8F",
"o[	c #EBD2AF",
"p[	c #E0B781",
"q[	c #E4C993",
"r[	c #D2954B",
"s[	c #DFB87A",
"t[	c #E0B682",
"u[	c #DEB37D",
"v[	c #CF8D44",
"w[	c #DDB57C",
"x[	c #EFE0C0",
"y[	c #F0DEBE",
"z[	c #F1E2C6",
"A[	c #EEDABA",
"B[	c #DBB270",
"C[	c #D39C57",
"D[	c #E9CDA3",
"E[	c #F1E1C3",
"F[	c #D5A15E",
"G[	c #E6C69B",
"H[	c #DFBC81",
"I[	c #E5C493",
"J[	c #E3C392",
"K[	c #E4C18F",
"L[	c #DEB780",
"M[	c #E1BC82",
"N[	c #EACEAB",
"O[	c #E3BD8D",
"P[	c #E6C29A",
"Q[	c #E2C38B",
"R[	c #E9CBA7",
"S[	c #DBAE76",
"T[	c #DFB685",
"U[	c #E1B686",
"V[	c #EAD0AB",
"W[	c #EDD8B9",
"X[	c #E8CCA5",
"Y[	c #E5C196",
"Z[	c #DBAB74",
"`[	c #DFB884",
" }	c #F1E0C2",
".}	c #E6CA95",
"+}	c #D39D55",
"@}	c #DCAE71",
"#}	c #D8AA67",
"$}	c #ECD3B0",
"%}	c #E1B98A",
"&}	c #E8CCA2",
"*}	c #E4BE94",
"=}	c #E3BC8F",
"-}	c #DEB677",
";}	c #E3C690",
">}	c #E5C49B",
",}	c #D6A560",
"'}	c #DFB281",
")}	c #E5C592",
"!}	c #EDD7B2",
"~}	c #F2E5CB",
"{}	c #DAA66D",
"]}	c #D5A05F",
"^}	c #ECDAB4",
"/}	c #F7EFDE",
"(}	c #F0DEBD",
"_}	c #EFDEBE",
":}	c #D49D53",
"<}	c #D29A51",
"[}	c #E6CA9E",
"}}	c #EBD8B0",
"|}	c #E5C494",
"1}	c #EEDDBB",
"2}	c #F1E0C5",
"3}	c #F0DDC8",
"4}	c #EBD4AF",
"5}	c #E3BF8F",
"6}	c #CD873B",
"7}	c #CD8434",
"8}	c #CC8536",
"9}	c #E4C28F",
"0}	c #EFDCBD",
"a}	c #DFB883",
"b}	c #D8A462",
"c}	c #E1C08A",
"d}	c #EAD2A3",
"e}	c #F1E5C6",
"f}	c #CC8638",
"g}	c #D29A50",
"h}	c #D08A3F",
"i}	c #E2BC8C",
"j}	c #D19146",
"k}	c #E9CEA8",
"l}	c #E2BE8C",
"m}	c #E4C38E",
"n}	c #EBD0AF",
"o}	c #CD8839",
"p}	c #CD8535",
"q}	c #E2BC8A",
"r}	c #EBD5B0",
"s}	c #D2944A",
"t}	c #E6C49C",
"u}	c #D3974F",
"v}	c #D19347",
"w}	c #EBD3AF",
"x}	c #E2BB8B",
"y}	c #EACDA9",
"z}	c #EDD7B9",
"A}	c #CF9246",
"B}	c #EBD2AB",
"C}	c #CF9247",
"D}	c #EED9B5",
"E}	c #ECD6B2",
"F}	c #F0DEC2",
"G}	c #F1E1C7",
"H}	c #D9AC6B",
"I}	c #E3BB8E",
"J}	c #D49F5A",
"K}	c #D7A764",
"L}	c #D5A35C",
"  . + @ # $ % & * = - ; > , ' ) ! ~ { ] ^ / ( _ : < . [ } | 1 2 3 4 5 2 6 7 8 9 0 a b c d e f 4 g h i j k l m n o p q r s t u v w x y z A B C D E F G F H I J K # 6 L M K N O P Q R S T U x V W X Y Z `  .E ..+.@.#.L g $.%.E t &.*.=.j -.;.>.,.'.).!.~.>.{.].^.",
"/.(._.:.<.[.}.|.1.2.3.4.5.6.7.8.9.0.! a.b.c.d.e.f.g.h.< M i.b j.k.l.m.n.o.p.q.r.s.t.J u.v.m.w.x.y.z.E I A.B.C.D.E.F.G.G H.I.J.K.L.M.N.O.A P.3 Q.f.l.R.S.T.U.V.W.X.o V.Y.Z.`. +A .+&.^ ++@+#+$+%+&+*+=+-+;+>+,+'+)+!+%+~+v.{+]+^+l @+/+(+_+:+<+[+}+].W r.|+1+2+3+",
"4+5+4+~.)._+6+7+8+9+0+a+b+c+d+a+e+4.f+( g+h+5.i+j+k+l+m+n+o+p+q+e+r+s+t+u+v+w+u+x+y+u.[ z+s.A+B+C+D+E+F+G+H+I+o J+K+$+1 L+M+N+K+;+O+&+D P+Q+t.5 R+E.S+W T+U+V+: t.W+].X+Y+Z+`+F  @S..@+@@@#@$@%@].A+&@9 *@=@-@m+f.s.;@>@,@'@)@!@~@(+{@]@^@/@(@_@:@<@[@}@|@X.1@2@",
"3@4@5@6@3@7@8@9@0@a@&@l+b@c@d@e@f@g@m+h@i@j@k@l@m@n@o@p@q@r@s@t@u@v@w@x+x@y@z@A@B@C@D@2 t.E@F@G@H@I@J@K@B@L@M@N@O@E@5 P@Q@R@S@X.T@U@V@W@X@Y@Z@`@2+ #L+.#+#;.2+@#>.Y@##$#s.z+%#.+3 9 z+C ]@{@&#l J S@*#C+=#F I R.-#g@;#>#,#'#)#!#8.B ~#{#D@m.]#^#/#(#_#:#<#[#K.}#",
"|#1#|#2#W@3#4#5#6#7#8#}@9#0#a#b#c#d#e#f#g#h#t.i#t.9.[ F j#l+k#l#m#n#o#p#q#r#l+s#t#u#x@v#w#x#y#z#A#B#C#y@D#E#F#G#H#j I#J#K#0@/+E.L#M#N#O#X@9.P#Q#R@Q#R#k#{ S#~@T#U#'.V#W#X#Y#Z#J.`#1+ $.$+$@$#$$$%$n &$*$}+=$-$;$>$,$'$^.)$!$~${$]$^$-#e /$($I _$:$F <$[$}$|$1$f@",
"2$3$4$5$O#k#E+6$7$8$9$0$a$i#( b$c$d$e$f$)#g$h$i$j$k$l$m$n$o$u#p$n+q$r$s$t$u$v$n.w$x$y$z$A$B$C$D$E$F$G$H$I$J$K$L$M$k ]@^ N$O$P$Q$R$F@T S$T$U$&@D+V$W$X$I Y$e.Z$4.`$ %.%+%@%S+#%$%%%&%*%=%-%f H@'#>+| ;%l@>%,% %'%)%!%i#~%j ~%V+. {%k#-.X...&#]%;$ @^%/%^ B S+(%_%",
"K :%<%<%[%o+}%|%1%5.2%3%4%.%5%O#6%7%8%9%0%a%b%9$c%d%e%f%g%h%+$+$i%j%k%l%m%M <%n%o%p%<@q%r%s%t%u%h+v%w%_#x%y%z%A%B%a C%K.'$x X P D%E%3 X V#J ]@B N@[ C 6%B F%5%G%f w H%I%e.u.J%J+s.K%z%7%` L%v$:#M%N%h+O%P%}%<@R.!#Q+Q%R%S%T%U%V%W%M X%E ..Y%#.;$Z%`%#.&# &'$]@*#",
"Z$7$.&h@+&@&#&$&%&&&|.*&=&N#E+-&` ;&8 >&,&'&)&z !&~&{&]&^&/&(&A$d _&x%:&<&[&}&h j.O+j.|&1&2&3&4&z 5&6&7&0.*#8&..z.V.9&0&F a&b&c&*#d&, ,$[.e&f&/.K+J.X$' F@g&f - h&O@J i&j&k&l&m&n&o&p&q&v@[#r&6%s&X+&%6&t+n <&t&u&A.- f.E v&V#&%o.f#w&x&a&S@l y&4%U l =+[.5%&$B ",
"<+z&6#O+O.A&B&C&D&E&F&G&H&I&U$J&{%[ K&L&M&N&r%6$O&P&Q&R&S&T&v$f%U&V&)#W&X&:&Y&Z&`+O@`&+@-. *T%.*+*L+@*#*$*%*S ~%Z@C%&*F l&'.{$d@a+#%{.{.**=*-*;*V$7+>*:+,*'*)*!*#.Y%~*{*R#]*g.^*/*w%M%}@]$(*_*v %%:*$+<*x+[*}*|*1*2*3*4*&%X.K@5*V 6*K h%4#7*j 8.n.8*9*0*9 a.K+a*",
"(@D+=&b*c*h#d*e*f*g*  h*9%H&O$F@{.c%i*d@j*k*l*[@f#b 6&f#m*n*(%o*p*q*q*r*s*4 h t*u*z+S+V 0.U v*w*x*y*z*H+L$S+A*K %%R+l A.{#c+t%B*C*D*j@E*j*F*G*H*I*z+J*K*!+-@^#L*(*{+M*:@m$p*N*y@w%:%O*[$P*P%0&Q*r&R*5*T.]@A#S*h#T*U*:@!#V*W*f%o%u+X*$%y+d$E@Y*,+Z*`* =.=Q.V$+=J ",
"m+|@@=#=k@E+$=%=&=(%*===-=d$;=}&c+>=,='=3%|@b@m+`@)=!=-$~={=]=^=/=M (=m._=:=p+&@<=m.c [=}=l+i@b+|=f@1=z*2=c.T@{%3=4=M$F#5=6=7=8=9=9=0=a=b=c=d=E$d p@e=f=f%c=g=h=7=i=F$|$n*j=w%k=q#l=>+V+m=n=o=p=q=n+a#r=s==@t=k=<=q$b u=v#o=W&_ Y&c v=0#K H$Z*q=D%w=&+_%x=l&@+N@",
"r&o#y=f%:=z=A=B=C=l$D=E=F=l@G=A#H=i*7#0.y.F*P /&b I=R+J=K=L=M=N=O=<*P=B.1.H+Q=}%B+6$R=1=V '$z+S=-&} T=6%{%C+4#U=C#V=W=X=Y=Z=`= -.-+-@-#-9=e%H*$-B*y$%-d%E$&-*-=---;-L%>-a+i+D*,-: Q+x=V#0#v@'-j=j+N%)->&!-~-{-Z*u$*&B+]-T*^@^-&$X&y@/&v#/-A.Q.(-_-B@[$:-<-Q.@+Q.",
"V d@[-}-!&|-1-2-~-3-4-5-6-7-o$]&8-d@9-0-a-S*b--#$$o.c-d-e-f-g-h-k%i-j-k-j*[=[&l-m-a-X+0-n-o-V*#&p-q-3&q+;@Y r-s-t-u-v-i-n+{=w-K.x-y-D%~#z-A-B-:#C->-D-F*0$E-E-a#p*F-G-H-J**@E s.M I-q+d-:*'%J-K-D-X L---`#h*;%;$a#4 A$|$u$)&M-4%N-].$$A-p ,++.O-P-Q-I#R-S-G##@Z&",
"T-U-7-8#V-W-X-Y-K Z-`-2*z@.= ;.;+;@;i*a.( #;9&$;W*L$%;C@3$O&i=N*&; ;L=*;q#s%2==;.;-;D$H*Y=;;>;|-,;';$-);!;o=--~;{;^*$%C%0&];^;/;Z@(;_;`@:;<;J%[;o@o.{+c+};D*P%p+j+1*|;p '+1;R+2;%*3;4;6#y%X.y%5;x r#s.I*p s.y.H#6;7;U&a-#$j=r#}&k&S=2 _ Z@8;1&9;P&%%$+z%m*0;a;b;",
"c;v*d;e;f;g;h;i;|$j;v=U+k;9*l;m;/$n;o;q#1%l$]$i=)@b;V*u+p;q;r;s;r;o-P%N*D=t;>-u;x 1$v;w;x;F-y;4$v;p+v+z;+-A;Y=B;k-A C;D;Y 5 X+=@;+@@O#s.*.^ o#'$Q.` g+c.O$r@P& .R-Q.W&'+E;F;|@G;D+F@x [  =J%H;q%X.]@4%p+Y%]%w&I;F%J;c+g;K;W j=D-y*}=<%L;M;N;O;&*1=[$7 P;1$v 1=&@",
"[-9%g-H%k+}=}=Q;R;S;T;m#4.U;<#/$V;x W;N*}%b$X;Y;G#8-Z;`; >F+j&.>U +>I&@>m-v%#>9#M%}%y;M;K ]+{+6&{=4;i $>}=]&.;2-%>&>&*V %%*>=>->>@O&;>>>,>'>)>!>I*]#^$c$~>k@O#y.Z.[$T=# {>B+Q.R#E@$+D 8;!>]>H;} 4=^>6%/>l*5;(>M%W w*M%)%7$( 8.)%n=K-<#B@a$_>:><>L p&[>'#..| 6&)&",
"h <%5&i#(=7#}>|>6$[;L r&)-^*1>7$2>O%3>4>H@5>)=6>'+X.% 7>>.8>9>0>a>M+J B '$b>k&c>>>d>m-e>#;P-f>$$g>y;h>N;V ;*;*l@W&c;e=2 V.=+0 5 ,#s.&+m+K 7 8;2;f.7&-#6;^&i>%.&$.%:.&.[$;>G;F@]@b W 1 #%d-!=&+j=j>o.<@w$+%Y k># L-k+l>D-X&m>/@t.n>j>o>_#6>p>/#U;r@q>r>=@[+;>B.s>",
"{.}&]=7;o&n@t>u>9&v>=-w>a-x>y>q$e+h@z>A>5>q;B>G-3;Y$k&*#&-8*C><%5%'*D>E>2+Y%y+| c#[-D.:#2*&%F>^#I-{=6>o M G>5&-#H>K.[$I>J z.q>P@.%J>3 I#B &.X.`*t.V+^.e )-)-6#K>L>W&O J+f.M>n>6 6&N>I>p>O>N _*s.+%u.'#A+P>X.X.Z%y+Q>E-N f.].[.[ R>s%C#S>T>U>V>O-W>X>S+X>[&}+O#{.",
"1 ].Y>Z>`> ,., %+,@,#,t-G !%[ N@x>C>{$$,W&%,7.(*B>&,*,=,-,;,z$$->,,,g;:.',),D k&u*!,~,^*{,^#],^,D-/,(*M%p> .s>R>(,f.w=!+V&E $*J._,6%$+D%:,f._*9 s.D+S+_ | M-<,M-A i.# [,|&^.v q+v $>%%6&},P&T+ =|,=$1,4;1=n%%,C#u=h+2,.+3,4,5,e.]-:&6,2$7,k=[&[#8,9,M@A*u.J+w&J*",
"x;0,a,b,c,d,e,f,K*'.S@8 :%u$m+V%T%0.=-g,c-p+h,H$u#U;< i,8>j,~;k*=--;k*k,l,m,n,k&J>y-h>J$q%L%n$%;o,=+4 G@p,q,r,s,3$v=T>d-t,K..%_$| ^%l ]@q=R.V.V.5 s&>#u,O$E+v,>#y-^.V z%w,x,y,v ^#^@a y=F>!>d-q@q@p>z,[=3 *>A,<#g>B,6*y.( y+C,( ;*}@)%D,n+~&E,:*@+Y.%@]%6%F,#;%-",
"E#- G,L-H,y.Y$h,j+w+w@:@$$V>z@I,x&*#5=n #$}%f@F*f%B+^@J,K,z+L,M,N,);O,P,g#B+W$5@R%s&t.Q,a$L$-@9 [ 7%5#$+1 4#R,S,*=M 5 D R.l@4 T,F,y+T,U,Z&u.g.V,8 ,+X+i#k@ %X-^ W,V#'+v j.X,Y,~#Z,y.$*S@s@;>/#K>h%I>d Q-V>0-b-W&}+^@|&7&(,B+`,,=E+y.M*,, 'X..'+'J*%@V,/&|@Y=@'#'",
"4%/ 8%v*$'o@_@%'d>l+D.l+(%Q-q@&'*'w&v.)-='-';'J-k$k%5&>'$%,'. V,'')'!'~'A@6$j 0.A%{'j.W*0 E%%@5#+ %%j ^ ]'O+@@b&B 8;I#J+^ >&^'%@F l a-F@W*X.3 '#V.7 ;%F *.Q+[,/@j =+*./ ]$M %*!&y=H /'&.d$J.F ('_'*.$%W.:'h><'[':>/,m-q#0$}'Z;K;|'b+[$d$<&D,=;S>1'2'3'4'5'6$6'_'",
"[ u$S>n 7'(*%%8$k+8'_@V>f#M@)>`=i@$#~*a- %4'9'v*x+I$a#0'Q>E-)@I#a'b'c'=-x#+-k&j#d'e'k#^.l.{-f'l@ &g'h'M+U@i'%.j'^ k'&@B m&l'V, @^%@+=.2 Q.8 z+6>m'e,'$n'X@I %@!+$%3 z+8 o'/${,d$%+T,M$S@v&y& @p'1+Z%J*T%R#q'r's' $g'Z>t'/.]@I*u'v');z$v-w'x'u*!'y'l;z'4*].k##,&$",
"o%B#1$f@l%V ;'j@A'h=7=c>v'<#0#R-q*=&K#B'f+$-e>E@C'x%]=y,#$9#y+]@$*/ A#D'E'B@F'{$[.G'+#H'0.r'I'J'K'`&[ F@}&L'M'O#P$E+z+N':*O',+z+I##%f.['v'P'v#--h,F'c%D+9 - Q$!*];D%~%Q'g.J s.]@s./ w&Z&;$*#T%R'p'p'H# @S'T'U' @$*t ^%;$T#V'3#W'X'w&-. &]%$*Y'E@b t#7%,.g@Z'].J+",
"~&%$t&|=`'m+/&1=f@x% ).)+)@)#)a$$)t#%)U 0.&)*)w&_.7%O@z+P@,&/ )#_$=)z$Y*p$-)q.G$<%;)S@>)A%,)R'&#B ]*F@Y>6%')))M-!)` Z*~)9*{)E$'%^@< v=])^)C#/)z@ -~;h,e+j 5%|#j#().+6'_)z+%@W&O#:)R'D K+'.<)[);$]%7+$*l&X%#,@+})T `%|)a&/'-.1),*W#2)H#H#:$##a'S@3)Q.j&0.#@3 +&4)",
"A-9$5)H*>,:'e#v*6)O%*-7)8)9)0)9$N>a){;~>'.b)m;3$>>L=c)d)s*E'9$J e)f)7*$-S>]&n@g)Y;O,/-]%W+@*]@l&h)i)j W.j)k)g#l),>9 L%m)n)]&o)p)m).;+-7,#;P-%%[#q)r)v-$;j s)%+J*j#1)>#A.I D 4#%#-&2#0%T@V,l ,%R%t)R#^'$*u)z*r#5*v)P&]>w)t.T%9.S#x)) ;+($y)z)0&P .'5#[;f;f;q#k*A)",
"s*B)C)0;Y*B)D)z;E)z$F)N,~;g%G)H)I)I$*;-&'*H,J)@)@)K)L)M);,c l@^@N)i$O)P)~'D'o%Q)>;R)S)P T)E@a&/&3'U)o.-$4>k+o&j.[.+@V)W)c=Y;m)X)x$B->-_;;*&,*.s.%%p$['Y)^&_ ,#l&Q.I 9 2 _,E%]@6%W&B*a)Z)n$%$!+,%W+W,A>`) !L%A,_#q).!w*+!@!w&k##!k#$!%!&!*!=!x,x=u&p-6*6*!&-!e+[;",
"r);!i-'&B)>!,!C)0)'!9*U){;K;d=y#)!G)!!Y@0%} >#|&B &$~!4%{!4#' M+]!:.^!H*v*/!P>k%0;(!$$*!z.S@R-J=o)K&<%[#3$_!:!H,l,~ D;<![!}!M&|-:>[,&$j.^.%!M V#]*|!V+x+t#1!2!5>T.%+]@J+6.F+R=v+3!C@m*D$:%n*5=F*a#u=A#i=],n&b+1%2*y;&!S@Y.z+1#N$u,4!+>Y'Y R&Q#5!->1%e#8#F*f;6!f%",
"L=c'O,L=v)j$!!'&*;'&D)Y; )7!K&y@8!9!0!a!b!8+8+V'c!8+) ;.d!e!f!g!G,P$h!9$B)9$->D-O,i!j!/&6%L$S)~;r)k!l!m!#-r#c%p,n!^@V>A$o!p!q!S*` 7&< E@D /+s.Q.r!'$j $*F=s!t!k!S*h@e,B u!5*v!w!a,O)y$t#f%s#x! >l>x!s*n@y!@@}+m@z!y;}=.#7%++/ 6%O %>t.&#F !%z.S@:$n@H+2,5*%)7=a;",
"y'm!g%E-q&3$A!.,0'1%<-p*<&)@B!p$s*C))'C!! $#!%D!E!X$'*'*{*1)H,u)F!G!A#U)H!n+z@q@S*>;N&i-I!~;J!K!L!T-]&|-M!N!O!P!Q!w@2,R!S!e-_-7#3;< T!)#a-[$: |#&+f.~+X.U!l C+:!<@v% >h=a#E$G)S!=-g)_@Y,h>z-3'7=f%f;f;O%{![+*#)&M%:-V!J*( }&=@~%: C+3>!>V>k ^+7%B 8#d O%W!X;5,X!",
"G$Q=#&8#z*Y!Z!e>`!6&%$^#v  ~X-Q.n..~c#p-+~@~#~$~s!%~&>p;Y$U*i-v;G$#-N,L!D.M&A@&~I!*'P%7-*~y@_==~<-U)z@k*])-;c'-'-~;~R)>~d;:%z%A 1 l@#  >H*v#,~h,Z)[&^@2 J#t.**'~$%)~r#+-m;E=!~r#,>M {$r@Q+J>>+~~{~N%A']=N$b&A+c$2,/,o;/@9.R.E@_ R=,-P&9&!=q$[#p q$<@5*5!2=p#v)g%",
"m-4)I$%%%'5*H+~-6!<#u*S>1*c+m+3&P>]~7&S)F$5*&~$ k!Y;.)O)q*y'C@n;g)d#g,C>>,k*E){)_=^~*>c%:&D.X;u@_%c%p%K=x%P>/~9-(~_~{~P>F=!&j n'h#s@7=:%_~q#$>^,k+u+:~|&:,}+( &${!^ <~[~u&n>E++>J%p&A+5%( F@&+)#%@|#X-P@b&*#} A+}~q,->A!A+}&W 5*V!|~w*P>*!N <#C@n*a#{~J$H+1~T-2~",
")-R*Z,}@n$3~h>Q>[#;>f#x (%0$I$4~2,5~q$-'2'6~<-P'h+k*R!7=o%Y,3$7~p!8~x'/*B*G*=-9~0~a~b~v!k*t#7~<#n.F$G*9#j;c~k;1$M%S>v |={$v>2#X-!>f%0*r$b-W&O+/>l.f#r#v*a#;-b@#=M=d~1#(,e~E@, P$f~Y%p=w=Z*7 &...].4 #$9.D+g~@@/ h~I&i~6>@;K @;2>(~j~k~N*{-y;_~`)w@q$G-*,:&L=j>f=",
"B,h>F>p+l~[&M%C@G)b;X*n F*5*w@m~P>7)m=n~<*o~P&Q [#q$^*7#G* ;p~q~';J=v%V>{>o%:&q=Y.n~<$g)j+R!t-v#B#l>e;r~$ s~t~A)u~X$v~j#Y$X-5#D$u#r$]$q=Z j.O L$z)O c;w~j.a+|=5%n n-{.{!Z+F@5%;*d$+@ @_,..u.8 G R'}&m>#$a-#$h*B : z+Z&x~*,<;A-y~A!Q&z~c-%!f@N%<@_@h %-B*r)A~;>G-",
"S>[-p>S>d=y@x#-'w!k%q%p+*'u@4>u'$;B~C~q$;@^#-$D~b,@'E~F~@'G~l;H~I~o=X;B!J~K~Z$L~S@M~H#E.,,A@d=#-I$k*z#t;l>N~3'|&8>3 r;%*H* )a)d=j=.>l@$%o z*(#z*9$1$k&B+Z$@@&@G@4;i%g-I&N#[~;*L !=9.1#1#)*]*:$_$%+A+g~`&O~&@%#X-z&&$P~Q~r#1*R~8%,=S~(~T~f;0$i>R.s@!,)'c'U~*,p>B@",
"u@K,m;e%E-F-V~j=D.D-`)u+>,_~W~u+X~v%Y~Z~u*a#Y;b%(&`~ {.{+{@{8-A@U)[&J$b@#{z+I.>)R%${_+T@<$q;A> ,B g)9*S*U)J$h>W R%a m!%{1%M.O+f.&{q=g.};z)D;'+`!*{[=5!`'o#/@x>X-|#u$={4%7&}&^@I#0&1=Z@Z&z+3=&##.F@-{5%;{++T*M.>{A.e#,{&+/$ %{%1&4 5#&@$%^@z)'{I+a)u-~'/,n>~~t#n ",
"6;){F-C@y@C@v$m-q@G>m@Z;!{~{{{]{M 0~I$c=B~^{/{L@({<*F*_{5;p+0!B@(*:{q.f <{_+W+!>h@g.w=Q'>.c$[{^+;.[=y*u$G-H&}{R@%@7,|{>,v%|&f.f.I;/>-@F>y-D%w,m+1{y,W {$}%>-2{{.b@P>~)%)3{n W='%4{O+P&K+!*E@{.h#_)7*f z&5 #=H-M.F 3&f$5{~*=+Y'{+*-I$6{M*z%&%O,d=m'1*x@)=0#h+n>V ",
"n>j@-'7{f%x#G)!,V*1%*'e;j;8{Z!9{0{n;1#a{b{x!{~D#c{m@l,/~y~:&}=X&Z%|&9.P@R%[.v*A#9#_@9#X. 'M+E d{>*!)].e{f{B+S=3=y=B@#-g{o#|&#%'+| P.L$z)[$]$f@h{_@c%r.].C+'$i{^@|#$>l+1%q#G-_@,,j{Y _>r@F,9 M-;+..S V._$I%]%#.h*K%];k{l{3&0$m{n{q&b#g,o{t%E=f;B@4*5;)=V>A$p+M*h ",
",-p{f#q#o.o@y@7=%,h@a#B#l+h,{~q{r{r$m!s{9.^ 4&t{u{V;l#{%f,v{R%V'X$a'>)w{x{|+7%u#b=y{V*9#C##@W$z{h~A{B{C{D{|*%#^-b$E{#-F{/=~#i%*{f.o U+=!R+;+_@t..>s&x=3 }&5#H-b$G{v.>>G>y.Y': K%N@2,M 8#($O>>@|%:'g,H{-)I{3&g,J{K{4$3$i.&!2,& L{'=,@I{M{g,n+k+F$N{w%C#M@I+P>l*]=",
"k~2,A>:@o.H>0*)%M%[-6;O{P{n>Q{H$l%8=y#R{<%N>X,G.G.b&W%4%q+e+x |&Z@,%V,F S{D%v=T{A@h=v##&6>:$: =-G*#-U{K;])P'=;X~7.V{W{X{o~->!@B./&L$W P K $+X%[ t.t.]@y.;%H,}+@@h*1~E)0!c$Y{h@2,&%Z{`{e#f=%. ].]i$i+d@9$R=m{i++]5*@]$;O%g#$$*'0=#]`;$]$;|$r{u$%]O%c#=-x@x@/*C-n ",
"P%*'1%h@}%<*v+5;X;&]_>t@{,o#].q@q@*]=]W=d>u#r{,>-]^.f.~#N>m$E$N*1!k=G-;]>])@q%h=d=>,A~{$a)q+=-V (@P=x!9*x;+-k*,]X!n+c*:!']!#7&].f@O )]>@!]W+`+V'~]l&` u.D%l@{];%y=h%4;2 N@M.>&6#)>e,]]^]V M*o+O=}@7.7#}=m'u%[&`'v$*-D-C@l>/]a,N*a#(]_]9=1.&-$;;%~#I#`!o%F$y@M%q%",
"){:]){n@Y,b;{~|$u**,b |@c@a#N%v%2*u#9#w%N*&~<]v)h=k!t;q*.)[]}]|]x;a,R!B),~1]s*2*9'~#@@)#k*V*x e,4%(,9#E-l-r{9*a#p*k%|  %2]y+E@4#[);>3]#$` T@Y>$+1{4]` ^ ^@`,;&L'T%y=F@<.y s&#+W&t%5]6]$ 7]8]v!I$r~=]!~9{2%j*q#9]0]G*s#f%';h,2*M.`$j,a]H,(=*=#+k&;+B.e,$%p>o.f#n~",
"+.K%H>*,3&2$B#z@A$o%A$k$k$-'5=Z)C@u#u+V*0=b]c+={j*.]o;};%%];L ]$K>~,b=x,U*c=c]J>d$_,}&-&s>O;x . ^=|&n+i=k*b;p+P{}+j&d]n;x H l&[.0.^ 7>j#e]]@V$} J W,Q#y./>f]g]h]~.X%>*i]h*!&=@u.x G*C.2]$$A*R+m$&%&![#2&v#R{j]k]T-2!:-U$l]t'#+m]s>[,M L-H-f-.]>-G-M-1=]]6%f.E R.",
"O>(,k@n]~%]]4$o]k*p]F*p-k~I$q]p-j%r]|'& s]i*a%5.p,t]/ ^ '.@+@+u]g+|@X ~>k&%*l=v]D!w]x]E 8;@@X&/ R>-]&>6*k-s*b#y]>{.]'+)]E.C R#;.z]A]B]C]x)&.F@-&s):,b!f D]E]F]G]l&s$H]k#{ / T+L.,+5>I]J]c@x*m@N.K]a]L]:!5$5>o./>H@T+M]L>,@A!q.f Z+N]> N], , 9'v=[&r--$}$y-O]f' =",
"e#n~c+,>&,z+V+c }%=;I!0'=-k*o{;-+&* P]P{6;6$6 M-Q].%A+.%U$~!N@b&}&#$a-1)d$j#C R]t h);=#*]*Z%].v.Z$x>/ N-r#c#'$E+t&=+S]l&V$T]B ].w=z.A+p U ++y=6#}&];X%{]<.U]{]y=i H M+V]W]-&! `@P.p [;@;'+N [{r@V=$$]+# ];%'!{(~4>S>7#x*O%n&S{l,E@$+'..@X]1#W#J#;%v,v=o@h%h%!#m+",
"H,y.y.T%W$^ Y]%*(@V>q@f=3$:@Z]< w,;+l#g~( L-d$`]E&-] ^E&.^+^@^z&#^$^z+'~' |#%^&^R#*^R-W#=^T'T@&.: F@#+B.@@&,5 F=G+Y@z{! J*$+/.,%'#s.e.@@=+;= ~F@ &J 4]0@{*)#y!O~X+[.H.-^) ;^>^0@n'[$,^z)z)0&`*'+&+M*W&< N>x>8;Q.*.D+F@a-O$L-> '^o'Z&' ;&.@Y+2))^$+O@[.T@-.!^,*[)",
"g& &X%V${*L-V&Q.} G#z.w=O {.};k>a+~^{^>'5#]^^^]>E@/^f&9@(^<{>.(+_^[)s>2{a'#*p@.#:^<^[^ =2;u.;$1)O@}^#$+>>$@ s.W!_'!%{ d$x>: u.'#V.z&]@T*]@{@U 1&5 C -.w&+@y=( 4%c$k@g&.$! 4 7%$+R%q |^> V.Y.^+l f,u.z+P#K'=.$*1^2^.+G>=&3^(.B 4%P@Z+S#g!4^v~9>e{5^0+3#6^4]U]A{x)",
"h',.7^.$_'!]&,>@3$(@1&H-V&>#-.C &+@+t.G'L+C].#n,8^9^e{0^4+Z>;.X;j*s$a^b^&+<{c^-.a-L'Q#d^_)O><;E; %e^g*H%L>h$f^Y'b&,%V#g^}#<.J*,+%@&@5%h^$%y.;*;>5 x=A+V]L'.%M.l@Z].%L'a.!&%!4%n-s>/ Q*R.w==!S.L$Q+H d$e.U+x-x-R&' ~*r!5 F@a-M$D+a.0., i^-.j^Q%Z+U%:^X'A{H.5+k^l^",
"G]s$A{c!m^/'!]L$f.{$*>&!7 <.n^;.i]0@g&'*.#o^U@p^q^r^#!s^i]v{[,n{t^E+`, %{@u^O~2=]^>#_)]*5@v^w^x^D%l@Z>e^y^$+'~Z&H I.x=k#|+W+z^T,W+8 P@>#U %+p s)]@J : A^6+W$( j&+>! h]+ 7>o{c$d$^.3 8'*]B^_#C^X+Q.y-M-B X&z.}&7&X,N-O$4.:.I&^!T*n-~>H%Z{$=O@D^E^^!#!}^t)E!}#F^G^",
"c!4]H^$^G]3=V$4%)#W.8;'$m>I^.$c^) J^`%K^V${ t)L^L^f!M^g&N^h%`;`+Z>^=j@O=o.y;/&k%o@)@2=2&L$O^.'{@n,@@y.t]H  &-&a!k&M=: `%R>y=j a!&.X@/+9 P@*+Y'D %%Q.`+`+W >^D]#+^-'*&$]]&@a~ >c@b#d=h=,]C$!,P^_~/-2*y+n~/&Q^I z)H,U. ~R^#+{>F;~>S^b-5#Z{B{{ {!) L'{ {*v~;.G'X$.#",
")^:^<.'*_^T^5@U^V^w&| C+1#W^m%R]X^0+k'J#`>T]Y^Z^`^ /y!y*Q&./`+$#I@*-+/2=(*}%C$3'p*w+X;%'h>A~*$.+{@5@@/9%d$H,h*X-/@)#L->&Z$M-|#f.#/- 8 {.6%X.%@3=I#A+C+A{t)n'm,K'$/{!!#+ #$v*0$%/K=<%&/[&j+g>B,*/v%C$9*A$n n=L$I-]+A E@c.g {+,+)#S=U H,C+|&=/#!e&-/;/! 3+R@m%0^g&",
",.:^M+>.>/g&,/-^>.'/<.|^>)s$0^T'+=c.)/}+| !/|;~/H&>{{/]/^///E!b.(/>,A@)&Z)/*p.u#|$/*m'_/u#1'*](#(>c '$s&k&h'4].%N@C 5@I;B.S+7&Q{1&. &.4%$%=+z.:,Q.Y'C+k#5 P.-&)#k&h ~>8.O#a+b#c]4>:/e@A')&(%q.j>*/1,q._/x%8=</])$-A>M.P@u.J#M x B+a%+ [/v.y=}/> g&,.D^J%W Y]$*|/",
"e~]@! c^K'1/e&c^T#W#2/:^3/U@-/#*m>!>F>q.Y'D+4/5/N%o%%~6/:^=.;%}.m@d=%'=;6,o@%,7/|,w-);H$y#k*R!d==-P%;-s;C'O+g&8/J*9/I;C';'a+j.s>V+0/-&P@B W *>X>5 D v]B H,.>M*x>4 a-H@,{G%n@a/9=b/{>H,c/+$5#K%=!A~'%;]v%~)V)d/o%e/f/}-{,e,g/I!h/w*~-i/]]P~P.1&W (,l@W ^.}&o#T*j/",
"%#[+h*{.Q$c!,.k/:)W#.$a'l/R@Y@V'( D@i)p$)=}=b#w%)=m/n/o/p/C u~c+0'c 6 f.'$Z*0&Q X&M-(#j=w'U;#/O j x=V#-]5/6*4;y=W#H,b-;')#q=4;N-(,<;D@H>I>S&K d#@>;*^@j D+[+[+)#B#S*A#S*q/a~a#1~r/- w&~ G'W++';$!+U=]>u'# '$A#v%s/w%1*y{t/a=M@c u+ >>,u/v/7.s>0-(@h#o#N-o#k&e,n-",
"%%(,H-M*M.y=2#V$X$w/,.$#W#! {!O$!]n-O{t&q##>M%c+x/j^y/J T;z/A/s;A-7.x+~)j=t@j=j=n+W=G-R+B/p&k>L y%H+^,:@^.6#)&F+O~l@]^G>k&$!$%&@X&V+y.)]].o#[{b F>c 1$0#t.j l=K=#>[=}@d@a+w*j*o&U$R%s.S@C/f,_$ $<{D/x&K+=.i#H,E/}=={k*F/S><#<#N%G-x+x+u#)%f=<#]=K C'Z{s>M*(@!#i.",
"i>j.^.|&C'5#< {+X+h**#[.y=Z]c+D.~&1*r$2$q.m'6;G/g$4#F+:!1-k+H/$=N%I/M&J/l$m q#o>l>c]k=S>D,4$B^F/:#w%!;}*F*u%3$,-F=8.4;Y,;*1{N-p%:#r.y+Q.'$n-B+s>e~W K>g>:@R*d 5**~f#j)t.a K/4;|@g&=+w-|$-'`)_/N>F $*e'7+W+_'I ,+w L/M/=-t#j%U)v+#&k=T>B-p>f#f-D#n.c#E)h%e#L%m$Q>",
"/,x,^.x,&](@6;U*h%%$I-($(#N/6>-#>>f-d )=*,8 9.f+$%O/P/A#%>Q/9$l**;R/S/T-B),;T/m!E-d%2--,D,`)(>K@U/V//-^)T&L=x%_!^&~,7.B+7.f.c%g>A~V>I#^@N-,%y+&$];]>P. ^+$a+Y&h@->O&Z%J O@d&-&R#D [#u#v#A@C#W/`)%*r@W+R@{@o%h,D#` _@5/r~u@*;5;K,_@)'2,3&D*v+X/(%d#)->-A#t&`'w%:@",
"Y/Y/R+j.)>A*;>1&-!&]{=i `@7&Y'3 a  ^&$s.a } k@Z/`/ (w@4;.(+(:%@(#($(b~S)=-o).;p!p!%(R)r) -+-O,~;7/&(&(a)T-h@V>t;b#)&c%:&<%3$&/p%p.*(d (>{$V '+&$B+T)n';=4%+$x+p%w-M {.h&z{{ Y@2{7~=(u@2'-(;(F/C@%+3  &/+Y%Q.},`@N@m-],Q>7.(%A-Z)A'G*(!9*,~p.h,x'9*l$f%r%m-G*>( )",
"7.V F+b$)~n@:&}=[$Z@r.~#^@Z$e.P.[ J t.J B{[=K{,(E)h%`''()(M,P%!(#(H*2'8 ,>~(3'{(u#t-E#h,R!X=])L=R)D$}*x;7-)&%!7&A@7=P=y@V*z@s*c]G)R!w%k%A$t#_@J$$$H!p$H,-&^.](l+G+a$M-z+a.O@u~G+k%b;^(X*B$/(4*v%J.J*^@;.E!d-V>V$R$y 2]Q.&]((N@9;7~h,4));3'x'J=.)A-%,,&n.y#--H+f%",
"G-k=<@m'X;w+< :')&3$6$|=_(V [$J X.O*[ t.P{7#-)Z]e }+^*&&7$0!r,m):(y'<(&.M$n*T,W+W+^+4=!)n$n~v=w*s*1%a+%.](E/O z.'#{@u.%+[ r=[(--a)v'J=`)Y;W=~;}(|(S>p+h=d$>'O&G>m+t&/$Q.O*$^j=A$6~<-(&H$B$1(j>D#u.=.V$@+<.:*@+B 4*X*[+4*W/h+m'7,t-=-2(G-7=J=X/k!R{d%l>>,f#6$*~b~",
"*/P{|@3({+[-6;# 3>;'6;^$0&E@'$i%M.=)&>4(v =]5(@&6(C'f^7(A#2,8(Y;9(T/g.R#l $#@+E@^@=^U'0(;&=.G.@ c$u{J#u]a&Z&w&-.D ~%:.#$} }&C k+<#W*@+F,R+P'r#}%a(0)L)'&>&4#e 5#U*Z,N>1&}+{*P#^>D#(&6~D#=(W/*>D#=.Y%@+u]#@V$@+d$x@2$b(a=s%w*m'}+)>h,:@c+$;1'1'm!7&l>9#E-V*u@->2$",
"8-m'<&[&c 0#l%:&,>)-)-;@P.F=G;->_@(>D,c>h@D{5*c(k%b'd(e(5*f(g(h(o)Y;O+^+/+l R'Y%p>^@a!]@z+R'<) @s']%Y%o.K;(*m+f.1$ )i(O,U)v+O~K*l  @R%$#q.q=].H+j(k(l(l*5.A+{.e#n>W&[ k#`+`+T |+%+V/W!I&m(*]D#D#s&P#V$Y@l&9 t,Z)U*n(1*P=U/P%N{y+J$<-v*d/E-5=)'n>s;s*9#Z;o(e;m=[#",
"N{9=0*~)J$h+p(x$q-)&q$7#M@(*_@v=A$t+o*C'K @;a#q(r(s(t(;-u(j(v(S-c]C)X==;^%6 `#T@T)D V$l &%I-R&L w(*>x+V*e,[;E$&;L=E#n=-$F$6~7~;$y.|+l 4=3=N>x(r*L=]~T/h@s#A+U S=&@O@w&[)0%w&j#q;h,/-:^y(s K@*]w%/-h,w-[+/'~@L%c>-'S>z>K-x+=(z($>O'u+x$=;J=y@[#;-A(B(C(D(n-^@V&v$",
"!;T>1$C@_=H*e%D,n=f=9!d v=7,1$x+z@W*(#V a+E($;F(& G(H(8)x(v( -T/[!I(E{K-`%I*d$/&@+`#s E V)m'5;j>Z)5*#= %-]a-J*H>Q Z@K.K.k~H*i Y%^%S@]%W+u,k=e-9$4>+-s#b;7&H>u^v.^@7*$+@@a-4)&{K;-'=;U =+k#l@B,~)o>(&^)=;5=X*w*4$A~a#M%~)J(]>Q+K(k%*.L(h,;]h)m@o{_!M(N(u{O(7,b$F'",
"u+o=e%[#0*_#:/p$D-u#|(c#q%A@y@{~r%q@K=l%6*r#c@x+p+<@g(P(V*&+&@3=z@./_'`'~+u$R+G#5;L m$f>n n]}+Q((@C,! W#8+Z+z{_)l& *]@C h 0=]*%+]%S@|!v{u]L=.=k*P>0;N*R(~&1%# k&| b#&-F*a#i!t;~'%-E)U!q 1+e'Z&L%2$(>0{m <#/,q;%,~{(~~{m :$o#%@K.P*&;N@}&~>S(r##&#+g/']d+T(|'j.D-",
"F(H*u$G*x#S>]=6*-$m -'t#A)~&r#1$@>_(u-['G*#(V~:&j=<=U(V(Y f-b'3&I=P-d$`%!%g'R]T'!)b Y,N>]-/ Z$#$f+//S=*#:)S{M$g+{@s.C z.F@I@ ~Y%|!S+6&6>J $+X&Z=W(&)A~Z=L=T&X*H!y@$(O)a~t;i-X(Y()'P%Z(1+L v=;@A%<#n E#W=C#o=F-f-D.[#J$q>H%n-q+R'o _#A~S>;]5;B,`(o&4$B( _Q~L]F*l*",
"s*l.4$w@_=n 9#=-q#^*7#L;[&6$M;f@<&t@._+_g(~;<&M%M&@_.~x+*,|~#_6]< Q%$_I.@+r!L+${B ;>G-f=~*w&#!U#U%a.8+$#2+e'/.T,v&!%_'v,X-[*%/:'<%{~I!])t#D+m%a!l%H*p~Z=3'j>>,&;:=@_)';!j>2'h>R-6~){E!T.h>]]w,q=u.#*{$O+^@C#P-%$];!%Y.=!x-=!Z*^#]*3&E#L(u@k$_&={@ m+%_F@S=k'Z+t.",
"{%H]s.a$6*;-b{{~-)U& >y@!~B#j=(>1*O,@_k*&_.=C@ ;|-p~I;X-`)h&o/*_h]s U'<)<)/'s L+E@1 N@;&$#|+G'n') v~x{l/Y@=_q D/-_w{A%{'{*e,~%3'n+9$f'2;7/X.h~a!$+n>I;7,F$l(k(;_8(.~>_L%,_V#f,'_Z&X$L$X>Z]T*6%9&=@*!{-)_@$ &G{A+)#k@h!=@=@!=L$S %%'#N'K@z)f=_@(~!_V$e]'*v~[.e]{.",
"1#` a-8+D.#=V*a~L%V*~_)&V~F$J$)%k$'&M&>;V(.~{_{_.~p~[;#>1#J~2+1/+#l/E.7+F R%]_n,.#4+Y#s T={ (.^_[):^@*/_k/(___n,[^:_<_o/!*U$X+V#3!s@O~[_o=s.T%0/Z j.Z E@U*x$c]l!5;}_])Q>V>R-+.J.J*:,q.o.h#[ ;=D T)2;1 l'o d$O +$q=r@+. %U=]>p=Q+|_1,F,8 1=7%m>(=1_z{2_}{!^]@^@X$",
"W#G.V%f Z(u=y~u&u+a#e%:=u-{&K!$(C)|-E{|-9]3_0;T&.~h 8#T%<.@*Z+4_R@x&H#:$@+(+,%K+t w&X%;&M+4]D!(^t^> (^F.[.}{o/5_F^6_:_D^Y+]@O#x,|@v ^#&.z%(%V$3=q=].[ l=[ #%U*:&x%<%t@X*7_P ~@;&: W*J@i $>N@F,u.M$*.#.S l'R'K+[ k d$Z@M.== ^1 O .+_;(@x Y'U*8_(.{.4#H&R,3,9_0_5%",
"e.^ `&X$-&/ n-_(O%y*n{s,r#t+a_s*s*,]I!O)b_n&>-w-*,P{g&W#x)4#o+T(@^i.+#@+8 R#z+V$J*:+4+4+#,,+x,-#](n>|#J#, Z+;=W#c_d_L+' k'T=H,Y>.%&@k>'@q$z+M$R%<)R#b!1_w&X%//h&w&*.']t@;+s@_$2+a G#l+E(f~0&n-b&2#,@s)g;5%Z]s.^+V.V,p&l&D;X.]>P #/S W { ;.f e_i]6%a{d $$H+3&7.f_",
"g_ &-.X$V^h_%-X  %i_w -]y=D{h$@;[=O%c>-%j*3%:@N%j_7=)@T=w&z{c%i@k_P#-_R##*Y#3=z+w&V%~#e K 6$e>a+,>H>c$++@@T*g~l_e^9>1+R@t^2 ^@#$8 y.^#`.c+7=I#D m_o.=+Q.f-n_k#t^0^.$`%Z%V.[*^%:+^;`.[#n#n>P@..%%R>(=],n%o.a%y=u.k a&_$#...k o_<)R&[ E@ &z{p_M q$k+l-S!r{k%i!])q_",
"B;l$I&>*=.W#d&|&[&B@4>m*.-m!y@N%s%<%G-(*B>P>f(S>_#-.<.c^r_q <.+@s_T!w{t_r'!%W+,%4+{]Q>B>3'u_f>7~V*C@-#e |@a$r@($]#)):^v_H.w_n_.@Y>=.F %+Q.&!6~t#t#R!);S(x_u@6;>'1 ;&(^A%y_Y@${z_Y r$w>X-%+U!^#r.l.e%L%S(w%{-K X+[$l v&_$#....')*!%J*>.m>{!e>A-T&H$t%:%u@R!)'])A_",
"B_u-6*P$m%J 8>,%&@M b&E@J F@k&Z{^ 6{o#K,L=a~G)0#_'h]4#V%j#<.a'9/s C_@+8 %@.'D_J~E.o Q-)=/!E_F_L&G_&);~q*1*]]x @$H_O'o.R@f]I_e))]L+J_J_K_*+U* = =B> =9&9!x,[&r#n*l*<&G-,>(@Z{X-F=k>2*L_#=}&^.X-:'$-.=9)x_q*^(M_!@D%<$%+`#v&I *+]@N_m&j T>(% >$-c#);t#O_d=d=k%o%!'",
"f;@{)%U P_|)x{f~0@} Z%a^Z&C]g]Q_c^0+h'g]G.R_d$1 T)D!.$l&' ;$I.~*~@R%E 1+I'/+p_@*).T.S_L=H~.;l!T_q*~=>(k({_.~#(8~P,q;3>^,k+M((~$;4)q.U_k `%V$;*A d-%%]+b M;B>7,x%r%q$m$Q>*$1$F>^#O-4&%&#+k@i+D-V_)'U));3-3-W_X_L_,+];F _$+'#.%+R#&#a g)c+6$G*Y_I!U)7~B!&+^.D*c#*~",
"5*l>5;6*E+|#x)K+[)!^0.H 4]w/Z%V^Z_3/+@K'b&{ r^`_R# :{ 0.) J J.E!.:+:@:_'u.y%G#=+D%)-Z)H~>;}!8~b%l!V{V{M&M&T_S!#:y'n 2*x!A,S*9#b#I{<@B#}%1$P#T,E@I ]*%@t.a ^@G@h*}&].6#b@o@A-L;(--$g>h$g f J%$:m-1*r%r%H*3-%:2!{,M X.+!q>:$Y%7+F ` |@Q-( J#c+~;u#G)e#z.v]]@D J*N>",
"^&h@a~R/s#A)H,K+l&~*B%b!- ;)|)F@w H,X'&:a!0.{ *:=:<+`+!]Q.F,7*b&Y>z+]@-:z@;:`=5=V>y@>:j(:(;!i-m;i=V*3!x;x;j]x;)',:Z=y@':q%m-y>k~v%V~B-c%B,K-8 |+x)P#x&W,8+w&h&Y@V$1)R'4 5%j.6$_(R+x l_j&R.k&#-2&O&B>G-}%:(`~B)V~,-_(o@_*..:$.'J v]7%A+G=m%4%K u+x+j+w@X.{.~*;&a.",
"J#Z]N%7~S-u-Z():;.c!P@[ h$m s%r%5*<@q#N-D!0^t.$^g&U%$+/+U#'  *R%h#%$({p).;r;W(p!='T/|-<-C$Y=%/S!7~i=k~N%j*E--'7/I~X(U)N,z$_@2~=]j-m'i=B@o=6*D.v'[$s.j#z]a!!^F@x,(%B T@J.Y%B+H-d$^ L-@ {!@@0~':< c;M*5#f-u#L&L)|-s%z-6,N;u*R.%+&+x=A+m>J C+Z%F.!:])8*0;J$C@a.T%@+",
"'.`+=&_@u;G*l+v.b&t.d.(>%-R/v-u+v#F*3]: ~:U#) {:4.I%F&B]/^R+5;m V(]:7/^:X)b%G)g(o)7~q/%-E$c=2-B#N*u@/:+>/&}-u@1]J=S(v-t#(:_:%-b=b=y{i=C@q#u$l%v@t@T>k;1*_#U*5$M=|#{%>#O''_T=J.l'D+a.%@6#>%2$::< y+V$C `@K-=;i-l;='|-5=<:D,F#R&V.%!B x&v{J.{@*#V'N#/,(%.&7~T>,%~*",
"[.$^}{=.}&V*Y=@ U d$h,[:B)v-q!R/r)k*F;W 4 S%U!!/z&+,6 }:Z i!V{;:|:1:2:3:4:R=u#d=Z=$)2$q=r@L _#C@7#9!4)Z$:/c#D##)E#5:1!3't/9*v#d%Z-3!F*l*v*v@P-w-b 2*h>f@&!%*W&j&~>Y'U+&$^,6:J...o+b 4$&@B+E_7:G{4#z]i]$+8:<#/){~;_9:0:a:7)j('%m$z-*.2 ]@V$;&8 4%g&@#|#b: ;l_a!'.",
"]@F,c:d:u]m(J)=;_@K-e-v+r-Q>6&])>_v-#>3 ~!&]k&P.K%j.$.~><%D'V_B_>=e:y{F;w~{*^@[ V.!)H Q_&.'$~>M.2{7>| s&^.;>u*x+%'['f:/-9*k-g:*;o$b_,&f%s*v+k=f>t&};f@h:G+a+m@n>J@c%t@r#*@F%@+'#s&)#O#P>[:h%z^R@s$K~n^` `@]^2=G;v@2-;]-'z;.;i:K@}_%*V#s&R#/+l&;$1)I.-.R,;,;-'*J*",
"e.-&[.[ '*o.*/&_%-v-j:)%$$*/s@k:s##(+-7=s#h=l:Z=v-_=O,Y*N,._e-$ s!H%( 9>m:(^3@n:a@v^o:__p:8/#,)#q:k#0^k#g.!)3 {#r:q>V.l.1*8=r{k-j%t;8= >D)u#u#u*0*G)F-f@Q-G-s:m]T~p%Y;|-|-s#%-e%o%Z,j-e%t:1&V%s$c^g]L+I.'$0&# 5>,=@=#+>&~>+%s%P(s*y;o@B 5 W, @R#@+`%+@h!K!o-<.G.",
"( a-u:Z&g]'.@>+_+_='{_S&)=B+7>q+h);_v:m)W(w:U-N!a:W_;_W(a~x:8%H@y:U%z:Q@A:B:&:C:D:g]|^Y#|^v{E:F:G:N)(^9^X$..^@9 *@<$7+>#7&c#5)a,X)t;0=h=_=-'u-<-v#R!!;m'};3&G+(~;-z;w%v*j*E-.;.;b%=-q~|-4>G>K~:^W#//I.*_T%t.J*..R.+$J*7+H:t)+%x+p!B#j=d j s&&$Q.I#/ %#7;C#S>A],%",
"$+Z>}&M=[.J*n>s%P-f=i)A-*,4%~#o :*Y,z@a~b~c=m()$I:C#/)+ 7>! 4#J:K:L:a^M:N:O:z_x)X$-.a.{*x)3=P:' Q:R:T^S:T:$/U:Y#V:W:X:#{H,=,Y:u!Z:c~t;%/|]a_f.D.n G));#:*~$$c+v):({&j=^=`:_)I$i-N,B_O,Z]l@Y@h]g];^A]z^{:q 7@4+t K~c^3/~*'~> '/4%n&+-,~p+w+ <'#5 D '$a+e-}-b.J^[.",
"P@**9%-&W$8 0-H+2=/>6>[ $#^+L-C p=Y 6&;'K]K]1 K+&$X.+%]@!].<*__^+<@<#<$<R %<&<~ f J $>%,O .#z+^_w&U@'~Y@W:*<E>=<,)g'C_-<M:;<T=><,<5>'<)<x ;*T)s.m p]z)c%)'=;1%T&+-%'x+E)4#j#F+m*.;p+L>' U^!<X%C]S#P@T#G'-/) ~<3@5+{</.Z&' S#=.V%V.y@:::%x;w*,#K%3;f@k*w${~@+K^l&",
"7%H z+{ ' :+X$]@{%/.J*K+/+R#,%W+Y%u &$m#4.;=k#8+R@|+;.4];^8^#^f!]<9+^</<(<0.Z>`+T,#-b~(:i-T!Z%_){!> _<- P$V^R#f, @E%G.*_:<<<[<@:}< /, }&j J#;^T,[{: &,z),~x#A$Y;<-`=m(5.a-A%m%*{K,t@n-:+x)0^m%K^J+[ f~L,w&[){ ) <.b&0.H,V$'~~*(+o;y'I+;-b~9*x%(*->a#Y={~[.X%- 2#",
".@} T={%~*h]|^$#D!R%~@C:$_D/|<;$' /+}^) T!1#} ,.~@L~T ! .:F@N]|)f{U%N${:1<{.g*k#a+m*s;h=q*4)J@}@;&` O@{.7*h~K+h~:$O^,#V.^@T 2<3<N:a>4<}#5<d'7@9/^+~*H ,%1;S*U;h>0#r$l~f+;^-/L'l+A-c$J ~]U#A+z+%@T+^=,%H  &t..'m&#.8>A+**/.$#=.(+%+&]i!S)t#S(o=L%p*6<q;u+A+.$S{f ",
"++T)U${ ,*Z&m%h_X%8 _'V%Y@w/4]g'K+H 7<T#A%}#<.n:+@W+[)1)j#-&V%{<K' _U%Y>++g&P_Q.e#v#h=8<2-o{0=,:Q=G$j(T/T/H*a;X>!%P. %h@h. _m>9<9^0<a<l^h'T*Y$T^f],%G'D+,+b<{ =)N$)$!:c<,$;^9>7%Z&d$K~h_,.d$d<_=a~-'}:b>]'1.i@,&*'V(0)k![*T@//>/I.;$V.r%x=+-3'N*=-9*U)Q&E@4#J*`>",
"w&t.t.^!;&1)B ] >#&+E!k &#S'F ;.t 5_):1_@+E!V%-.u]{%-.t.U%p(Q&j&z&e<!^e]Z+f<>#c+7/z$l>g<e@n-|&n&^*)~:&K=V*U)R)v@7&i!6~Y=m*h<i<O.I&H%. 9 9 5*!;G A%m%G'S=z.X+'*e)s$j<k<}.y::^#![)l<o/V%J*Z&3$--O+--I!>,7-m<T_0)k!h,Q-->X;n<|$-.{ ;$Y%,#(~X.,+=-);a)K y+r=a 4#l&Y+",
"o<8+Z%T={.T)Q.j Q.5 ( !%7+U'f,X$~ ~ T@f+Z&-&J#g~_'^+#@p<y%*/d 1$8]q<L^r<,<4>m*:=|@z@N&r]@;(@(,;*Z />;+2;C%T.a#q#d=h=7;z+s<e:C=;;9=0=O%B*T_t< 'i-$%3@u<h_${3#F.:^9/5<;^v<5@B]j<c^+<N@|#y>r#$-z*1=E/ !y@L=T/A@/*--< S p&J%)&%'G*v$V%/'/+R.| &$D &+7+~*4#j R'H !^U$",
"U y.N@j [ 6*l+l+6$_*z.,+|#:,9 J*M=-{L-}&P.L>5*v=/,h>f=w<J>=!G#r@n@x<y<I/k*j+A'_=i-r# ;E-i.e~n-j&Z{} 6%[ z%o_2 [*#/,@u!T*i_z<A<V;r.{+< 5&n-n>&!B/i--@r><{3+__w{{<D^e{d{A%1@B<o/~ `,N#I$ )$-1'Q r@Y W x+n p(3$O&@.+! =2&r-M;[;){m*^+X$h*H Y%T,'.]@W+_)&#=+'.t.-._.",
"4%6%Z&{%q=:&c%K=3$y*V.Q+8;]@x=^@$.F+n>3&n;Q-f-o%p%M@Z{]%{*s C]K%_(C<k~j+z/m@A'9=h%Y]n*k$N ;+G#_)e.`&u,V.;&n>o#z+x=*#I&@@$+&$[ E@#%Y'$>].[+b-8.E;W%D<o%y)@=9 s.V$z+$#C a W+^@@ ;{f^R!R!y@u+7~n+)>R+'+O+]$o#3;,>~#P R-3{/ l@7#F#T{v~V%.#!%I.#.Y%1_Z%j#h~| j &$H@f ",
"H j w V+m-c=N,e-_=2*m.1$:,[$W&].K]|=5*j+k;;]A~:>C i]E<-{H@D%a'('[-#&c]c%{,l>)&!{F<i.N,O+q=;%6{[.H 1)k#w&` _,4#W+'@d-G<k+x*]=F>c G-e#f.{+N /$>@G>K>&~H~L@1* +H<L]5 y+n-#%[~S+q$c#Z=7=c#G+1%m-O+]$O&B.x,N>e +$Y,N>};Z]%>j#W#I<[&_=]@Y#V%P#J.R'H T=6%J*T=n'M-^ J _)",
"1&J<3&3&]^~@X$T)v]_=K<V=p>s@a$K/L<P%p+I#F,/@|#1)M<U!M@m p(B@O~{.C@9~D.]=:';-n;^*A/v#K!s+W&N-` J =.T%0.@@Y%^+f>D.b+8'}%Q&N<j~i@(*d =%s&N>< /$'$,>G+>&O<.;v;]&Y*Y;M;'+D@Q{f@C.{;X*!&%.*)O&x,N>O )]q=M-1&6&/&c ->3;u.'#v&T,h~, B-q#'&D%a']*J./+m%J*1#,%j.6>n~D*|&m.",
"->q.t#n&p_Q.v{(+i]|+_'P<d*7=u@c]m!_@H]g*2#o/R_A $$m Z)Y*i!v;A-N@-%w$j@c%m@q#4)Q<8-~;o$u%q=+$o#`&]@4#_)Y%)#:$&%T>O;h>o&V&d 9$^&:/3&f@^@: K h>h>X-N-^$6$$(1*O=< X;N,v%1%j=y@i-[&,>o.e#h%a$3$*{A-c+d#G+R+&!q=l=*.4=y.t //.#R_4#}%p{0;T&t/-)c]h@<%f@s&h~(,c%V>M@2>7$",
"6$1%)'V$X$r.j#-/m%;/m%s |+7+2_k#0+g+^*I$J,o%x$s*y@f%O)i!)'Z=p$V'c;6;o;8#l+j%P=(:.)m!e%x<;*x,$%O*@%B/!=&**.J*&.]*5!4)j$5.L<[=n@r$X;].S+&>b '++$`'a+)@6&6;3;g/h$k=O,;!:=0*x,{,h.%%R^(%6#)#H,N@B 5 t,&$k t.9 %+,%V^~*q=N$k>'+!%[.*{']L/4$n@1%H*)'I=j>)~z*)@r-1$o&R<",
"b(u+i!;$V]X,M*2#7*<.Z$1&U'a'F,x>q%C#J$<*S<a,';/!L=R!0&^.7=G$c+i d$W&< y i%`'j]D$T&=-7-X)x$`'a~K,Y*T<<%*@U.S.2=&.,$e~Q.X.$=(%*,2&n>b {$V+R+U+a$`!!&h.M;6#6;6#]+U<s*9!l{o V<=,q@W*i#X& &k#h~1_.#Y%!*V$/''.=.X%#@&$q#2$p#D@Y,S@W#t)F#3!,&v+R)$=c<H%+-B-}=c+2*&/B@z-",
"m-t#Y(_'&]2{K>n@d )@0/u$f=o=*]3'I!w@v%b;$(r;E=4)#$7*R%l&o+9#q*c 6;;*6&K/M..% %.,;-8=-;S!4:a=W<y'o)R/i=)=A-k >{-]3 ` f.` E@d#X<6$r$};G-X;2;&,b $%9!V Y<6&K>u{Y,F;u~N>(#O+# ]@s.} 1)u~:&8'P%~,i>J y=->].Q.V%6 0/--J-m'M%}_{$7>B/E@Z<{:&$h@`<x)2);^Y&v@:&f>k% [l*q$",
"v+r*^'0@v,H@a$w%c>|$Z)u@A@e/%{d=|$B-=(b;N,;;#=M=[)8+C_:+D^b J*i-:>| $+v]4 ,=.[h.F+^*+&i$(%A'9#+[q*O)$).)A#X.[+Q.W&]@4#]@t,v]`]6)2&l_}@]$f@W%B/a+!+Z] ]o#r/)-M-K%(* '.'z+c*K-7#K-S*f%E$R)x;t#{~H$Y(d=|$x+^#};m'k;#;c%5==-S>-$($l&_)f @[#[+*~ ^@k/L=|$t@o=%-4'w@F*",
"$[%[1+Q#g&J#~)v%:~>(y'r* ;e-%/';d=_~6~Z=&[E*9>o'k#> a!$*:+g&V$/,~; ~]@}^*[]=  *&=[-[6#e@u{K/;[>[,[V&f@7.&+!='#'$y.z&=[[*} %~s.'[;#Q-/&e#z)M;X.5#U*l@7.*,e#(*y%u.%~S>@-d=,!`=+-#-+-e/d=v-d=i!u#F'{~C@I!n v*x+X*7=)'{)y$n O_D#q@x={+d#Q.M<,,(%}= : ;t#u+F<M&Y;<(O,",
"G.X$z^#%X+:'w% ;/!B)y{~{5*8$,@C{)[![9=z>m]N#F&Z+1#> ,*h>G+*@v{E f:Q&1,O;s.a$C f+}{z&k@n!~[5>4; ~{[i%f.Z l.i.'_.%D Z!3$t&1$q-K=6*b w-f#6&d/R=}_z;8*][(%5;^[%;h.F/v'u#B)Z)h/=;<-6~u-t+,]y@v#5=F-W=1(y#`)<!S(6=u@k$N*b;k*z@d=u-/[d-V~h@[-~,P%n&r/*_v-T_0;I(p+J-n~:,",
"([m,x=2~0*#>>:y>b ]=j&z&I&_[:.}::[`$`$<[{*Z+X'h][[#[f 0{m'g)]*a'a'y,r$A)a,M%Y/..P>&+[.  ( }[|[j#t.=+F,v]{%5 _,v*_@Z)r/k!,]m@^*:'n(6;V>l+j:B;H~<=:=&_{~p~:%|-R)>~Y*r)0;1[,~-(D#v#k$v+n.7==;A$_~w%%,o=C#n=W=n 8'2[f;,&p+B*U&3[a)0#}%0!x;=]j-(%5>9>V$4[y@5[$=6[{%V%",
"V]h)-$W=R!_~v(H>Z$P@{:T%m%8+7[P$!/H&#+U!X@S%*#1_X{W ](>]<%c#|+e'P#!%h_W#C]#&)~8[9[a+r#E@0[f_a[T%O@{ ` +@T%N;g>9(A#!>b[{;v;q~|-W)>;@_T/.~:(Z,G+z&@@>>k&# z%3$6$k~y'z@P,7/t#I+#-#-);5=u#u#X*s-`)H$v%L%J$x+h@g)%,u$b'}=l*b;)%N%c[y$E{y@y{3[w*_(d+a 8@;^h_0@k/e!d[9^",
"$%].%'q~]&e[B+4%h_4#/ P~@@)#4%$#B<B<E+K~/'V$c*P{h%y=u{X;i@Q&>/^.f[B,W=>&1^V^%,8$v*@] >j%>-]@Q.k#V$=+y.1)e~_@i-J+N::^/+T)z_}+i.V 0-8.6.u{g[}~m#U!h*Z%/ h*X&A+j [ !{=;v;8*P,<-m;K;>,A#d=v#=;--F-s%P-d-k>f><#V)u=6*%~:!@;c+}%z@A$4>j;9#8]9~7~w'h@,,5>c!b!h[i]' 3+]<",
"&.C#p!t#+-Q.h*=.a-O~/&a$e#c$F=}&/ W&V^-{]@S@h%i[j[u%j+%@t.g,j=j=N;=@y-s%a#t.1/g]<.;$#.{&D.B-x+z!|$c L;v=->p!]@U q$p>6$=,=,Q(e>;&2 C x){!T=~>%+{%f+!],@Q(1*v*{$U X o)G$p!e/<-a#p%+&}%}=w+/$)-3;'+-@E z.k g.P.+>-{, 0.[)f b-};y#F*G*C<g=S*a=i=h@],t%n@Q(.,u{l@`:l&",
"j;w;U)z*/ V'k[!]8.6)l[l@F%E/H+e#6*8#j@z/7;z>m[A!n_C F,:,A+.%C*2~t@E k $!0!1%v,,+n[4 d:o[K;f/)=r$']f#-;'&~;'&z_!>N <;V+h U*/$@$+ A e p[c@v)/@ <V$2&A><@}%)#A+e k;5%q-Y;q[2'O,p%^$N@s&^ >#6%[ ]@F &#J.F,s.{@T=4#d$o']./ B+/ l&K.K-c=9=*;t;N,U&-'#>P)m;U&B#t%)~c#:&",
"p!y'r[H@$+| L-3&u~U*h*<. &j#j#^ [)`,^>~#:.8_M=z&|##%C _,'.=)&@` '@T.n_E%G e@F-e;~&c%s[I=' _#% -;m!H*C)a,)#d$G.l+G#R+#/U+b&y.^@V#S+++T+t[,-m@7#Q&B+z&u~l@4 s&x>p$d-N-.,>-r$3%c$Y'~%f.B.N>O+Y,J%U+o_6%n_J**.E@#%&$y.u[{>u)g-}{@+c-H*e%S!.)a~L=g{N,s;g%T_i-8=;!i-s%",
"C>r,f.a'x>f-M;a$5%)/, 4 J&[~I&Y>X-B{,=6[3,R^f N@v{`%&#9 F@O$&@H ,#'$C#B,:#X+@@+>u!6.%.A~C+p :#V*:#].W&>&T%v[)=>@&!{#l@l&N'3 V.z{m%{ f~_<5 D >#'^` z{I;H-E@B 7>(%j-=+. i l@]-g.I; &| j w[Z]W 7 D C%Q'[*` V.P.[{5#Z{M l+F-_&N.C %*K-7/s*c%5,(%r{S*,&z#x[y[z[%{l!m*",
"v(=@,<a'N@U |@(*t&l@#$Y>g;*#,{( 8>H&9%&@O#f*H@>%{%'#]@j.C+][( ,%(@w%%;O;q.[ U &$T*M=A[K=!]//m> &R#H E.V%j#f@r@#=E%R#C 1=j>m$B[M@$%W B+9.} |/J*#.T+;$a-G'Y'*.M-x A-m$t]C[x=f.B )#2{>&>>(&#>c z*(*Q.Q.R.&+e [&<&9$g)F*|$N{j= _A+Q c <#m'o.:)~>y*b#)=p,Y/_!!&D[E[ ;",
"]$U+H#N@Y'h f-O&%.} !]P@M=X-/ B+m#t=|*6[`,i#h#&@&,j.m+z%*#y.&$H T>w%2~M%4{h,u@z@4%4%V;#=o->>4%y.V+m'q#<@d F[^-8 ^+C M@w% >:%p+M%m$R=){]=s>L<u_m+4&*&I&k@G'B >>A>7!*'p 4 Y''$&$T*.>9$<=X/D-I+4*G-v=`!D@f#q%b;k*g{k$L;v '#J>2~}~C+_)L$j W w&u.O@O=h ]^G[W s&T+{,* ",
"} s'D ];4/n>n>;%w&$+k@d:w i_`:4.+,g;z&F%( M.H,_*C%/$| %#][y.-.B C M%M%H[5;w$v%s[e j&`< %+~O.(~o=3>1& ~M.E/]@F,>>P B-t+I[h@J[<&k;V~X_h@o-K[(/~^u*b$F+e,i (+].l@1*t@A#i=T={%:,,#G+h,K@=(<%S>B,':({u#D-v$4*H$:/n&+>{.J /+l'a&f#m$6{-&-.C+{%J y=u.X%u]P#T@D+J*k#,$%#",
"H%,#z)z*;@Z,L[S=T=}:O#*[**H@,$[~`$D]R^4.k&x,M-[$S+n~` **Y>5>y=E@#@j+|$M['%j>K@`)k$u^6]N[N$-*(,/>I@J%~%| I;;'^*D,#&c=4>L[o#c;O=3$->v*a/,,f-F>A-O-i$>>(@M u.&$L-|@e>%'B@p C%S+|$y#p$M@3 E*O[%+(%L%j>v$v'm n;@=.[P[c^M:m,w/>.'_g.D*M-o_]>r.+${$>&X J j Q<P~`<a]H,,{",
"* Z,*!($:*;@:!i%} a-H&P_I<P~G&D]H%w T*X--#;'m.f@W*U+n>~>O~M[7.U H D,(>K-o%Q[y@)%i)7>a+=),=R[&@N-~!F*d=n D,W/p+p-h+v*D%x+u$s%b@I#h l+k&X&H%Q*G<){u~@=m+E/x&F,L-:&b@[;M%v$P-(>U&n `'2 x&F,7+~@&#->_#[=F=E@S[T[N]! H/F%'$y+I#U[!%j>v$S>m$I=!&8#A!V[y=L>Z]2=W[5[R<X[",
"j.3;&!Y Y[ &#$f / z{Z[I<@ H&-=M=D]M.%. ]}@[-q@f@0/c-)-Q %#f^`[{.l&)%D,<#!,E#':r=K :#)%9* }&~g%;;X!p$H-R>R!V~$,~#v O+A@.}J=R)5=,>&>=@(@k%~,h!+}`.d@.]Z]Z][ j#@@6#@}|=b#B#*'I(,-x: +{@7+J z+9 !%;$]*@+U's K^g~.$E+6['$g-l=Z J%Y@,+o@M;j.{+5&#}t@3]e o.7$$}^$Q+z%]^",
"z{;&R#<)`%&&B{.:U,t.^@H%M=M.%}%#.%H@{,K=T_p$X;:@*,A*x%h%;{,{#$)#H o=/,>]4{*]~)G*r{f%k-[]`;[=b@3$q#t'b;{/*]D,X*h/K&i!_~k+:&j+)'q/7-u#!,c]&}}%G+&.*@x-a++>]#!)3 / Z]]. ~(%7,6#N#Y$H,;&,%4#D W+=.%+Y#H'C/=_#* $,.@~  j.!:O~X&q=5 >*p_F p_).c^K~} 4;6#z l]O~*}=}L#F@",
"]@E%a&A+T)%+'$>#1&l@P~@@4.|*U$H%E+j@{&M&T_M&;!f#->^,8##+`,5%;{O$` $$j=<#|$-};}D-2&r%u[M;f$l]>}f*=[m;a=U~B,=@[>-:A~/,j=k;j>O-}-v*>,N*k$b x*n-U_D%a&,}{,4;p;j g&: *.5 u T*W H,R.t ^'j#Z D;y+$![$C F,_,8 s._)` t=*=e,a+U*e,>&S+r.'$1/v>X.N'u.|#h]-/h]> '}*[w&l#B g+",
"U ]@_$S@}@:! _%&O{i.+>++a-h*+,]]K])}_%0-d#o{!}y'b 6)H+4%U!][&<( j c;7,2~4*W/C#f#C'z$~~M!~}z*(# .>=f%u$~%4=C n_J+d$C+y.F%Y>d$d-b#2~<%n;6[[)_+r@9;x=_$:']^}+e=T)a!T%k#T=a*T'##c^{}` 5 ;*s&j.M-x=O Y =@j ;%G@]}$.]^r~|'I($;h@y>h$^;Y']$;+o I#0&W*_ +%H,m#g.[ *&++2#",
"#@'_p=}~F{( } _)T=N$O$`,`$j'e+1%M&k%#$5$F@M-$; ;A@d m@']j#%#U$h*N-w$q.O;L%j>{+j>w!u#B_+[^}/}(}_}7]r{y+g.E J>..:}t.T=J P$b.{%9.( [.i#N$):X%<{'$1=(-[)w&G'Z**,!#+$Z$%*;@;*{%]@)-<} %)]L$;+Z j.I*Q ;@(#!=5]{-2=h%k-[#<>A,D,O;y;B$w*M*$![$l.[,5#X-M.@@O$8%=*&{ %5#{@",
"V ]'-=V,&$5>n!y]>{B++ M u[[}}}i=>>5$j@i+_!;''.b %  ;:%q#E(z/$,|}<@r#D-k=:-o~(*E$@_K!T_1}y[|{x;2}7~{$P$L$_,Y.S.{%&.p= %e,@%r.5#X-A+t.;&k#:^r'%@H'Z#_*t@<.~*~*l=Z&3;6;b-[{;+h#O+^#y-K%[$$%3}s N#;{>@s@I*v=i)m-z>n%y+z)o 3 p ,%w=;]v%x:A'H-&@3 P.c+Y,<~R<]=}~o+n&e#",
"L>H&j'0/4}*'k-g,5*n&k*7=a#A>%>5}o+n;{,^$r/o*J@C y,X-m*j*u=w*<]p+6)p>w+!>I=/-R!|-0)&'-;'&e%k~B#[&S>C h#E%+>o.X&C -&8 ;=E@;%U F@!]T*3=Z>5%6}Z#7}R]6},#&^1=o.O-]=3;J 0^m:s.`.A $>1&0&o_X,9.I.l `%D/0^8}2+{:>&Y$n>n>e&=)(*( C+B.3=..J%5=::9$5#&]G-F*j;9}p>&%%%{+Q>)@",
";*R.0},^X~a}J@+&v*D*X b}^>`!u*]/],j*F(c}E(1;m+1=j S=x;]&g(a=+&(%M%v$S>/)2!v%d}e}N,{~c%w@c%[=H@=[i^=)R&J+m$U/l@l&;%{%+@-]#+u~e#|=Z,a%@@1#=_f}s'r'D/=_9 #@H v]=.X%W*A*`@n~Q:~+.+g}p=S=h}`.e=%*h%q@< T)4 4%[;2&{*;=o.1=&#_,-:]>($ .5%v]y+*~k%u@q;D-^&;*(*r.&$z%[$]@",
"-$<'x:L<i}a/,-:']#/$e>3$f#p$P%<@|%X~4)Q(f.(,[;O{[%%!X-i@T-@_.~C)q~8(m*{_S-&_.;Y;A$m'!#!#$>&@l,g /=P `.E%B,[#$%1%j=9$i 5 r/1*r&F=i+7;F+u,^%_$s's'H#t_x]Y#X$/+^+<)_'U#Y%q@M@>&Y#//C][,5[{%H j}@+2 T=B y.f*]@l,g@(@t,2 k z.V._,%+%@G#M@5 1 Q>Z{T*O~t]k}D;(>2&O&u$A'",
"l_T;i%L<o&A'+&7#c%r%$$l%P%u=:/Q<z&=[&${.$+P@l}-#^&1~u$ %i#X_D.2= !m+>&4>u+7=m}t@)~G-6*^ / c.n}l_L$I Y.=!N/K( ,-'_~{+}%){7.2{O&s%r$r$t](/Z@Q#o}$*p}=_z^s'a'_'<)R'a!l&^+c^~#A+0@F%**a{*%@+;&N'm+O{/&j@:'|=p%{ )#'#!%&* +R+w=^%k 9 J G w,f=f-)=w[[-e#3 x=)]P.Z$ ^h%",
"j&I,/=g q}a/J[v*}%:@k%:&<@!-i%w 4 A+9.^ Z$j&)-a$j.+&P>,,@ 1{X+n_3 *.N@M*~>s&G ,+n_&]2&R^: **h-~>*,V.S._,'#{*t]d#_~{~5=5=o=q#k+o-c@r}$;f-g.+!&#l'K*Y%v&)*/'l s}_$&#,%@+r=F w&T=4%c*t}$%Z!E*>[e>^.M-j)0&-@n#7.2~(>)=Z,P&g>F/J$%;%$D;V#|#5 .%y.)#&@h*p>%%y-;*c;4%s>",
"k&}+w G[a}i@0! !x+q#q#M%u$`$H%h#&$d$$+1 ( z&h%b+M |&@&9$O~X-X&v,3 x=2 W.V...};N>u}W >#X-y.,$(=d]]'}&E  =J 6%a y@d/2*$$q.{,j++&s+$>[}x+Q+,#~#V.S.v}]>o_*#y+Q.%*N@h:/;F,*@..[$e U<R<{$P+i<n>o.W!4;Z@t&Q>u,w<^ 2 U.U.X.r[R.%@P.u$({L;v y+u{>>b@p%#-t#L=Y=K-2~t@2=g@",
"2= ]~,s]w}.&w*P>q;N%%,b(&{`$f++ P{ &F@-.;=U$f@n>b/Y R*M-h@|=*=Q<x}h!&@c-p$1,&!;>`*C |#d$].M=y},^f*G,8;S.{%y.Y,F*I=`!W*U+V>}=u_<@9$d],-w<Z,&!Q'Z@`.X.:,Q.s.9 |#X&s&2 ]>f#X.7 k&].N-z}m~u[{=e#%*8.(*;@W&%+{$<$Q '+x=F,l'F F S@%+P>/-k;q$j+%,r{o A}w<$%l:<-h,t#:%o%",
"w$E)B}r]R{_&0~#&B#g)C<9>{%//}{<~],A+<+E@/^5%-]&@j 4 >&K I*W 4)6$d<<#1*7.B r%V>f#p w=E E B A+}[8%g_9_r=,#C}%@x@[&N>G#,+|/Q+>>w[U*b$Y!p#9!o.B@&*3&p>R&Q'x==@f.~#1{7&O W.'$7>2^{$(@&*;@e a-[{/;6#[;]]*,>#< ($t$I A.W+F Y.I '__,%@^+D<S>n+u#F<J*k[V]}#z+B> >/&D-x;g)",
"E$D}`-h!E}~_I$F}7]G}%_'*'.3+)   9'0. &] C+%#&{v.j '$x=s>n-6{(/}+x=E@4 V#j *.6>(%$$3&2&H}&,A+ ^R>I}[~+%'#z.S+m]:@^;p '#`%r_V,L$M i Y!H%g~}&5 D%P.]...J}v %*O>O&{=K}{$]$N@_,J%b-e A*,+_,9'R*N@h%[=,+D@# L}[{w=g.w=6&Y.K%6>D@L `%^+<=C@f-f=L$ &7^0@:^U#i];&9.*/E$a~"};
