/* XPM */
static char * tile208_xpm[] = {
"32 32 83 1",
" 	c #BCA290",
".	c #B99B8A",
"+	c #C8AE9E",
"@	c #BEA493",
"#	c #BA9E8D",
"$	c #BB9F8E",
"%	c #BDA190",
"&	c #B99C8A",
"*	c #CBAF9E",
"=	c #BDA291",
"-	c #BA9A8A",
";	c #C0A694",
">	c #B29588",
",	c #C6AA9C",
"'	c #C1A796",
")	c #B3968C",
"!	c #C0A496",
"~	c #BB9C8F",
"{	c #CEB1A1",
"]	c #B5998F",
"^	c #B69987",
"/	c #B7988E",
"(	c #BD9F93",
"_	c #BA9D8C",
":	c #BB9F8F",
"<	c #C1A698",
"[	c #BCA08F",
"}	c #BBA192",
"|	c #C2A694",
"1	c #B59B8C",
"2	c #C2A393",
"3	c #B8988E",
"4	c #B69790",
"5	c #B99A8D",
"6	c #BBA18E",
"7	c #B79A89",
"8	c #BDA191",
"9	c #BFA28F",
"0	c #B59689",
"a	c #BFA393",
"b	c #C6AB9B",
"c	c #BEA495",
"d	c #BC9E8F",
"e	c #C4AA99",
"f	c #BFA593",
"g	c #BC9F8D",
"h	c #C0A595",
"i	c #BDA292",
"j	c #C4AA9B",
"k	c #BEA395",
"l	c #B6998D",
"m	c #C3A898",
"n	c #BCA190",
"o	c #C8AE9F",
"p	c #C0A493",
"q	c #B99D8D",
"r	c #B6998E",
"s	c #B1948A",
"t	c #B8998C",
"u	c #BEA392",
"v	c #B89B8B",
"w	c #BA9B8E",
"x	c #B6988F",
"y	c #B4978D",
"z	c #CDB1A4",
"A	c #C1A595",
"B	c #B8998F",
"C	c #B3958D",
"D	c #C6A99B",
"E	c #C4A898",
"F	c #B29489",
"G	c #BDA391",
"H	c #B19588",
"I	c #B0918A",
"J	c #C1A295",
"K	c #BBA190",
"L	c #B6978D",
"M	c #B3958C",
"N	c #BDA08F",
"O	c #BB9E8F",
"P	c #BDA090",
"Q	c #BBA18F",
"R	c #FFFFFF",
"       .         +@             ",
"     #$%        &*@             ",
"     &=         -;              ",
"     &=         %>,'            ",
"     )!          )~{            ",
"     )]!         ^/(            ",
"    _:]<        _[}|            ",
"    % 12        %               ",
"                            -345",
"                            6789",
"                             6= ",
"            _[                  ",
"           .-                   ",
"         #&03a              &$  ",
"         b*c4d$          ef_-   ",
"   g     hijklk        m+'6n%   ",
"  .[          .[    oo@)4p      ",
"  .[          .&&$  qrstui      ",
"  .[          .#n=  nvw[        ",
"  %g          %=     n&[        ",
"   .-       4p                  ",
"   %6n  &xyyz@                  ",
"        nA]B@i                  ",
"          CD                    ",
"          .{                    ",
"          .E          gn        ",
"          .[          Fu        ",
"+G        %g         HIJ       g",
"oK                 .-       --L4",
"MhG               gN6n      66aO",
"<P.[              nQ           n",
" n%=    __%                     "};
