/* XPM */
static char * Tile_05_128x128_xpm[] = {
"128 128 4016 2",
"  	c #D9D2B5",
". 	c #DFD6B9",
"+ 	c #E2D9BE",
"@ 	c #E7DDC1",
"# 	c #E2D8BA",
"$ 	c #E2D9BA",
"% 	c #E4DBBD",
"& 	c #E3DABD",
"* 	c #E4DABC",
"= 	c #E0D6B8",
"- 	c #E2D9BB",
"; 	c #E6DEC1",
"> 	c #E5DDC0",
", 	c #E4DCBE",
"' 	c #E7DEC2",
") 	c #E1D8B9",
"! 	c #E3DABC",
"~ 	c #E2D9BC",
"{ 	c #E2DABC",
"] 	c #E4DBBE",
"^ 	c #E5DCBF",
"/ 	c #E4DCBF",
"( 	c #DFD6B6",
"_ 	c #E1D9BB",
": 	c #E0D8B9",
"< 	c #DFD5B5",
"[ 	c #E5DCBE",
"} 	c #E3D9BA",
"| 	c #DCD4B5",
"1 	c #D9D0B3",
"2 	c #E2D8BC",
"3 	c #E5DABF",
"4 	c #E3D7B8",
"5 	c #E9DEC1",
"6 	c #E4D7BA",
"7 	c #E2D7B8",
"8 	c #E3D7B7",
"9 	c #E2D5B6",
"0 	c #E2D7BA",
"a 	c #E1D7BC",
"b 	c #E1D7BB",
"c 	c #E3D8BA",
"d 	c #E5DBBE",
"e 	c #E3D7BA",
"f 	c #E1D4B6",
"g 	c #E5DABD",
"h 	c #E3D9BB",
"i 	c #E1D6B8",
"j 	c #E3D8BB",
"k 	c #DED3B4",
"l 	c #DBD0B1",
"m 	c #DBD0B2",
"n 	c #E0D5B8",
"o 	c #D2C9AF",
"p 	c #CFC6AA",
"q 	c #DACFB0",
"r 	c #E0D5B7",
"s 	c #E5DABE",
"t 	c #E4D9BA",
"u 	c #E4D8B9",
"v 	c #E3D6B8",
"w 	c #E6DBBE",
"x 	c #E7DBC0",
"y 	c #DDCFB0",
"z 	c #DED0B3",
"A 	c #DDCFB1",
"B 	c #DACCB1",
"C 	c #DACDB0",
"D 	c #DBCFB2",
"E 	c #D2C4A5",
"F 	c #CFC2A5",
"G 	c #BEAF91",
"H 	c #C3B395",
"I 	c #CEC2A5",
"J 	c #D8CDB0",
"K 	c #E1D7BD",
"L 	c #DED5BA",
"M 	c #D9CEB1",
"N 	c #D5C9AC",
"O 	c #D2C7AB",
"P 	c #D3C9AD",
"Q 	c #D8CDAE",
"R 	c #DCD1B6",
"S 	c #DBD1B5",
"T 	c #D6C9AA",
"U 	c #D1C4A7",
"V 	c #D6CBB1",
"W 	c #DFD5B9",
"X 	c #DBD1B4",
"Y 	c #DFD5BC",
"Z 	c #E0D7BC",
"` 	c #DDD2B4",
" .	c #DCD2B5",
"..	c #DAD0B4",
"+.	c #DCD1B5",
"@.	c #DFD6B8",
"#.	c #DCD3B5",
"$.	c #D6CDAD",
"%.	c #D5CBAD",
"&.	c #CBC2A7",
"*.	c #D0C6A8",
"=.	c #D5CCAE",
"-.	c #C9C1A4",
";.	c #C3BB9F",
">.	c #C7BEA2",
",.	c #C1B99C",
"'.	c #C6BB9D",
").	c #CEC5A6",
"!.	c #DDD3B4",
"~.	c #E0D6B9",
"{.	c #E3DABE",
"].	c #DED6BC",
"^.	c #D8CEAF",
"/.	c #EAE1C4",
"(.	c #E6DABF",
"_.	c #D1C4AA",
":.	c #B5A88F",
"<.	c #BBAE92",
"[.	c #CDC3A5",
"}.	c #C6BB9C",
"|.	c #D3C9AC",
"1.	c #DFD6BA",
"2.	c #D3C8AA",
"3.	c #CAC0A5",
"4.	c #D2C6A9",
"5.	c #DCD0B4",
"6.	c #B3A287",
"7.	c #D6CAAD",
"8.	c #DFD1B4",
"9.	c #D8C8A9",
"0.	c #DDCEB1",
"a.	c #D6C6A6",
"b.	c #C0AA8C",
"c.	c #D7C6A5",
"d.	c #DFCFAC",
"e.	c #E3D6B4",
"f.	c #E7DBBA",
"g.	c #ECDFBE",
"h.	c #E9DCB7",
"i.	c #EADDBA",
"j.	c #EADEBE",
"k.	c #E7DCBB",
"l.	c #EBE0C0",
"m.	c #E0D8BA",
"n.	c #E1D6B7",
"o.	c #F7EEC7",
"p.	c #FFFDCF",
"q.	c #FFFACC",
"r.	c #FFF4C6",
"s.	c #FEF1C3",
"t.	c #FFF6C7",
"u.	c #FEF2C5",
"v.	c #FDF3C3",
"w.	c #EAE5B4",
"x.	c #C7C798",
"y.	c #DCDEA9",
"z.	c #D6D5A2",
"A.	c #E5DFAE",
"B.	c #C2B88C",
"C.	c #B5A981",
"D.	c #CCC08F",
"E.	c #E4D8AC",
"F.	c #EFE2B5",
"G.	c #F6EBBF",
"H.	c #F6EABE",
"I.	c #F8EDBF",
"J.	c #F7EBBE",
"K.	c #FFF5C8",
"L.	c #FFF5CE",
"M.	c #EBE3C4",
"N.	c #E0D7B8",
"O.	c #D4C7A5",
"P.	c #D5C8A6",
"Q.	c #D2C4A2",
"R.	c #E7D8B4",
"S.	c #EDDEB9",
"T.	c #D4C39D",
"U.	c #D2C39A",
"V.	c #E1D2AE",
"W.	c #E9DCBB",
"X.	c #E6D8B9",
"Y.	c #E6D9B9",
"Z.	c #E0D4B4",
"`.	c #EAE0C4",
" +	c #E7DCC0",
".+	c #E2D6B9",
"++	c #DCD0B2",
"@+	c #E3D8BD",
"#+	c #DCD1B2",
"$+	c #DBCEB0",
"%+	c #E1D5B9",
"&+	c #DFD4B4",
"*+	c #E4D8BB",
"=+	c #E2D8BD",
"-+	c #E5DBC0",
";+	c #E4DABF",
">+	c #DFD4B5",
",+	c #DED2B5",
"'+	c #DBCFAE",
")+	c #DBD1B2",
"!+	c #D7CDAE",
"~+	c #DCD1B3",
"{+	c #E0D7BA",
"]+	c #E4D7B4",
"^+	c #D8CCA9",
"/+	c #DCD2AF",
"(+	c #EBDFBD",
"_+	c #EBE0BC",
":+	c #EEE3C1",
"<+	c #F2E6C4",
"[+	c #EDE3BE",
"}+	c #ECE1BD",
"|+	c #EADFB9",
"1+	c #DDD3AE",
"2+	c #D7CDA9",
"3+	c #C6BD9A",
"4+	c #D1C7A2",
"5+	c #C5BC99",
"6+	c #9D9674",
"7+	c #C8BF9A",
"8+	c #D2C8A1",
"9+	c #DAD0A9",
"0+	c #EFE4BB",
"a+	c #F1E7C0",
"b+	c #EBE1BF",
"c+	c #ECE4C8",
"d+	c #D3C8AE",
"e+	c #FDE9BE",
"f+	c #FFF0C3",
"g+	c #F1DDB2",
"h+	c #E0CCA2",
"i+	c #E9D8AC",
"j+	c #F7E5BA",
"k+	c #F6E3B9",
"l+	c #FBE9BD",
"m+	c #E6D5AA",
"n+	c #D9CA9E",
"o+	c #D2C696",
"p+	c #D8CA9F",
"q+	c #F2E3B5",
"r+	c #E2D2A7",
"s+	c #C3B289",
"t+	c #CFBE94",
"u+	c #F3E4B4",
"v+	c #EAD8AD",
"w+	c #DCCB9E",
"x+	c #E1CEA5",
"y+	c #EAD7AD",
"z+	c #EED9B0",
"A+	c #C5AF89",
"B+	c #C7B285",
"C+	c #EEDFAB",
"D+	c #FAEABB",
"E+	c #FFF2C6",
"F+	c #FFF7CA",
"G+	c #FFF6C9",
"H+	c #FFF9CC",
"I+	c #FFFFD5",
"J+	c #D6CFB3",
"K+	c #FFFFCF",
"L+	c #FFFED0",
"M+	c #FFFECF",
"N+	c #FFF2C5",
"O+	c #F9EBBE",
"P+	c #F9EEBF",
"Q+	c #FBEEC1",
"R+	c #FAEEBF",
"S+	c #F5EABC",
"T+	c #F8EBBD",
"U+	c #F6E7B8",
"V+	c #E6D5A5",
"W+	c #E1D3A2",
"X+	c #EEDFAE",
"Y+	c #F4E6B5",
"Z+	c #E6D5A8",
"`+	c #E8D9A7",
" @	c #C7B688",
".@	c #D7C59A",
"+@	c #DCCEA2",
"@@	c #F0E4B7",
"#@	c #F6E9BC",
"$@	c #F9EDC0",
"%@	c #FAEFC2",
"&@	c #FFFFD7",
"*@	c #DFD7BD",
"=@	c #D0C4A6",
"-@	c #E9D39E",
";@	c #DBC592",
">@	c #D1BF90",
",@	c #C9B585",
"'@	c #CCBA8B",
")@	c #D4C395",
"!@	c #CFBC8D",
"~@	c #DCC496",
"{@	c #FBE7BC",
"]@	c #FFF6CA",
"^@	c #FFF4C7",
"/@	c #FFF7CB",
"(@	c #FFF5C9",
"_@	c #FFF4C9",
":@	c #FFF2C3",
"<@	c #DFCD9A",
"[@	c #E3D1A6",
"}@	c #F7E6BA",
"|@	c #FFF1C5",
"1@	c #ECE0C0",
"2@	c #E2D6B8",
"3@	c #DAD0B5",
"4@	c #FAECC7",
"5@	c #FFFDD0",
"6@	c #FFFBCD",
"7@	c #FFF6C8",
"8@	c #FFF1C4",
"9@	c #EFDBAF",
"0@	c #D4BC91",
"a@	c #D8C496",
"b@	c #F3DFB2",
"c@	c #FEEDC0",
"d@	c #FEECBF",
"e@	c #FAE7BA",
"f@	c #F9E6BA",
"g@	c #FBE9BB",
"h@	c #F8E4B5",
"i@	c #D8BD8F",
"j@	c #E3CCA1",
"k@	c #EBD7AB",
"l@	c #F7E4B7",
"m@	c #F1DDB1",
"n@	c #DFC89E",
"o@	c #F5E2B6",
"p@	c #FCEBBE",
"q@	c #FFFFD1",
"r@	c #EADDBD",
"s@	c #D8CDB1",
"t@	c #DACFB2",
"u@	c #FFEEC3",
"v@	c #FFF3C6",
"w@	c #FFF7C9",
"x@	c #F9E8BC",
"y@	c #E3D3A9",
"z@	c #C3B689",
"A@	c #C8BA8F",
"B@	c #EFE1B4",
"C@	c #EDDFB1",
"D@	c #ECDFB0",
"E@	c #D1C298",
"F@	c #D3C19B",
"G@	c #E8DAAE",
"H@	c #CDBC96",
"I@	c #E4D3A6",
"J@	c #DDCBA3",
"K@	c #E1D1A5",
"L@	c #EDD9AE",
"M@	c #F8EAB6",
"N@	c #FFEFB4",
"O@	c #F6E3B5",
"P@	c #FFF3C7",
"Q@	c #E0D4B6",
"R@	c #D0C7AA",
"S@	c #FFFDCD",
"T@	c #FFFCCE",
"U@	c #F6EABD",
"V@	c #FAEEC1",
"W@	c #F7ECBE",
"X@	c #F2E7BA",
"Y@	c #F0E6B8",
"Z@	c #EEE4B7",
"`@	c #D9CFA4",
" #	c #D0C69B",
".#	c #F2E8BB",
"+#	c #F4E9BD",
"@#	c #DED3A7",
"##	c #DED4A8",
"$#	c #DBCEA3",
"%#	c #B6AC82",
"&#	c #D2C79A",
"*#	c #D9CEA3",
"=#	c #E5DAAE",
"-#	c #EFE3B6",
";#	c #F2E5B9",
">#	c #FFF5C7",
",#	c #FFF9CD",
"'#	c #FFFFDD",
")#	c #D8CFB3",
"!#	c #B4AB94",
"~#	c #A59873",
"{#	c #C8BC91",
"]#	c #E6D8AB",
"^#	c #C3B78D",
"/#	c #C8BD91",
"(#	c #E3D3A5",
"_#	c #EEDEB0",
":#	c #C7B989",
"<#	c #F0DBAF",
"[#	c #FFF4C8",
"}#	c #FFF3C8",
"|#	c #FDEBC0",
"1#	c #FDEBBF",
"2#	c #D8C693",
"3#	c #F0DFB4",
"4#	c #FFFFD6",
"5#	c #E5DABC",
"6#	c #D8CDB2",
"7#	c #FFFCCF",
"8#	c #FFFBCF",
"9#	c #FFFBCE",
"0#	c #FFF3C5",
"a#	c #E7D1A5",
"b#	c #D3BB90",
"c#	c #E0CB9E",
"d#	c #E3CEA1",
"e#	c #EAD6A9",
"f#	c #F8E5B9",
"g#	c #F4E0B3",
"h#	c #F6E2B6",
"i#	c #FDEABD",
"j#	c #F8E3B5",
"k#	c #D9BE8E",
"l#	c #DBC393",
"m#	c #EDD7A8",
"n#	c #E8D0A2",
"o#	c #E5CDA1",
"p#	c #E1CA9D",
"q#	c #DFC89C",
"r#	c #E9D6AB",
"s#	c #FFFFD9",
"t#	c #DAD0B6",
"u#	c #F0E2C0",
"v#	c #FFEEC0",
"w#	c #ECDAAB",
"x#	c #B19E70",
"y#	c #E2D0A4",
"z#	c #F8E7BB",
"A#	c #E8D9AD",
"B#	c #BEAC82",
"C#	c #A3946E",
"D#	c #DBC9A4",
"E#	c #E9D7AE",
"F#	c #D4C49A",
"G#	c #DCCEA1",
"H#	c #E8DAAF",
"I#	c #E3D3A8",
"J#	c #DFD1A3",
"K#	c #CEC296",
"L#	c #D0C698",
"M#	c #CBD092",
"N#	c #F1E8B8",
"O#	c #F6E7BC",
"P#	c #FFF0C4",
"Q#	c #FFFFD2",
"R#	c #D1CAAD",
"S#	c #FFF8CA",
"T#	c #FAEDC0",
"U#	c #FEF1C4",
"V#	c #ECE0B3",
"W#	c #D1C499",
"X#	c #C5B98D",
"Y#	c #D7CAA0",
"Z#	c #EFE4B8",
"`#	c #FBEFC2",
" $	c #EFE5B8",
".$	c #EBE1B5",
"+$	c #EADFB4",
"@$	c #EBDFB4",
"#$	c #DED3A8",
"$$	c #CBC396",
"%$	c #D6CCA0",
"&$	c #E3D8AC",
"*$	c #E4D9AC",
"=$	c #D5C9A0",
"-$	c #FBF0C4",
";$	c #FFF9CB",
">$	c #FFFFDC",
",$	c #D8D0B6",
"'$	c #D5CBAF",
")$	c #D3BD93",
"!$	c #E9D8A8",
"~$	c #E2D0A1",
"{$	c #F3DEB0",
"]$	c #FBE5B4",
"^$	c #FDE7B4",
"/$	c #F6DEB2",
"($	c #D5B687",
"_$	c #F7E7B6",
":$	c #FFEEC1",
"<$	c #FFEFC1",
"[$	c #FCE9BC",
"}$	c #F5E3B8",
"|$	c #FAE7BC",
"1$	c #FFE8B5",
"2$	c #E2CA96",
"3$	c #F9E6B9",
"4$	c #FFF1C6",
"5$	c #FFFFD3",
"6$	c #E5D9BD",
"7$	c #FFFACD",
"8$	c #FFF8CC",
"9$	c #FBEABD",
"0$	c #EDDAAD",
"a$	c #EDDAAE",
"b$	c #DCC89D",
"c$	c #F5E3B6",
"d$	c #F3E1B4",
"e$	c #F4E3B6",
"f$	c #E1CEA2",
"g$	c #BCA77E",
"h$	c #B9A47B",
"i$	c #B7A279",
"j$	c #D0BE92",
"k$	c #E8D8AC",
"l$	c #E2D3A8",
"m$	c #F0E0B5",
"n$	c #FDEDC2",
"o$	c #FDECC1",
"p$	c #D4CAB0",
"q$	c #F9EBC7",
"r$	c #F7E2B4",
"s$	c #DEC89A",
"t$	c #DCC499",
"u$	c #EAD4AB",
"v$	c #AF966F",
"w$	c #D7C296",
"x$	c #D6C498",
"y$	c #A18968",
"z$	c #B5A07C",
"A$	c #D4C39A",
"B$	c #D9C89D",
"C$	c #E1CFA6",
"D$	c #CABC91",
"E$	c #BDB386",
"F$	c #DCCEA4",
"G$	c #C9BB93",
"H$	c #D9D1A1",
"I$	c #E5D9AC",
"J$	c #EEDEB3",
"K$	c #FBEBBF",
"L$	c #FFFCCD",
"M$	c #DDD3B6",
"N$	c #D5CCB1",
"O$	c #FBEBBD",
"P$	c #FFF4C5",
"Q$	c #FDEFC1",
"R$	c #FEF0C1",
"S$	c #E5D4A7",
"T$	c #E7D8AA",
"U$	c #F8ECBE",
"V$	c #FFF8CB",
"W$	c #FBF0C2",
"X$	c #F9EFC1",
"Y$	c #FAEEC2",
"Z$	c #EEE2B7",
"`$	c #F1E5B8",
" %	c #E0D4A8",
".%	c #9C8C63",
"+%	c #BEB486",
"@%	c #BDB185",
"#%	c #A99B72",
"$%	c #CFC7A9",
"%%	c #D1C8AB",
"&%	c #D0C099",
"*%	c #B1A87D",
"=%	c #D6CD9E",
"-%	c #EBDEB1",
";%	c #D6CAA0",
">%	c #C5B88E",
",%	c #C6BB90",
"'%	c #CBBE95",
")%	c #D5C59D",
"!%	c #EFE0B5",
"~%	c #FCEABE",
"{%	c #FCE9BA",
"]%	c #FDE9BA",
"^%	c #E6CB9E",
"/%	c #D0AF81",
"(%	c #D0B187",
"_%	c #D0B58A",
":%	c #EAD2A0",
"<%	c #D7BD8E",
"[%	c #F4DFAE",
"}%	c #FDEABC",
"|%	c #FFFED2",
"1%	c #E1D4B7",
"2%	c #DCD2B9",
"3%	c #FCEBBF",
"4%	c #F8E6BB",
"5%	c #FFEEC2",
"6%	c #FAE9BD",
"7%	c #FFEFC3",
"8%	c #FBEBBE",
"9%	c #EBD7AC",
"0%	c #DBC79E",
"a%	c #DFC9A0",
"b%	c #C6AE86",
"c%	c #B39972",
"d%	c #D5C097",
"e%	c #EBD8AE",
"f%	c #F8E6BC",
"g%	c #F4E2B5",
"h%	c #D2C7AC",
"i%	c #F8E9C5",
"j%	c #F8E3B8",
"k%	c #CFB38C",
"l%	c #B79972",
"m%	c #DFC99E",
"n%	c #E5CFA1",
"o%	c #E2CDA0",
"p%	c #DEC79C",
"q%	c #E6D0A4",
"r%	c #C8AE82",
"s%	c #D8C196",
"t%	c #D0BB8F",
"u%	c #CBB68B",
"v%	c #F6E6BB",
"w%	c #F3E3B8",
"x%	c #F1E1B6",
"y%	c #E7D6AB",
"z%	c #E7D6AC",
"A%	c #F2E2B7",
"B%	c #FDEDC1",
"C%	c #FFFBCC",
"D%	c #DCCFB2",
"E%	c #B1A187",
"F%	c #CDB688",
"G%	c #C7B180",
"H%	c #E5D4A4",
"I%	c #ECDCA9",
"J%	c #F8E9B8",
"K%	c #F5E6B4",
"L%	c #ECDDAA",
"M%	c #D5C492",
"N%	c #E9DCAE",
"O%	c #FFF9CA",
"P%	c #FCEFC2",
"Q%	c #F0E3B5",
"R%	c #D6C79A",
"S%	c #DCCEA0",
"T%	c #DBCCA1",
"U%	c #D1C197",
"V%	c #AC9B6F",
"W%	c #EFE3B7",
"X%	c #FFFFD4",
"Y%	c #DACEB1",
"Z%	c #F2E1B6",
"`%	c #CAC094",
" &	c #C9C092",
".&	c #DCD2A4",
"+&	c #CCBF94",
"@&	c #C1B587",
"#&	c #C3B68A",
"$&	c #DBCA9D",
"%&	c #EBDAAF",
"&&	c #F5E4B7",
"*&	c #FEEDC1",
"=&	c #FEECC1",
"-&	c #F3E1B5",
";&	c #E8D9AB",
">&	c #CABB8C",
",&	c #E3D5A6",
"'&	c #DFCEA4",
")&	c #DBC9A2",
"!&	c #E6D6AB",
"~&	c #F0DFB3",
"{&	c #FAE8BD",
"]&	c #DFD2B5",
"^&	c #FFFACE",
"/&	c #FFF2C7",
"(&	c #F3E1B7",
"_&	c #E4D1A8",
":&	c #A8916B",
"<&	c #C3AD87",
"[&	c #E5D0A7",
"}&	c #F4E0B7",
"|&	c #F8E5BA",
"1&	c #FCEABC",
"2&	c #FFEEBE",
"3&	c #CDC3A6",
"4&	c #F4E6BF",
"5&	c #FDE8BD",
"6&	c #F9E4B8",
"7&	c #F8E2B5",
"8&	c #F1DCB0",
"9&	c #F4E1B5",
"0&	c #F6E2B7",
"a&	c #F1DEB2",
"b&	c #DDC89D",
"c&	c #C5AC7F",
"d&	c #D0B88D",
"e&	c #E6D0A6",
"f&	c #F7E4B9",
"g&	c #F9E7BA",
"h&	c #F1DFB3",
"i&	c #FFEFC4",
"j&	c #FCECBE",
"k&	c #FFF5C6",
"l&	c #D8CCAF",
"m&	c #BEB399",
"n&	c #F1E3B3",
"o&	c #F6EAB7",
"p&	c #F0E4B0",
"q&	c #E9DCA7",
"r&	c #E3D6A2",
"s&	c #C4B882",
"t&	c #E1D7A5",
"u&	c #EEE4B4",
"v&	c #FAEFC1",
"w&	c #FEF3C5",
"x&	c #E9DDB0",
"y&	c #DFD3A6",
"z&	c #ECE0B4",
"A&	c #DDCEA3",
"B&	c #B5A478",
"C&	c #DFD2A6",
"D&	c #F3E8BA",
"E&	c #D9CDAC",
"F&	c #E8DBB0",
"G&	c #D2C99E",
"H&	c #DFD4A8",
"I&	c #CDC497",
"J&	c #B9B489",
"K&	c #B1AE84",
"L&	c #C2B48D",
"M&	c #D2C89F",
"N&	c #E9DCB1",
"O&	c #FFEFC2",
"P&	c #FCEBC0",
"Q&	c #FEEEC1",
"R&	c #E1D0A6",
"S&	c #DFCFA1",
"T&	c #C9B98C",
"U&	c #F9EABD",
"V&	c #FAE9BE",
"W&	c #FDECC0",
"X&	c #FBEABE",
"Y&	c #FCEABF",
"Z&	c #FAE8BB",
"`&	c #FFF0C5",
" *	c #E1D7BA",
".*	c #D1C5A6",
"+*	c #FFF8CD",
"@*	c #FFF5CA",
"#*	c #FEEEC3",
"$*	c #FBEAC0",
"%*	c #EFDEB4",
"&*	c #A08C68",
"**	c #C2AF8B",
"=*	c #E2D2AA",
"-*	c #EEDDB4",
";*	c #ECDCB3",
">*	c #E5D5AD",
",*	c #E2D0A7",
"'*	c #FEF0C0",
")*	c #B8A98F",
"!*	c #F7E8C3",
"~*	c #FCE8BC",
"{*	c #FCE8BB",
"]*	c #FDEABE",
"^*	c #F5E2B5",
"/*	c #F6E4B7",
"(*	c #FEEEC2",
"_*	c #F4E4B8",
":*	c #FDEDBD",
"<*	c #D5CAAC",
"[*	c #CBC3A7",
"}*	c #F7ECBB",
"|*	c #F9EEBE",
"1*	c #FBF2C0",
"2*	c #FEF5C3",
"3*	c #F8EFBC",
"4*	c #F8EFBB",
"5*	c #FEF5C1",
"6*	c #FFF6C6",
"7*	c #FDF2C4",
"8*	c #F6E9BD",
"9*	c #E6D9AC",
"0*	c #BFB082",
"a*	c #D5C59A",
"b*	c #F3E5BA",
"c*	c #FFFDCC",
"d*	c #C9BFA0",
"e*	c #D0C6A9",
"f*	c #E6DBB0",
"g*	c #E7DCB1",
"h*	c #E4D9AE",
"i*	c #CAC197",
"j*	c #BBB68B",
"k*	c #B7B187",
"l*	c #AFA880",
"m*	c #9B9570",
"n*	c #88805F",
"o*	c #C2B990",
"p*	c #EBDEB2",
"q*	c #F2E1B9",
"r*	c #F3E3B7",
"s*	c #F6E5BB",
"t*	c #F5E3B9",
"u*	c #F8E7B9",
"v*	c #F6E4B5",
"w*	c #E8D5A9",
"x*	c #E7D2A2",
"y*	c #E9D6AA",
"z*	c #FCE9BE",
"A*	c #FDEBC1",
"B*	c #FCEBBD",
"C*	c #F8E6BA",
"D*	c #FFF1C7",
"E*	c #E3D7BB",
"F*	c #D7CBB0",
"G*	c #FBE9BE",
"H*	c #F6E5BA",
"I*	c #F4E2B8",
"J*	c #BFA67F",
"K*	c #C6AD87",
"L*	c #DDC79E",
"M*	c #EED9AE",
"N*	c #EAD5AA",
"O*	c #DFC79B",
"P*	c #E4CB95",
"Q*	c #DABA86",
"R*	c #BDB397",
"S*	c #F6E8C4",
"T*	c #F2E1B5",
"U*	c #F2E0B4",
"V*	c #FAEABE",
"W*	c #DBD2B4",
"X*	c #D2C8AC",
"Y*	c #FFF3C3",
"Z*	c #F6E9BA",
"`*	c #FFF8C7",
" =	c #FFF7C7",
".=	c #FFFAC9",
"+=	c #FFF8C9",
"@=	c #FFF4C3",
"#=	c #F8EBBF",
"$=	c #D7CB9E",
"%=	c #D6CA9D",
"&=	c #F7EAB9",
"*=	c #BAB196",
"==	c #D9CDAF",
"-=	c #F3E0B3",
";=	c #E4D2A5",
">=	c #DFCB9D",
",=	c #EAD6AB",
"'=	c #F4E2B6",
")=	c #DECB9D",
"!=	c #C0A97D",
"~=	c #ECD9AF",
"{=	c #E7D3A9",
"]=	c #FAE8B9",
"^=	c #F4E1B8",
"/=	c #EFDCAF",
"(=	c #BCA57B",
"_=	c #CBB18A",
":=	c #D7BF8F",
"<=	c #EEDCB0",
"[=	c #FBE9BF",
"}=	c #FCEABD",
"|=	c #D7CCB1",
"1=	c #F7E6BC",
"2=	c #F7E6BB",
"3=	c #EAD8AE",
"4=	c #DECBA2",
"5=	c #BAA27A",
"6=	c #B5A17A",
"7=	c #C8B78E",
"8=	c #B8A67E",
"9=	c #BFB189",
"0=	c #CAB88D",
"a=	c #A2997D",
"b=	c #F4E6C2",
"c=	c #F8E8BD",
"d=	c #FCECC1",
"e=	c #FCEDC2",
"f=	c #FDEFC3",
"g=	c #FAEBBF",
"h=	c #EFE0B6",
"i=	c #F7E8BC",
"j=	c #E2D4A9",
"k=	c #F3E8BB",
"l=	c #FEEFBF",
"m=	c #FDEEBD",
"n=	c #FFF7C8",
"o=	c #E1CFA1",
"p=	c #E2D09F",
"q=	c #C4BA9F",
"r=	c #F7E5B8",
"s=	c #E3CFA5",
"t=	c #BBA57D",
"u=	c #B5A178",
"v=	c #CABD88",
"w=	c #C5B289",
"x=	c #AD9970",
"y=	c #D6C59A",
"z=	c #B6A07A",
"A=	c #CDBC90",
"B=	c #E9D8AD",
"C=	c #F6E5B9",
"D=	c #FBE8BD",
"E=	c #FFF0C6",
"F=	c #DAD0B8",
"G=	c #FAEAC0",
"H=	c #F8E7BD",
"I=	c #FAEBC0",
"J=	c #EEDEB5",
"K=	c #EFDFB5",
"L=	c #E0D0A8",
"M=	c #D9CBA2",
"N=	c #B3A88B",
"O=	c #FDECC2",
"P=	c #FEEFC3",
"Q=	c #FDEEC4",
"R=	c #F4E6BC",
"S=	c #D7CCA2",
"T=	c #D0C69F",
"U=	c #ADA784",
"V=	c #D9CFA5",
"W=	c #D5CDB2",
"X=	c #D3CAAD",
"Y=	c #FFF5C4",
"Z=	c #FFF1C0",
"`=	c #FEEFBE",
" -	c #FFF5C5",
".-	c #F0E2B4",
"+-	c #FFFAC8",
"@-	c #CFC6A9",
"#-	c #DDD1B2",
"$-	c #FFEDC1",
"%-	c #FFEDC2",
"&-	c #F6E4B9",
"*-	c #F0DEB2",
"=-	c #CDB88F",
"--	c #D2BF95",
";-	c #E8D8A7",
">-	c #E8D7A9",
",-	c #CAB48A",
"'-	c #D4BE8F",
")-	c #AD9671",
"!-	c #D6C197",
"~-	c #F2DFB5",
"{-	c #FEEDC2",
"]-	c #FAE7BD",
"^-	c #E0D4B8",
"/-	c #D7CDB3",
"(-	c #FFEDC3",
"_-	c #FAE9BF",
":-	c #F2E2B8",
"<-	c #E7D7AE",
"[-	c #E7D7AC",
"}-	c #DCCDA0",
"|-	c #DBCB9B",
"1-	c #B4A78B",
"2-	c #F1E3BD",
"3-	c #F6E6BA",
"4-	c #EBD9AD",
"5-	c #EDDBAE",
"6-	c #D5C298",
"7-	c #D6C599",
"8-	c #F2DFB0",
"9-	c #D2C9AB",
"0-	c #F9EDBD",
"a-	c #FCF1C2",
"b-	c #FEF3C6",
"c-	c #D5CEB4",
"d-	c #E2D5B8",
"e-	c #FDEABF",
"f-	c #E4D2A6",
"g-	c #EFDDB1",
"h-	c #F0DDB1",
"i-	c #FFEEC4",
"j-	c #FEECC2",
"k-	c #E2D6BB",
"l-	c #D4C9AE",
"m-	c #FBEBC0",
"n-	c #F1E1B3",
"o-	c #E2D3A5",
"p-	c #C3B484",
"q-	c #CFBC8A",
"r-	c #BCAE91",
"s-	c #EFE0BC",
"t-	c #EBD5A9",
"u-	c #EEDAAD",
"v-	c #EEDBAD",
"w-	c #FFF1C2",
"x-	c #DDD5B8",
"y-	c #D4CBAF",
"z-	c #FDF2C5",
"A-	c #D4CCB1",
"B-	c #FDECBF",
"C-	c #F4E1B6",
"D-	c #F0DDB2",
"E-	c #F4E2B7",
"F-	c #E9D7AD",
"G-	c #F1E0B4",
"H-	c #F3E2B8",
"I-	c #FEEDC3",
"J-	c #FFEFC5",
"K-	c #E3D8BC",
"L-	c #D7CCB2",
"M-	c #FFF6CB",
"N-	c #F5E4B9",
"O-	c #EFDFB4",
"P-	c #EFDEB1",
"Q-	c #D1C092",
"R-	c #DCC599",
"S-	c #DDC499",
"T-	c #ECD3A2",
"U-	c #C3B598",
"V-	c #ECDFBA",
"W-	c #FBECC0",
"X-	c #F8E7BC",
"Y-	c #F9E7BC",
"Z-	c #F8E8BC",
"`-	c #F5E5B7",
" ;	c #F3E2B5",
".;	c #F0E3B7",
"+;	c #F4E5BB",
"@;	c #D3CAAC",
"#;	c #FDF0C1",
"$;	c #FCF2C5",
"%;	c #D7D0B5",
"&;	c #E6DCC1",
"*;	c #F9E9BD",
"=;	c #EEDDB3",
"-;	c #E0CEA7",
";;	c #DED3B6",
">;	c #D8CDB3",
",;	c #F9E8BD",
"';	c #E5D0A6",
");	c #DFC99D",
"!;	c #DDC497",
"~;	c #D3B68C",
"{;	c #DFC397",
"];	c #F8DEAC",
"^;	c #AFA588",
"/;	c #FBEABF",
"(;	c #F4E7BA",
"_;	c #F5E7BB",
":;	c #E8D9AF",
"<;	c #E7DAAE",
"[;	c #E7D8AD",
"};	c #F0DCAF",
"|;	c #F8E8BB",
"1;	c #D9CEAF",
"2;	c #D5CCB0",
"3;	c #FFFFDA",
"4;	c #D3CBAF",
"5;	c #E2D6BA",
"6;	c #FAE8BE",
"7;	c #D6CBB0",
"8;	c #F4E4BA",
"9;	c #F7E7BC",
"0;	c #F3E4B9",
"a;	c #EEE0B5",
"b;	c #E7D8AE",
"c;	c #DFD0A7",
"d;	c #D6C7A0",
"e;	c #CDBF99",
"f;	c #B6A983",
"g;	c #BBAF85",
"h;	c #EADDBB",
"i;	c #EBDCB1",
"j;	c #EEDEB2",
"k;	c #F9E9BE",
"l;	c #FBEDC2",
"m;	c #F9EBBF",
"n;	c #E3D6AB",
"o;	c #EBDEB3",
"p;	c #DDD4B8",
"q;	c #D9D1B6",
"r;	c #D3CBAE",
"s;	c #DDD0B0",
"t;	c #FFEDC0",
"u;	c #DED4B7",
"v;	c #D3C8AB",
"w;	c #F9E8BE",
"x;	c #E8D6AD",
"y;	c #E1CEA7",
"z;	c #E6D5AB",
"A;	c #EBDBB1",
"B;	c #ECDBB2",
"C;	c #E8D7AE",
"D;	c #DECDA5",
"E;	c #D8C79F",
"F;	c #D7C69E",
"G;	c #D2C6AF",
"H;	c #EADEBC",
"I;	c #F1E0B3",
"J;	c #EFDFB3",
"K;	c #F4E5B9",
"L;	c #FFFACB",
"M;	c #DFD6BC",
"N;	c #DAD2B6",
"O;	c #D3CBB0",
"P;	c #DED1B2",
"Q;	c #DED3B8",
"R;	c #D6CCB0",
"S;	c #E3CFA7",
"T;	c #CCB68F",
"U;	c #DAC69E",
"V;	c #E0CDA5",
"W;	c #EEDBB3",
"X;	c #E9D5AD",
"Y;	c #CAB48D",
"Z;	c #E3CEA4",
"`;	c #CEB790",
" >	c #FFEEBF",
".>	c #CBBFA4",
"+>	c #E7DBB9",
"@>	c #F8E6B9",
"#>	c #F7E5B9",
"$>	c #F6E4B8",
"%>	c #FEEBBD",
"&>	c #EFDDB2",
"*>	c #FFF2C4",
"=>	c #DED5BC",
"->	c #D9D0B4",
";>	c #D4CCB0",
">>	c #F8E5BC",
",>	c #D9CFB5",
"'>	c #FFF2C8",
")>	c #ECDAB1",
"!>	c #E0CDA4",
"~>	c #E8D5AB",
"{>	c #EFDEB3",
"]>	c #EDDAAF",
"^>	c #D7C098",
"/>	c #BDA279",
"(>	c #B49772",
"_>	c #C2A680",
":>	c #DDC69D",
"<>	c #FDE6B8",
"[>	c #E3D6B5",
"}>	c #F3DEB2",
"|>	c #EED9AD",
"1>	c #F8E7BA",
"2>	c #F0DCB0",
"3>	c #FEEABC",
"4>	c #F6E3B6",
"5>	c #F5E3B5",
"6>	c #DCD2B6",
"7>	c #D4CBAD",
"8>	c #D2CAAD",
"9>	c #E3D7B9",
"0>	c #ECDCB2",
"a>	c #F0DFB6",
"b>	c #ECDCB0",
"c>	c #CFC6AC",
"d>	c #FCEBC1",
"e>	c #EDDCB2",
"f>	c #EBDAB0",
"g>	c #E7D4A8",
"h>	c #C8B085",
"i>	c #C3A880",
"j>	c #B69B76",
"k>	c #CBB187",
"l>	c #F5DDAE",
"m>	c #C9BEA4",
"n>	c #E4D8B8",
"o>	c #EEDCAF",
"p>	c #E2CFA3",
"q>	c #DDCB9E",
"r>	c #E8D6AA",
"s>	c #F5E4B6",
"t>	c #F2DDB0",
"u>	c #EAD7A7",
"v>	c #FDEEC2",
"w>	c #FCECC0",
"x>	c #F4E3B7",
"y>	c #EEDDB1",
"z>	c #E9D7AC",
"A>	c #E3D2A6",
"B>	c #EDDCB1",
"C>	c #D7CDB1",
"D>	c #D3CBB1",
"E>	c #E0D2B2",
"F>	c #F3E3B9",
"G>	c #F0E1B7",
"H>	c #F4E3B9",
"I>	c #D8C9A0",
"J>	c #C6B48B",
"K>	c #C5BCA2",
"L>	c #DBD1B8",
"M>	c #F1DFB5",
"N>	c #E8D7AC",
"O>	c #E5D7A8",
"P>	c #C8B88C",
"Q>	c #C5B089",
"R>	c #D4C197",
"S>	c #E0CA9E",
"T>	c #D1C7AB",
"U>	c #FAE6BB",
"V>	c #F6E3B8",
"W>	c #F8E5BB",
"X>	c #EAD7AB",
"Y>	c #DECAA0",
"Z>	c #D6C198",
"`>	c #E4D0A6",
" ,	c #EFDBAD",
".,	c #F5DFB0",
"+,	c #D5B98E",
"@,	c #CCB084",
"#,	c #EFDCAE",
"$,	c #EFDBAE",
"%,	c #E6D2A5",
"&,	c #C7B082",
"*,	c #BBA274",
"=,	c #E2CEA3",
"-,	c #ECDAAF",
";,	c #EFDDB3",
">,	c #E9D5AA",
",,	c #DBD2B7",
"',	c #D3CCB2",
"),	c #ECD9B0",
"!,	c #ECDBB0",
"~,	c #E0CEA5",
"{,	c #D8C69B",
"],	c #C9BFA2",
"^,	c #D8CEB4",
"/,	c #F0DEB4",
"(,	c #DBC79C",
"_,	c #D6C298",
":,	c #ECDAB0",
"<,	c #D2C9AE",
"[,	c #E0D4B5",
"},	c #FAE8BC",
"|,	c #EDDCB0",
"1,	c #F1E0B6",
"2,	c #F1DEB4",
"3,	c #ECD4A7",
"4,	c #D6B686",
"5,	c #E5CEA1",
"6,	c #D7BC89",
"7,	c #BDA075",
"8,	c #B6976C",
"9,	c #B4976D",
"0,	c #BCA077",
"a,	c #D4BD90",
"b,	c #E5D1A2",
"c,	c #DFC79A",
"d,	c #FFFFD8",
"e,	c #D7D1B7",
"f,	c #E5D9BA",
"g,	c #EEDCB3",
"h,	c #EAD8B0",
"i,	c #DBCDA4",
"j,	c #C6B891",
"k,	c #D4C79E",
"l,	c #D0C8AC",
"m,	c #EDDAB0",
"n,	c #F1DEB3",
"o,	c #ECD9AE",
"p,	c #EDDBB0",
"q,	c #EFDCB2",
"r,	c #F6E4BA",
"s,	c #F7E7BA",
"t,	c #EDDDB2",
"u,	c #F6E6BC",
"v,	c #EEDFB3",
"w,	c #C7B690",
"x,	c #C1B38B",
"y,	c #DFD1A8",
"z,	c #E1D3A8",
"A,	c #E9DAB0",
"B,	c #DDCEA4",
"C,	c #E3D4AA",
"D,	c #CAB890",
"E,	c #8E7752",
"F,	c #DECDA4",
"G,	c #E5D4A9",
"H,	c #E7D9AC",
"I,	c #F3E6BA",
"J,	c #FEEBC1",
"K,	c #F9E7BD",
"L,	c #DFCFA5",
"M,	c #F9E7BB",
"N,	c #D8CEB6",
"O,	c #F7E7BB",
"P,	c #FCEDC1",
"Q,	c #D0BD94",
"R,	c #C4B389",
"S,	c #EEDCB1",
"T,	c #F7E6B9",
"U,	c #F4E3B8",
"V,	c #D4C298",
"W,	c #C9B78E",
"X,	c #BFAC83",
"Y,	c #DAC79D",
"Z,	c #D4C299",
"`,	c #F4E6BB",
" '	c #D6CBAD",
".'	c #D6CDB0",
"+'	c #FEF3C7",
"@'	c #E2D4B2",
"#'	c #FFECC2",
"$'	c #DBD0B4",
"%'	c #D7CCB0",
"&'	c #E1D6BA",
"*'	c #CAB385",
"='	c #A3835C",
"-'	c #DBC597",
";'	c #F3E2B6",
">'	c #E2D1A5",
",'	c #A88E65",
"''	c #D8C59D",
")'	c #D7C79C",
"!'	c #D3C295",
"~'	c #ECDDB1",
"{'	c #F7E7B7",
"]'	c #D2CCB0",
"^'	c #E5D8B6",
"/'	c #DCD0B6",
"('	c #D6CBAE",
"_'	c #CFC5A8",
":'	c #DFD5BA",
"<'	c #F5E5BA",
"['	c #E6D7AE",
"}'	c #DCCCA3",
"|'	c #9B8B66",
"1'	c #BDAD84",
"2'	c #C9B78F",
"3'	c #D4C59C",
"4'	c #E3D2A8",
"5'	c #DBCAA1",
"6'	c #D5C39A",
"7'	c #CEBE95",
"8'	c #A5906B",
"9'	c #E5D4A6",
"0'	c #E8D8AB",
"a'	c #FFEFBF",
"b'	c #D8CFB1",
"c'	c #D7D0B4",
"d'	c #D0C8AB",
"e'	c #E9DBBA",
"f'	c #FEEBC0",
"g'	c #D7CBAE",
"h'	c #FFF7C6",
"i'	c #D7CDB4",
"j'	c #D9CEB2",
"k'	c #FAEBC1",
"l'	c #F2E1B7",
"m'	c #EDDDB3",
"n'	c #CBBC93",
"o'	c #AE9E74",
"p'	c #B09D77",
"q'	c #A9926C",
"r'	c #F0DEB3",
"s'	c #DEC99D",
"t'	c #E6D3A4",
"u'	c #F5E6B8",
"v'	c #F7E8BA",
"w'	c #FFF4C2",
"x'	c #D7CCAD",
"y'	c #D8D0B5",
"z'	c #D3CCB1",
"A'	c #EADCB9",
"B'	c #DACFB5",
"C'	c #FFF5C3",
"D'	c #FEEAB7",
"E'	c #D5CBB2",
"F'	c #DBD1B6",
"G'	c #F9E9BF",
"H'	c #F5E5BC",
"I'	c #F0E1B6",
"J'	c #EADCB1",
"K'	c #D3C49B",
"L'	c #9D8C67",
"M'	c #CFBF98",
"N'	c #EBDDB3",
"O'	c #EEE1B6",
"P'	c #E3D7AC",
"Q'	c #D0C399",
"R'	c #BEB088",
"S'	c #E4D7AC",
"T'	c #F0E2B7",
"U'	c #FCEEC0",
"V'	c #D2C9AA",
"W'	c #D3CBAD",
"X'	c #D4CDB3",
"Y'	c #EEE1C0",
"Z'	c #FFEDC4",
"`'	c #DDD4BB",
" )	c #DED4BA",
".)	c #FDEEC3",
"+)	c #D0C4A7",
"@)	c #D9CFB2",
"#)	c #FAEABF",
"$)	c #FBECC1",
"%)	c #F4E4B9",
"&)	c #ECDCB1",
"*)	c #C7B388",
"=)	c #A5926B",
"-)	c #E7D4AA",
";)	c #D6C69B",
">)	c #A08A62",
",)	c #DFCDA2",
"')	c #F8E9BD",
"))	c #DCD3B7",
"!)	c #D7CFB4",
"~)	c #D1C9AE",
"{)	c #EDDEBA",
"])	c #D8CCB0",
"^)	c #D8CEB1",
"/)	c #F6E3B7",
"()	c #CFC3A5",
"_)	c #FEEFC4",
":)	c #A4835A",
"<)	c #C5AA80",
"[)	c #DFCBA2",
"})	c #EBD7AA",
"|)	c #C4A57B",
"1)	c #D8C295",
"2)	c #F0DFB1",
"3)	c #FEEFC2",
"4)	c #DAD3B9",
"5)	c #D0C7AC",
"6)	c #EEE0BD",
"7)	c #D9CDB2",
"8)	c #FFEDBF",
"9)	c #FFEEBC",
"0)	c #F5E2B4",
"a)	c #FDEDC0",
"b)	c #D0C5A8",
"c)	c #FBEDC1",
"d)	c #FCECC2",
"e)	c #FBECC2",
"f)	c #F8E9BE",
"g)	c #B8AA80",
"h)	c #B0A57C",
"i)	c #96875F",
"j)	c #A79973",
"k)	c #C1B28D",
"l)	c #D4C69D",
"m)	c #DBD2B6",
"n)	c #EDDFBD",
"o)	c #D8CCB1",
"p)	c #D3C7AB",
"q)	c #F1DBAC",
"r)	c #EBD49F",
"s)	c #DBC399",
"t)	c #D1C6AA",
"u)	c #FEEEC4",
"v)	c #B89F77",
"w)	c #BCA97F",
"x)	c #CAB187",
"y)	c #F5E5B9",
"z)	c #F7E8BD",
"A)	c #FCEEC2",
"B)	c #FFFDCE",
"C)	c #DCD2B8",
"D)	c #D1C8AC",
"E)	c #D1C5A8",
"F)	c #EEDBB0",
"G)	c #E4D4A6",
"H)	c #D0C6AB",
"I)	c #E9D5AB",
"J)	c #D5BE92",
"K)	c #E5D2A3",
"L)	c #ECDAAD",
"M)	c #F3E2B7",
"N)	c #FBEDC0",
"O)	c #FEF0C5",
"P)	c #DDD4BA",
"Q)	c #FDF2C6",
"R)	c #CCC4A8",
"S)	c #D1C6AB",
"T)	c #D8CDB4",
"U)	c #C4B89B",
"V)	c #D8C59B",
"W)	c #DCCB9F",
"X)	c #F7E7BD",
"Y)	c #F1E3BA",
"Z)	c #F4E5BC",
"`)	c #F5E6BC",
" !	c #F4E4BC",
".!	c #F3E4BB",
"+!	c #F2E4BB",
"@!	c #F2E3BB",
"#!	c #F2E4BA",
"$!	c #F2E3BA",
"%!	c #F1E2B9",
"&!	c #ECDEB4",
"*!	c #EADAB1",
"=!	c #E3D0A6",
"-!	c #DECCA3",
";!	c #E4D3AA",
">!	c #E6D5AD",
",!	c #ECDDB4",
"'!	c #EEDFB6",
")!	c #EEE1B8",
"!!	c #EEE0B8",
"~!	c #EDE0B8",
"{!	c #F4E7BD",
"]!	c #F4E9BE",
"^!	c #F8EDC2",
"/!	c #FAEEC3",
"(!	c #F9EDC3",
"_!	c #F9EEC2",
":!	c #F9EDC2",
"<!	c #F8EDC1",
"[!	c #F8EEC2",
"}!	c #F9EEC3",
"|!	c #F8EDC3",
"1!	c #F5EABF",
"2!	c #EDE2B8",
"3!	c #ECE1B7",
"4!	c #CFC7AB",
"5!	c #CDC5AA",
"6!	c #D0C5AA",
"7!	c #E5D6B1",
"8!	c #F2E2B9",
"9!	c #F6E6BD",
"0!	c #F5E5BD",
"a!	c #F4E4BB",
"b!	c #F1E0B7",
"c!	c #EFDEB5",
"d!	c #F2E1B8",
"e!	c #F3E2B9",
"f!	c #F4E2BA",
"g!	c #F7E7BE",
"h!	c #FCEAC0",
"i!	c #FCEAC1",
"j!	c #BAAD90",
"k!	c #D4C296",
"l!	c #E5D4A8",
"m!	c #C6B18A",
"n!	c #D9C79E",
"o!	c #EEDEB4",
"p!	c #FCEEC1",
"q!	c #FEEFC5",
"r!	c #FAECC1",
"s!	c #F9EBC0",
"t!	c #F9EAC0",
"u!	c #F8E9BF",
"v!	c #F7E9BF",
"w!	c #F6E8BE",
"x!	c #DFD7BC",
"y!	c #DCD3B8",
"z!	c #DCD1B4",
"A!	c #D5CAA9",
"B!	c #DFD5B8",
"C!	c #E1D6BB",
"D!	c #DED4B8",
"E!	c #DBD2B5",
"F!	c #DDD2B7",
"G!	c #DBD0B5",
"H!	c #D4C8AE",
"I!	c #D3C7A9",
"J!	c #D6CCAE",
"K!	c #DACFB1",
"L!	c #DCD2B4",
"M!	c #DFD5B7",
"N!	c #DDD5BB",
"O!	c #E2DABF",
"P!	c #E0D6B7",
"Q!	c #DCD4B4",
"R!	c #E2DABD",
"S!	c #E1D8BB",
"T!	c #E0D8B8",
"U!	c #DED4B5",
"V!	c #DDD3B3",
"W!	c #E1D8B8",
"X!	c #E3D9B9",
"Y!	c #E6DEBE",
"Z!	c #E5DCBA",
"`!	c #E6DDBB",
" ~	c #E4DAB7",
".~	c #E6DCB8",
"+~	c #E6DEBB",
"@~	c #E4DBBA",
"#~	c #D1C8AA",
"$~	c #CCC2A4",
"%~	c #DACFB3",
"&~	c #D4C8AB",
"*~	c #DACFB4",
"=~	c #D9CDB1",
"-~	c #D7CBAF",
";~	c #D5CAAE",
">~	c #D4C9AD",
",~	c #D2C6AA",
"'~	c #D4CAAD",
")~	c #D6CDB3",
"!~	c #D4CAAF",
"~~	c #D0C6AA",
"{~	c #D0C4A9",
"]~	c #CFC4A8",
"^~	c #CFC4A9",
"/~	c #D0C5A9",
"(~	c #D5CAAD",
"_~	c #D8CBAA",
":~	c #DACDAD",
"<~	c #E0D3B4",
"[~	c #E2D5B3",
"}~	c #E3D4B0",
"|~	c #E6D8B4",
"1~	c #E5D6B3",
"2~	c #E0D2AF",
"3~	c #D9CEB3",
"4~	c #DED4B9",
"5~	c #DDD3B8",
"6~	c #B4A888",
"7~	c #AEA184",
"8~	c #9E8C68",
"9~	c #9D8B68",
"0~	c #A08E6A",
"a~	c #CBBB94",
"b~	c #E4D5AC",
"c~	c #F0E2B9",
"d~	c #EFE1B8",
"e~	c #EFE0B8",
"f~	c #EDDFB7",
"g~	c #EBDEB6",
"h~	c #EBDDB6",
"i~	c #ECDFB7",
"j~	c #EBDEB7",
"k~	c #EBDEB9",
"l~	c #EBDFBC",
"m~	c #E8DCB9",
"n~	c #E5D9B8",
"o~	c #E4D8B6",
"p~	c #DFD3B2",
"q~	c #E2D9BD",
"r~	c #E4DCC2",
"s~	c #DCD0B3",
"t~	c #E6DABA",
"u~	c #EADEBF",
"v~	c #ECE0C3",
"w~	c #EBDFC2",
"x~	c #E7DBBC",
"y~	c #EBE0C3",
"z~	c #E9DEBF",
"A~	c #E8DCBE",
"B~	c #EADFC2",
"C~	c #E5D8BA",
"D~	c #C6B79C",
"E~	c #C7B89D",
"F~	c #D1C1A4",
"G~	c #D8CAAA",
"H~	c #DBCCAF",
"I~	c #D4C5A6",
"J~	c #D4C4A0",
"K~	c #CBB899",
"L~	c #C3B093",
"M~	c #CEBD9E",
"N~	c #DCCDAF",
"O~	c #DDD0B2",
"P~	c #DFD3B5",
"Q~	c #CDC0A1",
"R~	c #C8BC9A",
"S~	c #DBD2B3",
"T~	c #E0D6B6",
"U~	c #D5CBAE",
"V~	c #E5D9B9",
"W~	c #E7DCBF",
"X~	c #EDE0C1",
"Y~	c #F8E9C6",
"Z~	c #FBECC7",
"`~	c #F9E9C3",
" {	c #FBECC6",
".{	c #FAEAC4",
"+{	c #FBECC8",
"@{	c #F8EAC5",
"#{	c #F3E4BF",
"${	c #F0E1BC",
"%{	c #EDDFBB",
"&{	c #EEE1BF",
"*{	c #EDE1C0",
"={	c #EBDEC2",
"-{	c #E9DEC3",
";{	c #E6DABC",
">{	c #E2D6B7",
",{	c #F1E4C7",
"'{	c #E9DDBF",
"){	c #E0D4B7",
"!{	c #E8DDBD",
"~{	c #F0E5C7",
"{{	c #EBE0C1",
"]{	c #EBDFC1",
"^{	c #F0E7C9",
"/{	c #EFE5C7",
"({	c #EDE2C4",
"_{	c #EEE4C6",
":{	c #EBDFC0",
"<{	c #EBE1C2",
"[{	c #F0E6C8",
"}{	c #F0E5C9",
"|{	c #ECE1C1",
"1{	c #E8DBB9",
"2{	c #EADFBF",
"3{	c #E1D4B5",
"4{	c #E7DBBF",
"5{	c #E8DDC1",
"6{	c #E4D7B8",
"7{	c #E3D6B7",
"8{	c #E8DCC0",
"9{	c #E6DABD",
"0{	c #E7DCC1",
"a{	c #E5D8BB",
"b{	c #D9CCAC",
"c{	c #B1A691",
"d{	c #BAAD95",
"e{	c #CEC3A6",
"f{	c #B8AB8E",
"g{	c #C2B699",
"h{	c #D2C6A8",
"i{	c #E2D7B9",
"j{	c #E5DBBD",
"k{	c #E2D7B6",
"l{	c #EADFC1",
"m{	c #DDD0AF",
"n{	c #D9CBAC",
"o{	c #DCCDAD",
"p{	c #E7DABE",
"q{	c #DBD0B3",
"r{	c #DFD4B8",
"s{	c #F0DCB2",
"t{	c #E2CFA4",
"u{	c #BEA47D",
"v{	c #B8A47C",
"w{	c #CBBA91",
"x{	c #BBAA81",
"y{	c #C2B48A",
"z{	c #BFAD84",
"A{	c #D8C89B",
"B{	c #C5B489",
"C{	c #CDBB8F",
"D{	c #E1CEA1",
"E{	c #E6D2A7",
"F{	c #F3DFB1",
"G{	c #D1BD8E",
"H{	c #CDB888",
"I{	c #C3A87A",
"J{	c #E4CEA3",
"K{	c #F8E5B8",
"L{	c #E8DDC0",
"M{	c #ECDFC2",
"N{	c #FFFFD0",
"O{	c #F7E9C5",
"P{	c #E9DEBD",
"Q{	c #E4DABE",
"R{	c #FCEDC7",
"S{	c #FEECC0",
"T{	c #FEEEC7",
"U{	c #EEE1BE",
"V{	c #F2E3B8",
"W{	c #E4D4AA",
"X{	c #D5C69C",
"Y{	c #DCCDA4",
"Z{	c #D7C89E",
"`{	c #9F926A",
" ]	c #D1C39A",
".]	c #D5C89C",
"+]	c #AE9F75",
"@]	c #B7AB7F",
"#]	c #B6A87E",
"$]	c #D2C59B",
"%]	c #E6D8AD",
"&]	c #EFE2C0",
"*]	c #D2C6AB",
"=]	c #DDD1B5",
"-]	c #D4CBB1",
";]	c #FFF9CE",
">]	c #F5E5BB",
",]	c #EADAB0",
"']	c #E9DAAF",
")]	c #E0CFA2",
"!]	c #CDBE91",
"~]	c #C9B88C",
"{]	c #C7B58A",
"]]	c #E5D7AA",
"^]	c #CEC595",
"/]	c #CEC093",
"(]	c #EBDBB0",
"_]	c #FFFBD1",
":]	c #D6CCB1",
"<]	c #FFF7CC",
"[]	c #F4E4B6",
"}]	c #E5D5A7",
"|]	c #C5B685",
"1]	c #C2AF80",
"2]	c #C6B084",
"3]	c #D1BA8C",
"4]	c #E5D3A4",
"5]	c #D2BE8C",
"6]	c #FCE9BD",
"7]	c #FFF3C9",
"8]	c #FFFED1",
"9]	c #D9CEB0",
"0]	c #F0E2BE",
"a]	c #FFFBC9",
"b]	c #FFF8C8",
"c]	c #D2C8AD",
"d]	c #FAE7BB",
"e]	c #F2E0B3",
"f]	c #D4C293",
"g]	c #DDC498",
"h]	c #DAC395",
"i]	c #E0C99A",
"j]	c #E2CA9C",
"k]	c #DCC394",
"l]	c #E8D2A4",
"m]	c #EAD3A8",
"n]	c #F9E6BB",
"o]	c #D6CDB2",
"p]	c #DAD0B3",
"q]	c #F4E4BE",
"r]	c #FFF8C5",
"s]	c #FFEDB9",
"t]	c #E8D3A7",
"u]	c #E1CC9F",
"v]	c #DFC699",
"w]	c #D5B88D",
"x]	c #E1C599",
"y]	c #E8CFA1",
"z]	c #E7D0A1",
"A]	c #E4CEA0",
"B]	c #DAC393",
"C]	c #DFCA9C",
"D]	c #EAD7AA",
"E]	c #ECD8AD",
"F]	c #D6CCB2",
"G]	c #FFFACA",
"H]	c #FEF0C3",
"I]	c #D4C9AC",
"J]	c #F7E6BE",
"K]	c #F2E1B4",
"L]	c #FAE6B9",
"M]	c #D3C9AE",
"N]	c #F1E1B7",
"O]	c #E2D2A9",
"P]	c #D8C9A1",
"Q]	c #CFC19A",
"R]	c #B8AB84",
"S]	c #AEA37C",
"T]	c #C6BA91",
"U]	c #C4B992",
"V]	c #B9AD84",
"W]	c #C7B68C",
"X]	c #DDCBA2",
"Y]	c #FBECBF",
"Z]	c #D8CEB2",
"`]	c #FAE9C0",
" ^	c #F7E5BB",
".^	c #D5CCB2",
"+^	c #EBD9B0",
"@^	c #E4D0A8",
"#^	c #E7D3AA",
"$^	c #DFCFA7",
"%^	c #DBC9A1",
"&^	c #D9C8A0",
"*^	c #F0DFB5",
"=^	c #D9C79F",
"-^	c #D8C89E",
";^	c #CBBC92",
">^	c #E2D1A7",
",^	c #D7CDB2",
"'^	c #FFEFBE",
")^	c #F6E3B4",
"!^	c #D1C7AC",
"~^	c #E5D1A9",
"{^	c #CFB791",
"]^	c #DCC89F",
"^^	c #E3CFA6",
"/^	c #F1DEB5",
"(^	c #EBD8AF",
"_^	c #CBB58D",
":^	c #DBC7A0",
"<^	c #E5CFA6",
"[^	c #CFB892",
"}^	c #F3E0B4",
"|^	c #F2DFB3",
"1^	c #F7E4B8",
"2^	c #D6CBB2",
"3^	c #FDEFC2",
"4^	c #F7E9BD",
"5^	c #D8CEB3",
"6^	c #FDE9BD",
"7^	c #F1DAAD",
"8^	c #D4C9AF",
"9^	c #EFDCB3",
"0^	c #E2CEA5",
"a^	c #EBD7AE",
"b^	c #F2E0B5",
"c^	c #EFDCB1",
"d^	c #D8C299",
"e^	c #BEA37A",
"f^	c #B69973",
"g^	c #C4A881",
"h^	c #DEC89D",
"i^	c #ECD6AB",
"j^	c #EFDAAF",
"k^	c #F4DFB4",
"l^	c #FFECC1",
"m^	c #FEEBBF",
"n^	c #D4C8AD",
"o^	c #D4C8AC",
"p^	c #FAEBBE",
"q^	c #F1E3B6",
"r^	c #F9EABE",
"s^	c #FDECBE",
"t^	c #EEDBAF",
"u^	c #E5D4A5",
"v^	c #EFDEB2",
"w^	c #EEDCB2",
"x^	c #F0E0B4",
"y^	c #CAB186",
"z^	c #C4A981",
"A^	c #B89C76",
"B^	c #CCB389",
"C^	c #E5CEA2",
"D^	c #E7CFA3",
"E^	c #D8CEB5",
"F^	c #FFECC0",
"G^	c #D5CBB0",
"H^	c #F0E0B3",
"I^	c #FAECBF",
"J^	c #FFF1C8",
"K^	c #FAEABC",
"L^	c #D7C39C",
"M^	c #E4D2A9",
"N^	c #E7D5AB",
"O^	c #D4C9B0",
"P^	c #F5E4B8",
"Q^	c #EADAAE",
"R^	c #E6D8A9",
"S^	c #D0BC94",
"T^	c #E5D5AA",
"U^	c #FDEBBE",
"V^	c #F4E0B5",
"W^	c #F9E9BA",
"X^	c #F7E9BC",
"Y^	c #EBDAAD",
"Z^	c #E1D0A4",
"`^	c #ECDCAF",
" /	c #E2CDA1",
"./	c #DAC79B",
"+/	c #E6D3A8",
"@/	c #C7B28A",
"#/	c #EBD9AE",
"$/	c #DCC99D",
"%/	c #D7C399",
"&/	c #EEDBB1",
"*/	c #DFD5BE",
"=/	c #D6C399",
"-/	c #C1AF83",
";/	c #C2B286",
">/	c #DACB9E",
",/	c #ECDBAE",
"'/	c #F1DFB4",
")/	c #FCEDC0",
"!/	c #F2E3B6",
"~/	c #F2E2B5",
"{/	c #D4C092",
"]/	c #D3C093",
"^/	c #EBDCAF",
"//	c #FEF1C5",
"(/	c #ECD9AC",
"_/	c #E4CFA4",
":/	c #CCB986",
"</	c #BBA87E",
"[/	c #AA9671",
"}/	c #A7936F",
"|/	c #D8C79D",
"1/	c #D7CEB5",
"2/	c #F0DDB3",
"3/	c #FFF5CB",
"4/	c #DCD2BA",
"5/	c #F3E1B6",
"6/	c #EBD8AB",
"7/	c #E5D0A5",
"8/	c #C7AE87",
"9/	c #DFC69E",
"0/	c #D8B88D",
"a/	c #C8AB7B",
"b/	c #DECCA0",
"c/	c #F5E3B7",
"d/	c #FBE8BE",
"e/	c #EBD8AA",
"f/	c #C4AE7F",
"g/	c #9A7B4F",
"h/	c #AD936A",
"i/	c #B89E71",
"j/	c #ECDAAE",
"k/	c #F7E6B8",
"l/	c #D2C7AE",
"m/	c #EBDDB1",
"n/	c #D1C196",
"o/	c #C7BA8A",
"p/	c #A28E6C",
"q/	c #B5A27B",
"r/	c #DACAA0",
"s/	c #D9C89E",
"t/	c #B6A37C",
"u/	c #C3B187",
"v/	c #FFF2C9",
"w/	c #DBD2B9",
"x/	c #F3E1B3",
"y/	c #E3D0A2",
"z/	c #F0DFB0",
"A/	c #FFF0C0",
"B/	c #F5E2B8",
"C/	c #F3DFB4",
"D/	c #E0CCA0",
"E/	c #D7C295",
"F/	c #CFB487",
"G/	c #B69268",
"H/	c #DAC199",
"I/	c #E2CB9F",
"J/	c #E6CE9D",
"K/	c #E1C798",
"L/	c #FBE4B8",
"M/	c #C9BDA2",
"N/	c #FFF0C2",
"O/	c #F2E0B2",
"P/	c #C3AC7F",
"Q/	c #D9C699",
"R/	c #E2D1A4",
"S/	c #CEB788",
"T/	c #E2CFA2",
"U/	c #DFCD9E",
"V/	c #D0BB91",
"W/	c #BCAA7D",
"X/	c #C1AC88",
"Y/	c #E8D6AB",
"Z/	c #F9E9BC",
"`/	c #D8C79C",
" (	c #CEBC8F",
".(	c #FDEEC6",
"+(	c #E1D1A7",
"@(	c #BCA983",
"#(	c #6D5937",
"$(	c #978662",
"%(	c #CFC796",
"&(	c #CDBE92",
"*(	c #D4C398",
"=(	c #C4B489",
"-(	c #D2C197",
";(	c #B9A77F",
">(	c #E5D5AB",
",(	c #CDB893",
"'(	c #9F8662",
")(	c #C5B087",
"!(	c #DDC9A0",
"~(	c #F5E1B7",
"{(	c #F3DFB5",
"](	c #F5DDB1",
"^(	c #C7B79A",
"/(	c #FDF0C2",
"((	c #DBCB9D",
"_(	c #A49167",
":(	c #9F8D64",
"<(	c #BAAB80",
"[(	c #DED0A4",
"}(	c #DCCFA5",
"|(	c #75653B",
"1(	c #CBC095",
"2(	c #E6D9AE",
"3(	c #FDF1C4",
"4(	c #FDEFC5",
"5(	c #BFAD83",
"6(	c #CFBA91",
"7(	c #D3BF95",
"8(	c #DDCDA2",
"9(	c #F1E2B8",
"0(	c #F7E8BB",
"a(	c #F1E1B5",
"b(	c #CFC5A9",
"c(	c #FBEBC5",
"d(	c #E4D6AB",
"e(	c #AEA279",
"f(	c #AA9B78",
"g(	c #D4C49D",
"h(	c #9B916B",
"i(	c #CCBF97",
"j(	c #C0B58B",
"k(	c #DCD1A4",
"l(	c #D4CA9E",
"m(	c #F7EABB",
"n(	c #E1D1A8",
"o(	c #867053",
"p(	c #BFAB87",
"q(	c #DECCA4",
"r(	c #E6D3AA",
"s(	c #E8D6AC",
"t(	c #FDE8BB",
"u(	c #BCB196",
"v(	c #FBEDBF",
"w(	c #EEDFB2",
"x(	c #C9B88A",
"y(	c #9E8B62",
"z(	c #B9A87E",
"A(	c #B4A379",
"B(	c #AEA076",
"C(	c #C1B288",
"D(	c #E1D2A6",
"E(	c #A29165",
"F(	c #E5D8AC",
"G(	c #F5E8BC",
"H(	c #FDF1C5",
"I(	c #FDF0C4",
"J(	c #CFC299",
"K(	c #BCB086",
"L(	c #E3D5AB",
"M(	c #F9EABF",
"N(	c #F5E6B9",
"O(	c #DDCBA0",
"P(	c #EAD9AF",
"Q(	c #D4CAB1",
"R(	c #F7E9C3",
"S(	c #D6CAAC",
"T(	c #FFF0BF",
"U(	c #EEDDAD",
"V(	c #E7D5A3",
"W(	c #CFBF8E",
"X(	c #DDCCA2",
"Y(	c #D0BD96",
"Z(	c #A38F6E",
"`(	c #B0A079",
" _	c #D1C399",
"._	c #CABC93",
"+_	c #DDCFA5",
"@_	c #F2E4B6",
"#_	c #DFD0A4",
"$_	c #C2B28B",
"%_	c #E1D0A8",
"&_	c #EBD9AF",
"*_	c #D6C39A",
"=_	c #A8906E",
"-_	c #DDCAA1",
";_	c #E8D3AB",
">_	c #E9D4AC",
",_	c #EED7AC",
"'_	c #B1A086",
")_	c #DED0A1",
"!_	c #B4A279",
"~_	c #D5C49B",
"{_	c #A28E65",
"]_	c #B6A479",
"^_	c #B3A177",
"/_	c #C5B68D",
"(_	c #AC9A6E",
"__	c #E8DCB0",
":_	c #F5E6BA",
"<_	c #F3E3B6",
"[_	c #F7EABE",
"}_	c #D6CEB4",
"|_	c #E8D7A5",
"1_	c #E4D2A4",
"2_	c #E7D0A3",
"3_	c #B99A70",
"4_	c #D5B98F",
"5_	c #CDB58C",
"6_	c #FEF0C4",
"7_	c #FFF9C6",
"8_	c #FFEEBA",
"9_	c #F2E4BE",
"0_	c #EAD49E",
"a_	c #F8E5B5",
"b_	c #E8D5A4",
"c_	c #F2E0B6",
"d_	c #E8D5AC",
"e_	c #D7C49C",
"f_	c #E0D0A5",
"g_	c #EEDBB2",
"h_	c #DECEA4",
"i_	c #D2C398",
"j_	c #CAC091",
"k_	c #EADBAF",
"l_	c #DACBA2",
"m_	c #BDAD85",
"n_	c #C8B78F",
"o_	c #EBDDB0",
"p_	c #E3D2A7",
"q_	c #D6C598",
"r_	c #F2DEB4",
"s_	c #B3A68D",
"t_	c #FEF0C2",
"u_	c #FBECBE",
"v_	c #F5E7B9",
"w_	c #F1E2B6",
"x_	c #DDCCA0",
"y_	c #BFAA81",
"z_	c #CEBC91",
"A_	c #F1DFAF",
"B_	c #BDA77B",
"C_	c #F6E8BA",
"D_	c #F6E7BB",
"E_	c #F6E8B8",
"F_	c #F6E8BB",
"G_	c #FCF0C4",
"H_	c #E6D1A6",
"I_	c #E1C89D",
"J_	c #C7AC83",
"K_	c #CFAA7C",
"L_	c #D5B98D",
"M_	c #D5CCB3",
"N_	c #FBE7BA",
"O_	c #F1E4C0",
"P_	c #CEC4A6",
"Q_	c #BEB086",
"R_	c #C2B58C",
"S_	c #E9DAAE",
"T_	c #E5D9AB",
"U_	c #CCBC94",
"V_	c #CCBC96",
"W_	c #C8B691",
"X_	c #D3C59A",
"Y_	c #DDCEA2",
"Z_	c #D7C69F",
"`_	c #E6D5A9",
" :	c #CABFA4",
".:	c #B8986E",
"+:	c #CBB284",
"@:	c #C1AB7F",
"#:	c #DAC596",
"$:	c #F4E4B5",
"%:	c #F6E2B5",
"&:	c #EED4A4",
"*:	c #FCEFC3",
"=:	c #F6E8C0",
"-:	c #DFCA9E",
";:	c #D6BE91",
">:	c #E2CF9F",
",:	c #FCEEC3",
"':	c #CBC2A8",
"):	c #AC996D",
"!:	c #F1E0B5",
"~:	c #E3D3A7",
"{:	c #B8A87F",
"]:	c #9F906B",
"^:	c #D6C49F",
"/:	c #E3D2AA",
"(:	c #CEBF96",
"_:	c #D7C99E",
"::	c #DDCEA5",
"<:	c #E4D7A8",
"[:	c #B9B095",
"}:	c #EEE1B5",
"|:	c #E8DCAE",
"1:	c #E8DDAF",
"2:	c #D6CA9E",
"3:	c #CEBE94",
"4:	c #D0BD91",
"5:	c #EDDDAD",
"6:	c #E7D7AB",
"7:	c #F5E8BB",
"8:	c #D4CBAE",
"9:	c #F8EAC2",
"0:	c #F8EABD",
"a:	c #E2D0A5",
"b:	c #FDF0C3",
"c:	c #FFF1C3",
"d:	c #CDC3A8",
"e:	c #ECDFBD",
"f:	c #D9C297",
"g:	c #D6BF94",
"h:	c #E4CFA6",
"i:	c #AB926C",
"j:	c #D2BD93",
"k:	c #D0BF94",
"l:	c #9D8666",
"m:	c #B09D79",
"n:	c #D0BE96",
"o:	c #D3C399",
"p:	c #DBCAA2",
"q:	c #C6B88E",
"r:	c #C3B88A",
"s:	c #BFB59B",
"t:	c #FCF0C3",
"u:	c #F3E7BA",
"v:	c #F8ECBF",
"w:	c #F4E8BB",
"x:	c #B0A077",
"y:	c #D5C99A",
"z:	c #E8DBA9",
"A:	c #F0E2B5",
"B:	c #D5CBAC",
"C:	c #F5E7C0",
"D:	c #F7E9BE",
"E:	c #F9EABC",
"F:	c #F3DEB3",
"G:	c #CAAE88",
"H:	c #B4966F",
"I:	c #DAC49B",
"J:	c #E0CA9D",
"K:	c #DAC298",
"L:	c #E0CBA1",
"M:	c #C4AB80",
"N:	c #CBB88D",
"O:	c #C7B289",
"P:	c #F2DEB3",
"Q:	c #D1C8AF",
"R:	c #FBF0C3",
"S:	c #EFE3B8",
"T:	c #E9E0B4",
"U:	c #C8C39A",
"V:	c #A09973",
"W:	c #DEDDAC",
"X:	c #DCD3A4",
"Y:	c #C0B888",
"Z:	c #DBD5A7",
"`:	c #F3E7BB",
" <	c #FCF2C4",
".<	c #F7ECBF",
"+<	c #F9EEC1",
"@<	c #FBEFC3",
"#<	c #FEF2C6",
"$<	c #F2E4BD",
"%<	c #F2E4B7",
"&<	c #F1E3B7",
"*<	c #CFC6AB",
"=<	c #E0D4B3",
"-<	c #FCE8BD",
";<	c #F3DDB1",
"><	c #EBD8AD",
",<	c #D9C49A",
"'<	c #C1AA7D",
")<	c #CDB48A",
"!<	c #E2CCA2",
"~<	c #D3CAB2",
"{<	c #F8EEC1",
"]<	c #FDF3C4",
"^<	c #EFE5B9",
"/<	c #D1C8A0",
"(<	c #CEC59D",
"_<	c #807655",
":<	c #908B6A",
"<<	c #B1B387",
"[<	c #B5B48C",
"}<	c #8A8A6A",
"|<	c #AAA982",
"1<	c #E1D9AF",
"2<	c #F2E8BC",
"3<	c #EDE4B8",
"4<	c #F3E8BC",
"5<	c #FAEFC3",
"6<	c #EFE2BE",
"7<	c #FAEDC1",
"8<	c #F4E4B7",
"9<	c #F3E4B7",
"0<	c #E7D7A9",
"a<	c #DECDA1",
"b<	c #EFE0B2",
"c<	c #CCC3A8",
"d<	c #FCE9BF",
"e<	c #CBC0A6",
"f<	c #F6ECBE",
"g<	c #E4DEAF",
"h<	c #C2C293",
"i<	c #D5D8A5",
"j<	c #CFCF9E",
"k<	c #DED8A9",
"l<	c #BCB188",
"m<	c #AEA57E",
"n<	c #C6BA8B",
"o<	c #DDD2A7",
"p<	c #E8DBAE",
"q<	c #EFE2B7",
"r<	c #F0E5BA",
"s<	c #EEE3B8",
"t<	c #F5E9BD",
"u<	c #FCF1C5",
"v<	c #FDEEC1",
"w<	c #D0BD90",
"x<	c #CFBE91",
"y<	c #DED2B0",
"z<	c #CBC1A6",
"A<	c #E3D6B1",
"B<	c #F6E8BD",
"C<	c #EEDDB2",
"D<	c #D4C9AA",
"E<	c #C8BC9F",
"F<	c #DCD2AE",
"G<	c #ECDFB4",
"H<	c #F5E9BC",
"I<	c #F0E5B7",
"J<	c #F2E6B9",
"K<	c #E1D0A1",
"L<	c #DDCD9F",
"M<	c #E8D9AA",
"N<	c #EEE1B1",
"O<	c #E1D0A3",
"P<	c #E2D4A3",
"Q<	c #C2B185",
"R<	c #D6C99E",
"S<	c #EADDB2",
"T<	c #F4E8BD",
"U<	c #FBEABC",
"V<	c #FEEFC1",
"W<	c #F6E5B7",
"X<	c #E6D4A7",
"Y<	c #C0AA7D",
"Z<	c #97794F",
"`<	c #AA9168",
" [	c #B59C6F",
".[	c #D2C8AB",
"+[	c #E5D7B2",
"@[	c #EEE0B7",
"#[	c #EFE1B9",
"$[	c #EDE0B7",
"%[	c #EBDEB5",
"&[	c #EADCB5",
"*[	c #EADCB4",
"=[	c #E9DCB4",
"-[	c #E9DBB3",
";[	c #E7DAB2",
">[	c #E8DAB3",
",[	c #E7D9B2",
"'[	c #E8DAB2",
")[	c #E8D9B2",
"![	c #E2D5B2",
"~[	c #EDDDB6",
"{[	c #ECDDB5",
"][	c #EEDEB6",
"^[	c #EEDEB7",
"/[	c #EEDFB7",
"([	c #EDDDB5",
"_[	c #ECDCB5",
":[	c #EBDCB4",
"<[	c #E9DAB3",
"[[	c #EADBB3",
"}[	c #EBDDB5",
"|[	c #E0D2AB",
"1[	c #E2D4AC",
"2[	c #E9DAB2",
"3[	c #EDDEB5",
"4[	c #E1D8BC",
"5[	c #D8CCAE",
"6[	c #D4CAAC",
"7[	c #CDC5AC",
"8[	c #DCD2AD",
"9[	c #DED4AB",
"0[	c #DBD1A7",
"a[	c #D9CFA7",
"b[	c #D7CEA6",
"c[	c #C3BA93",
"d[	c #BAB28C",
"e[	c #D9CFA8",
"f[	c #DAD0A8",
"g[	c #C5BC95",
"h[	c #C6BD95",
"i[	c #C2B890",
"j[	c #A29873",
"k[	c #BAB188",
"l[	c #C0B790",
"m[	c #CCC19A",
"n[	c #D4CAA2",
"o[	c #DACFA7",
"p[	c #E9DEB5",
"q[	c #EFE5BB",
"r[	c #F1E6BD",
"s[	c #F3E8BD",
"t[	c #F4EABF",
"u[	c #F6EBC0",
"v[	c #FBEFC4",
"w[	c #CABEA0",
"x[	c #F6E7B7",
"y[	c #FCEDBC",
"z[	c #FFF2C2",
"A[	c #F8E5B7",
"B[	c #F9E8BA",
"C[	c #F6E5B8",
"D[	c #FAEBBD",
"E[	c #E8D5AA",
"F[	c #F2E4B8",
"G[	c #F8EBC0",
"H[	c #F6E9BF",
"I[	c #F3E7BE",
"J[	c #F2E6BC",
"K[	c #E9DCB2",
"L[	c #DBCCA2",
"M[	c #AF9B71",
"N[	c #C3B28A",
"O[	c #CCBD95",
"P[	c #BEAA7E",
"Q[	c #CFC4A6",
"R[	c #D7CEB1",
"S[	c #E4DABB",
"T[	c #E6DBBD",
"U[	c #E7DCBE",
"V[	c #E1D6B6",
"W[	c #E1D6B5",
"X[	c #E3D8B9",
"Y[	c #DFD4B3",
"Z[	c #E7DEC1",
"`[	c #E2D7B7",
" }	c #E5DCC0",
".}	c #E3D9BD",
"+}	c #E4DABD",
"@}	c #E1D6B9",
"#}	c #E6DDC3",
"$}	c #E3D9BE",
"%}	c #DDD3B7",
"&}	c #DDD2B6",
"*}	c #E4D8BA",
"=}	c #E9DEC2",
"-}	c #E5D9BB",
";}	c #E8DDBF",
">}	c #E9DDC1",
",}	c #DDD1B3",
"'}	c #E2D8BB",
")}	c #E1D5B7",
"!}	c #E5D9BC",
"~}	c #E4D9BB",
"{}	c #D8CFB0",
"]}	c #DFD7B8",
"^}	c #DFD7BA",
"/}	c #CCC3A6",
"(}	c #C7BEA1",
"_}	c #CBC1A4",
":}	c #D6CDAE",
"<}	c #DDD5B5",
"[}	c #DDD6B9",
"}}	c #D8D0B4",
"|}	c #D9D2B7",
"1}	c #CDC5A7",
"2}	c #C3BB9C",
"3}	c #C9C2A6",
"4}	c #C4BB9F",
"5}	c #D7CFB2",
"6}	c #D7CEAF",
"7}	c #D8CFB2",
"8}	c #D4CCAF",
"9}	c #D5CDB0",
"0}	c #DBD3B4",
"a}	c #DED5B5",
"b}	c #E4DBB9",
"c}	c #E3D9B6",
"d}	c #E5DAB6",
"e}	c #E0D7B5",
"f}	c #DAD1B4",
"g}	c #D4C9AB",
"h}	c #F7E7B9",
"i}	c #ECD8AC",
"j}	c #EFE0B4",
"k}	c #EDDFB5",
"l}	c #D8C6A0",
"m}	c #DFD0AA",
"n}	c #E7DCB7",
"o}	c #E7DDBB",
"p}	c #DDD4B7",
"q}	c #DED5B7",
"r}	c #CFC3A6",
"s}	c #B0A385",
"t}	c #AA9D7F",
"u}	c #B9AD8E",
"v}	c #D1C6A8",
"w}	c #CFC6A7",
"x}	c #998D6F",
"y}	c #C9BFA4",
"z}	c #CBC2A4",
"A}	c #DED6B9",
"B}	c #E8DDC2",
"C}	c #E8DEC0",
"D}	c #F6E9C5",
"E}	c #FFF9CF",
"F}	c #E5D7AF",
"G}	c #F7EBC3",
"H}	c #FAEDC7",
"I}	c #F8ECC5",
"J}	c #F9EDC7",
"K}	c #F6EAC5",
"L}	c #F1E5C1",
"M}	c #EFE4C2",
"N}	c #E4DAB9",
"O}	c #C8C0A1",
"P}	c #C7BFA0",
"Q}	c #A9A285",
"R}	c #CBC4A8",
"S}	c #DAD2B9",
"T}	c #DCD3B6",
"U}	c #E0D5B5",
"V}	c #F9EAC3",
"W}	c #FEEFC6",
"X}	c #FEEEC5",
"Y}	c #FFEEC5",
"Z}	c #FFF2CF",
"`}	c #E7DBBE",
" |	c #DBCEAF",
".|	c #E2D9B8",
"+|	c #E7DFC1",
"@|	c #F9F0C9",
"#|	c #FFFDD1",
"$|	c #FFF7CD",
"%|	c #FFF7CE",
"&|	c #F8EDC5",
"*|	c #F5EBC5",
"=|	c #EBE1BD",
"-|	c #E5DBBB",
";|	c #C1BA9E",
">|	c #BDB396",
",|	c #B2A88D",
"'|	c #E0D7B9",
")|	c #E1D9BA",
"!|	c #DDD4B4",
"~|	c #E0D7B7",
"{|	c #DBD3B7",
"]|	c #D9D0B2",
"^|	c #D9CFAF",
"/|	c #DAD1B3",
"(|	c #C1B59B",
"_|	c #9A8D74",
":|	c #B2A68C",
"<|	c #BFB69A",
"[|	c #B7AB8D",
"}|	c #D8CFB4",
"||	c #D9CFB4",
"1|	c #DDD4B9",
"2|	c #E3DBC0",
"3|	c #E1D6B4",
"4|	c #DCD0AD",
"5|	c #C3B690",
"6|	c #A1926F",
"7|	c #B7A680",
"8|	c #B1A178",
"9|	c #AC9C74",
"0|	c #EEE5C6",
"a|	c #E3DBBC",
"b|	c #DAD2B5",
"c|	c #F0E2B6",
"d|	c #D6CBA4",
"e|	c #B2AC87",
"f|	c #D4CAA1",
"g|	c #F5E8BD",
"h|	c #E8DEB3",
"i|	c #D6D1A6",
"j|	c #8D9166",
"k|	c #9B946E",
"l|	c #D2CBA0",
"m|	c #F1E8BC",
"n|	c #F1E5BA",
"o|	c #F5EAC7",
"p|	c #DED5B8",
"q|	c #F8E8B9",
"r|	c #F2DEAF",
"s|	c #ECDBAD",
"t|	c #F1E0B2",
"u|	c #D9CEB4",
"v|	c #E1DABD",
"w|	c #F5EAC9",
"x|	c #E9E0BF",
"y|	c #EADFBC",
"z|	c #FBEEC0",
"A|	c #FCECBF",
"B|	c #F1DFB1",
"C|	c #DBC99D",
"D|	c #E9DBB0",
"E|	c #BEB385",
"F|	c #CFC494",
"G|	c #DACEB2",
"H|	c #F1DEB1",
"I|	c #F7E5B7",
"J|	c #ECD6AE",
"K|	c #FEEFCA",
"L|	c #D6CAAE",
"M|	c #FFF9D0",
"N|	c #FFF3C4",
"O|	c #E8E1C5",
"P|	c #D5CDB1",
"Q|	c #F1DAAC",
"R|	c #F3DEB1",
"S|	c #ECE1AB",
"T|	c #E1D4A3",
"U|	c #EADDAE",
"V|	c #E5D7AB",
"W|	c #DDD5B9",
"X|	c #DED5B9",
"Y|	c #D9CFB1",
"Z|	c #E7DEBF",
"`|	c #D0C8AA",
" 1	c #F7E7B8",
".1	c #DBD197",
"+1	c #F0E3B9",
"@1	c #F4E6BA",
"#1	c #E3D5A8",
"$1	c #FFF5C2",
"%1	c #D8D0B3",
"&1	c #F7EBBD",
"*1	c #DAD1B6",
"=1	c #E7DDB9",
"-1	c #FFF0C1",
";1	c #F4E2B3",
">1	c #FAEFBB",
",1	c #EBE1AC",
"'1	c #DBCEA4",
")1	c #DDD1A6",
"!1	c #FAEDBF",
"~1	c #F4E9BA",
"{1	c #F9EEC0",
"]1	c #D7CDAF",
"^1	c #EAE1BE",
"/1	c #EDDEB1",
"(1	c #EFE1B6",
"_1	c #F6ECB8",
":1	c #CCBC8C",
"<1	c #DBCC9C",
"[1	c #FFFCCC",
"}1	c #D5CAAB",
"|1	c #ECE3C1",
"11	c #FDEEC0",
"21	c #CFBA8B",
"31	c #CAB589",
"41	c #DFCFA2",
"51	c #EDDDAF",
"61	c #F7E8B9",
"71	c #FBE9BA",
"81	c #B6A78D",
"91	c #CEC2A8",
"01	c #FFF4CA",
"a1	c #D7CCAF",
"b1	c #EDE5C3",
"c1	c #D7D0B6",
"d1	c #FAEABD",
"e1	c #F9EBBD",
"f1	c #CDBD8F",
"g1	c #C3B183",
"h1	c #B09670",
"i1	c #C0B498",
"j1	c #D5C9AD",
"k1	c #E5D2A7",
"l1	c #FFF2CA",
"m1	c #D5CDB3",
"n1	c #FBE7B9",
"o1	c #FFEDBE",
"p1	c #F8E2B6",
"q1	c #FFF1C1",
"r1	c #FAE6BA",
"s1	c #F9E6B7",
"t1	c #ECDFB1",
"u1	c #EFE0B3",
"v1	c #CAC1A1",
"w1	c #F2DDB1",
"x1	c #F7E3B8",
"y1	c #FFF0C8",
"z1	c #D5CBB1",
"A1	c #EFE6C2",
"B1	c #D1C9AB",
"C1	c #F9E7B9",
"D1	c #FDECBD",
"E1	c #F9E4B5",
"F1	c #F0DCAC",
"G1	c #FCEBBC",
"H1	c #FAE8BA",
"I1	c #F8E9BB",
"J1	c #F7EBBF",
"K1	c #F9E5B9",
"L1	c #D3C8AD",
"M1	c #D9CFB3",
"N1	c #F1E6C1",
"O1	c #F8E3B4",
"P1	c #FDE6B6",
"Q1	c #DBBF92",
"R1	c #D2B587",
"S1	c #F5E1B2",
"T1	c #F4E1B2",
"U1	c #CCB384",
"V1	c #BEA577",
"W1	c #E5D1A6",
"X1	c #F9E8BB",
"Y1	c #F3E9C3",
"Z1	c #F5DCAC",
"`1	c #DCBC8A",
" 2	c #EBD4A6",
".2	c #DCC18D",
"+2	c #C2A477",
"@2	c #B99B6F",
"#2	c #B79B70",
"$2	c #BFA379",
"%2	c #D8C193",
"&2	c #E9D4A6",
"*2	c #E3CB9D",
"=2	c #FAE9BC",
"-2	c #D7CAAF",
";2	c #DED5BB",
">2	c #FCF1C3",
",2	c #FCF1C4",
"'2	c #F8EFC7",
")2	c #D2C9AD",
"!2	c #CEBC95",
"~2	c #C8B88F",
"{2	c #E5D7AC",
"]2	c #EDDFB4",
"^2	c #E1D2A7",
"/2	c #E8D8AD",
"(2	c #CDBC93",
"_2	c #907954",
":2	c #E1D0A7",
"<2	c #E8D7AB",
"[2	c #EADCAE",
"}2	c #F6E8BC",
"|2	c #DCD1B8",
"12	c #C5B797",
"22	c #DCD4B8",
"32	c #DFD7BE",
"42	c #FBF1C7",
"52	c #D1C9AD",
"62	c #D8C499",
"72	c #CABA8E",
"82	c #FDEBBD",
"92	c #F2E2B6",
"02	c #D8C69A",
"a2	c #CDB990",
"b2	c #C2AE84",
"c2	c #E9D9AD",
"d2	c #DCC99F",
"e2	c #DBD3B6",
"f2	c #C1B698",
"g2	c #FFF4CB",
"h2	c #D1B989",
"i2	c #A7875E",
"j2	c #E0CA9B",
"k2	c #EDDBAF",
"l2	c #E6D4A9",
"m2	c #E9D7AB",
"n2	c #AA9067",
"o2	c #DBC89E",
"p2	c #DACA9E",
"q2	c #D5C596",
"r2	c #ECDEB0",
"s2	c #F1E3B4",
"t2	c #FBEEC2",
"u2	c #DBD4B7",
"v2	c #DBD1B7",
"w2	c #F4E5B8",
"x2	c #E9D8AE",
"y2	c #DCC9A1",
"z2	c #D6CCAD",
"A2	c #FFF8CE",
"B2	c #E2D2A8",
"C2	c #9F8D68",
"D2	c #C1B287",
"E2	c #CCBA92",
"F2	c #DFCEA3",
"G2	c #D9C59C",
"H2	c #D2C097",
"I2	c #A8926C",
"J2	c #EBDBAC",
"K2	c #F6E7B5",
"L2	c #FCEFC1",
"M2	c #DFD7BB",
"N2	c #DAD0B7",
"O2	c #DECA9F",
"P2	c #C6BBA2",
"Q2	c #F0E6BA",
"R2	c #F4EABE",
"S2	c #F3E9BB",
"T2	c #EDE2B5",
"U2	c #F6EABF",
"V2	c #FFFCD1",
"W2	c #EDDEB2",
"X2	c #CFC096",
"Y2	c #B1A176",
"Z2	c #B2A079",
"`2	c #AD956D",
" 3	c #C9B68D",
".3	c #E9D6A6",
"+3	c #FAEABA",
"@3	c #FAEBBB",
"#3	c #F9EBBC",
"$3	c #E1D9BE",
"%3	c #EDD8AD",
"&3	c #F2E1B3",
"*3	c #E5D3A7",
"=3	c #DFCAA0",
"-3	c #C8B584",
";3	c #C3B086",
">3	c #ACA28B",
",3	c #EEE2B5",
"'3	c #F4E7B9",
")3	c #DFD2A7",
"!3	c #C4B78D",
"~3	c #ECE1B4",
"{3	c #D9D1B4",
"]3	c #D3CAB0",
"^3	c #D7C89D",
"/3	c #9F8F69",
"(3	c #D2C29A",
"_3	c #F1E4B8",
":3	c #E6D9AD",
"<3	c #D2C59A",
"[3	c #C0B289",
"}3	c #E7D9AD",
"|3	c #F2E4B9",
"13	c #F5E7BA",
"23	c #FEF2C7",
"33	c #E3DCC1",
"43	c #DBD0B6",
"53	c #E5D3A9",
"63	c #E8DBAD",
"73	c #A08B6A",
"83	c #BDAA81",
"93	c #BEB49A",
"03	c #E3D6A9",
"a3	c #A79C70",
"b3	c #C3B68B",
"c3	c #B8A97D",
"d3	c #DCD0A3",
"e3	c #DBD3B8",
"f3	c #D8CEB0",
"g3	c #A8946D",
"h3	c #A38B64",
"i3	c #F6E5B6",
"j3	c #C2A77C",
"k3	c #DDCA99",
"l3	c #CAB68D",
"m3	c #B8A57A",
"n3	c #BEA985",
"o3	c #EBDCAD",
"p3	c #BBA67A",
"q3	c #EEE0B2",
"r3	c #A69367",
"s3	c #E5D8AD",
"t3	c #DFD6BD",
"u3	c #A7855B",
"v3	c #C8AC82",
"w3	c #E3CFA4",
"x3	c #EEDAAC",
"y3	c #C5A87D",
"z3	c #DAC597",
"A3	c #F2E2B4",
"B3	c #D2C393",
"C3	c #C9B58D",
"D3	c #CEBB92",
"E3	c #D9C89F",
"F3	c #CBC0A4",
"G3	c #E6DBB1",
"H3	c #BEB489",
"I3	c #E0D6AA",
"J3	c #EEE3B6",
"K3	c #DACCA3",
"L3	c #C7B88F",
"M3	c #D5CA9C",
"N3	c #F1E5B9",
"O3	c #E2D6AA",
"P3	c #E4DAAB",
"Q3	c #E9DDB2",
"R3	c #F4E7BB",
"S3	c #FBEEC3",
"T3	c #DCD3B9",
"U3	c #BBAD82",
"V3	c #B3A77E",
"W3	c #998961",
"X3	c #A99B75",
"Y3	c #C4B58E",
"Z3	c #D7C99F",
"`3	c #E6D7AC",
" 4	c #F5E6BB",
".4	c #D5C59C",
"+4	c #A8966E",
"@4	c #CDC095",
"#4	c #B7AB83",
"$4	c #DDD0A8",
"%4	c #F4E5BA",
"&4	c #CFC5AA",
"*4	c #F2E7BB",
"=4	c #99936D",
"-4	c #E4DBAF",
";4	c #E3D9AE",
">4	c #DBCFA5",
",4	c #F4E9B9",
"'4	c #9B8B64",
")4	c #D2C49A",
"!4	c #DED2A4",
"~4	c #D2BC8E",
"{4	c #DCC293",
"]4	c #ECD7A7",
"^4	c #F2E6B8",
"/4	c #F6E6B9",
"(4	c #F4E6B6",
"_4	c #D4CCB3",
":4	c #BBA27A",
"<4	c #BFAC82",
"[4	c #CDB389",
"}4	c #DCD4B7",
"|4	c #EAD8AC",
"14	c #F1DDAD",
"24	c #E8D5A2",
"34	c #DFCD9F",
"44	c #D0C7AB",
"54	c #ECDFB2",
"64	c #AE9C77",
"74	c #90795B",
"84	c #CABC8E",
"94	c #CFBF90",
"04	c #DCCC98",
"a4	c #E3CC9E",
"b4	c #C6A478",
"c4	c #E6D1A4",
"d4	c #E7D3A3",
"e4	c #C9AC79",
"f4	c #CFB788",
"g4	c #E6D4A0",
"h4	c #DFCDA1",
"i4	c #FCEFC4",
"j4	c #D9C193",
"k4	c #E8D5A5",
"l4	c #F0DEAF",
"m4	c #FBE9BC",
"n4	c #ECD9AD",
"o4	c #F1DFB2",
"p4	c #F9E8B7",
"q4	c #E4D7AB",
"r4	c #CFBE97",
"s4	c #C5B28B",
"t4	c #DFD0A5",
"u4	c #D2BE8D",
"v4	c #E3D1A2",
"w4	c #F1E0AD",
"x4	c #D1B88B",
"y4	c #D1B68C",
"z4	c #C1A47B",
"A4	c #EAD8A4",
"B4	c #EDDDB1",
"C4	c #FEF1C6",
"D4	c #F9ECC0",
"E4	c #F9EDC1",
"F4	c #F5E0B4",
"G4	c #FCF0C5",
"H4	c #DDD5BA",
"I4	c #E6CFA2",
"J4	c #DBC396",
"K4	c #CEC4A8",
"L4	c #FCF0C2",
"M4	c #F1E7B8",
"N4	c #D6C89E",
"O4	c #C8C18D",
"P4	c #E1D8A3",
"Q4	c #CDCB97",
"R4	c #D0CB9E",
"S4	c #D9D1A6",
"T4	c #E0D7AD",
"U4	c #F1E4BA",
"V4	c #FAEDC2",
"W4	c #DFD3B4",
"X4	c #F8ECC0",
"Y4	c #F7E8BE",
"Z4	c #FDF1C6",
"`4	c #D3C6A9",
" 5	c #F2DFB1",
".5	c #F5E2B7",
"+5	c #F3E0B1",
"@5	c #D9C092",
"#5	c #F4E3B5",
"$5	c #CEC5A9",
"%5	c #FAEFC0",
"&5	c #D1CC9A",
"*5	c #D7D0A0",
"=5	c #EDE3B7",
"-5	c #F5EBBF",
";5	c #F7EABD",
">5	c #D6CEB3",
",5	c #E2D9B9",
"'5	c #DFD3AA",
")5	c #DACDA5",
"!5	c #DED2A8",
"~5	c #ECE1B6",
"{5	c #EEE3B7",
"]5	c #F9ECC1",
"^5	c #D2CBB0",
"/5	c #F8E9BC",
"(5	c #D1C5A7",
"_5	c #DCC191",
":5	c #E0CB99",
"<5	c #EFDCAA",
"[5	c #D6BF92",
"}5	c #B2966D",
"|5	c #B79E73",
"15	c #DDC89C",
"25	c #DEC99C",
"35	c #E2CC9E",
"45	c #F1DFB0",
"55	c #EFE2B4",
"65	c #F2E6BA",
"75	c #FDF0C5",
"85	c #F0E3B8",
"95	c #CAC1A5",
"05	c #F8EDC0",
"a5	c #DFD2A9",
"b5	c #E8DBB1",
"c5	c #F4E8BC",
"d5	c #F1E6BA",
"e5	c #D2C7AA",
"f5	c #F9E5BA",
"g5	c #F2DCB1",
"h5	c #EFDBB0",
"i5	c #E8CFA3",
"j5	c #C8AD84",
"k5	c #D8BF95",
"l5	c #E5D2A8",
"m5	c #E5D19D",
"n5	c #D2B88D",
"o5	c #BC9C76",
"p5	c #E5CFA5",
"q5	c #FEEDBF",
"r5	c #D4CBB2",
"s5	c #F9ECBF",
"t5	c #F6EABC",
"u5	c #D4C499",
"v5	c #C8B788",
"w5	c #C2B79E",
"x5	c #E6DCBB",
"y5	c #EDE1B7",
"z5	c #F5E9BF",
"A5	c #D4CDB4",
"B5	c #CEC1A4",
"C5	c #FAE5BA",
"D5	c #F7E2B7",
"E5	c #ECD4AA",
"F5	c #E6C99B",
"G5	c #CAAA80",
"H5	c #DDC39A",
"I5	c #E7CFA4",
"J5	c #F3E0B6",
"K5	c #FAE5B7",
"L5	c #E3CBA1",
"M5	c #CDB087",
"N5	c #CBA77C",
"O5	c #FFECBC",
"P5	c #FAEEC0",
"Q5	c #F1E4B7",
"R5	c #DACBA1",
"S5	c #F1E3B8",
"T5	c #F2E3B7",
"U5	c #DFD1A5",
"V5	c #C4BA9C",
"W5	c #E5DAB8",
"X5	c #D1C5AA",
"Y5	c #EDD9AF",
"Z5	c #D1BD92",
"`5	c #D5BE93",
" 6	c #EFDDB0",
".6	c #F8EABF",
"+6	c #C39967",
"@6	c #CEC4A7",
"#6	c #F9EDBF",
"$6	c #EBDCAE",
"%6	c #DECFA2",
"&6	c #E3D3A4",
"*6	c #EDDFB3",
"=6	c #F8EABE",
"-6	c #E9DFBE",
";6	c #CFC7AC",
">6	c #CABFA5",
",6	c #EDD8AF",
"'6	c #EED8AE",
")6	c #EBD6AC",
"!6	c #BC9C75",
"~6	c #DEC496",
"{6	c #EBD5A4",
"]6	c #F1DCAF",
"^6	c #CAB185",
"/6	c #E2C89B",
"(6	c #FFFBCB",
"_6	c #E3D2A5",
":6	c #ECDDAF",
"<6	c #D4C193",
"[6	c #F0E1B3",
"}6	c #F3E5B8",
"|6	c #FAECC0",
"16	c #FFF3CB",
"26	c #D9D1B5",
"36	c #C9BEA1",
"46	c #DAC99C",
"56	c #DECCA2",
"66	c #E7D3AB",
"76	c #E9D6AD",
"86	c #C2AC86",
"96	c #C4AF83",
"06	c #E9DBA8",
"a6	c #FBEAB3",
"b6	c #FEEEBE",
"c6	c #FCEDBD",
"d6	c #FFFCCB",
"e6	c #CABFA3",
"f6	c #FCF0C6",
"g6	c #F0E1B5",
"h6	c #F3E3B4",
"i6	c #F1E2B5",
"j6	c #DCD2B7",
"k6	c #EFE2B6",
"l6	c #CEC6AB",
"m6	c #F2E5BE",
"n6	c #CDBB96",
"o6	c #D8C99D",
"p6	c #DFCDA3",
"q6	c #FBEBB1",
"r6	c #F2DFB2",
"s6	c #FEECBA",
"t6	c #FEE5B0",
"u6	c #FAE7B9",
"v6	c #CBBEA1",
"w6	c #DCD2B1",
"x6	c #F3E5B9",
"y6	c #F1E4B9",
"z6	c #F4E8BA",
"A6	c #FDEFC4",
"B6	c #CDC4A7",
"C6	c #F5E7BD",
"D6	c #F4E6BD",
"E6	c #F3E6BC",
"F6	c #F2E5BB",
"G6	c #F1E4BB",
"H6	c #F1E5BB",
"I6	c #F1E4BC",
"J6	c #F1E5BC",
"K6	c #F1E6BC",
"L6	c #F0E4BB",
"M6	c #F4E8BE",
"N6	c #DFD6B5",
"O6	c #D4CAAB",
"P6	c #C0B59B",
"Q6	c #C7B990",
"R6	c #DCCFA2",
"S6	c #CCC094",
"T6	c #CEC497",
"U6	c #C9CD90",
"V6	c #EEE5B5",
"W6	c #BDA87C",
"X6	c #DFD1A4",
"Y6	c #E0D4A9",
"Z6	c #E5D8AB",
"`6	c #BBB097",
" 7	c #968A77",
".7	c #D2CAB1",
"+7	c #F7EAC0",
"@7	c #F5E8BF",
"#7	c #F5E8BE",
"$7	c #F4E7BE",
"%7	c #F3E7BD",
"&7	c #F2E5BC",
"*7	c #E6D9AF",
"=7	c #D9C9A1",
"-7	c #E7DBB0",
";7	c #EADDB4",
">7	c #EFE2B8",
",7	c #F0E4BA",
"'7	c #F6E8BF",
")7	c #F9ECC2",
"!7	c #D7CBAC",
"~7	c #DDD3B9",
"{7	c #D3C9AA",
"]7	c #DBD3B5",
"^7	c #B1A48C",
"/7	c #C0B59D",
"(7	c #C0B396",
"_7	c #CBBA95",
":7	c #B9AC85",
"<7	c #ADA47C",
"[7	c #C9BC96",
"}7	c #B7AB87",
"|7	c #C6BF93",
"17	c #D1C79E",
"27	c #D9CBA4",
"37	c #E5D6AE",
"47	c #E2D5AC",
"57	c #D9CCA4",
"67	c #DACBA3",
"77	c #CABD96",
"87	c #C4B48E",
"97	c #B29C79",
"07	c #B5A581",
"a7	c #CDC299",
"b7	c #B7AE8B",
"c7	c #CBC2A5",
"d7	c #B3A790",
"e7	c #C7BCA3",
"f7	c #D7CEB0",
"g7	c #DAD2B7",
"h7	c #D6CDAF",
"i7	c #D6CCAF",
"j7	c #D6CDB1",
"k7	c #D3C9AB",
"l7	c #D9D0B5",
"m7	c #D5CCAF",
"n7	c #D7CFB5",
"o7	c #D7CEB4",
"p7	c #D6CEB2",
"q7	c #D7CDB0",
"r7	c #E8DBB8",
"s7	c #EFE2B9",
"t7	c #EEE2B9",
"u7	c #ECE0B7",
"v7	c #EBDFB6",
"w7	c #EADDB5",
"x7	c #E9DDB5",
"y7	c #E8DCB4",
"z7	c #E9DCB5",
"A7	c #E9DDB6",
"B7	c #EADEB6",
"C7	c #E9DEB6",
"D7	c #ECE0B8",
"E7	c #E2D8B5",
"F7	c #E6DCBA",
"G7	c #EEE4C4",
"H7	c #EDE3C4",
"I7	c #E6DCBC",
"J7	c #E5DBB9",
"K7	c #E9E0C0",
"L7	c #D9D0AD",
"M7	c #D6CBAC",
"N7	c #E1D7B9",
"O7	c #DDD4B5",
"P7	c #D1C7A9",
"Q7	c #E0D8BB",
"R7	c #DED4B2",
"S7	c #DCD2B3",
"T7	c #D5CBAA",
"U7	c #C4BB9D",
"V7	c #CDC4A6",
"W7	c #DBD1B1",
"X7	c #DAD2B3",
"Y7	c #CDC7A9",
"Z7	c #EDE0C2",
"`7	c #D3C3A7",
" 8	c #C8BA9A",
".8	c #C4B596",
"+8	c #DBCFB3",
"@8	c #DACEAF",
"#8	c #DBCFB1",
"$8	c #D2C5A7",
"%8	c #E0D6BB",
"&8	c #E0D5B6",
"*8	c #E2D8B8",
"=8	c #DACEAE",
"-8	c #DED2B3",
";8	c #D6C9AB",
">8	c #D5C7A7",
",8	c #D7C9A9",
"'8	c #DBCFAF",
")8	c #EBDFBF",
"!8	c #E1D5B8",
"~8	c #E4D7B7",
"{8	c #EEE0C0",
"]8	c #F0E4C6",
"^8	c #EEE2C5",
"/8	c #EFE2C5",
"(8	c #F1E5C9",
"_8	c #EADEC0",
":8	c #E0D3B7",
"<8	c #DBCDAC",
"[8	c #CDC1A3",
"}8	c #D0C4A2",
"|8	c #B8AB8D",
"18	c #C7BB9C",
"28	c #DACCAF",
"38	c #E1D5B4",
"48	c #E8DBBC",
"58	c #E4D6B6",
"68	c #E7DABA",
"78	c #EDE1C5",
"88	c #E7DBBB",
"98	c #E9DDBD",
"08	c #E8DBBB",
"a8	c #E9DDBE",
"b8	c #EADCBD",
"c8	c #F1E6C9",
"d8	c #EDE2C3",
"e8	c #ECE0C2",
"f8	c #EFE3C6",
"g8	c #EDE1C4",
"h8	c #EDE1C3",
"i8	c #E7DABB",
"j8	c #E9DDC0",
"k8	c #E6D9BB",
"l8	c #E5D8B8",
"m8	c #E6DAB8",
"n8	c #E6DCBD",
"o8	c #E6DCBE",
"p8	c #E7DEC0",
"q8	c #E9E0C3",
"r8	c #EBE3C7",
"s8	c #E8DEC1",
"t8	c #E9E1C4",
"u8	c #E0D5B9",
"v8	c #FEF2BD",
"w8	c #D1C28F",
"x8	c #E2D1A0",
"y8	c #F8EABC",
"z8	c #F7E9BA",
"A8	c #FCEFC0",
"B8	c #E6D8AA",
"C8	c #E8DCB5",
"D8	c #B0A488",
"E8	c #DED1B6",
"F8	c #FFF0C7",
"G8	c #E8DCBC",
"H8	c #F3E0B7",
"I8	c #E4D5A9",
"J8	c #CDBF96",
"K8	c #D1C49C",
"L8	c #EADCAF",
"M8	c #F7E7C2",
"N8	c #DCD0B5",
"O8	c #FBE7BB",
"P8	c #F8E9BA",
"Q8	c #D4BE8E",
"R8	c #CDB98C",
"S8	c #E4D3A5",
"T8	c #F2E1B2",
"U8	c #FBECBC",
"V8	c #B79C74",
"W8	c #C9B387",
"X8	c #C5AF7F",
"Y8	c #E3D2A2",
"Z8	c #EBDAA8",
"`8	c #F4E4B3",
" 9	c #EBDCA8",
".9	c #D4C491",
"+9	c #FFF9C9",
"@9	c #FEEFC0",
"#9	c #C8BD9D",
"$9	c #FFFAD0",
"%9	c #F2DFB4",
"&9	c #FFEEBD",
"*9	c #E3D2A4",
"=9	c #C6B485",
"-9	c #AA916D",
";9	c #D2C096",
">9	c #F3E6B5",
",9	c #EEE1AD",
"'9	c #E7DAA6",
")9	c #E2D4A0",
"!9	c #DFD6A5",
"~9	c #EEE4B3",
"{9	c #D9D0B0",
"]9	c #D4CAAE",
"^9	c #E1D8BD",
"/9	c #EFDAAC",
"(9	c #EAD39F",
"_9	c #DCC498",
":9	c #EEE0B4",
"<9	c #E6D7AD",
"[9	c #EADEB1",
"}9	c #F2E8B8",
"|9	c #F9EFBE",
"19	c #F6ECBB",
"29	c #F7EDBA",
"39	c #FDF3C0",
"49	c #ECE3BE",
"59	c #D9D0B7",
"69	c #FFF3C2",
"79	c #F5ECC7",
"89	c #DED3B9",
"99	c #E6D9BA",
"09	c #DBCA9E",
"a9	c #E3D1A8",
"b9	c #F9EBBA",
"c9	c #FFF4C4",
"d9	c #F4EAC4",
"e9	c #E1D3B1",
"f9	c #DFCB9F",
"g9	c #D8C699",
"h9	c #E4D2A7",
"i9	c #DDCAA0",
"j9	c #C5B18A",
"k9	c #EEDFB4",
"l9	c #DAD1B8",
"m9	c #FDF0C0",
"n9	c #FBECBD",
"o9	c #FAEBBC",
"p9	c #D9D0B8",
"q9	c #F0DAB0",
"r9	c #E2CDA2",
"s9	c #C9B785",
"t9	c #B9A77D",
"u9	c #AA956F",
"v9	c #A6926E",
"w9	c #AA9670",
"x9	c #D6C69C",
"y9	c #F5E9BA",
"z9	c #F7EDC5",
"A9	c #E6D9B8",
"B9	c #EBDEAF",
"C9	c #CDBE93",
"D9	c #C3B789",
"E9	c #A08C6A",
"F9	c #B4A07A",
"G9	c #D8C89F",
"H9	c #D7C79D",
"I9	c #B6A37B",
"J9	c #C2B186",
"K9	c #F8EEC6",
"L9	c #CFC3A7",
"M9	c #E1D3B2",
"N9	c #DFD4B6",
"O9	c #E0CC9F",
"P9	c #C5A87E",
"Q9	c #DFCC9A",
"R9	c #CCB88F",
"S9	c #BAA77B",
"T9	c #BFAB86",
"U9	c #E5D3AA",
"V9	c #CCBB8F",
"W9	c #F9EFC7",
"X9	c #D3CAAF",
"Y9	c #E2D6B5",
"Z9	c #DED2B4",
"`9	c #D4C695",
" 0	c #BEAA80",
".0	c #CCB78F",
"+0	c #CFBD94",
"@0	c #FBF0C7",
"#0	c #D3C9AF",
"$0	c #E3D9BF",
"%0	c #A9976E",
"&0	c #CFC297",
"*0	c #B8AD83",
"=0	c #E0D2A8",
"-0	c #F5E7BC",
";0	c #DCC9A0",
">0	c #FFF4CC",
",0	c #E0D5BA",
"'0	c #F3E0AF",
")0	c #EAD7A4",
"!0	c #E0CFA0",
"~0	c #E5CFA3",
"{0	c #B9996F",
"]0	c #D4B98E",
"^0	c #CDB58B",
"/0	c #ECD9AB",
"(0	c #D1C6A9",
"_0	c #D9CDB3",
":0	c #FFECBF",
"<0	c #F7E3B6",
"[0	c #CEC2A6",
"}0	c #F1DDB0",
"|0	c #FCEAB9",
"10	c #E0C89C",
"20	c #C5AC83",
"30	c #CEAA7B",
"40	c #D4B98C",
"50	c #F6E4B6",
"60	c #FEF4C7",
"70	c #FFF6CC",
"80	c #F1DDB3",
"90	c #C3B084",
"00	c #C4B488",
"a0	c #EEDDB0",
"b0	c #F3E0B5",
"c0	c #CEC3A8",
"d0	c #E4D8B7",
"e0	c #FCE9BB",
"f0	c #E8D1A4",
"g0	c #DEC598",
"h0	c #DEC99E",
"i0	c #D5BD90",
"j0	c #E2CD9F",
"k0	c #CCC2A3",
"l0	c #CCC0A3",
"m0	c #F1DCAE",
"n0	c #E8D3A8",
"o0	c #E1CA9E",
"p0	c #C9B189",
"q0	c #E0C99F",
"r0	c #DABA8F",
"s0	c #CAAC7C",
"t0	c #E0CDA1",
"u0	c #FEECBC",
"v0	c #DAC090",
"w0	c #DFCA98",
"x0	c #EEDBA9",
"y0	c #D5BF91",
"z0	c #B1966D",
"A0	c #B79E72",
"B0	c #EBD5A6",
"C0	c #C2B69B",
"D0	c #DDCEAE",
"E0	c #EFDBAC",
"F0	c #F8E6B8",
"G0	c #F7E4B4",
"H0	c #DBC293",
"I0	c #E8D4A7",
"J0	c #F0DDAE",
"K0	c #F7E5B6",
"L0	c #E0CFA5",
"M0	c #E6D7AB",
"N0	c #C0B192",
"O0	c #DCC697",
"P0	c #D3B789",
"Q0	c #B99469",
"R0	c #DDC39B",
"S0	c #E4CDA1",
"T0	c #E9D3A6",
"U0	c #E7D09F",
"V0	c #E4C99A",
"W0	c #FBE8BB",
"X0	c #E6CDA2",
"Y0	c #C8AC83",
"Z0	c #D6BE94",
"`0	c #E4CFA5",
" a	c #E5D1A7",
".a	c #F5DEA8",
"+a	c #BFB097",
"@a	c #F5E1B6",
"#a	c #F7E4BA",
"$a	c #FBE6B7",
"%a	c #D9C9A6",
"&a	c #CDBFA2",
"*a	c #F4E2AE",
"=a	c #B5996F",
"-a	c #BAA075",
";a	c #E1CC9E",
">a	c #F0DDAF",
",a	c #FFFBD0",
"'a	c #B7AD91",
")a	c #BCAA81",
"!a	c #FCEDBF",
"~a	c #CFBB94",
"{a	c #A08862",
"]a	c #C6B189",
"^a	c #DECAA1",
"/a	c #F0DCB1",
"(a	c #F4DFB5",
"_a	c #E9D3A8",
":a	c #E4C79B",
"<a	c #C9A97E",
"[a	c #DBC298",
"}a	c #E5CEA4",
"|a	c #FBE8BC",
"1a	c #C2B49A",
"2a	c #D7C49B",
"3a	c #C2AF83",
"4a	c #C3B387",
"5a	c #DCCCA0",
"6a	c #F1DEB0",
"7a	c #E9D5A8",
"8a	c #DEC595",
"9a	c #D9C9A7",
"0a	c #CBBEA3",
"aa	c #E7D2A8",
"ba	c #E8D4A0",
"ca	c #D5BA8F",
"da	c #BF9F77",
"ea	c #E7D2A7",
"fa	c #FFFCD0",
"ga	c #BAB39A",
"ha	c #E1D5A8",
"ia	c #D8CDA1",
"ja	c #FAEEBD",
"ka	c #877154",
"la	c #C0AD87",
"ma	c #CEBB90",
"na	c #D3BB93",
"oa	c #F9E9C0",
"pa	c #EDDAAC",
"qa	c #DFC89D",
"ra	c #C8AF87",
"sa	c #DFC89F",
"ta	c #D9B98E",
"ua	c #CAAB7C",
"va	c #DFCDA0",
"wa	c #D9C08F",
"xa	c #DEC998",
"ya	c #EDDBA9",
"za	c #B1956D",
"Aa	c #DCC89B",
"Ba	c #DEC89C",
"Ca	c #E1D3AE",
"Da	c #D3C6AA",
"Ea	c #FDE8B9",
"Fa	c #E7CEA2",
"Ga	c #D0B289",
"Ha	c #CDA97D",
"Ia	c #F9E5B6",
"Ja	c #FEEDBE",
"Ka	c #D4CBB0",
"La	c #B0A68F",
"Ma	c #D6C89C",
"Na	c #CDBF95",
"Oa	c #E0D1A7",
"Pa	c #EBDCB0",
"Qa	c #C4B38D",
"Ra	c #E3D1A9",
"Sa	c #A9926F",
"Ta	c #E9D4AB",
"Ua	c #EAD4AC",
"Va	c #E3CDA4",
"Wa	c #BB9A74",
"Xa	c #DCC294",
"Ya	c #E9D3A4",
"Za	c #D3CAB1",
"`a	c #F5E4B4",
" b	c #E2CEA1",
".b	c #DAC396",
"+b	c #D1B688",
"@b	c #B89269",
"#b	c #DCC29A",
"$b	c #E3CCA0",
"%b	c #E8D3A5",
"&b	c #E6CF9E",
"*b	c #E2C899",
"=b	c #ECD8AE",
"-b	c #E5CCA2",
";b	c #D6BD94",
">b	c #E5D09E",
",b	c #D2B78D",
"'b	c #C19F77",
")b	c #DAC9A7",
"!b	c #FFFBCA",
"~b	c #C59A68",
"{b	c #C8BEA4",
"]b	c #F5E5B8",
"^b	c #D5C59B",
"/b	c #CCC293",
"(b	c #D3C59B",
"_b	c #DDCDA3",
":b	c #BEAE86",
"<b	c #C9B990",
"[b	c #E4D3A8",
"}b	c #D7C699",
"|b	c #DAC9A0",
"1b	c #E4D1A9",
"2b	c #E7D4AB",
"3b	c #BFAA85",
"4b	c #C2AD82",
"5b	c #E7D9A7",
"6b	c #D6CEB6",
"7b	c #998964",
"8b	c #D3CA99",
"9b	c #D0C194",
"0b	c #D6C699",
"ab	c #C6B78A",
"bb	c #BAA880",
"cb	c #E7D7AD",
"db	c #CFBA93",
"eb	c #A08761",
"fb	c #C6B188",
"gb	c #E9D2A9",
"hb	c #E4C79A",
"ib	c #C8A97E",
"jb	c #DBC198",
"kb	c #E5CDA4",
"lb	c #FAE4B7",
"mb	c #E3CBA0",
"nb	c #D1B38A",
"ob	c #C7AC88",
"pb	c #F4DEB1",
"qb	c #CBB387",
"rb	c #E5CB9C",
"sb	c #FEEEC0",
"tb	c #BFB287",
"ub	c #C4B68C",
"vb	c #EADCB0",
"wb	c #E8DAAD",
"xb	c #E7DAAC",
"yb	c #CDBE95",
"zb	c #CEBD97",
"Ab	c #E2D5AA",
"Bb	c #C9B892",
"Cb	c #D4C69B",
"Db	c #DFCEA2",
"Eb	c #DBCBA2",
"Fb	c #E8D4A9",
"Gb	c #F3E4B2",
"Hb	c #F9EAAF",
"Ib	c #F0DEB1",
"Jb	c #D1C8AD",
"Kb	c #D8C7A0",
"Lb	c #9E926D",
"Mb	c #CFC198",
"Nb	c #C2B78C",
"Ob	c #DED2A7",
"Pb	c #D7CC9F",
"Qb	c #F9ECBD",
"Rb	c #877153",
"Sb	c #C0AC87",
"Tb	c #EAD6AD",
"Ub	c #EFDBB1",
"Vb	c #D3BC93",
"Wb	c #E7D6AA",
"Xb	c #DDCFAA",
"Yb	c #D2C7A8",
"Zb	c #FFEFBA",
"`b	c #FDEDB5",
" c	c #FDEDBE",
".c	c #F5E3B4",
"+c	c #E8D7A8",
"@c	c #AE9B6E",
"#c	c #E4D5A8",
"$c	c #BAA980",
"%c	c #A0916C",
"&c	c #D7C5A0",
"*c	c #CFC097",
"=c	c #D8CA9E",
"-c	c #E3D5AA",
";c	c #DECFA5",
">c	c #DACDA0",
",c	c #CABE93",
"'c	c #CBC395",
")c	c #C6CB8F",
"!c	c #ECE2B4",
"~c	c #F1E2B7",
"{c	c #D2BF99",
"]c	c #A5916F",
"^c	c #B1A27B",
"/c	c #D3C69B",
"(c	c #DED1A6",
"_c	c #F3E5B7",
":c	c #EADBAE",
"<c	c #E0D1A5",
"[c	c #C3B38C",
"}c	c #E2D1A9",
"|c	c #D7C39B",
"1c	c #A8916F",
"2c	c #DDCAA2",
"3c	c #E8D4AC",
"4c	c #E2CDA5",
"5c	c #E8D3A3",
"6c	c #E4D2AB",
"7c	c #F7E2B6",
"8c	c #FFEEBB",
"9c	c #FFE7B1",
"0c	c #FEEBBC",
"ac	c #F3E0B2",
"bc	c #FBEBBB",
"cc	c #E6D4AA",
"dc	c #E0CCA4",
"ec	c #E9D9AE",
"fc	c #DBC498",
"gc	c #D9C196",
"hc	c #E6D0A8",
"ic	c #AC936D",
"jc	c #D4BF94",
"kc	c #D1C095",
"lc	c #9E8766",
"mc	c #B29D7A",
"nc	c #D1BF96",
"oc	c #DCCAA3",
"pc	c #C7B88E",
"qc	c #BAB085",
"rc	c #C4B890",
"sc	c #D4CC9E",
"tc	c #E0D5A9",
"uc	c #E8DAB0",
"vc	c #CBC2A6",
"wc	c #DAC79E",
"xc	c #EFDDB4",
"yc	c #E0CFA6",
"zc	c #D3C49A",
"Ac	c #CCC192",
"Bc	c #BEAD86",
"Cc	c #DAC8A0",
"Dc	c #E6D3AB",
"Ec	c #BFAB85",
"Fc	c #C2AD81",
"Gc	c #E7D9A6",
"Hc	c #E6D8B2",
"Ic	c #D1C5A9",
"Jc	c #BEA97D",
"Kc	c #E0D3A5",
"Lc	c #E7DAAD",
"Mc	c #BEAD89",
"Nc	c #7C684B",
"Oc	c #AC9A78",
"Pc	c #B5A87D",
"Qc	c #B4A47C",
"Rc	c #E4D5AB",
"Sc	c #ECDEB2",
"Tc	c #F6E9BE",
"Uc	c #CCC3A5",
"Vc	c #F5E0B5",
"Wc	c #CCB18A",
"Xc	c #B59670",
"Yc	c #DCC69C",
"Zc	c #E2CC9F",
"`c	c #DECA9E",
" d	c #DBC499",
".d	c #E2CCA1",
"+d	c #C5AC81",
"@d	c #D4BE94",
"#d	c #CCB98D",
"$d	c #DFCDA5",
"%d	c #BFB186",
"&d	c #C3B68C",
"*d	c #E6DAAB",
"=d	c #CCBE95",
"-d	c #CEBC98",
";d	c #C9B792",
">d	c #D4C59A",
",d	c #DECEA3",
"'d	c #D8C69F",
")d	c #DCCBA1",
"!d	c #E7D5AA",
"~d	c #F9E9B0",
"{d	c #F0DDB0",
"]d	c #E9D9B5",
"^d	c #CEC6AC",
"/d	c #DECFA4",
"(d	c #D7C69D",
"_d	c #C3AC85",
":d	c #C8B68C",
"<d	c #DED2A5",
"[d	c #C0B587",
"}d	c #A6916C",
"|d	c #D9C8A1",
"1d	c #D0BE93",
"2d	c #D7C69A",
"3d	c #CAC0A4",
"4d	c #EFE5C2",
"5d	c #FEEBBE",
"6d	c #F5DFB2",
"7d	c #DAC49A",
"8d	c #C2AA7E",
"9d	c #CDB68B",
"0d	c #E2CDA3",
"ad	c #C9BFA3",
"bd	c #E7D5A8",
"cd	c #AD9B6E",
"dd	c #E4D4A9",
"ed	c #B9A97F",
"fd	c #9F906C",
"gd	c #CFBF96",
"hd	c #D7CA9E",
"id	c #D9CDA0",
"jd	c #C9BE93",
"kd	c #CBC295",
"ld	c #C7CB8F",
"md	c #ECE3B3",
"nd	c #DCCFAE",
"od	c #C6BBA0",
"pd	c #E4D0A3",
"qd	c #EAD9AA",
"rd	c #E7D6A8",
"sd	c #C4B082",
"td	c #BBA47F",
"ud	c #EBDBAF",
"vd	c #BAA67B",
"wd	c #CEC5AA",
"xd	c #F0E4BC",
"yd	c #DCD4B9",
"zd	c #F2DEB2",
"Ad	c #C6BC9F",
"Bd	c #D6CBAF",
"Cd	c #F2DEB1",
"Dd	c #DAC498",
"Ed	c #D8C096",
"Fd	c #AB936D",
"Gd	c #D3BE94",
"Hd	c #B19D7A",
"Id	c #D1BF97",
"Jd	c #B9B084",
"Kd	c #D7CAA1",
"Ld	c #C5B890",
"Md	c #D4CD9E",
"Nd	c #E0D5AA",
"Od	c #C9BDA3",
"Pd	c #C8B589",
"Qd	c #A28B64",
"Rd	c #C7B48C",
"Sd	c #E1CFA5",
"Td	c #C5B288",
"Ud	c #A9956D",
"Vd	c #DBCDA1",
"Wd	c #F8EDC4",
"Xd	c #D2CAAE",
"Yd	c #EEE1B9",
"Zd	c #EDE1B8",
"`d	c #EBDFB7",
" e	c #EADFB6",
".e	c #EADEB7",
"+e	c #EADEB5",
"@e	c #E8DEB6",
"#e	c #E8DDB5",
"$e	c #E8DDB4",
"%e	c #E7DDB5",
"&e	c #E7DDB4",
"*e	c #E8DEB5",
"=e	c #EFE5BA",
"-e	c #DBD4B8",
";e	c #EFDEB7",
">e	c #EFDFB7",
",e	c #EFE0B7",
"'e	c #EDDEB6",
")e	c #E9D9B1",
"!e	c #DFCFA6",
"~e	c #E7D8B0",
"{e	c #EDDEB7",
"]e	c #ECDEB5",
"^e	c #EDDFB6",
"/e	c #EADBB2",
"(e	c #ECDEB6",
"_e	c #EADDB7",
":e	c #EBDCB5",
"<e	c #EBDBB4",
"[e	c #E9D9B2",
"}e	c #E5D4AC",
"|e	c #B8A07C",
"1e	c #A38965",
"2e	c #C7B48D",
"3e	c #CBB890",
"4e	c #CAB78F",
"5e	c #CCB892",
"6e	c #B29B74",
"7e	c #C0AC86",
"8e	c #BBA881",
"9e	c #B8A37D",
"0e	c #E0D1AA",
"ae	c #DFCEA7",
"be	c #DCCDA6",
"ce	c #D4C49C",
"de	c #D4C59D",
"ee	c #DED0A9",
"fe	c #E9DBB2",
"ge	c #E8D9B1",
"he	c #D2C9B0",
"ie	c #E8DAB4",
"je	c #EADAAF",
"ke	c #E6D6AC",
"le	c #F2E5BA",
"me	c #EADDB1",
"ne	c #CEBF97",
"oe	c #CFBE95",
"pe	c #96805B",
"qe	c #97855F",
"re	c #96835E",
"se	c #B6A780",
"te	c #D9CCA5",
"ue	c #E1D6AF",
"  . + @ # $ % & * = - ; > , ' ) ! ~ > % , { ] ^ / / ( _ / : < [ } < | 1 2 3 4 5 6 7 8 9 0 a b c d e f g h i # j k l i j i m n o p q r s t u v w s x e y z A B C D E F G H I J K L M N O P J Q R S T U V W X Y Z `  ...+.W @.~ b #.$.%.&.*.=.-.;.>.,.'.).!.~.{.].",
"^.0 /.(._.:.<.[.}.|.{ 1.2.3.4.5.U 6.7.8.9.0.A a.b.c.d.e.f.g.h.i.j.k.l.r m.n.o.p.q.r.s.t.u.t.v.w.x.y.z.A.B.C.D.E.F.G.H.I.J.K.L.M.N.O.P.Q.R.S.T.U.V.W.X.Y.Z.`. +6 .+++@+#+T $+%+k &+*+=+=+-+;+>+= ,+'+)+1 !+~+{+^.]+^+/+(+_+:+<+[+}+|+1+2+3+4+5+6+7+8+9+0+a+b+c+/ ",
"D d+e+f+g+h+i+j+k+l+m+n+o+p+q+r+s+t+u+v+w+x+y+z+A+B+C+D+E+F+G+F+F+H+I+* J+K+L+M+N+O+P+Q+R+S+T+U+V+W+X+Y+Z+`+ @.@+@@@#@$@%@G+p.&@*@=@-@;@>@,@'@)@!@~@{@K.]@G+G+^@E+^@G+/@/@/@G+(@]@]@_@:@<@[@}@|@]@L+1@2@3@4@5@p.6@7@8@9@0@a@b@c@d@e@f@g@h@i@j@k@l@m@n@o@p@f+q@r@",
"s@t@F+G+u@v@G+w@^@x@y@z@A@B@C@D@E@F@G@H@n+I@J@K@L@M@N@O@P@(@K.G+(@]@I+Q@R@S@p.T@7@U@V@W@X@Y@Z@`@ #.#+#@###$#%#&#*#=#-#;#>#H+,#'#)#!#~#{#]#^#/#(#_#:#<#N+E+^@(@(@(@(@(@K.(@^@[#P@}#|@|#1#2#3#E+_@_@(@4#5#6#p.7#8#9#H+0#a#b#c#d#e#f#g#h#i#j#k#l#m#n#o#p#q#r#c@_@s#",
"t#u#6@H+F+G+K.K.(@v#w#x#y#z#A#B#C#D#E#F#G#H#I#J#K#L#M#N#O#P#N+P@[#(@Q#r R#>#S#0#K.K.T#U#V#W#X#Y#Z#`# $.$+$@$#$$$%$&$*$=$-$H+;$>$,$'$)$!$~${$]$^$/$($_$:$E+(@G+G+(@[#^@|@<$[$}$|$v@[#^@1$2$3$4$_@[#[#5$6$7.T@9#7$q.8$>#9$0$a$b$}$9$c$d$z#e$f$g$h$i$j$k$l$m$n$o$&@",
"p$q$7$8$/@]@F+G+w@N+r$s$t$u$v$w$x$y$z$A$B$C$D$E$F$G$H$I$J$K$P#^@^@^@L$M$N$O$P$:@:@r.Q$R$S$T$U$V$F+^@W$X$Y$Z$`$ %.%+%@%#%`$F+H+'#$%%%&%*%=%-%;%>%,%'%)%!%E+K.[#P@P@P@E+~%{%]%^%/%(%_%:%<%[%}%4$}#[#}#|%1%2%9#7$7$H+/@K.[#N+3%4%5%f+6%6%7%8%9%0%a%b%c%d%e%}$f%g%q@",
"h%i%7$H+V$V$/@]@]@[#:$j%k%l%m%n%o%p%q%r%s%t%u%v+v%w%x%y%z%A%B%v@v@8@C%D%E%F%G%H%I%J%K%L%M%N%t.;$H+H+S#S#O%>#P%Q%R%S%T%U%V%W%u.X%$%Y%Z%`% &.&+&@&#&$&%&&&*&P@|@=&E+P@|@-&;&>&,&'&'&)&!&~&3#{&4$P@P@P@L+]&|.^&,#8$V$F+(@]@K./&/&P@P@E+N+P#c@z#(&_&:&<&[&}&|&1&2&q@",
"3&4&,#8$/@/@F+]@]@K.E+:$5&6&7&8&9&0&a&b&c&d&e&f&P#5%5%g&h&}@i&|@f+j&k&l&m&n&o&p&q&r&s&t&u&v&;$q.H+;$V$V$V$w@w@w&x&y&z&A&B&C&D&5$%%E&Q$F&G&H&I&J&K&L&M&N&v%*&O&P&u@=&Q&R&S&T&U&V&W&X&Y&Z&4%`&E+P@E+/&5@ *.*7$+*V$V$/@G+@*K.(@(@K.[#[#P@|@#*$*f%%*&***=*-*;*>*,*'*",
")*!*H+H+/@F+]@(@(@}#P#u@|@7%~*{*]*1#*&7%9$^*/*7%4$8@i&X&(*|@v@4$P#_*:*<*[*}*|*1*2*3*4*5*6*S#q.H+H+S#S#;$H+V$;$w@7*8*S+9*0*a*b*c*d*e*f*g*h*i*j*k*l*m*n*o*p*q*r*s*t*u*v*w*x*y*z*A**&B*C*f&|$5%`&D*E+4$5@E*F*,#V$/@F+]@G+]@(@[#K.[#[#}#}#}#|@G*H*I*J*K*L*M*N*O*P*Q*",
"R*S*H+V$/@/@]@(@K.[#P@E+/&|@|#T*U*V*4$E+|@`&`&N+E+E+P#(*|@E+#*B%(*8%:@W*X*Y*Z*`* =.=+=@=6*S#H+;$S#S#V$V$;$V$V$V$V$w@v@#=W@$=%=&=*===D+g%f@-=;=>=,='=^*)=!=~={=]=^=/=(=_=:=<=f%[=1#}=l+}=*&P#|@4$4$4$7#%+|=H+8$/@F+]@(@(@_@[#[#[#^@}#P@P@E+u@1=2=3=4=5=6=7=8=9=0=",
"a=b=H+V$/@]@@*G+(@K.[#v@P@}#P#1=c=u@4$E+P@P@P@P@E+|@d=e=f=e=g=h=i=j=k=1 X*l=m=`* =n=n=t.t.t.t.S#8$V$V$V$S#V$S#S#V$F+F+S#>#U@o=p=q=$+r=a&c$p@~%j+~%Y&5%G*s=t=u=v=w=x=y=z=A=B=C=3%*&|#3%l+D=5%`&|@E=4$7#,+F=8$/@F+]@(@@*(@_@[#}#P@P@P@P@P@E+4$n$G=H=I=J=K=L=U.M=Z+",
"N=b=H+/@F+]@G+(@[#[#[#}#P@v@|@P#O=7%E+P@v@/&P@/&P@v@|@P=Q=R=N&S=T=U=V=W=X=Y=Z=`=@= -P$t.n=w@w@S#/@V$V$V$V$V$S#V$/@F+F+V$F+7*.-+-@-#-8@X&$-P#%-&-W&4$7%X&*-=---;->-,-'-)-!-~-o$%-7%{-]-{-7%5%5%{-u@`&9#^-/-V$/@F+]@_@(@_@[#[#^@}#P@/&/&/&E+E+|@(-#*o$_-:-<-[-}-|-",
"1-2-8$/@F+]@@*_@(@K.^@E+N+E+`&{-7%P#/&/&E+P@/&P@/&E+|@n$K$3-4-5-6-7-8-X 9-Q$0-U$a- =n=>#G+V$;$F+F+/@S#V$V$F+/@F+F+F+F+F+F+G+b-4#c-d-/@[#/&|@1#1#`&E+P#e-1#v+f-I@g--&'=h-j+3%=&7%i&`&u@i&i-u@%-Y&{&j-7$k-l-/@/@G+G+(@[#_@[#}#P@P@/&/&E+/&E+4$`&{-m-*&n$v%n-o-p-q-",
"r-s-V$F+]@]@(@(@[#}#N+5%*&P#5%$-i&4$4$|@E+E+/&E+P@/&E+|@(*8%<=t-u-v-w-x-y->#V$V$k&v@z-^@G+G+F+F+S#S#F+S#S#/@F+F+w@F+]@w@F+F+]@s#A-e /@]@^@P@v@E+E+|@|@B-C-D-E-F-G-H-o$j-I-P#`&J-J-`&`&`&i&(-%-7%u@3%V$K-L-/@M-@*(@(@_@}#[#P@P@P@E+/&/&4$4$i&*&W&N-C=O-P-Q-R-S-T-",
"U-V-8$]@]@]@_@^@E+`&W-X-H*Y-E-}$Z-i&|@P#P#E+E+E+E+E+E+4$E+P#`- ;.;+;;$X @;#;K.w@w&$;G+/@F+K.7@F+S#F+/@/@F+F+F+]@w@F+F+F+G+G+G+s#%;&;/@]@_@^@P@P@E+4$|@|@7%*;A%=;-;H-{-u@i&J-`&`&`&P#J-i&i&5%5%u@u@%-H+;;>;/@]@@*_@[#[#}#}#P@/&P@D*4$E+4$E+P#B%,;j+<=';);!;~;{;];",
"^;h.V$F+G+(@[#E+`&`&/;(;_;:;<;[;A%#*P#d=i&4$4$E+E+E+E+E+E+|@O$};0$|;;$1;2;r.N+w@7@F+/@S#G+[#G+F+G+F+F+F+F+F+F+w@]@G+G+G+F+w@G+3;4;5;]@]@_@P@P@P@/&|@i&4$`&W&P&{-6;5%`&J-i&J-J-`&J-P#J-`&i&u@u@i-J-i&H+W 7;/@G+(@[#_@}#P@/&/&/&E+/&E+E+4$`&o$8;9;0;a;b;c;d;e;f;g;",
"3.h;V$/@@*(@K.}#}#P@m-i;x%_-N-j;k;9;V*d=P#4$E+4$E+4$E+4$`&l;m;G@n;o;v@p;q;V$K.]@S#V$V$F+>#7@7@F+G+K.G+G+w@G+G+G+]@G+G+G+G+]@G+3;r;s;M-(@(@}#}#/&P@E+t;u@|@`&J-i&j-u@i&J-`&`&`&`&i&i&i&i-i&u@(-7%i-u@S#u;v;M-G+(@_@[#P@/&/&/&/&E+4$4$4$`&w;x;y;_&z;A;B;C;D;E;F;7%",
"G;H;/@]@(@(@_@}#E+/&7%}$o@,;z#_*6%k;*&u@n$P=4$E+E+4$E+|@|@P=W-I;J;K;L;M;N;6@q.q.;$V$F+K.F+/@F+K.^@K.]@F+]@w@F+]@G+w@G+]@G+G+G+s#O;P;]@G+_@P@}#P@/&4$u@7%E=`&`&`&i&J-i&`&`&i&P#i&J-i&i-i&u@(-%-u@i&*&^@Q;R;F+(@K.P@P@/&/&/&E+4$E+4$4$E==&x@S;T;U;V;W;X;Y;U;Z;`; >",
".>+>/@]@G+(@K.P@|@E+:$}=@>#><=$>2=3%3%2=%>t;7%4$|@4$4$4$|@P#_*%&G-&>*>=>->9#6@H+;$V$F+F+F+F+F+K.K.G+F+F+F+G+G+G+G+G+G+G+G+G+(@3;;>2@]@(@K.}#[#P@P@4$`&`&4$|@`&`&`&`&`&i&i&i-7%i-i&i-i&i&i-u@*&>>o$9;B-,>t#]@(@[#[#P@P@'>E+E+E+4$E+4$P#X-4%)>!>~>{>]>^>/>(>_>:><>",
"U-[>V$]@(@_@[#}#P@8@:$7%B-1#}>|>1>C*a&f#2>3>o$P#E+`&7%(*3%W&g&4>5>$>P$6>7>9#7$H+;$V$V$V$S#F+w@G+w@F+F+G+G+G+G+G+G+G+7@(@G+(@(@3;8>9>@*(@[#}#}#/&/&E+P#i&|@|@E=E=`&`&`&J-i&`&i&i&i&i-i&i-i&i&/;0>a>A%b>c>,>]@(@[#}#P@P@/&/&/&E+4$4$E=i&d>w;s*1=e>f>J$g>h>i>j>k>l>",
"m>n>/@]@G+(@[#/&*&l+Y&*&u@X&o>p>q>r>*-s>t>u>8%f+v>w>@>&&}@x>y>z>A>B>w-M C>L$7$q.8$S#V$/@F+w@G+]@F+]@]@w@]@G+G+G+G+7@(@7@K.G+K.s#D>E>(@_@_@[#/&P@/&4$|@`&E=`&`&`&J-J-`&i&i&i&i&i&i&i&u@i&u@=&F>G>H>I>J>K>L>]@_@[#^@}#P@P@/&D*4$4$4$|@`&|@P#i-$*M>j+E-N>O>P>Q>R>S>",
"T>5#/@]@(@(@[#P@5%U>V>W>x@C-X>Y>Z>`> ,.,+,@,#,$,y*%,&,*,=,J;-,;,>,N-;$t@,,9#q.H+;$V$S#F+F+w@w@G+G+G+]@G+G+(@G+(@(@(@K.7@(@(@K.s#',2@]@(@[#}#P@P@/&/&4$|@4$`&`&`&`&`&i&i&i&i&i&i&i&i&i-7%(-_-),)>!,~,{,],^,G+_@_@[#P@/&/&E+/&E+|@4$`&|@|@`&i&{-,;&-/,z>(,_,:,~-7@",
"<,[,/@]@(@K.[#P@*&Z&},&-E-|,'=1,2,D-3,4,5,6,7,8,9,0,a,b,c,-,E-x>'=}@q.6>)#9#7$H+V$S#F+(@^@^@]@]@]@F+G+G+G+G+K.(@(@K.(@K.(@K.(@d,e,f,(@K.}#P@P@P@E+E+4$4$`&`&`&i&`&J-i&i&i&i&i-i&i-i&i&i-(-Y&g,h,i,j,k,l,t#(@K.K.[#P@'>E+4$E+4$|@4$|@`&`&`&`&{-/;m,n,o,p,q,E-r,q@",
"p$#-F+]@(@[#}#E+x@s,w>n$w%t,v%u,8;v,w,x,<;y,F$z,A,B,C,D,E,F,%&G,H,I,7$t@)#^&q.H+S#V$G+K.^@u.G+G+w@G+G+G+(@(@(@K.G+(@K.K.K.(@[#d,A-[>@*_@[#}#P@E+/&4$4$4$`&`&`&`&J-`&i&i&i&i-i&i-i&7%u@u@{-J,K,t*E#L,$>P 6#(@K.[#^@P@P@/&E+E+E=|@|@`&4$4$`&`&7%O=Y-M,4%{&P&o$(*X%",
"N,;;F+@*(@(@[#P@{-2=E-c=v%O,P,i&B%w%Q,R,P-S,T,{>U,J$p,V,W,X,z;Y,Z,`,L; '.'7$7$H+V$K.>#b-v@+'K.G+G+(@G+(@(@(@K.K.(@(@K._@K.K._@s#R#@'@*_@[#^@P@/&E+4$4$4$`&`&`&J-P#`&i&i&i&i-7%i-i-u@u@%-#'%-W&P&|#=&;$$'%'G+(@[#}#}#P@E+E+4$4$4$4$|@E=`&`&`&P#u@7%u@5%u@i&J-J-I+",
"p$&'F+(@(@_@^@[#/&P&$*Y&I=i&|@|@`&P&g-*'='-'p,D-T*;'k$>'G,,''')'!'~'{'@;@;6@q.;$S#F+7@u.7*z->#G+G+(@G+(@(@K.K.(@(@[#K.[#K.[#K.s#]'^'@*_@[#P@}#/&4$4$4$E=`&`&`&`&P#J-i&i-i&u@7%i-u@u@(-(-(-%-P&|#j-%-7$/'('@*(@[#}#P@P@/&E+/&/&E+|@P#|@`&`&`&`&`&P#i&`&J-i&J-i&X%",
"_':'/@G+K.[#}#P@v@`&P#4$|@E+E+|@4$P#<'['}'|'1'B,2'3'4'5'6'7'8'I@9'0'a'b'c'6@H+;$w@G+]@P@P@K.(@]@G+G+G+(@K.(@(@[#[#K.K.K.K.K.[#s#d'e'(@[#[#P@/&E+4$4$|@4$E=`&`&J-J-J-i&i&i&i&i-i&i-u@u@(-(-f'=&%-(-I-7$$'g']@_@[#[#P@P@E+u@]*h'P$P#|@`&`&|@`&`&J-i&`&J-i&i&i&J-X%",
"i'j'/@]@K._@P@P@P@E+E+E+4$4$4$4$4$`&k'l'm'A#n'o'p'q'J>!>r#r's't'u'v'w'x'y'7$H+V$F+]@(@^@E+K.G+G+(@G+(@(@(@(@K.K.K.K.(@K.K.K.[#d,z'A']@K.[#}#P@/&4$4$E=`&`&`&`&i&i&i&i&i&i-i&i-u@i-i-u@i-(-I-(-u@(-u@^&B'R ]@(@[#}#}#P@P@0#C'D'f@#*`&`&`&`&`&`&P#P#P#i&P#i&P#P#X%",
"E'F'F+G+K.[#^@P@/&P@/&E+E+4$4$4$4$P#G'8;<'H'I'J'K'L'M'N'O'P'Q'R'S'T'U'V'W'q.H+H+V$F+G+(@^@G+]@G+(@K.K.(@K.K.K.[#[#K.[#[#[#[#[#d,X'Y']@K.}#}#/&E+/&4$4$|@|@`&`&P#i&i&i&i&i-i-u@u@u@u@u@Z'u@i-(-(-u@u@9#`' )(@(@K.^@/&E+P#~%*-l@f%.)4$E=`&`&J-P#`&P#`&i&i&i&i&P#X%",
"+)@)]@G+_@K.[#}#/&v@E+/&/&4$4$|@E=i&#)$)%)#)#)&)*)=)-)j;O-;)>),) ;')O%))!)7$q.V$/@F+]@G+K.(@G+G+G+7@(@K.(@K.[#K.[#^@[#[#[#^@[#d,~){)@*[#^@}#/&E+4$4$E=4$|@P#`&P#P#J-i&i&u@i&i-u@i-u@i-u@(-u@(-u@u@u@9#])^)7@8@5%u@E+4$4$B%/)p,t*.)`&P#`&`&`&`&`&P#J-i&P#P#i&i&X%",
"()j']@(@K.[#[#P@P@v@/&E+E+4$|@4$|@_).)#*m-O,<'=;:)<)[)a&})|)1)2)W-3)T@W*4)q.;$V$S#/@(@]@]@]@]@G+K.(@(@K.[#(@[#[#[#^@K.[#K.[#[#d,5)6)(@(@}#P@/&4$4$|@4$E=|@`&J-J-J-i&i&i&u@i-u@u@u@u@u@u@(-u@u@u@u@u@9#7)%'8)9)0)a)7%i&i&5%7%3%d=`&`&7%`&`&`&`&i&`&J-P#i&P#`&i&X%",
"b)j'/@@*(@_@}#^@/&/&E+E+4$4$4$|@|@`&P=c)d)e)I=f)g)h)i)j)k)l)C,0;I=k'H+m)y-q.H+;$V$S#w@]@w@G+G+G+G+K.[#(@K.[#[#[#[#[#[#^@[#^@^@d,l,n)G+[#P@}#/&/&/&4$4$|@`&`&i&u@{-u@i-u@i-u@u@u@i-u@u@u@(-(-(-u@(-I-9#o)p)q)r)s)C=o$`&4$7%7%|@`&u@_)P#`&|@`&`&`&P#`&P#P#`&`&J-X%",
"t)7;/@G+(@K.[#}#P@P@E+E+4$4$|@4$|@|@_)P#u){-.)1,v)w)x)J;Z%y)')z)A)f=B)C)p 7$H+V$/@F+F+]@G+G+G+(@(@[#(@K.[#[#K.[#[#^@[#^@[#[#^@4#D)Z.(@[#P@P@/&E+E+4$4$|@`&`&7%P&O=u@i-u@u@u@(-%-u@u@u@(-u@(-u@u@(-I-T@>;E)F)G)k$j;d=7%P#P=(*f+{-B%P=`&`&|@`&`&`&P#`&`&i&`&`&i&X%",
"'$H)i&]@(@[#[#^@/&/&E+E+E+|@4$|@`&`&i&P#J-w>*;I)J)K)L)w%M)O,N)g=e=O)/@P)3&P@H+V$F+F+F+G+]@G+K.K.K.K.[#[#K.>#[#[#[#[#[#^@^@+'Q)z-R)S)4$P@E+v@/&E+E+4$4$`&`&P#A*|#,;%-i&u@{-%-I-u@u@u@u@(-u@u@#*u@(-u@V$T)U)V)W)_&m+3#N-X)d=#*P#P#P#`&|@|@|@|@`&P#`&P#`&J-`&`&O)^&",
"C)N$<*Y)Z)R=`) !.!+;.!.!+!@!@!#!@!$!Y)Y)%!&!*!=!-!;!>!N',!'!)!!!~!{!L %.%%^.]!^!/!/!(!_!:!:!:!^!^!<!^!^![![!^![!_!_!}!|!1!2!3!4!5!6!7!8!u,9!u,u,0!H'H'H'a!:-b!c!c!b!d!e!a>b!f!1=g!w;_-_-_-h!i!d>_-_-h;p)j!k!l!Y>m!n!o!9;W-p!P#`&|@|@|@q!Q=e=l;r!s!t!u!v!w!R=v!x!",
"y!z!A!1.&',+B!C!z!D!Q;K :'+.E!S F!1.G!R 6>6#J H!p)I!J! .D!p;K!L!M!~..  .)+N!x!O!{+P!Q!{+R!S!& T!U!V!T!{ W!X!Y!Z!`! ~.~+~@~#~$~=.2;%~&~C>Y%*~%~G!=~-~s@%';~>~,~'~)~!~~~{~]~^~/~(~M _~:~<~[~}~|~1~2~3~4~5~6~7~8~9~0~a~b~,!c~d~e~e~f~g~h~i~j~k~l~m~n~o~8 p~k q~r~+ ",
"s~t~u~v~w~x~y~z~A~B~C~c 3 k-D~E~F~G~H~I~J~K~L~M~N~O~D :~P~i ;;Q~R~S~T~U~2@V~W~X~Y~Z~`~ { {.{+{@{#{${%{&{*{j.={-{;{<~>{;{V~j.,{'{){!{~{{{]{^{/{({_{/{:{!{<{[{}{|{:{1{2{>{3{2@4{;{5{6{9 7{8{9{0{a{7{[,b{K!c{d{6!e{f{g{h{'+i{7 7 j{W~k{h l{t t W~W~9 m{<~n{o{P~p{[,",
"q{r{5@T@9#7$,#,#H+V$/@}#1#3%s{t{u{v{w{x{y{z{A{B{C{D{E{F{G{H{I{J{K{]*L+L{C)+*^&H+H+V$V$V$/@M-]@G+P@P@[#(@[#[#[#[#_@[#(@_@(@_@Q#M{J i{N{L+p.7#T@9#6@7$q.q.H+H+H+H+H+H+8$/@V$/@F+/@S#/@F+]@F+]@F+]@p.O{P{Q{3 9>R{7$7$,#H+8$8$8$/@/@/@/@]@]@F+]@]@G+]@[#/&$-t;S{v@T{",
"('U{8#9#7$H+H+8$V$V$]@]@`&5%W&#*:-V{W{X{Y{Z{`{ ].]+]@]#]$]%]V{7%{-{-V$&]p)^&H+H+8$F+M-]@]@]@(@(@[#[#[#_@_@[#[#}#_@[#[#[#[#[#]@5$*]7#L+p.T@T@9#7$7$q.H+V$V$H+V$/@/@F+F+F+/@M-F+]@]@]@]@G+G+]@G+]@G+G+&@;;=]9#7$7$H+8$V$V$/@]@/@]@G+]@G+]@(@(@(@(@(@(@[#[#P@P@}#s#",
"-];]9#7$H+H+8$/@/@/@]@]@(@E+E+P#n$>],]'])]!]~]{]]]^]/](]r*X-2=I-P#%-}#_],~H+H+V$F+/@]@]@G+(@[#[#[#[#[#[#[#[#}#/&}#}#P@P@P@}#P@X%:]p.B)T@9#^&q.7$H+H+8$V$V$/@w@G+]@F+]@]@]@]@G+(@]@G+G+G+(@K.(@(@(@(@5$4~~+9#q.H+V$/@F+F+F+F+]@G+G+]@G+[#[#K.K.(@(@[#[#[#[#[#[#d,",
"P 9#7$H+;$<]/@]@]@]@]@[#[#`&u@8@i&*;[]}]|]1]2]3]4]5]s$'=6]Y&7%4$E+P#E+4#7;H+V$/@F+@*@*_@_@K.7][#[#}#}#/&}#P@P@P@P@P@/&P@/&/&P@Q#|=6@6@9#7$7$q.H+H+V$V$V$/@G+G+G+^@P@K.(@]@G+G+(@(@(@(@K._@_@[#(@(@[#8]9]0]F+F+V$V$F+]@]@@*]@]@E+t;a]b][#[#[#[#_@}#}#[#^@[#^@[#4#",
"c]9#7$H+V$/@F+]@]@(@(@P@P#7%Y-d] ;e]f]O*O*g]h]i]j]k]l]m]n]o$i&4$E+4$`&I+H)8$/@M-G+(@(@[#[#}#P@P@P@}#P@E+P@/&/&E+E+D*E+D*E+4$/&Q#o]6@L$9#7$7$q.V$V$/@S#F+(@v@N+^@[#/&P@(@(@K.(@(@K.(@_@[#K.K.K.[#^@[#5@p]q]^@]@/@F+/@]@]@(@(@G+K.r]s]}%|@}#^@[#[#^@}#^@P@}#P@P@I+",
"t)^&,#V$/@F+]@@*]@(@(@P@7%1#Y-h&t]u]v]w]x]y]z]A]B]C]D]E]0&z*u@P#i&|@E=4#]~/@]@G+_@(@(@[#[#[#}#/&/&P@/&E+/&E+4$E+4$E+4$4$4$4$/&q@F]G];$7$7$H+H+V$/@V$F+(@^@H](*N+K.[#K.^@[#^@[#K.[#_@[#[#[#[#[#}#}#P@p.I]J]F+/@@*]@]@F+K.[#K.v@=&K]L]6%|@}#P@[#P@}#P@/&P@/&P@v@I+",
"M],#8$V$/@]@]@@*_@(@}#i&X-_-v%N],]O]P]Q]R]S]T]U]V]3'W]X]n]l+|#u@P#`&4$4#^~/@]@G+_@[#^@}#}#/&P@P@E+E+E+E+D*/&4$4$4$4$4$E+4$4$4$L+^,w@q.7$7$q.8$V$V$F+F+]@*>Y]P=v@K.K.[#E+v@8@[#_@[#[#[#^@}#P@^@[#v@E+T@Z]`](@]@]@w@N+i&P#P@[#}#7%f#D- ^i&P@P@P@P@P@/&P@v@/&E+E+I+",
".^7$8$/@M-(@]@(@K.}#|#+^@^#^E#g,-*+^$^%^&^O-*^2,=^-^;^>^{>;'&-{-P#|@|@X%,^]@G+[#[#P@P@P@}#/&/&E+E+E+/&4$4$4$|@4$4$E=|@4$E=`&|@5@!~7$9#7$q.8$/@F+V$F+G+P@8@3)Y]*;v@[#P@E+|@E+[#[#[#[#}#^@P@}#P@P@P@|@H+U~J-K.8@7% >'^)^*&P#|@|@P#|@*&(*E+E+4$/&/&/&v@/&/&E+/&/&X%",
"!^H+V$F+]@(@(@(@}#i&3%~^{^]^^^/^(^_^:^<^[^D-r,}^U*|^r#1^o@k+h!i&`&`&`&X%2^P@P@7%7%`&P@'>/&/&/&4$E+4$|@D*4$4$|@4$`&`&`&4$|@|@4$L+b)S#7$,#V$V$V$V$F+G+G+^@3^4^v,P,K.K.P@E+4$E+[#[#^@[#[#}#/&E+/&/&P@E+V$5^E=F+N+6^7^r)t$j+$-4$P@P#|@v@E+P#|@4$E+P@v@E+E+E+/&E+E+X%",
"8^,#8$M-]@(@(@_@P@/;G*9^0^a^b^c^d^e^f^g^h^i^j^C-V>k^f&l^m^|$5%P#J-`&E=5$n^|@:$S{o$E+}#P@P@E+/&4$4$|@u@5%7%`&4$`&`&`&J-`&`&|@4$p.o^V$H+q.H+H+V$S#F+]@p!P=p^q^r^U#^@K.[#P@P@P@[#[#}#[#[#^@v@E+E+/&P@E+H+'$'>G+O&s^t^u^i+v^B%8@|@f+7%|@7%P=|@E+E+E+/&/&4$E+4$E+4$X%",
"D>H+/@F+@*(@[#(@E+5%d>,;w;/,w^x^y*y^z^A^B^C^D^C={-|$x@P&I-i&i&i&i&i&|@L+E^N+E+i&7%E+/&P@E+E+4$4$7%:$F^S{m^f'(-u@5%(-=&u@i&i-J-5@G^;$6@q.H+8$8$G+N+H]s,H^_;I^U#f=v@[#[#[#^@[#^@}#^@^@P@v@P@v@P@P@v@E+7$>~J^v@K^!,L^W)M^N^x^<'c=v>P#|@|@|@4$E+/&/&/&/&/&/&E+E+E+X%",
"O^H+/@]@G+(@(@_@/&P@/&|@=&(&H=P^Q^R^T&m!6-S^T^c=P&*;A*i-i&`&i&7%i-7%`&8#F*K._@P@u@7%4$|@|@E+4$%-V>M,z*U^V^z*i-u@|#W&=&X&#)|#i&7#X*S#7$q.H+8$V$r.W^X^v'Y^Z^`^H]P@[#K.[#[#[#[#[#^@^@^@^@}#P@P@v@P@E+|@6@C>(*t;C* /./+/Y>@/n!%*Z-P,v>|@E+E+4$/&E+E+E+4$/&E+E+4$4$5$",
"!~H+F+]@(@_@_@[#^@P@P@/&P#Y&X-b^#/$/%/&/T*r,*&i&u@i&`&`&J-i&`&`&`&P#4$8$*/(@[#P@4%6%7%%-P#E+5%S{m,=/-/;/>/,/'/{&o$=&%-o$*&#*P&V$>~7$6@,#H+8$w@)/!/~/{/]/!'^///K.K.[#[#[#K.[#^@[#^@P@P@P@v@/&v@E+E+|@>#F]_*(/_/:/</[/}/[/|/l'm-4$|@E+v@P@E+P@E+E+E+4$E+4$4$E+N+Q#",
"1/H+F+]@(@_@_@[#}#P@P@E+P#W&c^}^]>g-2/}$4%(*`&P#J-`&`&`&`&P#`&`&i&i&4$3/4/[#[#E+3%5/M>7%i&|#g%6/7/p%8/9/0/a/b/c/d/W&o${-%-5%|$8)d+9#6@7$H+F+f+e/f/g/h/i/j/k/K$P@K.K.[#>#[#^@[#^@P@^@P@P@P@/&v@E+|@U#^@l/m/n/o/p/q/r/s/t/u/k$Y]|@E+E+E+/&/&E+E+E+4$E+E+E+E+4$4$Q#",
"M]H+F+]@(@[#[#}#}#P@P@v@`&u@l+l+x@Y&*&{-i&`&|@`&`&`&`&P#J-J-i&`&`&i&D*v/w/(@f+d]x/y/z/A/B/C/D/E/F/G/H/I/%,J/K/5/|&C*Y-P&#*{-B/L/M/T@7$H+;$N/O/P/Q/I@R/S/T/~&3^[#_@[#K.[#[#[#^@[#^@^@^@P@P@P@E+|@N+N++=M]U/V/W/X/Y/Z/y)`/ (v^U&(*N+E+8@|@E+/&/&E+E+4$E+4$E+4$4$Q#",
"~~V$M-G+(@(@[#^@}#P@/&/&/&|@`&`&`&i&|@`&E=`&`&`&J-`&`&P#P#P#`&i&`&i&E+.(-~v@G*+(@(#($(%(&(*(=(-(;(>(U&B>,('()(!(5/F)n,3%4%~({(](^(;$V$7@/(((_(:(<([(}(|(1(2(3([#K.K.K.^@[#^@P@[#^@^@P@P@P@P@E+4$4(W-O&'~5(6(7(8(9(W-W-0(A%a(<'P=E+N+H]i&|@N+E+/&E+E+E+4$|@E+|@N{",
"b(V$F+]@]@(@[#P@P@P@P@/&E+D*E+E+E=`&|@`&E=4$`&`&`&J-i&i&`&i&i&J-i&i&P@c(<*(@P#d(e(f(g(j,h(i(j(k(l(<-m(B;n(o(p(q(x;r('/2=q,s(&/t(u(7@v(w(x(y(z(A(B(C(D(E(F(G(:!H(K.[#[#[#[#^@^@^@^@^@}#P@P@P@P@/&E+I(7@y-J(K(L(M(v>f+B%N(w%O(P(N(p^P=P#P#4$E+E+E+4$/&E+|@4$4$_)6@",
"Q(8$^@:$a]w@P@}#P@P@P@E+E+4$E+E+|@|@|@`&4$`&`&`&`&`&`&i&i&i&P#i&i&J-P@R(S(T(U(V(W(X(q,(&Y(Z(`( _._+_@_G@#_$_%_&_*_=_-_e>;_>_#^,_'_S#U&)_!_~_;){_]_^_/_(___:_<_[_v@(@K.^@^@^@^@P@}#^@^@P@P@P@P@/&E+U#F+}_|_1_*^/;N+N+7%}@2_3_4_5_(/3)f+(*P=E+E+/&E+4$N+4$4$6_v>O%",
"o 8$w@7_8_1&8@P@}#P@P@E+E+4$4$4$4$|@E=`&|@`&`&`&`&`&J-i&J-J-i&i&i&i&[#9_x'0_a_b_b&~=c_f%d_e_f_J$g_T*h_i_j_ _k_l_m_n_o_p_q_&^@^r_s_7@t_u_v_w_x_y_B#z_A_B_C_D_E_F_G_[#K.[#[#^@[#^@^@}#^@P@P@P@v@/&v@E+q.2;s,2&p@},|@^@P@B%H_I_J_K_L_l@a)B%8@E+E+E+E+4$E+|@|@|@$)r.",
"M_G+5%'=N_V&|@}#P@P@/&v@4$E+E+4$|@4$|@`&`&|@`&P#J-`&`&i&i&J-i&J-J-i&}#O_P_/=W&p@Z//;{-{-f%P&u@u@A*N]}'Q_R_S_%]T_U_V_j=W_X_Y_Z_`_ :S#K.N+N+H]-&=,.:+:@:#:$:%:&:})*:P@K.[#K.[#^@[#^@^@^@P@P@P@v@P@v@v@T@7>=:P#8@E+N+[#K.P@8%}$-:;:>:j/f)6_E+E+E+E+4$|@E+4$//,:W-S#",
"':F+|@d]n,Y-8@P@P@/&v@/&E+E+E+4$|@`&4$`&`&`&`&`&`&i&i&i&P#i&P#J-P#i&[#&{Q~%-/&[#P@/&E+`&u@5%(*5%u@z#9'):W)!:~:{:]:^:/:(:_:C,::<:[:;$K.[#G+U#(;}:|:1:2:3:*(4:5:6:7:u.v@P@^@[#[#^@^@P@^@}#P@P@P@v@/&/&T@8:9:]@]@K.^@[#v@v@P#c)3^0:a:[-K;*:|@E+|@|@E+4$E+U#|@b:M(c:",
"d:K.v@P@O&7%P@v@E+v@/&v@E+E+E+E+|@E=4$|@`&`&`&`&`&`&P#J-i&P#P#i&i&i&[#e:(~[#[#[#}#/&E+8@`&P#i&i&`&|#};f:g:h:i:j:k:l:m:n:o:p:q:r:s:6@F+u.0#t:`#u:v:w:B,x:y:P>z:A:Y$b-v@U#P@G_u.v@P@^@^@^@^@P@v@P@/&v@T@B:C:G+(@(@[#^@P@P@P@v@|@m-;'S,c=*:4$E+E+E+/&4$|@4$D:#=_;E:",
"-]F+P@P@(@P@N+N+E+v@/&P@E+E+E+E+4$4$|@|@|@`&|@`&i&P#i&P#i&P#J-P#`&i&_@(+j'(@(@}#P@P@/&|@`&|@|@P#`&5%},F:G:H:I:J:b&K:L:M:)$N:O:P:Q:q.,#>#Y$R:3(+#S:T:U:V:W:X:Y:Z:`: <.<+<Y$_!@<z-#<^@}#P@P@P@v@/&P@v@9#.'$<K.>#G+(@K.^@P@P@v@v@|@P,m;Q+I(P@E+E+E+/&6_T#m;%<(]&<0#",
"*<K.v@|@v@P#P#E+P@P@/&P@/&D*4$4$|@|@4$|@4$|@|@8@`&P#P#P#`&P#P#P#`&J-(@=<^,(@K.[#}#E+4$4$|@|@`&`&`&7%%--<f&{(;<><s{r'o,,<'<)<!<m^~<F+V$Q)H.{<]<^</<(<_<:<<<[<}<|<1<2<3<4<+#{<5<Q)b-^@^@^@P@P@P@v@P@v@T@7>6<F+K.K.[#[#[#[#P@|@P@8@W-')7<*:/&v@/&E+E+P%8<9<9<0<a<b<",
"c<V*|@v@^@v@P@P@}#P@/&E+E+/&4$4$4$|@|@|@|@E=|@`&`&`&`&P#P#`&P#`&P#P#;$S(F](@[#[#P@/&E+E+4$`&4$`&i&u@|#[=W&d<f&1^@>4%V&P&#>a&9&d)e<N+`##=`#v:`#f<g<h<i<j<k<l<m<n<o<p<S:q<r<s<t<u<^@[#P@[#^@^@P@P@P@P@p.@;X!G+*>v@(@v@^@K.P@t_v<a)v<P#f=|@P@/&P@P@O)F_w(P-w<x<)@y<",
"z<A<B<#*^@[#}#P@}#P@P@/&E+E+E+E+4$|@4$4$|@`&|@|@|@P#`&P#J-`&P#i&P#J-_@'$T>E+[#P@P@/&E+E+4$|@|@J-J-i&{-n$u@e=c=C<y>2=n$I-P,O=v>D<E<F<G<(;H.H<I<J<.-K<L<M<N<O<P<Q<n/R<S<.;u:T<R:+'P@[#[#P@^@P@/&v@#</&L+'$t):$[$U<V<p@3)N+B%W<v(A/O/Z-f=/&P@P@P@|@m;X<Y<Z<`< [j/!~",
".[V T>+[@[#[d~#[!!$[@[f~i~i~g~g~%[&[&[*[=[-[;[>[;[,['[)[;[,[,[,[,[#[;;s@c]![~[{[][^[/[][][([_[:[<[[[[[-[:[}['[|[1[2[3[/[f~+;4[5[6[A-7[8[9[0[a[b[c[d[e[f[g[h[i[j[k[l[m[n[o[p[q[r[s[t[u[^!^!_!@<v[:!4<G_7>w[x[y[Y=z[A[B[a)@>C[D[8<E[F[[_G[H[I[J[K[L[M[N[(:O[P[/~Q[",
"R[p;i{7 S[W~5#T[W~5 W~U[T[V[j{W[X[Y[Z[j{V[`[c 5# }.}+}c @}= n .}#}$}%}-~&}~.i *}*};{u 5#=}-};}>}T[g 8{5 <~c # g ,}>+'})}!}U[~}q{Q {}]}^}]}{}/}(}_}:}<}[}}}2;|}1}2}3}z'1}4}5}6}7}R[8}9}0}a}b}c}d}e}1 f}1 g}]~Y[K]h}i}X>a(j}k}D;l}m}n}o}! p}. q}r}s}t}u}v}w}x}y}z}",
"A}B}C}D}E}5@p.7#6@(@G+V$[#|@`,s!F}p[G}H}I}J}K}L}M}N}S~O}9-P}Q}R}S}T}d A}z!>{U}V}W}`&J-`&X}Y}J-i&`&`&(@P@F+/@F+/@M-F+/@F+/@p.Z}`} |.|+|@|#|5$5$5$L+^&$|%|&|*|=|-|] ] ;|>|,|N;'|)|W!!|)|& ~|^ M!M$..V!p}{|]|^|^./|(|_|:|<|[|=.}|X=||1|2|} 3|4|5|6|7|8|9|+=T@8$0|a|",
"b|@+L+5@7#8#9#6@6@V$G+]@c)c|o<d|e|f|.;3(>#N+H(K.[#g|h|i|j|k|l|m|n|r.o|p|j'7$H+8$V$H+7%q|r|s|t|w(f>G*7%`&E+_@]@]@@*(@]@]@G+G+Q#]{u|v|X%5$5$Q#Q#Q#N{N{N{M+C%;$0#7@w@w@q.T@7#T@9#6@6@6@9#7$q.7$q.7$Q#w|x|U!^)y|M+L+L+L+p.p.p.7#T@T@6@q.S#H+k&z|7@F+r.v@S#q.H+V$d,+|",
"8}7#7#T@9#9#6@7$7$V$^@|@A|B|O/./C|(/N+F+F+>#G+;$H+7@F_D|E|F|C&$@U@v@d,m.G|,#V$8$V$G+|@B*B=H|r=I|J|~%4$P@[#(@[#(@(@_@K.[#_@_@,#K|L|M|5$Q#Q#q@q@N{N{L+p.p.6@t.+=q.S#L;7$9#9#7$7$7$C%7$7$q.H+H+H+H+H+p.%|M!]|6@p.p.p.p.7#T@T@T@9#7$7$6@7$6@;$0#N|G+n=S#;$;$V$+=X%O|",
"P|T@7$7$6@7$7$q.H+;$F+^@8@d$Q|R|F{D[(@F+F+G+G+F+w@N+Q+i=S|T|U|A:V|S+5$W|M 8$V$/@V$[#P@4$8%X-|#f+Y&4$[#[#[#_@_@[#[#[#}#[#}#}#]@;]>~X%5$Q#q@q@N{N{M+M+p.T@C%7@0#^@S#q.C%q.7$7$7$,#H+q.H+H+;$8$8$V$V$V$d,X|Y|T@5@p.T@T@T@9#6@7$V$H+;$H+q.7$q.w@^@w@F+q.H+S#w@F+N{Z|",
"`|T@;$V$7$H+H+H+V$V$V$F+K.U< 1v%r^|@w@V$/@G+S#F+w@0#r.C_.1+1@1S_[(#1$1%1G!F+8$/@F+]@(@[#/&}#/&P@[#(@[#[#}#}#}#}#[#P@}#}#P@P@K.8#/~X%Q#q@N{L+M+p.p.p.B)6@6@K.&1#@u.S#,#q.q.H+H+H+H+;$;$V$;$V$V$V$/@F+4#p]*1S#T@7#9#6@6@7$7$q.;$;$/@;$q.q.H+H+;$V$H+;$S#G+F+H+q@=1",
"A-q.7@F+8$H+;$V$V$F+S#F+w@-1;1B|A|8@K.G+F+G+F+G+v@r. =>1,1m/U@`:'1)1N|y'])F+/@/@]@]@G+@*(@(@(@[#[#_@^@P@}#P@P@}#P@P@/&P@P@/&(@;]O Q#q@q@N{L+M+7#7#T@T@6@C%r.!1~1{1F+H+H+;$H+H+;$;$V$V$/@/@/@F+F+M-F+I+]1R;F+6@6@6@7$C%q.,#7$H+;$;$V$;$H+H+H+V$F+S#/@S#S#V$;$q@^1",
"P|^@K.V$,#H+V$8$/@F+F+G+|@3)/1G@(1I^E+^@(@K.G+K.P@6_P$_1:1<1%<!/T+N)[1P)!^_@(@]@]@]@(@(@[#_@_@[#}#}#}#P@}#P@P@P@P@v@E+P@P@P@(@@*+)5$q@N{L+p.p.p.T@L$9#6@q.7@v@>#K./@;$;$V$H+H+V$V$V$/@F+F+F+F+w@]@w@I+L!}1L$9#6@7$7$7$7$H+H+H+F+7@F+8$V$V$V$V$V$V$S#V$S#V$S#N{|1",
"X']@F+K.(@/@V$F+/@/@]@]@^@P#c$<_|;8@v@K.K.(@r.7%8@E+v@11!/2131415161718191`&/&}#[#(@(@K._@[#[#^@}#P@P@/&P@P@/&P@1#X-u@4$/&E+(@01M]Q#q@L+M+p.T@T@9#6@6@7$q.V$V$;$F+S#V$;$V$V$/@/@/@F+F+F+F+F+w@]@G+]@I+]|a1T@9#7$7$q.q.H+;$;$V$S#S#V$V$V$/@V$V$V$F+G+S#V$F+F+p.b1",
"c1r.:$*>r.(@F+/@F+F+G+(@[#M,P-&&U*d1E+>#K.G+0#|@N+P@v@v@r.e1b>41f1g1h1i1j1G+_@[#(@(@K.[#[#}#P@P@/&}#/&/&/&/&i&3%k1b^Y&$-i-|@_@l1F]q@N{L+M+7#T@L$6@7$7$7$H+H+V$V$V$V$;$V$V$V$/@/@/@F+F+F+w@]@]@G+G+G+X%%}]1T@6@7$7$7$H+V$H+8$F+w@S#V$S#F+V$F+S#F+F+F+w@F+F+F+5@M}",
"m1n1o1p1q1N+]@/@K.^@v@7%f+i#r1s1d]U^|@P@0#0#^@K.(@G+^@8@//P%`#F_i;t1u1v1;~E+E+_@_@K.[#[#[#P@P@P@/&v@/&/&/&E+P#z*w1x1|$V&=&7%[#y1z1q@L+5@p.T@9#T@6@6@q.q.H+8$V$V$V$V$V$V$V$S#F+F+F+w@]@F+w@G+G+G+(@G+X%Y|1 6@6@7$H+;$8$;$V$F+P@v@G+/@F+S#F+/@V$F+]@w@]@K.^@^@T@A1",
"B1C1D1E1F1c:7@v@8@G1H1}=1>e]j/g>~&I16_v@.)e=P@(@K.K.(@^@P@u.^@r.J1g|6@*1-~G+(@]@(@_@}#[#}#P@P@P@/&E+E+/&4$N+7%{-d/}$K1d<i&`&P@.(L1q@L+p.p.9#6@9#7$7$H+q.H+H+;$V$V$V$V$S#F+F+F+]@F+G+G+G+G+G+(@G+G+K.5$T}M19#7$q.H+;$H+V$F+K.|@>#]@F+/@F+F+]@]@F+G+G+G+K.^@u.9#N1",
"8>O1P1Q1R1S1T1 ,D]U1V1W1'=*--&E]X17%[#v@v@E+^@_@K.(@(@K.(@^@^@P@v@//B)..6#]@]@@*_@[#[#[#}#P@P@E+/&/&E+E+E+4$=&=&5%3%|$|#(*i&K.E=.^q@M+7#7#9#6@6@q.7$q.;$;$V$V$V$V$/@S#/@]@]@w@]@]@]@G+G+G+(@(@K.(@K.5$L ,,7$7$H+;$8$V$/@F+]@K.K.F+F+]@w@G+]@]@]@G+P@v@u.w&b-q.Y1",
"R@Z1`1 2.2+2@2#2$2%2&2*2m@T,C*r==2P#^@P@^@[#[#[#K.(@_@K.K.K.(@K.P@P@Q#1|-2]@]@(@K._@^@P@P@/&v@/&E+4$4$E+E+4$4$E+|@7%`&J-u@h!=&x@()q@M+p.T@T@6@q.q.H+;$V$V$V$V$V$S#F+F+F+]@]@G+w@@*G+G+(@(@(@(@K.K.K.5$x-;29#q.H+H+V$V$V$F+/@G+K.G+]@F+G+]@w@G+G+G+K.>#H(>2,2V$'2",
")2!2~2V#{2z,{2]2^2/2(2_2:2t,<2[2}2P#N+P@^@[#[#[#K.K.[#[#K.[#[#+'H(#<Q#W||2]@]@(@[#[#^@P@P@/&E+/&E+4$4$4$4$`&|@|@`&P#`&`&P#|#|$|>12N{p.T@L$9#7$;$H+;$;$V$V$V$V$S#S#F+F+]@]@]@G+G+@*G+G+(@(@_@(@K.K.[#5$22327$H+;$V$/@S#V$F+F+]@(@G+]@G+G+G+G+(@7@>#K.K.E+w&^@;$42",
"526272s> ;82U,x@92h&02a2b2c2d2y=f)H]U'E+^@[#^@[#[#K.[#[#[#[#P@H(3(G_M+e2L>]@(@K.[#P@}#/&/&/&/&/&E+E+4$4$4$`&P#i&P#4$|@|@f+*;=2w^f2L+p.T@9#7$;$7@F+H+;$;$V$V$/@/@F+F+w@w@]@G+]@G+G+7@(@K.K.[#K.K.[#[#5$22;27$,#V$V$V$/@F+]@]@G+K.(@G+G+G+G+(@G+(@[#K.[#b-H([#H+g2",
"m1r=h2i2j2g#'=k/@>k2l2m2n2o2p2q2u1r2s2t2E+P@}#^@[#[#[#^@[#[#[#r.v@u<q@u2v2]@(@_@}#[#}#P@/&/&/&4$4$4$4$4$4$4$`&|@i&`&`&i&W-w2x2y2R*L+p.T@6@S#7*W$z-R:w@;$V$S#F+F+F+F+G+G+G+]@(@K.(@K.(@K._@K.K.[#[#^@5$1 z27$H+;$/@F+F+F+F+G+]@G+(@G+(@G+(@(@(@(@(@(@^@[#P@[#S#A2",
"z'*&m'B2C2D2D(E2-^N^F2G2H2I2Z+>-J2u'K2L2U#E+^@P@^@[#[#[#^@^@^@[#[#}#Q#M2N2]@(@_@}#}#}#P@v@E+E+E+4$4$4$|@4$`&P#i&h!u@5%3%C*c_O2f$P2M+9#w@,2G.Q2R2S2T2U2G+S#F+]@]@F+G+G+@*G+G+G+K.(@K.K.K.[#[#^@[#^@[#5$->B:7$H+V$S#/@/@F+]@]@(@(@G+G+G+G+G+(@(@K.K.[#[#K.^@[#F+V2",
"W=^@x@w%W2X2Y2Z2`2 3=!L@9&I/.3z#K^+3@3#3|@P@^@}#}#}#[#^@v@//v@v@}#[#Q#$36#]@(@(@[#[#P@/&E+D*E+E+4$E+4$|@`&#*{&W>%3f#3%&3*3=3-3;3>3M+6@F+J.,3J<'3)3!3~3z-F+F+w@G+v@[#(@[#K.(@(@(@K.(@(@[#[#[#}#P@[#^@Q#e2{3,#H+V$/@F+]@]@G+(@(@(@(@K.(@(@(@(@_@(@(@K.^@K.K.(@F+8]",
"]3N+K$m-W-@1!%^3/3(3O'_3:3<3[3}3|3_3}213P,P@}#P@}#P@^@}#P@v@23#<P@[#Q#3343G+(@_@[#P@P@P@/&E+E+E+E+4$|@|@i&(*#)),53G,D(63;^@&738393p.;$S#3(.;03a3b3c3d3H.P@/@w@[#u.z-b-b-^@K.K.[#(@[#[#[#[#[#[#^@[#[#Q#e3f3H+V$V$F+F+F+F+]@G+G+(@K.K.(@[#[#[#[#K.[#K.[#K._@[#G+Q#",
"l,E+E+V&7%O&m$u%g3y+a(M)s/h3Z^i3I^f=8@f=P%E+v@P@P@P@P@[#^@^@^@P@P@P@Q#W|3~]@(@_@P@P@P@/&E+E+E+4$|@4$4$|@`&i&P=K,=;b&j3k3l3m3n3U*c<7#H+r.`#o3p3q37:m/r3s3_33(0#>#`#+<[_7<v@[#K.K.K.[#[#}#[#^@^@^@P@^@5$t36>H+V$/@F+]@F+]@(@(@7@(@(@(@K.K.K._@[#[#K.[#K.[#K.[#G+Q#",
"@-]@(@|@a)V*-&u3v3w30)x3y3z3A3Q&N+E+N+E+v@P@P@P@P@P@^@P@^@P@b-//P@[#Q#M$}|@*K.[#[#}#/&E+/&/&4$4$E+4$E+P#P#u@o$X-B/k1B3w)C3D3E3a)F3T@7@Z#G3H3I3X$J3K3L3M3`$N3O3P3Q3R3J.S3^@[#[#[#[#[#}#P@^@P@[#[#P@P@Q#T3J H+V$/@F+]@G+(@G+(@K.(@K.[#[#[#K.[#K.[#[#[#[#[#[#[#(@5$",
"X'w@P@/&E+P#v>U3V3W3X3Y3Z3`3 4v>e=f=//E+v@P@P@P@P@P@}#^@P@P@b-P@P@}#Q#M26#(@_@[#[#}#E+/&E+E+E+4$|@P#i&i&i&O=c= 4+;.4+4@4#4$4%4;$&4T@^@*4.$=4-4;4>4,4'4)4!4~4{4]4^4/4(4[_v@v@/&[#[#}#}#[#P@^@^@P@P@P@5$E!p]H+V$F+F+w@G+G+G+(@[#(@_@K.K.K.[#^@[#[#^@^@[#[#[#^@(@5$",
"_4F+G+K.P@v@C=:4<4[4T*P^i=K$g=P#|@`&U#E+P@P@P@P@P@P@P@^@P@E+#<^@^@P@Q#}4N @*[#_@P@P@P@E+E+E+E+|@`&#*P&P&v>X-O,')x>|4142434f><'p.44T@q.r.546474849404O2a4b4c4d4e4f4g4h4(;c)i4P@[#^@^@[#^@}#^@P@v@P@P@Q#->Y|H+V$/@F+]@(@]@(@K.(@K.[#v@v@P@P@^@P@[#[#^@[#[#^@[#[#5$",
"O;V$F+G+|@*&L@j4k4l4}@C=8%P=B%6_/&v@P@v@P@v@/&P@P@P@P@P@E+`#*:#<P@}#q@{|7;P@P@P@}#/&E+/&4$P#P#|@|@(*C=,;m4$>y*t^n4o4T,p4B[C[&&p.~~C%^@{12(q4r4s4t4d(I@u4v4w4x4y4z4A4H^B4m;V@C4^@[#}#P@^@P@P@P@/&P@v@Q#R;L!H+V$F+]@G+(@(@[#K.[#v@*:D4E47<I(#<#<P@^@P@}#P@P@^@[#Q#",
"528$F+(@P#A|F42>/)2=v>{-P#E+E+/&P@P@P@P@v@P@P@/&/&P@v@P@3(Y$G4P@P@P@q@H46#5%%-u@4$E+E+/&/&P#u@i&P#5%|&6%h}S1I4J40$*;W-6%V*K$v<M+K47@r.E+ 4L4J1t2V@M4N4O4P4Q4R4S4O3T4U4J1G[V4G_P@P@^@P@v@P@P@P@C4//C46@y'W4H+V$F+w@]@(@(@(@P@S3X4@<;#S<W@+<#=V4#<P@^@^@^@^@^@[#8]",
"_'8$F+[#8@W-/,A%|;Y4P#|@/&P@/&P@P@P@v@/&v@E+P@P@P@v@/&P@#<I(Z4/&P@[#Q#u2`4|@|@4$5%7%8@E+8@8) 5k@e#g%.5s,+5@5H_x3#5,;.)_)`&6_6_q@$5^@K.w@(@S#F+F+G+v@%5,4&5*5=5^!-5J[^!H(G_t:H(b-//#<#<P@E+C4#<H(E4g|;5>5,5H+/@]@]@(@K.(@K.[#E+#!'5)5!5~5{5]5u.P@P@P@}#P@^@P@K.8#",
"^5H+G+E+|@}=/57%8@P@[#}#P@/&P@/&v@P@v@P@E+E+/&/&v@/&P@/&v@E+#<P@P@P@Q#7}(5E+/&E+e-6&=&f+o1_5:5<5[5}5|515253545u-d$*;.)_)H]6_P#Q#o G+G+;$;$V$F+F+]@P@0#w:5565Y$I(^@P@//75@<S3@<G_i4#<v@I(@<Q)I(*:Y$85q+95-|V$F+M-G+[#(@[#K.}#E+05a5b5c5S:d5V4C4v@P@P@P@P@P@/&(@7$",
"<,;$(@8@v@(*O&P#N+P@}#^@P@P@/&P@P@E+/&/&E+P@P@E+/&E+v@P@v@E+E+E+v@P@Q#f}e5`&/&N+f5g5h5i5j5k5<^l5E-;'s=m5n5o5p5g%q59$P,_)#*.)`&5$r56@7$H+;$V$/@]@]@K.K.u.b:[#[#[#K.[#P@E+*:*:t2*:G_s5Y$_;]5i46_N)t5u5v5w5x5V$S#]@G+(@K.(@_@P@C4V@+#y5d5U2E4z5i4E+P@P@P@/&P@P@(@/@",
"A5H+G+P#.)E+4$P@P@}#P@P@P@P@/&v@/&E+/&/&/&/&/&/&P@v@P@P@v@23E+#<#<P@q@{|B58@e-C5D5E5F5G5H5I5J5|$n]Y-6]K5L5M5N5r$O5B*k;H]O)P=O)Q#446@7$;$V$F+F+F+]@]@]@(@K.[#}#^@[#^@[#E+E+#<t:P5Q5R5I'J.|3`)|3S5T5U5`_V5W5V$/@]@(@(@(@_@[#[#[#[#//X4J1V4S3i4i4///&P@P@v@P@v@K.<]",
"_48$F+|@l;E+E+/&[#}#P@P@P@P@P@P@/&P@E+/&E+E+/&E+E+E+E+E+E+P@/&P@P@/&Q#*@X5W&5/Y5r_9&Z5`5i+ 6c=#)m-f+|@.6b]-1m2+6a:3-B%8@6_Y]v>5$@66@H+H+V$F+F+]@G+@*(@(@_@[#[#[#[#}#P@}#P@E+f=#6$6%6&6*6%4}2G>D_=6}2>#@6-6V$F+]@G+G+(@K.K.[#[#^@P@//I(U#//I(7<t2O)E+/&v@/&b-(@$|",
";6H+F+{-e=}#[#}#P@^@}#P@P@P@/&/&P@v@v@E+v@v@/&/&E+E+P@/&v@P@v@P@v@#<q@*@>6'=,6'6)6';!6~6{6-&Z/(*P#|@|@|@|@w>]6^6/6O#P,g=x@&&$>(6d:H+H+V$S#F+]@]@@*(@(@(@_@K.[#[#[#^@}#[#/&E+X^!/_6:6<6A>[6}6:_')|6*:6@N$;}/@F+G+]@(@(@_@[#[#[#P@^@P@E+#<#<I(}2S58*S3//P@v@E+G+16",
"Q:(@]@E+n$P@[#}#}#[#P@P@P@P@P@P@P@v@/&E+E+E+/&v@E+P@P@/&E+P@/&E+P@v@5$2636N>46566676869606C[B%4$P#|@E=P#i&w>U*s]a6N-v@O$b6c6A/d6e6f6H+8$V$F+]@G+G+(@(@K.K.[#[#^@P@^@^@P@E+P%g6~:X<h6i6C[q+=6p^c)P,Q+L+4;j6V$/@]@(@G+[#_@[#[#[#^@}#P@P@P@|@I(w!k6`,7<,://E+E+]@K}",
"l6m6G+^@|@}#[#[#[#^@P@P@P@/&E+/&v@/&E+/&v@/&/&E+v@E+/&P@E+/&v@/&E+E+T@)#<|n6o6K@%^p6X>K%q6r65%|@`&P#|@4$`&K$V^s6t6p@6*u63$c@2&G=v6w6H+H+V$]@G+(@(@(@(@K.K.[#[#}#}#}#P@v@/&t2J'k}x6N&y6z6%<#=Q+*:75//G+!~e*/@F+F+G+(@[#[#[#}#^@P@P@P@/&v@E+3(t2A6u.////E+E+E+7$W*",
"B6]~$!9!w!B<C6C6D6Z)E6F6+!G6G6+!G6G6+!U4+!H6I6G6I6H6H6J6J6K6K6J6L6M6N6O6P6Q6.][;+(R6S6T6U6V6|3d=v>#*P#|@i&d=J;}'W6X6Y6H<I,03Z6`6 7.7H6z5+7+7+7U2H[z5@7#7#7M6T<$7{!%7%7%7&7F6U4+1*7=7p*-7;7>7,7H6L6#7->'$/}'7i4P@^@[#[#[#}#P@P@P@P@P@P@/&4$|@`&//E+E+/&E+4$)7}#,,",
"7}5[ '26!7K!p;D!L!W W L!m 1;^|q X|@)p] .x'^)p]Y|f},,m)~7M1O6z2{7R[p}]7Z ^7/7(7_7:7<7[7}7|7172737-[g~}[}[;[47576777879707a7b7c7d7e7 .f7g7y!y!1 *126h7i726j7g}k78:l7}}m72;X=:]l7|.X=z1n7o7p77>*.'~->%~))b|q7o]]1r7~!s7t7)!y5~!u7v7v7w7x7x7x7y7z7A7B7x7C7A7D7E7X M;",
";;F7G7H7I7J7K7b}L7M7N7O7_'P7Q7T!) ) % & R7S7P!T7z}U7V7/|_ W7X7/|W7:}Y7[*6$Z7`7 8.8+8,+@8#8$87.%8&8*8+}c &8=8-8* +};8>8,8'8)8r@T[!8~8{8]8^8/8(8_8:8P;<8>8[8}8|818283848586878Z7887898]{08a8]{b8]{]{0868#+4{c8d8e8f8g8_8h8'{i8j8k8k8l8m8n8o8S[% Z[p8q8' r8s8t848u8",
"G!) q@M+L$S#(6v8w8x8y8z8#;N|k&-1I1w-#;/(0#A8'*S$B8U$V$V$^@a-W$`#Z#&1C8D8E8F8,#G+(@F+/@M-G+7@(@]@]@]@]@G+@*(@(@G+(@(@@*(@(@(@5$G8R 9>9#^&7$,#/@[#C*H8I8J8K8L8J$c==&7%P#|@[#(@G+(@G+(@(@(@(@(@(@(@(@9#M8P~N8^&^&7$q.,#H+V$P@E+P@P#$-8@P@K.G+G+v@P#8@(@(@K.|@O8v#)}",
"R;q@B)+=O%H+O%P$P8Q8R8S8T8U8x/V8W8X8Y8Z8{'`8 9.9|:>#H+;$L;+9V$O%t.L4@9#9%~7$F+]@]@/@@*G+G+G+@*(@(@(@(@K.[#(@_@[#_@_@[#_@[#[#/@$9'$,#9#,#8$/@]@(@7%W&%9y%U*2=P#/&(@K.}#[#_@_@(@[#[#[#[#[#[#[#[#[#[#[#5$++q{9#7$H+H+8$/@/@F+w@]@[#(@K.P@i&%-2&&9O@O&|@E+v@|@E+G+7 ",
"v;q@C%H+;$C%;$;$V$t_[6*9Q-=9-9;9D@>9,9'9)9s&!9~9V@V$H+H+O%;$;$;$S#S#d6{9F!H+V$F+/@F+]@G+(@(@[#(@_@[#[#[#[#^@}#}#}#^@}#[#}#P@[#I+]98#,#H+<]G+(@]@[#E+E+P@P@/&P@[#[#[#[#[#[#}#[#[#}#[#}#}#[#P@^@P@P@^@7#^9a 6@H+H+/@V$F+]@G+G+(@(@K.K.[#f+D=/9(9_9j+{-E+^@|@/&F+M-",
"o]L$9#p.7#9#q.7@n=r.v@s5:955<9[9}9S+|91*192939P$w@H+q.H+S#V$V$;$;$H+B)49%}H+V$/@]@]@(@(@K.[#_@_@[#P@[#}#P@P@P@}#P@/&P@P@P@P@P@5$599#,#8$/@]@]@(@E+4$P@[#}#P@/&P@}#}#[#}#}#P@}#P@}#}#P@P@P@P@P@}#P@P@7$T[w ,#H+V$V$F+F+(@[#[#K.(@(@G+P@f'}=L@(#z>j;B%8@E+P#P#N+6@",
"R;w@T@T@9#6@6@H+S#7@S#F+t2D4E+A)z|^4Y= -n= =69 -F+;$F+F+F+S#V$;$;$V$M+7989V$/@]@@*(@_@[#[#[#[#}#[#}#'>P@P@P@P@P@/&P@P@P@v@/&E+Q#/-7$H+V$/@]@@*/&P@}#^@}#^@}#P@P@}#P@P@/&P@/&P@P@/&/&/&E+P@/&E+/&/&/&8$99*+,#8$/@/@F+]@G+K.K.}#_@[#P@f+0(P(*_09a9m+3#y)c=(*8@E+p.",
"'$6@9#T@6@9#6@7$q.V$/@F+]@K.v@W-@3b9Y=c9k&k&k&P$r.>#w@S#S#F+V$S#F+V$7#d9=~/@F+@*(@(@_@7]}#[#^@P@P@P@P@/&/&/&E+/&/&E+/&/&/&E+E+Q#2^7$V$/@F+@*(@[#[#[#[#[#P@P@P@P@/&/&/&P@E+/&/&E+/&/&E+/&E+E+/&E+E+E+V$e9-88$V$/@M-]@G+K.[#P@5%4$E+5%6%$>f9g9h9i9j9n!k9H=d=(*E+5@",
"l9p.T@9#6@7$7$,#H+H+;$S#w@w@F+v@m9n9o9-1:@c:r.>#7@G+G+F+F+V$/@/@/@V$T@o.M /@M-]@(@K.[#}#P@P@P@P@/&P@/&/&4$/&D*E+E+E+/&E+4$E+E+Q#p9,#<]F+]@@*(@_@[#[#}#P@P@P@P@/&/&/&/&/&4$/&E+E+E+E+4$D*E+E+4$E+E+4$V$m8r 8$/@F+]@]@(@E+=&z*q96]:$c$w*r9s9t9u9v9w9x9l'g=4$|@E+8]",
"|=5@T@6@7$7$,#H+H+H+F+]@^@7@F+>#&1y9H<T#0#^@b-K.G+F+w@F+w@F+F+F+F+F+6@z9])/@]@(@(@[#}#^@P@P@P@P@/&E+4$/&4$E+E+4$E+E+4$4$4$E+4$Q#8^H+V$]@@*G+_@_@_@}#}#P@/&/&/&/&E+E+/&E+4$E+4$E+4$4$4$4$4$E+|@E+E+4$F+A9n V$/@F+(@(@[#N+(*&>s(<2#1B9C9D9E9F9G9H9I9J9<2g=4$E+/&M+",
"v}7#T@6@7$q.H+;$;$;$w@[#>#v@K.^@>2^@[#3(>2`#$;+'^@G+G+G+]@G+F+F+w@F+C%K9j'/@@*_@_@[#}#P@P@P@/&E+4$/&4$4$4$4$4$4$E+4$4$|@4$|@E+q@L98$/@]@(@[#(@7][#}#'>/&/&E+E+/&E+/&E+E+E+4$4$4$|@4$|@4$4$4$4$|@4$E=[#M9N98$F+]@]@(@K.P@E+|#!:O9P9Q9R9S9T9U9D_w%{,V9y>Z/(*4$E+T@",
"|.6@6@7$q.H+H+8$;$V$/@G+w@P@(@G_&1H(r.@<%@^@G+K.b-[#7@G+G+G+w@]@w@G+q.W9=~]@G+_@}#[#P@'>/&/&E+4$4$E+4$4$|@4$|@4$4$|@|@|@|@`&`&q@X9/@/@@*(@_@[#^@}#P@P@/&/&D*/&E+E+4$N+4$4$4$4$|@4$4$|@4$4$4$|@`&|@i&[#Y9Z9V$]@G+G+[#^@/&P#X&j+w*`9 0.0+05'!%u!t!D_x%a(w2P=|@|@L$",
"c]L$7$6@,#H+H+8$V$V$F+S#F+w@F+G+P%t2v@E+[#K.K.K.r.K.7@K.G+G+]@G+G+G+q.@0C)G+G+[#`&P#|@E+E+E+E+|@`&4$|@4$|@|@4$4$`&|@4$|@`&#*d>C%#0/@]@G+_@_@[#}#}#P@/&/&E+E+E+4$4$|@|@4$`&|@E=|@`&`&4$4$`&4$4$`&|@`&@*88$0V$]@(@[#^@P@8@|6')z)N4%0&0*0=0-0I=v>I^w%&<;03=y)D[3)9#",
"y-T@6@q.H+V$V$V$F+K.G+G+F+/@F+]@v@7*+'[#G+G+[#v@^@>#7@K.^@K.]@]@G+G+q.>0=~F+v@|@7%:$v#%-P#P#i&7%%-7%P#P#|@E=|@`&`&7%P#i&J-n$H*n=6!/@]@]@(@[#}#P@P@P@E+E+E+4$4$4$E=4$4$4$E=|@|@4$4$|@`&4$`&`&|@|@P#P#K.'{,0F+(@E+f+7%8@X&X&3%C[0$'0)0!0e>9;7%P#B%P^~0{0]0^0/03)[1",
"(09#6@,#H+H+V$V$S#G+G+G+]@F+F+]@G+G+G+G+7@[#b-^@G+K.>#P@^@(@(@G+G+(@H+3/_0v@n]1#:0t;<0f'|@P#c@%-:$3%Y&o$i&`&`&`&`&5%{-7%f+$- ^S#[0M-G+G+_@[#P@P@/&/&P@E+E+4$N+4$E=E=|@|@|@`&`&|@`&|@`&`&`&`&P#7%i&P#P@I7K F+G+E+l+3%c@H1(/}09@d$X1|0D+4%#>P=4$|@m-7/1020304050+9",
"~~q.q.q.8$V$;$V$V$F+G+G+(@F+w@F+w@G+K.K.K.K.K.7@K.(@6060K.(@G+G+7@(@8$70p)8@80G29000}-a0b0X&{-5%7%{-(-u@A*{-7%P#P#s^8-y*e#d$'=>#c0/@]@(@_@[#P@/&E+7%7%i&`&`&`&`&P#`&E=|@E=`&`&`&`&|@|@|@`&P#(*A|m-Q&c@d0+.G+7@E+z**&e0h@f0g0};Y](*3%W&B%O&7%4$E+|@U&x>h0i0j0n4>#",
"k09#7$7$H+V$V$/@F+F+G+[#G+G+]@G+w@G+G+(@K.G+(@G+(@[#K.(@7@(@G+G+(@K.V$70l0m0n0o0p0q0r0s0t0f&Y&{-5%I-u@i&},h#~%:$u0v0w0x0y0z0A0B0C0/@]@(@[#[#}#P#O&%-t;:0*&u@i&i&u@o$7%i&i&`&`&`&`&J-u@7%P#i&B%r,X-=2}%D0%'};E0F0L]X&G0H0I0J0K0V*P#4$E+4$|@P#4$|@U#f=I^p!X^L0M0N/",
"R@9#7$q.H+V$S#/@F+]@(@G+]@G+]@G+]@G+G+K.^@K.(@G+K.K.K.7@K.(@K.K.K.K.V$8$N0O0P0Q0R0S0T0U0V0E-M,W0{&o$i&u@V>j^,6X0Y0Z0`0 a(&5/0^.a+aG+}#[#}#P@P#|&m4U^:0@ae-i&u@W&=&*&z*[=A*7%`&P#`&`&(**&u@f+=&#a,;T,$a%a&a*ah]=a-ac#;aA]T1>ao@/;`&4$N+N+4$N+N+4$4$|@|@6_#)~/B>r.",
"K46@,#H+;$V$/@/@/@w@7@G+w@G+]@]@G+G+G+K.K.(@K.(@K.K.K.(@K.K.K.7@K.K.S#,a'ay=)a/2!ar'~a{a]a^aE-/a2,d>n]0&(a_a:a<a[a}aU*M,j+4%|a@=1aP@|@/&_@P#:$q,2a3a4a5ak2'/V&o${-5%*&{-u@3%=&#*i&7%%>6ay*7ad$C-C*r68a9a0a9%4%|&aabacadaeal@A/q5P=|@P#P#E+E+E+E+4$|@4$4$H]c)=6;$",
"-]6@H+H+V$S#F+/@(@E+//[#G+@*G+G+(@(@(@K.K.>#P@w&z-[#(@K.K.K.K.K.(@K.F+fagahaia(]ja%*C,kalaD;x2-)c_Y-q,76&/n,manay%|,D_u!oa#*|@;$7>k+N+E+5%50paa#qarasatauavak+[=B%*&{-u@u@K,0&[=:$%>waxayay0zaA0AaBaz]CaDa$-]*m^F^EaFaGaHaIa'^Jam-|@E+8@E+N+E+E+E+|@6_|@f=p^4^O%",
"Ka6@7$V$V$F+V$F+^@3(^@(@(@]@(@K.G+G+(@^@[#^@b-u.G_[#(@K.K.(@K.(@[#K.]@9#LaMaNaOaN(PaD(QaRaA;2aSaX];,TaUa#^VaWaXaYah&X-B%P=P#P#Q#Za`aw'f@o@ b.b+b@b#b$b%b&b*bC-f@d]x@|#u@I-}$j^=b-bY0;bs=_&c_Z%0^>b,b'b)bR;f+i&^@K.B%!b69#/~bf-Y-O&E+|@p!6_4$8@|@/&|@P,A|Y]P,H]6@",
"N$^&H+H+V$S#F+F+G+P@[#(@G+(@(@G+(@G+K.K.u.H(G_3(u<P@K.[#K.K.K.K.[#K.]@5@{bM)M>]bR&^b/b(bo__b:b<br2[b}b|b1b2b3b4b5bx>m-8@i&`&`&Q#6b7b8b9b0bab*(bbcb8%w^dbebfb!(C-&/P:P&n]@a{(gbhbibjbkb%9n]|&4%-<lbmbnbob]9P@K.K.[#K.^@:$pbqbrbU&P=W-6%r=#>K$X1$)f=Y]'=p^sbo40([1",
"D)6@,#;$V$V$]@]@]@K.K.G+G+(@(@K.(@K.K.K.^@b-*:t2@<#<K.[#K.[#[#[#K.[#w@faE)P@P#N-L0tbubvbwbxbybzbAbBbCbDbE;EbFbGbHbIb*&i&_)i&P#Q#JbKbG$LbMbNbObPb']Qbm'O]RbSbq(Tb661,1=s{s(Ubn,maVbWbp,u,f)M(#*|@f)`*C'XbYbF+K.K.K.^@v@3)e$Zb`b}@># cT(`=w-v#.cr=p^$>8<U&8<|4:_6@",
"D)7$q.;$V$F+F+]@]@G+K.K.(@G+(@K.K.K.K.P@^@P@z-H(+'+'>#[#[#K.[#[#K.[#G+7#*.v@E+X&+c@ca<'=#c$c%c&c;!*c=c-c;c>c,c'c)c!c~cG=d=n$_)Q#3&C-#>{c]c^c/cn'(c_c:c<c[c}cf>|c1c2c9^3c>_{=4cWaXa5ch&2=n$P=P#P#|@8@f+6c(~G+K.[#[#[#P@Q&7c8c9cd@`*71H1v#0cT(S1acbcx@F_ccdcec}2L;",
"447$H+V$/@F+]@G+G+G+_@(@(@(@(@(@K.K.K.^@[#+'u.,2+'^@[#^@K.K.[#[#K.[#G+8#z1^@[#f+b@fcgchcicjckclcmcnc~_ocpcqcP]rcsctcucO#r!.)#*q@vc&-d<e%wcr+!:xcx>yczcAc)4Pa}'Bc<bB9I#0bCc_&DcEcFcGc<_m-P#_)i&P#6_P=f+HcIc|@E+v@P@[#/&P=Z%F,JcKcAb[_G(p<LcMcNcOcPcQcvb]#RcScTcq.",
"Uc7$H+8$V$/@]@]@G+(@G+G+(@(@K.(@[#[#K.[#^@}#b-z-^@^@>#[#^@^@^@[#[#^@F+3/N,(@}#4$m^VcWcXcYcZc`c d.d+d@d#dO:cc:-%*m'4'B2o!')v>f=7#F34$`&~%(-|@8@#*H-$d%d&dL8wb*d=d-d-c;d>d,d'd)d!dGb~d{do$7%u)i&6_`&P#5%]d^dP,|@}#^@E+P=/5:9J;/d(d_d:d<d[dd3}d|dA,9(1d2dG@*6D4t:N{",
"3dV$H+V$/@F+w@]@G+G+(@(@(@(@K.K.K.K.K.[#[#^@^@^@P@^@K.[#[#^@^@^@[#[#q.4d#0(@[#P@8@5dU>o@6da$h&U*t^7d8d9d0dZ%d>3%/;P^|,A%W-A)W-G]ad7%[#E+4$i&`&`&Z/bdcdx_92ddedfd&c6cgdhd-c/didjdkdldmdN]#)$)n$P=6_#*|@ndody)#*P@P@i&5%c/O,P,0(E[pd~$qdrdsdtdz;b>t,udvdF&@1Tc|66@",
"wdxd8$V$/@F+]@G+G+(@(@(@(@_@[#K.K.K.[#>#K.P@[#[#^@[#[#^@[#^@[#^@P@^@F+ydH)d>^@4$u@=&u@S{n]3$M,x@/;B%C*zdb0W-(*n$d=z#g=e=P=.)g=y)AdBd5%^@E+4$4$4$5%CdDdEd[&FdGdkclcHdIdA$p:pcJdKdLdMdNdA, 4m-.).)_)I=v<z1Od}@|@v@7%A|9$c^w;.)K$v<r*x[w2B@PdQdRd6'SdTdUdVdH#65I(Wd",
"Xd5)YdZdy5u7`dv7 e.eB7B7+eC7A7p[@ep[C7#e#e$e%e#e&e#e*e%e&e%e%e&e%e=eR!-e(~H)_[;e>e'!,e'e)e$^!e~e3[{e{[]e]e^e'e^e:[/e(e(e[[2[_eq7e*l-s~~[([:e_[<e[e}eJ@|e1e2e3e4ej95e6e7e8e9eT.0eaebecedeeefe@[f~:[ge&_o]heieY)R= 4je[;keT'b*{!lek}*7meO[3'Q'neoepeqereseteueH66}"};
