/* XPM */
static char * Tile_03_128x128_xpm[] = {
"128 128 9033 3",
"   	c #AAAAA1",
".  	c #807D78",
"+  	c #6D6A63",
"@  	c #99958E",
"#  	c #6D7D59",
"$  	c #3C4F1C",
"%  	c #33341B",
"&  	c #364019",
"*  	c #313318",
"=  	c #35441C",
"-  	c #2D3814",
";  	c #2F3E16",
">  	c #253410",
",  	c #314613",
"'  	c #293D12",
")  	c #293516",
"!  	c #A5A49E",
"~  	c #757568",
"{  	c #445C28",
"]  	c #4C781F",
"^  	c #2D4112",
"/  	c #3B441D",
"(  	c #3D571A",
"_  	c #253710",
":  	c #2A3D0E",
"<  	c #26380E",
"[  	c #405516",
"}  	c #2B3B10",
"|  	c #25350F",
"1  	c #395517",
"2  	c #324F15",
"3  	c #2E4111",
"4  	c #2F4511",
"5  	c #20310E",
"6  	c #2F4312",
"7  	c #30391E",
"8  	c #8C917D",
"9  	c #C4C2BE",
"0  	c #B4B2AD",
"a  	c #898580",
"b  	c #B3B3AA",
"c  	c #383D28",
"d  	c #293214",
"e  	c #263910",
"f  	c #46572B",
"g  	c #B6B4AF",
"h  	c #99968F",
"i  	c #534E45",
"j  	c #8E8A84",
"k  	c #96958F",
"l  	c #989890",
"m  	c #A6A5A0",
"n  	c #63654E",
"o  	c #23280E",
"p  	c #2C3713",
"q  	c #20230D",
"r  	c #504C42",
"s  	c #6A625B",
"t  	c #8A8982",
"u  	c #ACACA3",
"v  	c #77726B",
"w  	c #7B7670",
"x  	c #5B544C",
"y  	c #5E5A54",
"z  	c #34411A",
"A  	c #49681C",
"B  	c #314812",
"C  	c #405515",
"D  	c #23340F",
"E  	c #354C13",
"F  	c #2B3C11",
"G  	c #375416",
"H  	c #384814",
"I  	c #3B4A15",
"J  	c #4A671A",
"K  	c #344C15",
"L  	c #1F2A0D",
"M  	c #232E0F",
"N  	c #343A17",
"O  	c #1D290B",
"P  	c #2B3D16",
"Q  	c #28360C",
"R  	c #344914",
"S  	c #202F0D",
"T  	c #323E15",
"U  	c #353B15",
"V  	c #2E4012",
"W  	c #1E290D",
"X  	c #2B3914",
"Y  	c #1B220B",
"Z  	c #24280E",
"`  	c #27270E",
" . 	c #2A3113",
".. 	c #2B3B17",
"+. 	c #2C3F18",
"@. 	c #384A13",
"#. 	c #384D14",
"$. 	c #3D5415",
"%. 	c #28370F",
"&. 	c #273B10",
"*. 	c #2F4313",
"=. 	c #2B4212",
"-. 	c #395417",
";. 	c #364D16",
">. 	c #384E18",
",. 	c #344D13",
"'. 	c #1D2B0B",
"). 	c #425D1B",
"!. 	c #2A390E",
"~. 	c #334712",
"{. 	c #253510",
"]. 	c #2C3D13",
"^. 	c #314412",
"/. 	c #3A3629",
"(. 	c #504D42",
"_. 	c #333720",
":. 	c #22290E",
"<. 	c #1C260C",
"[. 	c #415918",
"}. 	c #314119",
"|. 	c #27340E",
"1. 	c #2B3D10",
"2. 	c #375113",
"3. 	c #30420F",
"4. 	c #2C3F10",
"5. 	c #324513",
"6. 	c #2A3D11",
"7. 	c #374C1B",
"8. 	c #8B8983",
"9. 	c #8B8A83",
"0. 	c #67625A",
"a. 	c #6A665F",
"b. 	c #57574A",
"c. 	c #393A1D",
"d. 	c #302C17",
"e. 	c #292213",
"f. 	c #333317",
"g. 	c #2B3314",
"h. 	c #2E3518",
"i. 	c #283213",
"j. 	c #2E3715",
"k. 	c #222E0E",
"l. 	c #273A11",
"m. 	c #2B3618",
"n. 	c #A7A5A1",
"o. 	c #8E8C86",
"p. 	c #4B543C",
"q. 	c #324F13",
"r. 	c #2F3F12",
"s. 	c #2D2F14",
"t. 	c #40441F",
"u. 	c #2D3D13",
"v. 	c #293F10",
"w. 	c #2E4211",
"x. 	c #24320D",
"y. 	c #2E3E11",
"z. 	c #314814",
"A. 	c #2B4113",
"B. 	c #395119",
"C. 	c #374415",
"D. 	c #364E15",
"E. 	c #2D3D14",
"F. 	c #6D6E62",
"G. 	c #928F8A",
"H. 	c #A8A6A2",
"I. 	c #A5A39E",
"J. 	c #9C9B95",
"K. 	c #8E8A85",
"L. 	c #7F7B75",
"M. 	c #9A9F8C",
"N. 	c #242C12",
"O. 	c #272913",
"P. 	c #3C3B20",
"Q. 	c #6C675E",
"R. 	c #ADA9A3",
"S. 	c #8F8C83",
"T. 	c #A29F9A",
"U. 	c #989A8D",
"V. 	c #B5B9AC",
"W. 	c #BDBEB2",
"X. 	c #595F47",
"Y. 	c #293912",
"Z. 	c #313813",
"`. 	c #2A2D10",
" + 	c #3B3A2B",
".+ 	c #85827B",
"++ 	c #B3B2AD",
"@+ 	c #AFACA7",
"#+ 	c #A9A6A2",
"$+ 	c #B3B1AD",
"%+ 	c #717761",
"&+ 	c #445D23",
"*+ 	c #4D6C1B",
"=+ 	c #3B4E16",
"-+ 	c #3C5915",
";+ 	c #50701D",
">+ 	c #24390F",
",+ 	c #283F11",
"'+ 	c #2C3B12",
")+ 	c #375515",
"!+ 	c #303E12",
"~+ 	c #445A18",
"{+ 	c #304112",
"]+ 	c #46631A",
"^+ 	c #253610",
"/+ 	c #2F4113",
"(+ 	c #2B3911",
"_+ 	c #26320D",
":+ 	c #283B12",
"<+ 	c #273611",
"[+ 	c #1F280A",
"}+ 	c #24300D",
"|+ 	c #24240F",
"1+ 	c #2F2012",
"2+ 	c #2C2E13",
"3+ 	c #212410",
"4+ 	c #2A3512",
"5+ 	c #1F280F",
"6+ 	c #2A300F",
"7+ 	c #20250C",
"8+ 	c #22310D",
"9+ 	c #1D270E",
"0+ 	c #2B3A16",
"a+ 	c #252D0E",
"b+ 	c #2E3D0E",
"c+ 	c #293A14",
"d+ 	c #324615",
"e+ 	c #1F2E0C",
"f+ 	c #304513",
"g+ 	c #2F4415",
"h+ 	c #375117",
"i+ 	c #375015",
"j+ 	c #3A5216",
"k+ 	c #314311",
"l+ 	c #1C290B",
"m+ 	c #354113",
"n+ 	c #273711",
"o+ 	c #3A5416",
"p+ 	c #293513",
"q+ 	c #3B4E18",
"r+ 	c #1E260C",
"s+ 	c #20280E",
"t+ 	c #242B13",
"u+ 	c #283511",
"v+ 	c #2F4414",
"w+ 	c #2B3E0F",
"x+ 	c #2E3E10",
"y+ 	c #394C15",
"z+ 	c #2C410F",
"A+ 	c #405616",
"B+ 	c #26310E",
"C+ 	c #384A12",
"D+ 	c #425E19",
"E+ 	c #111908",
"F+ 	c #3E5215",
"G+ 	c #778160",
"H+ 	c #516039",
"I+ 	c #5F6B47",
"J+ 	c #4A4D3C",
"K+ 	c #464635",
"L+ 	c #4D4E3F",
"M+ 	c #2A3413",
"N+ 	c #272612",
"O+ 	c #2F2717",
"P+ 	c #312918",
"Q+ 	c #2A2114",
"R+ 	c #413A20",
"S+ 	c #343E18",
"T+ 	c #39431D",
"U+ 	c #334519",
"V+ 	c #1D260C",
"W+ 	c #2D3B18",
"X+ 	c #5C564D",
"Y+ 	c #5D5C50",
"Z+ 	c #233610",
"`+ 	c #324B15",
" @ 	c #293910",
".@ 	c #343816",
"+@ 	c #3E501D",
"@@ 	c #364215",
"#@ 	c #324A16",
"$@ 	c #3A5115",
"%@ 	c #354316",
"&@ 	c #4A5A24",
"*@ 	c #374B19",
"=@ 	c #354A18",
"-@ 	c #212A10",
";@ 	c #202A0D",
">@ 	c #5D694A",
",@ 	c #9C9994",
"'@ 	c #B7B5B1",
")@ 	c #544C45",
"!@ 	c #908D89",
"~@ 	c #AFADA9",
"{@ 	c #A19F9A",
"]@ 	c #B1AFAB",
"^@ 	c #57514A",
"/@ 	c #A09E96",
"(@ 	c #4B5430",
"_@ 	c #271E12",
":@ 	c #2C2C16",
"<@ 	c #3E372A",
"[@ 	c #827D76",
"}@ 	c #747067",
"|@ 	c #716C65",
"1@ 	c #6E6962",
"2@ 	c #A6A99B",
"3@ 	c #ABAE9E",
"4@ 	c #5D6C3D",
"5@ 	c #20230C",
"6@ 	c #303B13",
"7@ 	c #373417",
"8@ 	c #2B2615",
"9@ 	c #4B453E",
"0@ 	c #989790",
"a@ 	c #C9C9C2",
"b@ 	c #9F9C97",
"c@ 	c #6B6E5C",
"d@ 	c #283D10",
"e@ 	c #304313",
"f@ 	c #2A3E11",
"g@ 	c #2C3E10",
"h@ 	c #354E14",
"i@ 	c #2A4112",
"j@ 	c #1E2E0E",
"k@ 	c #2C4112",
"l@ 	c #2F3C13",
"m@ 	c #25270E",
"n@ 	c #364914",
"o@ 	c #3D4D14",
"p@ 	c #2B3610",
"q@ 	c #354813",
"r@ 	c #293D0F",
"s@ 	c #2A4111",
"t@ 	c #3D5718",
"u@ 	c #1D2D0D",
"v@ 	c #283910",
"w@ 	c #21310C",
"x@ 	c #3D4917",
"y@ 	c #292410",
"z@ 	c #312314",
"A@ 	c #2E2B17",
"B@ 	c #21250F",
"C@ 	c #1D1B0D",
"D@ 	c #2B2E16",
"E@ 	c #292A14",
"F@ 	c #262711",
"G@ 	c #243014",
"H@ 	c #222811",
"I@ 	c #263111",
"J@ 	c #273C11",
"K@ 	c #374511",
"L@ 	c #1A240D",
"M@ 	c #394E14",
"N@ 	c #2A3812",
"O@ 	c #3D5514",
"P@ 	c #283C12",
"Q@ 	c #34491B",
"R@ 	c #304113",
"S@ 	c #20300D",
"T@ 	c #273310",
"U@ 	c #283212",
"V@ 	c #3D4816",
"W@ 	c #4B5D1C",
"X@ 	c #3C5418",
"Y@ 	c #1C240E",
"Z@ 	c #202C0F",
"`@ 	c #243610",
" # 	c #23350F",
".# 	c #24330F",
"+# 	c #25340D",
"@# 	c #3C5614",
"## 	c #1E270A",
"$# 	c #2C3F11",
"%# 	c #2B4010",
"&# 	c #445C18",
"*# 	c #21320D",
"=# 	c #384F13",
"-# 	c #415D1A",
";# 	c #516820",
"># 	c #3B491F",
",# 	c #2E4813",
"'# 	c #314413",
")# 	c #24320E",
"!# 	c #353F15",
"~# 	c #383E1A",
"{# 	c #313616",
"]# 	c #39351A",
"^# 	c #1F190D",
"/# 	c #282013",
"(# 	c #35351A",
"_# 	c #323219",
":# 	c #34451A",
"<# 	c #303418",
"[# 	c #434F23",
"}# 	c #282E11",
"|# 	c #414E29",
"1# 	c #646258",
"2# 	c #3A3E27",
"3# 	c #253B0E",
"4# 	c #25330F",
"5# 	c #434E1D",
"6# 	c #4C4F24",
"7# 	c #5B8026",
"8# 	c #3A4B18",
"9# 	c #26350F",
"0# 	c #25360F",
"a# 	c #2C3D17",
"b# 	c #2E351A",
"c# 	c #252C12",
"d# 	c #344618",
"e# 	c #364C17",
"f# 	c #3E4E29",
"g# 	c #8C8884",
"h# 	c #A4A29E",
"i# 	c #ACAAA5",
"j# 	c #726D68",
"k# 	c #7E7B76",
"l# 	c #AFAEA9",
"m# 	c #C7C6C1",
"n# 	c #8F8B86",
"o# 	c #84807B",
"p# 	c #645C54",
"q# 	c #99998A",
"r# 	c #282511",
"s# 	c #292012",
"t# 	c #2E241B",
"u# 	c #574F47",
"v# 	c #595247",
"w# 	c #5E574E",
"x# 	c #4E453D",
"y# 	c #565148",
"z# 	c #59544A",
"A# 	c #42432E",
"B# 	c #525F25",
"C# 	c #303B19",
"D# 	c #1D210C",
"E# 	c #251D0D",
"F# 	c #443F37",
"G# 	c #6A675F",
"H# 	c #9D9E95",
"I# 	c #565A4C",
"J# 	c #23330E",
"K# 	c #25390F",
"L# 	c #324914",
"M# 	c #334613",
"N# 	c #314A14",
"O# 	c #233410",
"P# 	c #3F551A",
"Q# 	c #324714",
"R# 	c #26240F",
"S# 	c #2D2812",
"T# 	c #313A17",
"U# 	c #43531C",
"V# 	c #314210",
"W# 	c #2D4311",
"X# 	c #25330E",
"Y# 	c #2F4514",
"Z# 	c #324813",
"`# 	c #19240A",
" $ 	c #304914",
".$ 	c #1D280C",
"+$ 	c #292510",
"@$ 	c #473B20",
"#$ 	c #292212",
"$$ 	c #31321A",
"%$ 	c #362E1B",
"&$ 	c #55482A",
"*$ 	c #40371F",
"=$ 	c #272812",
"-$ 	c #35391C",
";$ 	c #252813",
">$ 	c #2B2111",
",$ 	c #1F1F0D",
"'$ 	c #262412",
")$ 	c #3B5018",
"!$ 	c #1F2711",
"~$ 	c #3C5016",
"{$ 	c #4B6B1E",
"]$ 	c #2A3F15",
"^$ 	c #263714",
"/$ 	c #395616",
"($ 	c #263A10",
"_$ 	c #253910",
":$ 	c #1F290D",
"<$ 	c #263311",
"[$ 	c #3C4C15",
"}$ 	c #2C3311",
"|$ 	c #324014",
"1$ 	c #222F0E",
"2$ 	c #2E3F18",
"3$ 	c #18220A",
"4$ 	c #263710",
"5$ 	c #385216",
"6$ 	c #3A5114",
"7$ 	c #24360F",
"8$ 	c #30370F",
"9$ 	c #395816",
"0$ 	c #21330E",
"a$ 	c #2B3F12",
"b$ 	c #3C5615",
"c$ 	c #2E3E12",
"d$ 	c #415C19",
"e$ 	c #1C2A0B",
"f$ 	c #2E4713",
"g$ 	c #324E14",
"h$ 	c #304312",
"i$ 	c #304714",
"j$ 	c #4C641E",
"k$ 	c #4A5721",
"l$ 	c #3B331C",
"m$ 	c #383D1C",
"n$ 	c #2E2E19",
"o$ 	c #2D2B16",
"p$ 	c #2D2C15",
"q$ 	c #3C4B1F",
"r$ 	c #38461A",
"s$ 	c #23210F",
"t$ 	c #3A371E",
"u$ 	c #30351E",
"v$ 	c #7B7D6A",
"w$ 	c #343F18",
"x$ 	c #345215",
"y$ 	c #26390E",
"z$ 	c #283A11",
"A$ 	c #415A1C",
"B$ 	c #3B5718",
"C$ 	c #375017",
"D$ 	c #3D5121",
"E$ 	c #818476",
"F$ 	c #ADAFA2",
"G$ 	c #ACABA5",
"H$ 	c #4F593E",
"I$ 	c #3F5C1A",
"J$ 	c #3C4E25",
"K$ 	c #999692",
"L$ 	c #9B9792",
"M$ 	c #95928D",
"N$ 	c #89857F",
"O$ 	c #817D77",
"P$ 	c #B7B7AF",
"Q$ 	c #BCBBB7",
"R$ 	c #C0BFBB",
"S$ 	c #85827D",
"T$ 	c #9E9B97",
"U$ 	c #B7B5B0",
"V$ 	c #5B5039",
"W$ 	c #352515",
"X$ 	c #2B2115",
"Y$ 	c #4F483F",
"Z$ 	c #3B342B",
"`$ 	c #413A33",
" % 	c #3A3229",
".% 	c #2B2117",
"+% 	c #251F13",
"@% 	c #2A2615",
"#% 	c #3B4718",
"$% 	c #293215",
"%% 	c #242A10",
"&% 	c #1C270B",
"*% 	c #414732",
"=% 	c #524C43",
"-% 	c #494A3C",
";% 	c #2F4616",
">% 	c #23380E",
",% 	c #1B250A",
"'% 	c #2B3C13",
")% 	c #21300D",
"!% 	c #1D2D0C",
"~% 	c #1B280B",
"{% 	c #26370F",
"]% 	c #2C2F10",
"^% 	c #364015",
"/% 	c #4A5E1D",
"(% 	c #2A3A13",
"_% 	c #394E12",
":% 	c #30430F",
"<% 	c #335114",
"[% 	c #2C4511",
"}% 	c #22320E",
"|% 	c #2C3A12",
"1% 	c #21270F",
"2% 	c #2A2A11",
"3% 	c #3B3518",
"4% 	c #463A20",
"5% 	c #302F18",
"6% 	c #282213",
"7% 	c #332A17",
"8% 	c #39331A",
"9% 	c #434222",
"0% 	c #2C2413",
"a% 	c #312316",
"b% 	c #291C10",
"c% 	c #1E1D0E",
"d% 	c #313B13",
"e% 	c #20270F",
"f% 	c #263213",
"g% 	c #374512",
"h% 	c #2D3F15",
"i% 	c #304119",
"j% 	c #304314",
"k% 	c #354D14",
"l% 	c #2D400F",
"m% 	c #2C4413",
"n% 	c #23320E",
"o% 	c #253611",
"p% 	c #333F15",
"q% 	c #46581C",
"r% 	c #263210",
"s% 	c #39511A",
"t% 	c #384F1B",
"u% 	c #314615",
"v% 	c #5D8625",
"w% 	c #394F16",
"x% 	c #314B14",
"y% 	c #24310E",
"z% 	c #2C4311",
"A% 	c #151909",
"B% 	c #263B10",
"C% 	c #26360F",
"D% 	c #3C5513",
"E% 	c #2C4312",
"F% 	c #304B14",
"G% 	c #334A13",
"H% 	c #21330F",
"I% 	c #21340E",
"J% 	c #25380F",
"K% 	c #4E721F",
"L% 	c #1F290C",
"M% 	c #252810",
"N% 	c #262D0E",
"O% 	c #353517",
"P% 	c #363A1B",
"Q% 	c #272E12",
"R% 	c #3B4A16",
"S% 	c #212B0F",
"T% 	c #334618",
"U% 	c #2B3E12",
"V% 	c #221E0E",
"W% 	c #343819",
"X% 	c #484E2F",
"Y% 	c #536033",
"Z% 	c #20270D",
"`% 	c #27320E",
" & 	c #243510",
".& 	c #415E1B",
"+& 	c #435528",
"@& 	c #636459",
"#& 	c #514B42",
"$& 	c #69635C",
"%& 	c #5C544D",
"&& 	c #7F7870",
"*& 	c #7D846C",
"=& 	c #323D14",
"-& 	c #2D4213",
";& 	c #283014",
">& 	c #50463C",
",& 	c #736C64",
"'& 	c #A09E99",
")& 	c #B6B5B1",
"!& 	c #544C44",
"~& 	c #908E8A",
"{& 	c #8E8B87",
"]& 	c #B0AFAA",
"^& 	c #97938F",
"/& 	c #847F7A",
"(& 	c #7C766D",
"_& 	c #645232",
":& 	c #2F2316",
"<& 	c #2A2013",
"[& 	c #2A2614",
"}& 	c #2A2914",
"|& 	c #252011",
"1& 	c #292314",
"2& 	c #282D14",
"3& 	c #2E2717",
"4& 	c #36411A",
"5& 	c #38441D",
"6& 	c #2E3716",
"7& 	c #2D4313",
"8& 	c #1E240D",
"9& 	c #383F25",
"0& 	c #202E0D",
"a& 	c #354F15",
"b& 	c #335216",
"c& 	c #1A260A",
"d& 	c #1D2A0D",
"e& 	c #2B4013",
"f& 	c #2F4412",
"g& 	c #283A15",
"h& 	c #27370F",
"i& 	c #1F2C0D",
"j& 	c #25340F",
"k& 	c #282F0F",
"l& 	c #3F4818",
"m& 	c #324315",
"n& 	c #3A4F1E",
"o& 	c #283B0E",
"p& 	c #334D13",
"q& 	c #23310F",
"r& 	c #364616",
"s& 	c #385416",
"t& 	c #23320F",
"u& 	c #23260F",
"v& 	c #3C2F17",
"w& 	c #2D2012",
"x& 	c #513E25",
"y& 	c #453923",
"z& 	c #1D160C",
"A& 	c #251D11",
"B& 	c #281F13",
"C& 	c #2E2416",
"D& 	c #292013",
"E& 	c #2E2216",
"F& 	c #262713",
"G& 	c #2C3116",
"H& 	c #202910",
"I& 	c #334014",
"J& 	c #2A3612",
"K& 	c #1C290D",
"L& 	c #48611D",
"M& 	c #2D3D16",
"N& 	c #2B3913",
"O& 	c #25340E",
"P& 	c #304A14",
"Q& 	c #3C5414",
"R& 	c #314011",
"S& 	c #48691B",
"T& 	c #364916",
"U& 	c #435618",
"V& 	c #273412",
"W& 	c #425E18",
"X& 	c #314813",
"Y& 	c #3E5A19",
"Z& 	c #45681C",
"`& 	c #324B14",
" * 	c #303F12",
".* 	c #294111",
"+* 	c #1C280C",
"@* 	c #365516",
"#* 	c #3B5216",
"$* 	c #3D5517",
"%* 	c #4E6D1B",
"&* 	c #273C10",
"** 	c #182409",
"=* 	c #27370E",
"-* 	c #233510",
";* 	c #394F15",
">* 	c #24350F",
",* 	c #3E611A",
"'* 	c #314915",
")* 	c #435C1B",
"!* 	c #364118",
"~* 	c #292B12",
"{* 	c #21220E",
"]* 	c #322D18",
"^* 	c #252B0F",
"/* 	c #1B260C",
"(* 	c #293911",
"_* 	c #3B5B18",
":* 	c #314216",
"<* 	c #2A3C11",
"[* 	c #283110",
"}* 	c #282F10",
"|* 	c #2A3F13",
"1* 	c #2E2B14",
"2* 	c #343D1A",
"3* 	c #384D18",
"4* 	c #3A5218",
"5* 	c #496F1E",
"6* 	c #2C4313",
"7* 	c #394F23",
"8* 	c #3F5125",
"9* 	c #4A5630",
"0* 	c #3D3B2C",
"a* 	c #474636",
"b* 	c #232A0E",
"c* 	c #374E15",
"d* 	c #273513",
"e* 	c #4A4137",
"f* 	c #544B42",
"g* 	c #9D9995",
"h* 	c #B0AEAA",
"i* 	c #928D88",
"j* 	c #76726E",
"k* 	c #9B9995",
"l* 	c #B1AFAA",
"m* 	c #9B9893",
"n* 	c #A09D98",
"o* 	c #716A64",
"p* 	c #7E7C70",
"q* 	c #38321C",
"r* 	c #291E12",
"s* 	c #3D331E",
"t* 	c #2E2D16",
"u* 	c #3E2F1E",
"v* 	c #312D19",
"w* 	c #403C20",
"x* 	c #322F18",
"y* 	c #2F2918",
"z* 	c #332817",
"A* 	c #292812",
"B* 	c #35371D",
"C* 	c #263110",
"D* 	c #253512",
"E* 	c #22280C",
"F* 	c #2D4412",
"G* 	c #1B280C",
"H* 	c #1D2B0C",
"I* 	c #324C15",
"J* 	c #19240D",
"K* 	c #273A12",
"L* 	c #3F5322",
"M* 	c #9A9B92",
"N* 	c #77865B",
"O* 	c #24330C",
"P* 	c #2F4713",
"Q* 	c #293710",
"R* 	c #44621B",
"S* 	c #344B16",
"T* 	c #3C5216",
"U* 	c #23360E",
"V* 	c #27320F",
"W* 	c #2F3914",
"X* 	c #2F3415",
"Y* 	c #3B511C",
"Z* 	c #313D16",
"`* 	c #2E3712",
" = 	c #2B1F11",
".= 	c #362516",
"+= 	c #322517",
"@= 	c #2C2515",
"#= 	c #332E1A",
"$= 	c #332919",
"%= 	c #281E12",
"&= 	c #322618",
"*= 	c #241C10",
"== 	c #261F12",
"-= 	c #232B12",
";= 	c #1F2110",
">= 	c #39441C",
",= 	c #374D17",
"'= 	c #344B15",
")= 	c #212D0C",
"!= 	c #304213",
"~= 	c #384F19",
"{= 	c #242E13",
"]= 	c #253612",
"^= 	c #273413",
"/= 	c #25360E",
"(= 	c #324A13",
"_= 	c #324611",
":= 	c #304613",
"<= 	c #364116",
"[= 	c #354615",
"}= 	c #3F5919",
"|= 	c #3D5E19",
"1= 	c #314B15",
"2= 	c #22340E",
"3= 	c #232F0D",
"4= 	c #283E11",
"5= 	c #28340F",
"6= 	c #354B13",
"7= 	c #334913",
"8= 	c #314A13",
"9= 	c #364C14",
"0= 	c #283A10",
"a= 	c #2C3F0F",
"b= 	c #395516",
"c= 	c #273910",
"d= 	c #2B4312",
"e= 	c #3A4D19",
"f= 	c #364517",
"g= 	c #383D1B",
"h= 	c #342F1A",
"i= 	c #33301B",
"j= 	c #302A17",
"k= 	c #343D17",
"l= 	c #272F11",
"m= 	c #334514",
"n= 	c #345014",
"o= 	c #273710",
"p= 	c #3A5419",
"q= 	c #435D1C",
"r= 	c #2A3E13",
"s= 	c #1F2D0D",
"t= 	c #243411",
"u= 	c #283812",
"v= 	c #334E16",
"w= 	c #273D0F",
"x= 	c #2F4A12",
"y= 	c #324C14",
"z= 	c #2D4613",
"A= 	c #537219",
"B= 	c #375218",
"C= 	c #26340E",
"D= 	c #24370F",
"E= 	c #425819",
"F= 	c #85837B",
"G= 	c #5C554E",
"H= 	c #5B544D",
"I= 	c #BBBAB5",
"J= 	c #9A9893",
"K= 	c #94918C",
"L= 	c #D0CECA",
"M= 	c #D6D5D1",
"N= 	c #B4B2AE",
"O= 	c #A9A8A3",
"P= 	c #4B512A",
"Q= 	c #323D17",
"R= 	c #37341B",
"S= 	c #443922",
"T= 	c #3E3F20",
"U= 	c #2C3016",
"V= 	c #332718",
"W= 	c #2D2916",
"X= 	c #333B18",
"Y= 	c #2C3516",
"Z= 	c #382C17",
"`= 	c #4A3C20",
" - 	c #2F2814",
".- 	c #363F19",
"+- 	c #39471A",
"@- 	c #2F3113",
"#- 	c #2F3F15",
"$- 	c #1C270C",
"%- 	c #212F0E",
"&- 	c #2F4012",
"*- 	c #2C3D0F",
"=- 	c #425917",
"-- 	c #828375",
";- 	c #A8A6A1",
">- 	c #434235",
",- 	c #172108",
"'- 	c #21350E",
")- 	c #2A390F",
"!- 	c #273D12",
"~- 	c #374F14",
"{- 	c #2D4212",
"]- 	c #334914",
"^- 	c #262F0F",
"/- 	c #313515",
"(- 	c #2D2915",
"_- 	c #32401C",
":- 	c #333D1B",
"<- 	c #312A16",
"[- 	c #352A15",
"}- 	c #2A1E12",
"|- 	c #515029",
"1- 	c #2D2A16",
"2- 	c #2B2614",
"3- 	c #433921",
"4- 	c #322A18",
"5- 	c #2D2F16",
"6- 	c #312E1A",
"7- 	c #464926",
"8- 	c #2F3519",
"9- 	c #232B10",
"0- 	c #242B10",
"a- 	c #26340F",
"b- 	c #2D3B0F",
"c- 	c #354616",
"d- 	c #2C4014",
"e- 	c #3A511C",
"f- 	c #314316",
"g- 	c #2A3D13",
"h- 	c #2B4111",
"i- 	c #293F11",
"j- 	c #2D3C11",
"k- 	c #3A5317",
"l- 	c #3E5417",
"m- 	c #3C5616",
"n- 	c #385116",
"o- 	c #355116",
"p- 	c #273D11",
"q- 	c #19260B",
"r- 	c #334714",
"s- 	c #273A0F",
"t- 	c #27390F",
"u- 	c #48651A",
"v- 	c #334C12",
"w- 	c #344B13",
"x- 	c #2A3C0F",
"y- 	c #2D4512",
"z- 	c #374F15",
"A- 	c #3D5318",
"B- 	c #2F3A16",
"C- 	c #2A2C12",
"D- 	c #373A1D",
"E- 	c #3D401E",
"F- 	c #3D4322",
"G- 	c #4E6421",
"H- 	c #313A15",
"I- 	c #303715",
"J- 	c #333516",
"K- 	c #3A4C1A",
"L- 	c #2D4013",
"M- 	c #3F4A2C",
"N- 	c #8A8B81",
"O- 	c #455C2A",
"P- 	c #2B4314",
"Q- 	c #2D4211",
"R- 	c #283612",
"S- 	c #304817",
"T- 	c #314E14",
"U- 	c #2F4A13",
"V- 	c #395316",
"W- 	c #2D4312",
"X- 	c #2C3C0F",
"Y- 	c #2B2C13",
"Z- 	c #3F4D1B",
"`- 	c #5F5B55",
" ; 	c #797570",
".; 	c #635E59",
"+; 	c #AEACA8",
"@; 	c #C6C4C0",
"#; 	c #A6A39E",
"$; 	c #9E9B96",
"%; 	c #9B9894",
"&; 	c #545D3D",
"*; 	c #303714",
"=; 	c #3C521B",
"-; 	c #2F3A15",
";; 	c #48472C",
">; 	c #3E3B1D",
",; 	c #2D2716",
"'; 	c #36331B",
"); 	c #30341A",
"!; 	c #39391B",
"~; 	c #21220F",
"{; 	c #42361C",
"]; 	c #302C14",
"^; 	c #464A1E",
"/; 	c #2F3B16",
"(; 	c #3B3019",
"_; 	c #2B2C15",
":; 	c #2F3918",
"<; 	c #364819",
"[; 	c #1C250C",
"}; 	c #222D0C",
"|; 	c #464935",
"1; 	c #7D7974",
"2; 	c #8D8B86",
"3; 	c #9C9A95",
"4; 	c #58584C",
"5; 	c #263413",
"6; 	c #27360D",
"7; 	c #1B2709",
"8; 	c #1E2F0C",
"9; 	c #263B11",
"0; 	c #243810",
"a; 	c #263B0F",
"b; 	c #24230E",
"c; 	c #332E14",
"d; 	c #37351C",
"e; 	c #292414",
"f; 	c #3D351B",
"g; 	c #302C16",
"h; 	c #2B3517",
"i; 	c #2F3913",
"j; 	c #384919",
"k; 	c #262A12",
"l; 	c #2D3913",
"m; 	c #2A3715",
"n; 	c #3A5120",
"o; 	c #2E3314",
"p; 	c #354719",
"q; 	c #2C3F16",
"r; 	c #423A1C",
"s; 	c #344815",
"t; 	c #202C0C",
"u; 	c #2A3B11",
"v; 	c #304B13",
"w; 	c #21320F",
"x; 	c #2D4410",
"y; 	c #2B4512",
"z; 	c #252F0F",
"A; 	c #344613",
"B; 	c #334B15",
"C; 	c #334B14",
"D; 	c #334813",
"E; 	c #21320E",
"F; 	c #475C18",
"G; 	c #394C14",
"H; 	c #21310E",
"I; 	c #22390E",
"J; 	c #29370F",
"K; 	c #304412",
"L; 	c #395916",
"M; 	c #375415",
"N; 	c #293E10",
"O; 	c #3B5015",
"P; 	c #45651C",
"Q; 	c #385013",
"R; 	c #2C4110",
"S; 	c #2D4012",
"T; 	c #374816",
"U; 	c #3F551E",
"V; 	c #3C371E",
"W; 	c #484524",
"X; 	c #3C421C",
"Y; 	c #4A5B1F",
"Z; 	c #3A4A18",
"`; 	c #3B4B19",
" > 	c #3F5E1C",
".> 	c #426319",
"+> 	c #35491D",
"@> 	c #666459",
"#> 	c #B9B8B3",
"$> 	c #7D846E",
"%> 	c #2A4113",
"&> 	c #263312",
"*> 	c #243210",
"=> 	c #253B10",
"-> 	c #355416",
";> 	c #25320F",
">> 	c #1A250B",
",> 	c #304814",
"'> 	c #3C5619",
")> 	c #344711",
"!> 	c #292D11",
"~> 	c #2F3314",
"{> 	c #3E571B",
"]> 	c #525642",
"^> 	c #645F5A",
"/> 	c #A7A4A0",
"(> 	c #8C8985",
"_> 	c #BFBDB9",
":> 	c #ABA9A4",
"<> 	c #BCBAB6",
"[> 	c #ADABA7",
"}> 	c #717067",
"|> 	c #314913",
"1> 	c #414B17",
"2> 	c #4F681C",
"3> 	c #394D20",
"4> 	c #8C8B81",
"5> 	c #515738",
"6> 	c #373319",
"7> 	c #302E17",
"8> 	c #363B1D",
"9> 	c #3A3218",
"0> 	c #4E4222",
"a> 	c #2D2B14",
"b> 	c #4F5026",
"c> 	c #3B511B",
"d> 	c #383C18",
"e> 	c #2E3B15",
"f> 	c #262411",
"g> 	c #323619",
"h> 	c #253012",
"i> 	c #191F0A",
"j> 	c #2A3A10",
"k> 	c #283B0F",
"l> 	c #344D15",
"m> 	c #31361A",
"n> 	c #4D473C",
"o> 	c #97958F",
"p> 	c #7C7873",
"q> 	c #B9B7B3",
"r> 	c #696C5E",
"s> 	c #3F581C",
"t> 	c #192509",
"u> 	c #2B4311",
"v> 	c #2D4111",
"w> 	c #202B0F",
"x> 	c #322D14",
"y> 	c #413C1D",
"z> 	c #37331C",
"A> 	c #2D2D16",
"B> 	c #2C2415",
"C> 	c #3B431D",
"D> 	c #26270F",
"E> 	c #394B1C",
"F> 	c #3D5023",
"G> 	c #324018",
"H> 	c #242D11",
"I> 	c #283510",
"J> 	c #38451B",
"K> 	c #46541E",
"L> 	c #2D3013",
"M> 	c #42561C",
"N> 	c #3B5316",
"O> 	c #354D18",
"P> 	c #2F4613",
"Q> 	c #2C3C12",
"R> 	c #17200A",
"S> 	c #283A12",
"T> 	c #365616",
"U> 	c #23330D",
"V> 	c #2E4413",
"W> 	c #44621A",
"X> 	c #395017",
"Y> 	c #3B5815",
"Z> 	c #3B5C18",
"`> 	c #304413",
" , 	c #2E3910",
"., 	c #18250B",
"+, 	c #314716",
"@, 	c #263B0E",
"#, 	c #304911",
"$, 	c #304912",
"%, 	c #3D5B17",
"&, 	c #2E4512",
"*, 	c #3C5516",
"=, 	c #3C5A18",
"-, 	c #527219",
";, 	c #486219",
">, 	c #303F14",
",, 	c #344F16",
"', 	c #343915",
"), 	c #434423",
"!, 	c #343019",
"~, 	c #363E17",
"{, 	c #648928",
"], 	c #4C5D1E",
"^, 	c #324D16",
"/, 	c #365316",
"(, 	c #2B4211",
"_, 	c #434834",
":, 	c #7D7A76",
"<, 	c #ADAAA5",
"[, 	c #B0B0A8",
"}, 	c #495B32",
"|, 	c #292D13",
"1, 	c #2B4011",
"2, 	c #375217",
"3, 	c #222D0E",
"4, 	c #384619",
"5, 	c #263410",
"6, 	c #49661E",
"7, 	c #4E513E",
"8, 	c #8D8A84",
"9, 	c #ACA9A5",
"0, 	c #918D88",
"a, 	c #7C7772",
"b, 	c #746F6A",
"c, 	c #726C66",
"d, 	c #6A685B",
"e, 	c #385019",
"f, 	c #3A5B18",
"g, 	c #3B4216",
"h, 	c #353B1F",
"i, 	c #6A695A",
"j, 	c #37311A",
"k, 	c #3B2C1A",
"l, 	c #362C18",
"m, 	c #313A18",
"n, 	c #3F411A",
"o, 	c #40471D",
"p, 	c #383A1D",
"q, 	c #33371A",
"r, 	c #3B501C",
"s, 	c #42601D",
"t, 	c #323E14",
"u, 	c #565028",
"v, 	c #272A13",
"w, 	c #342817",
"x, 	c #242B12",
"y, 	c #293213",
"z, 	c #334315",
"A, 	c #40441A",
"B, 	c #2E3218",
"C, 	c #524F44",
"D, 	c #AEAEA7",
"E, 	c #898A80",
"F, 	c #202F0C",
"G, 	c #314912",
"H, 	c #375116",
"I, 	c #3E5A1A",
"J, 	c #343416",
"K, 	c #433D1A",
"L, 	c #372B17",
"M, 	c #454521",
"N, 	c #263114",
"O, 	c #293315",
"P, 	c #2A340F",
"Q, 	c #2B3E13",
"R, 	c #3C461C",
"S, 	c #3B4D1C",
"T, 	c #43551D",
"U, 	c #353B1B",
"V, 	c #333415",
"W, 	c #344115",
"X, 	c #262A0F",
"Y, 	c #2F4115",
"Z, 	c #2D3815",
"`, 	c #2C4011",
" ' 	c #2E4310",
".' 	c #425C19",
"+' 	c #44601A",
"@' 	c #283F10",
"#' 	c #18240B",
"$' 	c #1B270B",
"%' 	c #304C14",
"&' 	c #2B3E10",
"*' 	c #3E5918",
"=' 	c #30450F",
"-' 	c #394F12",
";' 	c #3D5817",
">' 	c #22320D",
",' 	c #384B15",
"'' 	c #283D11",
")' 	c #3F5E16",
"!' 	c #365216",
"~' 	c #456115",
"{' 	c #2D3D0E",
"]' 	c #3F5C18",
"^' 	c #283B10",
"/' 	c #436019",
"(' 	c #405919",
"_' 	c #3C4B1B",
":' 	c #324518",
"<' 	c #3B4F17",
"[' 	c #3A3D1B",
"}' 	c #2C4212",
"|' 	c #3D5B18",
"1' 	c #243710",
"2' 	c #4F5B3D",
"3' 	c #706B65",
"4' 	c #ABA9A5",
"5' 	c #6B6D60",
"6' 	c #3D5917",
"7' 	c #304612",
"8' 	c #263A0F",
"9' 	c #273810",
"0' 	c #384316",
"a' 	c #273510",
"b' 	c #324113",
"c' 	c #24330D",
"d' 	c #171E0A",
"e' 	c #263511",
"f' 	c #222A0E",
"g' 	c #22330E",
"h' 	c #3A5421",
"i' 	c #4E463C",
"j' 	c #87817A",
"k' 	c #716B64",
"l' 	c #B9B7B2",
"m' 	c #B1B0A9",
"n' 	c #436125",
"o' 	c #2E3E14",
"p' 	c #3D5313",
"q' 	c #2B2A1E",
"r' 	c #485022",
"s' 	c #4A3E20",
"t' 	c #3C341E",
"u' 	c #485023",
"v' 	c #36471D",
"w' 	c #3A551D",
"x' 	c #3B5219",
"y' 	c #424A1C",
"z' 	c #37421B",
"A' 	c #445B21",
"B' 	c #3C5217",
"C' 	c #373416",
"D' 	c #323214",
"E' 	c #292614",
"F' 	c #343C18",
"G' 	c #323415",
"H' 	c #424E1F",
"I' 	c #4C4B26",
"J' 	c #2E3514",
"K' 	c #455718",
"L' 	c #41401C",
"M' 	c #352C1C",
"N' 	c #534F45",
"O' 	c #6E6860",
"P' 	c #9C9995",
"Q' 	c #A5A29E",
"R' 	c #6A7557",
"S' 	c #3E5915",
"T' 	c #324A14",
"U' 	c #324D15",
"V' 	c #2B4213",
"W' 	c #384F18",
"X' 	c #45541C",
"Y' 	c #283314",
"Z' 	c #21270E",
"`' 	c #303811",
" ) 	c #20300C",
".) 	c #2D3213",
"+) 	c #304A16",
"@) 	c #2F3F14",
"#) 	c #293811",
"$) 	c #2B3213",
"%) 	c #3C4118",
"&) 	c #332D17",
"*) 	c #2B2412",
"=) 	c #2D3D17",
"-) 	c #39541C",
";) 	c #22310E",
">) 	c #344813",
",) 	c #1E2D0C",
"') 	c #293D10",
")) 	c #1F2F0E",
"!) 	c #283911",
"~) 	c #284011",
"{) 	c #2C4412",
"]) 	c #252E0E",
"^) 	c #2F4314",
"/) 	c #2C3D11",
"() 	c #22310F",
"_) 	c #324710",
":) 	c #3D5615",
"<) 	c #2B4112",
"[) 	c #324712",
"}) 	c #2D3B12",
"|) 	c #303C11",
"1) 	c #322E14",
"2) 	c #2F3F10",
"3) 	c #2A3F11",
"4) 	c #304510",
"5) 	c #1B260A",
"6) 	c #496619",
"7) 	c #355217",
"8) 	c #25340C",
"9) 	c #2F4311",
"0) 	c #385016",
"a) 	c #445817",
"b) 	c #43531A",
"c) 	c #34391A",
"d) 	c #40571E",
"e) 	c #537720",
"f) 	c #3C5318",
"g) 	c #42521A",
"h) 	c #3A3D1C",
"i) 	c #333119",
"j) 	c #2E3914",
"k) 	c #3E5C19",
"l) 	c #294012",
"m) 	c #5C6644",
"n) 	c #7B7770",
"o) 	c #888580",
"p) 	c #706D68",
"q) 	c #2C3616",
"r) 	c #1B280A",
"s) 	c #365214",
"t) 	c #47661A",
"u) 	c #425C1A",
"v) 	c #384C14",
"w) 	c #374B15",
"x) 	c #2F4112",
"y) 	c #2F3A13",
"z) 	c #2F4013",
"A) 	c #19220A",
"B) 	c #202E0E",
"C) 	c #1B260B",
"D) 	c #21340F",
"E) 	c #577225",
"F) 	c #575049",
"G) 	c #AAA7A3",
"H) 	c #C8C6C2",
"I) 	c #ABAAA4",
"J) 	c #7C8F64",
"K) 	c #375918",
"L) 	c #395B17",
"M) 	c #375216",
"N) 	c #335014",
"O) 	c #424F2D",
"P) 	c #445F1B",
"Q) 	c #344818",
"R) 	c #394E1A",
"S) 	c #49691B",
"T) 	c #314617",
"U) 	c #324515",
"V) 	c #353415",
"W) 	c #382D17",
"X) 	c #3F511E",
"Y) 	c #394619",
"Z) 	c #494D1B",
"`) 	c #43511C",
" ! 	c #42451F",
".! 	c #2C3818",
"+! 	c #34421A",
"@! 	c #2D3311",
"#! 	c #324015",
"$! 	c #44361C",
"%! 	c #323611",
"&! 	c #2B2E12",
"*! 	c #333716",
"=! 	c #323C18",
"-! 	c #4D4B3C",
";! 	c #51493E",
">! 	c #685F57",
",! 	c #CAC9C4",
"'! 	c #9A9891",
")! 	c #30401D",
"!! 	c #1F2B0B",
"~! 	c #313E13",
"{! 	c #3F5A18",
"]! 	c #293913",
"^! 	c #395418",
"/! 	c #273311",
"(! 	c #49521F",
"_! 	c #3D4A19",
":! 	c #3A3C1A",
"<! 	c #20240B",
"[! 	c #1A1E0A",
"}! 	c #2B3A0F",
"|! 	c #384413",
"1! 	c #1B290C",
"2! 	c #313E16",
"3! 	c #393219",
"4! 	c #3A4219",
"5! 	c #364C16",
"6! 	c #243211",
"7! 	c #2B3310",
"8! 	c #23340E",
"9! 	c #1C2A0C",
"0! 	c #385217",
"a! 	c #354312",
"b! 	c #363C17",
"c! 	c #2F3515",
"d! 	c #293615",
"e! 	c #41601D",
"f! 	c #303217",
"g! 	c #23360F",
"h! 	c #2E4513",
"i! 	c #20310D",
"j! 	c #334113",
"k! 	c #405B18",
"l! 	c #2F3E13",
"m! 	c #333C14",
"n! 	c #26390F",
"o! 	c #456819",
"p! 	c #385115",
"q! 	c #3D5A18",
"r! 	c #4E6A1C",
"s! 	c #455820",
"t! 	c #2F3418",
"u! 	c #40531C",
"v! 	c #4A631B",
"w! 	c #3A4A1A",
"x! 	c #43491E",
"y! 	c #35331A",
"z! 	c #313716",
"A! 	c #303016",
"B! 	c #41491F",
"C! 	c #48651D",
"D! 	c #1E2D0D",
"E! 	c #353F1E",
"F! 	c #A8A49F",
"G! 	c #BEBDB8",
"H! 	c #8D8F82",
"I! 	c #27350D",
"J! 	c #446117",
"K! 	c #3A5417",
"L! 	c #24340E",
"M! 	c #22300F",
"N! 	c #3E4F16",
"O! 	c #21300E",
"P! 	c #22330F",
"Q! 	c #364A14",
"R! 	c #283B11",
"S! 	c #293015",
"T! 	c #746B62",
"U! 	c #878B7D",
"V! 	c #304B12",
"W! 	c #385516",
"X! 	c #314713",
"Y! 	c #48651C",
"Z! 	c #354219",
"`! 	c #3F591F",
" ~ 	c #38511A",
".~ 	c #3C5918",
"+~ 	c #344F15",
"@~ 	c #324716",
"#~ 	c #3A5212",
"$~ 	c #27360E",
"%~ 	c #334115",
"&~ 	c #2F4516",
"*~ 	c #3E5617",
"=~ 	c #5F7423",
"-~ 	c #53681D",
";~ 	c #395016",
">~ 	c #464A1C",
",~ 	c #2D3B11",
"'~ 	c #4D651F",
")~ 	c #363816",
"!~ 	c #4C5423",
"~~ 	c #42441E",
"{~ 	c #41531C",
"]~ 	c #303F19",
"^~ 	c #43681D",
"/~ 	c #364B17",
"(~ 	c #3A4628",
"_~ 	c #43412F",
":~ 	c #8B8781",
"<~ 	c #95978B",
"[~ 	c #636C56",
"}~ 	c #3B5915",
"|~ 	c #314512",
"1~ 	c #25360D",
"2~ 	c #344015",
"3~ 	c #395715",
"4~ 	c #2A3414",
"5~ 	c #3D5418",
"6~ 	c #313916",
"7~ 	c #4F5B1F",
"8~ 	c #44461D",
"9~ 	c #556E23",
"0~ 	c #49491D",
"a~ 	c #322E15",
"b~ 	c #44471F",
"c~ 	c #323216",
"d~ 	c #453D1F",
"e~ 	c #2D3712",
"f~ 	c #4B7021",
"g~ 	c #445D1C",
"h~ 	c #3B5419",
"i~ 	c #2E4113",
"j~ 	c #25350D",
"k~ 	c #4A5B19",
"l~ 	c #2A3212",
"m~ 	c #252A0E",
"n~ 	c #282E12",
"o~ 	c #3B4C1A",
"p~ 	c #272C0F",
"q~ 	c #283310",
"r~ 	c #2D4513",
"s~ 	c #385117",
"t~ 	c #22350F",
"u~ 	c #27360F",
"v~ 	c #2D3E10",
"w~ 	c #40531B",
"x~ 	c #3A4B17",
"y~ 	c #314310",
"z~ 	c #3A5116",
"A~ 	c #385215",
"B~ 	c #3B4F15",
"C~ 	c #4B671A",
"D~ 	c #28310F",
"E~ 	c #282B12",
"F~ 	c #262715",
"G~ 	c #232611",
"H~ 	c #42501A",
"I~ 	c #3A451D",
"J~ 	c #37391B",
"K~ 	c #3A361C",
"L~ 	c #313117",
"M~ 	c #333918",
"N~ 	c #2A3316",
"O~ 	c #395918",
"P~ 	c #2E4812",
"Q~ 	c #283C10",
"R~ 	c #415326",
"S~ 	c #615A53",
"T~ 	c #7B7671",
"U~ 	c #A9A7A3",
"V~ 	c #9D9B96",
"W~ 	c #586A3C",
"X~ 	c #18250A",
"Y~ 	c #24360C",
"Z~ 	c #446318",
"`~ 	c #2F4411",
" { 	c #2F4512",
".{ 	c #26330E",
"+{ 	c #232E0D",
"@{ 	c #3A5916",
"#{ 	c #293B10",
"${ 	c #2A3610",
"%{ 	c #344E16",
"&{ 	c #151E09",
"*{ 	c #293F0F",
"={ 	c #333320",
"-{ 	c #5E5A51",
";{ 	c #2D4110",
">{ 	c #3C5317",
",{ 	c #496B1C",
"'{ 	c #43501E",
"){ 	c #3C521D",
"!{ 	c #49681E",
"~{ 	c #395817",
"{{ 	c #253810",
"]{ 	c #2C4712",
"^{ 	c #375111",
"/{ 	c #324A11",
"({ 	c #28380F",
"_{ 	c #3B4512",
":{ 	c #273B0F",
"<{ 	c #2D4511",
"[{ 	c #56751F",
"}{ 	c #4C6719",
"|{ 	c #435F16",
"1{ 	c #333D13",
"2{ 	c #4A591B",
"3{ 	c #3F4E19",
"4{ 	c #242C0F",
"5{ 	c #2B3111",
"6{ 	c #303D13",
"7{ 	c #303D16",
"8{ 	c #314712",
"9{ 	c #344812",
"0{ 	c #3D5815",
"a{ 	c #3D5D17",
"b{ 	c #2A3F12",
"c{ 	c #21240F",
"d{ 	c #434E31",
"e{ 	c #535147",
"f{ 	c #324816",
"g{ 	c #26300E",
"h{ 	c #293C0F",
"i{ 	c #2E3C10",
"j{ 	c #26370E",
"k{ 	c #232C10",
"l{ 	c #3B3E18",
"m{ 	c #3E4219",
"n{ 	c #4E6B1E",
"o{ 	c #3F421C",
"p{ 	c #40521D",
"q{ 	c #454721",
"r{ 	c #443A1C",
"s{ 	c #383F18",
"t{ 	c #394D1A",
"u{ 	c #364816",
"v{ 	c #415116",
"w{ 	c #39501A",
"x{ 	c #2E3E13",
"y{ 	c #313E12",
"z{ 	c #1B250C",
"A{ 	c #1E2B0B",
"B{ 	c #2C4211",
"C{ 	c #2C3A10",
"D{ 	c #3B5217",
"E{ 	c #313812",
"F{ 	c #2D3612",
"G{ 	c #2D3415",
"H{ 	c #333A16",
"I{ 	c #243311",
"J{ 	c #334418",
"K{ 	c #2B4511",
"L{ 	c #24380F",
"M{ 	c #394E13",
"N{ 	c #1C2C0C",
"O{ 	c #314514",
"P{ 	c #222F0F",
"Q{ 	c #2A3D10",
"R{ 	c #2A3B10",
"S{ 	c #23310C",
"T{ 	c #252410",
"U{ 	c #393F19",
"V{ 	c #20240E",
"W{ 	c #212F0D",
"X{ 	c #3C4918",
"Y{ 	c #222F10",
"Z{ 	c #232511",
"`{ 	c #282A13",
" ] 	c #373E1C",
".] 	c #384C1D",
"+] 	c #354E12",
"@] 	c #3F5620",
"#] 	c #999792",
"$] 	c #A09E98",
"%] 	c #8B8883",
"&] 	c #A2A09C",
"*] 	c #B0AEA9",
"=] 	c #97978E",
"-] 	c #22340D",
";] 	c #2E410F",
">] 	c #364D13",
",] 	c #3D4C14",
"'] 	c #354713",
")] 	c #34392A",
"!] 	c #313223",
"~] 	c #324713",
"{] 	c #2B3F0F",
"]] 	c #2C4611",
"^] 	c #324A12",
"/] 	c #1A200D",
"(] 	c #3A5818",
"_] 	c #49681B",
":] 	c #293F12",
"<] 	c #405E1B",
"[] 	c #42651A",
"}] 	c #3D5818",
"|] 	c #385917",
"1] 	c #22310C",
"2] 	c #465A17",
"3] 	c #314611",
"4] 	c #2D3F10",
"5] 	c #3C5716",
"6] 	c #405817",
"7] 	c #3A3B17",
"8] 	c #2B3211",
"9] 	c #1D250B",
"0] 	c #2E3A10",
"a] 	c #3E4E16",
"b] 	c #24360E",
"c] 	c #394915",
"d] 	c #1E2C0E",
"e] 	c #293612",
"f] 	c #2A350F",
"g] 	c #2C3E12",
"h] 	c #293A10",
"i] 	c #3A4F17",
"j] 	c #2D3812",
"k] 	c #344116",
"l] 	c #41421C",
"m] 	c #44591E",
"n] 	c #303A1A",
"o] 	c #304217",
"p] 	c #3A331A",
"q] 	c #4F531F",
"r] 	c #3E4C20",
"s] 	c #364920",
"t] 	c #2B3B13",
"u] 	c #374617",
"v] 	c #2B2D13",
"w] 	c #25240F",
"x] 	c #1F280D",
"y] 	c #2A2F12",
"z] 	c #283810",
"A] 	c #293310",
"B] 	c #2A3A0F",
"C] 	c #1F300D",
"D] 	c #293E11",
"E] 	c #465918",
"F] 	c #28330E",
"G] 	c #272F0E",
"H] 	c #324413",
"I] 	c #475817",
"J] 	c #2C4111",
"K] 	c #3C5316",
"L] 	c #283C11",
"M] 	c #202E0C",
"N] 	c #314416",
"O] 	c #252D13",
"P] 	c #293512",
"Q] 	c #2B2A15",
"R] 	c #2E2F13",
"S] 	c #2B3611",
"T] 	c #2E3A14",
"U] 	c #353E17",
"V] 	c #293413",
"W] 	c #333616",
"X] 	c #3E4522",
"Y] 	c #2B3416",
"Z] 	c #25370E",
"`] 	c #405A14",
" ^ 	c #314B12",
".^ 	c #A3A19D",
"+^ 	c #AEACA7",
"@^ 	c #B1B0AB",
"#^ 	c #8B8681",
"$^ 	c #8F8A83",
"%^ 	c #BBB9B4",
"&^ 	c #6C775D",
"*^ 	c #26360E",
"=^ 	c #3A5514",
"-^ 	c #2C3C10",
";^ 	c #323D10",
">^ 	c #3D4E1B",
",^ 	c #8A8882",
"'^ 	c #878A7B",
")^ 	c #34480F",
"!^ 	c #3C5815",
"~^ 	c #314610",
"{^ 	c #1B270A",
"]^ 	c #3F5A16",
"^^ 	c #334912",
"/^ 	c #365717",
"(^ 	c #314D14",
"_^ 	c #4F721D",
":^ 	c #495D19",
"<^ 	c #304913",
"[^ 	c #19230B",
"}^ 	c #3D5B15",
"|^ 	c #384C15",
"1^ 	c #364B13",
"2^ 	c #405717",
"3^ 	c #355015",
"4^ 	c #3E5B18",
"5^ 	c #355315",
"6^ 	c #475D19",
"7^ 	c #2F3E12",
"8^ 	c #2E4314",
"9^ 	c #344B17",
"0^ 	c #3C4E1C",
"a^ 	c #424E18",
"b^ 	c #47511D",
"c^ 	c #21280C",
"d^ 	c #23250D",
"e^ 	c #1F2D0C",
"f^ 	c #2C390F",
"g^ 	c #3D4018",
"h^ 	c #353C16",
"i^ 	c #2F3B14",
"j^ 	c #3E5217",
"k^ 	c #202B0C",
"l^ 	c #44471E",
"m^ 	c #303C14",
"n^ 	c #47581E",
"o^ 	c #3A431E",
"p^ 	c #3B501B",
"q^ 	c #303813",
"r^ 	c #34471A",
"s^ 	c #41551D",
"t^ 	c #2F3B15",
"u^ 	c #3E4E1A",
"v^ 	c #252F0E",
"w^ 	c #302A15",
"x^ 	c #3B3819",
"y^ 	c #363A1C",
"z^ 	c #46551D",
"A^ 	c #293211",
"B^ 	c #2F3416",
"C^ 	c #181C07",
"D^ 	c #333111",
"E^ 	c #2B3B12",
"F^ 	c #354914",
"G^ 	c #252B0E",
"H^ 	c #232D0C",
"I^ 	c #2F4611",
"J^ 	c #495A18",
"K^ 	c #345114",
"L^ 	c #385414",
"M^ 	c #1B240B",
"N^ 	c #293A0F",
"O^ 	c #314212",
"P^ 	c #374513",
"Q^ 	c #24350C",
"R^ 	c #28390F",
"S^ 	c #2C3C15",
"T^ 	c #252D11",
"U^ 	c #3C5119",
"V^ 	c #352C18",
"W^ 	c #2C3914",
"X^ 	c #303917",
"Y^ 	c #584C2B",
"Z^ 	c #1C250F",
"`^ 	c #232F0E",
" / 	c #314218",
"./ 	c #2D3515",
"+/ 	c #1C280D",
"@/ 	c #3B5917",
"#/ 	c #364D14",
"$/ 	c #27390E",
"%/ 	c #162008",
"&/ 	c #5E554C",
"*/ 	c #615850",
"=/ 	c #675F58",
"-/ 	c #585849",
";/ 	c #525446",
">/ 	c #393E28",
",/ 	c #3F482B",
"'/ 	c #3A5315",
")/ 	c #314811",
"!/ 	c #314A12",
"~/ 	c #486119",
"{/ 	c #23380F",
"]/ 	c #576145",
"^/ 	c #95938E",
"// 	c #AFADA8",
"(/ 	c #283416",
"_/ 	c #182209",
":/ 	c #2B3F10",
"</ 	c #385113",
"[/ 	c #263C0E",
"}/ 	c #22360E",
"|/ 	c #344E14",
"1/ 	c #354B12",
"2/ 	c #4E691C",
"3/ 	c #383E12",
"4/ 	c #304512",
"5/ 	c #2A4010",
"6/ 	c #3C5419",
"7/ 	c #404F1A",
"8/ 	c #303414",
"9/ 	c #2E3F16",
"0/ 	c #1E290F",
"a/ 	c #1B290D",
"b/ 	c #536023",
"c/ 	c #2F3815",
"d/ 	c #202C0D",
"e/ 	c #384E16",
"f/ 	c #212B0B",
"g/ 	c #334312",
"h/ 	c #3F3F1A",
"i/ 	c #3F4118",
"j/ 	c #2B2916",
"k/ 	c #3A4A1B",
"l/ 	c #3B5117",
"m/ 	c #384912",
"n/ 	c #3A4D16",
"o/ 	c #44531B",
"p/ 	c #485523",
"q/ 	c #40591A",
"r/ 	c #4E6F1E",
"s/ 	c #547128",
"t/ 	c #506F1C",
"u/ 	c #2B3311",
"v/ 	c #262E10",
"w/ 	c #303717",
"x/ 	c #465420",
"y/ 	c #292712",
"z/ 	c #38311B",
"A/ 	c #2F2414",
"B/ 	c #424D20",
"C/ 	c #2D3114",
"D/ 	c #3D531F",
"E/ 	c #2F3A14",
"F/ 	c #293410",
"G/ 	c #1D230B",
"H/ 	c #2E3810",
"I/ 	c #2C3D10",
"J/ 	c #3C4819",
"K/ 	c #344814",
"L/ 	c #384E15",
"M/ 	c #374A13",
"N/ 	c #364F12",
"O/ 	c #2E3F10",
"P/ 	c #3F4E15",
"Q/ 	c #3F6219",
"R/ 	c #385214",
"S/ 	c #415F1A",
"T/ 	c #29330E",
"U/ 	c #394115",
"V/ 	c #1E280D",
"W/ 	c #273713",
"X/ 	c #242710",
"Y/ 	c #2B3315",
"Z/ 	c #373A19",
"`/ 	c #3A411B",
" ( 	c #334310",
".( 	c #1F290F",
"+( 	c #232D10",
"@( 	c #1F200D",
"#( 	c #293A12",
"$( 	c #2B3C12",
"%( 	c #151F09",
"&( 	c #304813",
"*( 	c #23390E",
"=( 	c #29390E",
"-( 	c #1C280A",
";( 	c #1E2C0C",
">( 	c #2B3D11",
",( 	c #1D2B0D",
"'( 	c #344A13",
")( 	c #334B13",
"!( 	c #1F2F0C",
"~( 	c #21330D",
"{( 	c #2A4211",
"]( 	c #383D21",
"^( 	c #5A564E",
"/( 	c #94908A",
"(( 	c #6E7063",
"_( 	c #1C260A",
":( 	c #374C12",
"<( 	c #2C3B0F",
"[( 	c #273F10",
"}( 	c #1D2C0D",
"|( 	c #355114",
"1( 	c #22340F",
"2( 	c #47631A",
"3( 	c #455D19",
"4( 	c #344616",
"5( 	c #2E4013",
"6( 	c #2B3B11",
"7( 	c #26320F",
"8( 	c #314914",
"9( 	c #314C14",
"0( 	c #415714",
"a( 	c #395317",
"b( 	c #374716",
"c( 	c #22300E",
"d( 	c #223411",
"e( 	c #395716",
"f( 	c #262E0C",
"g( 	c #262F11",
"h( 	c #587623",
"i( 	c #2B3811",
"j( 	c #223211",
"k( 	c #3D5117",
"l( 	c #394016",
"m( 	c #312C13",
"n( 	c #4A4920",
"o( 	c #262F13",
"p( 	c #323B11",
"q( 	c #485A1B",
"r( 	c #2A3712",
"s( 	c #2C3811",
"t( 	c #202D0E",
"u( 	c #364E16",
"v( 	c #637548",
"w( 	c #B8B6B1",
"x( 	c #647E3F",
"y( 	c #354617",
"z( 	c #2E4313",
"A( 	c #354818",
"B( 	c #2F2D13",
"C( 	c #263211",
"D( 	c #2A2713",
"E( 	c #2D2E14",
"F( 	c #303B15",
"G( 	c #4B5C1C",
"H( 	c #4F5D20",
"I( 	c #323712",
"J( 	c #334C18",
"K( 	c #384213",
"L( 	c #435419",
"M( 	c #1F2F0D",
"N( 	c #354814",
"O( 	c #435C16",
"P( 	c #2E4110",
"Q( 	c #324112",
"R( 	c #334E14",
"S( 	c #314B13",
"T( 	c #232F0C",
"U( 	c #1C270A",
"V( 	c #415215",
"W( 	c #364912",
"X( 	c #2A3410",
"Y( 	c #2A3C12",
"Z( 	c #21300F",
"`( 	c #2C3510",
" _ 	c #353718",
"._ 	c #2A2E16",
"+_ 	c #394D13",
"@_ 	c #436018",
"#_ 	c #232D0F",
"$_ 	c #1D260D",
"%_ 	c #272C11",
"&_ 	c #263812",
"*_ 	c #283611",
"=_ 	c #1F2E0D",
"-_ 	c #23340D",
";_ 	c #1E2C0B",
">_ 	c #2F4614",
",_ 	c #375615",
"'_ 	c #304615",
")_ 	c #2F3D10",
"!_ 	c #3A4417",
"~_ 	c #324913",
"{_ 	c #415B18",
"]_ 	c #192409",
"^_ 	c #5A6344",
"/_ 	c #212E0D",
"(_ 	c #334612",
"__ 	c #364E17",
":_ 	c #374E12",
"<_ 	c #293B0D",
"[_ 	c #2A4412",
"}_ 	c #17220A",
"|_ 	c #406319",
"1_ 	c #24350D",
"2_ 	c #273B0E",
"3_ 	c #3F4F16",
"4_ 	c #304511",
"5_ 	c #314313",
"6_ 	c #2C3B11",
"7_ 	c #1C2A0D",
"8_ 	c #394A15",
"9_ 	c #324812",
"0_ 	c #2E4412",
"a_ 	c #3B5618",
"b_ 	c #3A5917",
"c_ 	c #2D3E13",
"d_ 	c #3E3D1A",
"e_ 	c #2C2F0F",
"f_ 	c #2F3B11",
"g_ 	c #3E541A",
"h_ 	c #324217",
"i_ 	c #23320D",
"j_ 	c #2D3C15",
"k_ 	c #324116",
"l_ 	c #293010",
"m_ 	c #26240E",
"n_ 	c #2E2B16",
"o_ 	c #304315",
"p_ 	c #3F4B1B",
"q_ 	c #313511",
"r_ 	c #404F17",
"s_ 	c #385018",
"t_ 	c #2A3B16",
"u_ 	c #696A5D",
"v_ 	c #C9C7C3",
"w_ 	c #C2C0BC",
"x_ 	c #9B9D8E",
"y_ 	c #40581E",
"z_ 	c #3B5215",
"A_ 	c #334814",
"B_ 	c #343813",
"C_ 	c #3C4C18",
"D_ 	c #282710",
"E_ 	c #303013",
"F_ 	c #3C4017",
"G_ 	c #2C3011",
"H_ 	c #394216",
"I_ 	c #1B1C0E",
"J_ 	c #304517",
"K_ 	c #22290F",
"L_ 	c #242E0F",
"M_ 	c #304B15",
"N_ 	c #384F17",
"O_ 	c #3B5418",
"P_ 	c #3A5015",
"Q_ 	c #364B12",
"R_ 	c #24330E",
"S_ 	c #212D0B",
"T_ 	c #365716",
"U_ 	c #445C1A",
"V_ 	c #334417",
"W_ 	c #3A5217",
"X_ 	c #2D3713",
"Y_ 	c #3C4916",
"Z_ 	c #43521A",
"`_ 	c #233311",
" : 	c #2B3A11",
".: 	c #292F13",
"+: 	c #45531C",
"@: 	c #314415",
"#: 	c #222F0C",
"$: 	c #273411",
"%: 	c #2D3F12",
"&: 	c #2E3E15",
"*: 	c #365016",
"=: 	c #355016",
"-: 	c #242F0E",
";: 	c #282C11",
">: 	c #2D3210",
",: 	c #2A3A11",
"': 	c #2B3F11",
"): 	c #273C0F",
"!: 	c #355314",
"~: 	c #2A4011",
"{: 	c #24370E",
"]: 	c #1A290C",
"^: 	c #263811",
"/: 	c #17270A",
"(: 	c #324511",
"_: 	c #242F0B",
":: 	c #293B0E",
"<: 	c #303E14",
"[: 	c #3F5D17",
"}: 	c #3C5415",
"|: 	c #3D5B19",
"1: 	c #45641B",
"2: 	c #406018",
"3: 	c #273B12",
"4: 	c #354416",
"5: 	c #344216",
"6: 	c #3D491C",
"7: 	c #343015",
"8: 	c #413E1C",
"9: 	c #2C3312",
"0: 	c #3C5118",
"a: 	c #212D11",
"b: 	c #2A3B12",
"c: 	c #44521C",
"d: 	c #3E5D1A",
"e: 	c #26270C",
"f: 	c #424C1A",
"g: 	c #3D4A1D",
"h: 	c #3B4A1D",
"i: 	c #485E1D",
"j: 	c #426019",
"k: 	c #253711",
"l: 	c #595148",
"m: 	c #817C76",
"n: 	c #979591",
"o: 	c #9D9C97",
"p: 	c #7F8A62",
"q: 	c #456D1D",
"r: 	c #2E3C14",
"s: 	c #3F5515",
"t: 	c #475F1B",
"u: 	c #353E12",
"v: 	c #2A360F",
"w: 	c #363B15",
"x: 	c #3C4519",
"y: 	c #433E1B",
"z: 	c #282212",
"A: 	c #1E1D0F",
"B: 	c #2C3316",
"C: 	c #293813",
"D: 	c #334916",
"E: 	c #3E5715",
"F: 	c #29360D",
"G: 	c #3A4B12",
"H: 	c #1F270A",
"I: 	c #2E3C0E",
"J: 	c #2C3612",
"K: 	c #2D2612",
"L: 	c #495D1D",
"M: 	c #363B16",
"N: 	c #464C1C",
"O: 	c #435B1E",
"P: 	c #302C15",
"Q: 	c #3A351C",
"R: 	c #40401B",
"S: 	c #3B471B",
"T: 	c #304514",
"U: 	c #2E3416",
"V: 	c #40531A",
"W: 	c #303216",
"X: 	c #20240D",
"Y: 	c #293D11",
"Z: 	c #26380F",
"`: 	c #3B5516",
" < 	c #2B4012",
".< 	c #364915",
"+< 	c #486221",
"@< 	c #647A42",
"#< 	c #4D533C",
"$< 	c #717A5C",
"%< 	c #798366",
"&< 	c #344A19",
"*< 	c #303E13",
"=< 	c #1D280A",
"-< 	c #3B5A1A",
";< 	c #1E2E0D",
">< 	c #274111",
",< 	c #3C4219",
"'< 	c #334415",
")< 	c #293712",
"!< 	c #2C4411",
"~< 	c #364810",
"{< 	c #3B5617",
"]< 	c #2C3911",
"^< 	c #242B0E",
"/< 	c #48671C",
"(< 	c #3E5516",
"_< 	c #405F19",
":< 	c #293C11",
"<< 	c #2F4814",
"[< 	c #2C3E11",
"}< 	c #416519",
"|< 	c #324D14",
"1< 	c #343215",
"2< 	c #242E0E",
"3< 	c #3C5719",
"4< 	c #3D4D19",
"5< 	c #1A260C",
"6< 	c #131909",
"7< 	c #273811",
"8< 	c #3C5B18",
"9< 	c #29340F",
"0< 	c #3B5716",
"a< 	c #334012",
"b< 	c #394015",
"c< 	c #1F2C0F",
"d< 	c #3B481C",
"e< 	c #314513",
"f< 	c #333C1D",
"g< 	c #4B4236",
"h< 	c #9E9B95",
"i< 	c #A6A49F",
"j< 	c #8F8F85",
"k< 	c #4D5C36",
"l< 	c #384915",
"m< 	c #43661B",
"n< 	c #394517",
"o< 	c #3E4C16",
"p< 	c #2A3711",
"q< 	c #364115",
"r< 	c #3D4818",
"s< 	c #4D4C21",
"t< 	c #504D26",
"u< 	c #2B2F17",
"v< 	c #2F3317",
"w< 	c #435324",
"x< 	c #3C411C",
"y< 	c #2D3416",
"z< 	c #253115",
"A< 	c #485D20",
"B< 	c #425A1E",
"C< 	c #3D5717",
"D< 	c #354A11",
"E< 	c #2C3A0E",
"F< 	c #232E0E",
"G< 	c #25310D",
"H< 	c #293510",
"I< 	c #364315",
"J< 	c #383F16",
"K< 	c #2A3111",
"L< 	c #364317",
"M< 	c #282B11",
"N< 	c #2E2B13",
"O< 	c #3C331B",
"P< 	c #3A391D",
"Q< 	c #40581F",
"R< 	c #344517",
"S< 	c #495921",
"T< 	c #3D4A1A",
"U< 	c #354015",
"V< 	c #343B1A",
"W< 	c #3C3E1C",
"X< 	c #374218",
"Y< 	c #304016",
"Z< 	c #303014",
"`< 	c #24320F",
" [ 	c #2E4014",
".[ 	c #212D10",
"+[ 	c #1E2C0D",
"@[ 	c #344614",
"#[ 	c #46661A",
"$[ 	c #202D0C",
"%[ 	c #23290B",
"&[ 	c #292517",
"*[ 	c #373324",
"=[ 	c #706C63",
"-[ 	c #909088",
";[ 	c #9E9E94",
">[ 	c #B9B8B1",
",[ 	c #8C8982",
"'[ 	c #A1A197",
")[ 	c #535B3F",
"![ 	c #334518",
"~[ 	c #20220B",
"{[ 	c #33440F",
"][ 	c #365115",
"^[ 	c #1C280B",
"/[ 	c #263D10",
"([ 	c #1F260D",
"_[ 	c #212E0C",
":[ 	c #29380E",
"<[ 	c #1F2B0C",
"[[ 	c #304014",
"}[ 	c #303D15",
"|[ 	c #222E12",
"1[ 	c #374B11",
"2[ 	c #263810",
"3[ 	c #3E5C18",
"4[ 	c #27380D",
"5[ 	c #374916",
"6[ 	c #2C3C11",
"7[ 	c #232E0C",
"8[ 	c #344A15",
"9[ 	c #385315",
"0[ 	c #364716",
"a[ 	c #20300E",
"b[ 	c #212B0E",
"c[ 	c #375616",
"d[ 	c #3E5614",
"e[ 	c #456119",
"f[ 	c #344D14",
"g[ 	c #28380E",
"h[ 	c #313B12",
"i[ 	c #293B0F",
"j[ 	c #1F290B",
"k[ 	c #324311",
"l[ 	c #374913",
"m[ 	c #3E4A1A",
"n[ 	c #3A3F20",
"o[ 	c #4A4C3D",
"p[ 	c #747669",
"q[ 	c #36471E",
"r[ 	c #3F5A19",
"s[ 	c #40431B",
"t[ 	c #48461C",
"u[ 	c #3C4517",
"v[ 	c #3D5618",
"w[ 	c #3E4A17",
"x[ 	c #333515",
"y[ 	c #2B2B17",
"z[ 	c #3D411D",
"A[ 	c #2E2E16",
"B[ 	c #353919",
"C[ 	c #303519",
"D[ 	c #384718",
"E[ 	c #2E3E1C",
"F[ 	c #394B1D",
"G[ 	c #394E1B",
"H[ 	c #2B3B14",
"I[ 	c #23320C",
"J[ 	c #586C1D",
"K[ 	c #354214",
"L[ 	c #424A18",
"M[ 	c #282E0F",
"N[ 	c #2F3513",
"O[ 	c #373017",
"P[ 	c #2D3112",
"Q[ 	c #2E2912",
"R[ 	c #28210F",
"S[ 	c #3F411C",
"T[ 	c #536F21",
"U[ 	c #393A1C",
"V[ 	c #32361A",
"W[ 	c #3A401C",
"X[ 	c #332F18",
"Y[ 	c #35401A",
"Z[ 	c #1E230C",
"`[ 	c #263512",
" } 	c #324815",
".} 	c #2E4613",
"+} 	c #2F3E1D",
"@} 	c #596545",
"#} 	c #747667",
"$} 	c #AEADA5",
"%} 	c #88857B",
"&} 	c #77736D",
"*} 	c #76736B",
"=} 	c #87847F",
"-} 	c #817F76",
";} 	c #999B8A",
">} 	c #68635C",
",} 	c #BABAB2",
"'} 	c #C3C1BC",
")} 	c #9FA193",
"!} 	c #4F5636",
"~} 	c #405F1E",
"{} 	c #3A4D17",
"]} 	c #355215",
"^} 	c #374D15",
"/} 	c #314612",
"(} 	c #394B16",
"_} 	c #2A2A10",
":} 	c #2F370F",
"<} 	c #26360D",
"[} 	c #344713",
"}} 	c #243310",
"|} 	c #25350C",
"1} 	c #23370E",
"2} 	c #435816",
"3} 	c #1F2C0C",
"4} 	c #3C5A17",
"5} 	c #3A4E16",
"6} 	c #3E5517",
"7} 	c #425617",
"8} 	c #395818",
"9} 	c #344918",
"0} 	c #344B11",
"a} 	c #415D1B",
"b} 	c #25370D",
"c} 	c #415915",
"d} 	c #3C5A15",
"e} 	c #354913",
"f} 	c #445D1B",
"g} 	c #394D15",
"h} 	c #2E4312",
"i} 	c #3E5A16",
"j} 	c #384D15",
"k} 	c #47611A",
"l} 	c #3D5C19",
"m} 	c #475E19",
"n} 	c #3A4F16",
"o} 	c #273A10",
"p} 	c #1C260B",
"q} 	c #2E3313",
"r} 	c #46391D",
"s} 	c #392C17",
"t} 	c #7D653A",
"u} 	c #4C3E24",
"v} 	c #434922",
"w} 	c #424C20",
"x} 	c #322D19",
"y} 	c #2B2C17",
"z} 	c #31391A",
"A} 	c #38421B",
"B} 	c #2A3517",
"C} 	c #5A792B",
"D} 	c #3A4C1E",
"E} 	c #46621D",
"F} 	c #25330D",
"G} 	c #40611D",
"H} 	c #455119",
"I} 	c #423A1B",
"J} 	c #3E3218",
"K} 	c #383B1A",
"L} 	c #373D19",
"M} 	c #333018",
"N} 	c #352615",
"O} 	c #382E1B",
"P} 	c #443522",
"Q} 	c #382A1B",
"R} 	c #433621",
"S} 	c #2D2115",
"T} 	c #353B1A",
"U} 	c #363D1C",
"V} 	c #3F4520",
"W} 	c #1F2410",
"X} 	c #293112",
"Y} 	c #1D1F0C",
"Z} 	c #1E250C",
"`} 	c #405D19",
" | 	c #374715",
".| 	c #395717",
"+| 	c #314715",
"@| 	c #5E664F",
"#| 	c #ABAAA3",
"$| 	c #9F9D98",
"%| 	c #8E8B86",
"&| 	c #AFADA5",
"*| 	c #726E67",
"=| 	c #615C54",
"-| 	c #666358",
";| 	c #928F85",
">| 	c #AFACA9",
",| 	c #746E69",
"'| 	c #8A867F",
")| 	c #B2B0AB",
"!| 	c #A09D97",
"~| 	c #9E9C95",
"{| 	c #9FA692",
"]| 	c #617B45",
"^| 	c #2C4216",
"/| 	c #2D4713",
"(| 	c #334D15",
"_| 	c #3B5517",
":| 	c #3C5818",
"<| 	c #456016",
"[| 	c #2B3A0E",
"}| 	c #324711",
"|| 	c #26350C",
"1| 	c #283E10",
"2| 	c #1D240B",
"3| 	c #27350E",
"4| 	c #212D0D",
"5| 	c #21310D",
"6| 	c #29320C",
"7| 	c #476618",
"8| 	c #384B14",
"9| 	c #3F5316",
"0| 	c #4D681B",
"a| 	c #3A5316",
"b| 	c #28390E",
"c| 	c #4D671A",
"d| 	c #3C5F17",
"e| 	c #384914",
"f| 	c #28330F",
"g| 	c #363918",
"h| 	c #28360F",
"i| 	c #415817",
"j| 	c #405C16",
"k| 	c #2D3410",
"l| 	c #404019",
"m| 	c #323714",
"n| 	c #474122",
"o| 	c #3D3F1C",
"p| 	c #425B20",
"q| 	c #34431D",
"r| 	c #3A461E",
"s| 	c #384A1B",
"t| 	c #2B3A18",
"u| 	c #304118",
"v| 	c #2D4019",
"w| 	c #2C3E15",
"x| 	c #374F1A",
"y| 	c #324512",
"z| 	c #354A14",
"A| 	c #334214",
"B| 	c #64662B",
"C| 	c #383619",
"D| 	c #403921",
"E| 	c #2F2917",
"F| 	c #36311A",
"G| 	c #3B301B",
"H| 	c #382B1A",
"I| 	c #231A0F",
"J| 	c #392E1B",
"K| 	c #373619",
"L| 	c #2A3315",
"M| 	c #2F3C18",
"N| 	c #38461E",
"O| 	c #313B16",
"P| 	c #3D4C1A",
"Q| 	c #374317",
"R| 	c #3A4B15",
"S| 	c #324B13",
"T| 	c #21300C",
"U| 	c #384F14",
"V| 	c #385313",
"W| 	c #415A1A",
"X| 	c #25280F",
"Y| 	c #617649",
"Z| 	c #C5C3BF",
"`| 	c #A19D98",
" 1 	c #AAA9A3",
".1 	c #5E5A52",
"+1 	c #737068",
"@1 	c #B9B7B4",
"#1 	c #AEABA8",
"$1 	c #98938D",
"%1 	c #87837D",
"&1 	c #747169",
"*1 	c #76726C",
"=1 	c #979590",
"-1 	c #BFBEB8",
";1 	c #A3A69A",
">1 	c #3E4E26",
",1 	c #374F16",
"'1 	c #395415",
")1 	c #405220",
"!1 	c #2A3C0E",
"~1 	c #314911",
"{1 	c #3B5616",
"]1 	c #2A3C10",
"^1 	c #27310E",
"/1 	c #2B3C10",
"(1 	c #23300E",
"_1 	c #2F4813",
":1 	c #1A280C",
"<1 	c #3B5A17",
"[1 	c #364C15",
"}1 	c #354A12",
"|1 	c #2F4010",
"11 	c #3A4E14",
"21 	c #26350D",
"31 	c #354815",
"41 	c #2B3B0F",
"51 	c #405716",
"61 	c #325114",
"71 	c #31410F",
"81 	c #2A390D",
"91 	c #334314",
"01 	c #202D0D",
"a1 	c #48601A",
"b1 	c #323F11",
"c1 	c #324312",
"d1 	c #2E4712",
"e1 	c #435E18",
"f1 	c #2D3E11",
"g1 	c #3C5416",
"h1 	c #595A24",
"i1 	c #596423",
"j1 	c #323314",
"k1 	c #445620",
"l1 	c #354816",
"m1 	c #394F1A",
"n1 	c #415818",
"o1 	c #2F4211",
"p1 	c #233511",
"q1 	c #2F3D12",
"r1 	c #304211",
"s1 	c #3B5919",
"t1 	c #313C12",
"u1 	c #2F3D15",
"v1 	c #363418",
"w1 	c #372B1B",
"x1 	c #3E491F",
"y1 	c #3A401A",
"z1 	c #342D18",
"A1 	c #455323",
"B1 	c #2C2E16",
"C1 	c #2E2316",
"D1 	c #3E351E",
"E1 	c #3D341E",
"F1 	c #434C21",
"G1 	c #2C3216",
"H1 	c #303316",
"I1 	c #302A18",
"J1 	c #44481E",
"K1 	c #262813",
"L1 	c #424120",
"M1 	c #28310E",
"N1 	c #334D12",
"O1 	c #22330D",
"P1 	c #3F5C16",
"Q1 	c #243110",
"R1 	c #465532",
"S1 	c #92908B",
"T1 	c #BBBAB6",
"U1 	c #BCBBB6",
"V1 	c #A2A19A",
"W1 	c #7B7773",
"X1 	c #A9A8A2",
"Y1 	c #8A8580",
"Z1 	c #A6A3A0",
"`1 	c #989591",
" 2 	c #B8B8B1",
".2 	c #B7B6AF",
"+2 	c #93908A",
"@2 	c #928E8A",
"#2 	c #6C6660",
"$2 	c #93908B",
"%2 	c #BFC0B7",
"&2 	c #666C58",
"*2 	c #415622",
"=2 	c #374C15",
"-2 	c #384F15",
";2 	c #525E3C",
">2 	c #344E13",
",2 	c #2C3C14",
"'2 	c #3F5617",
")2 	c #324910",
"!2 	c #406119",
"~2 	c #1F260C",
"{2 	c #1E210B",
"]2 	c #2F4914",
"^2 	c #354E13",
"/2 	c #3C5D18",
"(2 	c #3D4815",
"_2 	c #43441A",
":2 	c #2F3813",
"<2 	c #465C22",
"[2 	c #4A6820",
"}2 	c #22300D",
"|2 	c #6B7459",
"12 	c #5C5F4B",
"22 	c #5A6446",
"32 	c #5B624E",
"42 	c #4B5138",
"52 	c #43542C",
"62 	c #364B1A",
"72 	c #49611C",
"82 	c #4F731F",
"92 	c #283E12",
"02 	c #3C4F16",
"a2 	c #425616",
"b2 	c #355115",
"c2 	c #344913",
"d2 	c #495432",
"e2 	c #83916B",
"f2 	c #555B39",
"g2 	c #505D24",
"h2 	c #57661E",
"i2 	c #394317",
"j2 	c #3E521D",
"k2 	c #4A6323",
"l2 	c #334616",
"m2 	c #395617",
"n2 	c #233110",
"o2 	c #405D15",
"p2 	c #222C0D",
"q2 	c #27340F",
"r2 	c #3B4E1A",
"s2 	c #3B5016",
"t2 	c #405B15",
"u2 	c #496C1F",
"v2 	c #233211",
"w2 	c #3C4B17",
"x2 	c #253311",
"y2 	c #344516",
"z2 	c #384B1E",
"A2 	c #2F2D16",
"B2 	c #433C22",
"C2 	c #343118",
"D2 	c #302E19",
"E2 	c #332C19",
"F2 	c #2A2C15",
"G2 	c #354519",
"H2 	c #334619",
"I2 	c #324013",
"J2 	c #345115",
"K2 	c #314F14",
"L2 	c #2F3715",
"M2 	c #423A31",
"N2 	c #77716A",
"O2 	c #A6A39F",
"P2 	c #918E8A",
"Q2 	c #908C87",
"R2 	c #9D9A96",
"S2 	c #BFBDBA",
"T2 	c #9D9A95",
"U2 	c #75706B",
"V2 	c #746E68",
"W2 	c #9E9A95",
"X2 	c #A09F96",
"Y2 	c #6E6863",
"Z2 	c #73706A",
"`2 	c #7B7772",
" 3 	c #716C67",
".3 	c #7F7C77",
"+3 	c #ADAAA6",
"@3 	c #465330",
"#3 	c #405D1A",
"$3 	c #3C5D19",
"%3 	c #5B614C",
"&3 	c #2D3D12",
"*3 	c #23350D",
"=3 	c #2D4A10",
"-3 	c #335414",
";3 	c #3F5E18",
">3 	c #374E13",
",3 	c #3D5A17",
"'3 	c #19250B",
")3 	c #172109",
"!3 	c #385317",
"~3 	c #374C13",
"{3 	c #273410",
"]3 	c #384116",
"^3 	c #3B481A",
"/3 	c #425120",
"(3 	c #304815",
"_3 	c #2E4016",
":3 	c #404828",
"<3 	c #908D88",
"[3 	c #ADADA5",
"}3 	c #B6B5AF",
"|3 	c #908D86",
"13 	c #C1BFBA",
"23 	c #969D8A",
"33 	c #344313",
"43 	c #3D5317",
"53 	c #354613",
"63 	c #526B1C",
"73 	c #3E5717",
"83 	c #354112",
"93 	c #273015",
"03 	c #75726D",
"a3 	c #9E9D98",
"b3 	c #7C8164",
"c3 	c #45591C",
"d3 	c #2D4117",
"e3 	c #425817",
"f3 	c #344511",
"g3 	c #314D15",
"h3 	c #314511",
"i3 	c #4C6920",
"j3 	c #3D531A",
"k3 	c #3F5F18",
"l3 	c #4E601A",
"m3 	c #435719",
"n3 	c #344C14",
"o3 	c #3A5117",
"p3 	c #334817",
"q3 	c #3C5018",
"r3 	c #304616",
"s3 	c #2F4815",
"t3 	c #363D15",
"u3 	c #283512",
"v3 	c #375316",
"w3 	c #3F5B1F",
"x3 	c #3A401F",
"y3 	c #313316",
"z3 	c #465022",
"A3 	c #3B4720",
"B3 	c #36391C",
"C3 	c #35471A",
"D3 	c #334717",
"E3 	c #2B3A12",
"F3 	c #364A17",
"G3 	c #303914",
"H3 	c #2E4214",
"I3 	c #2C3313",
"J3 	c #3A451C",
"K3 	c #374D13",
"L3 	c #3E5C16",
"M3 	c #273C0E",
"N3 	c #2A4711",
"O3 	c #2A3C13",
"P3 	c #787670",
"Q3 	c #696560",
"R3 	c #76716A",
"S3 	c #69635D",
"T3 	c #6B645D",
"U3 	c #8B8782",
"V3 	c #68645B",
"W3 	c #716F67",
"X3 	c #818178",
"Y3 	c #7F7C76",
"Z3 	c #93918C",
"`3 	c #6D6862",
" 4 	c #43502D",
".4 	c #324C13",
"+4 	c #616952",
"@4 	c #3E5222",
"#4 	c #324415",
"$4 	c #374615",
"%4 	c #373B17",
"&4 	c #3A4718",
"*4 	c #3E5B19",
"=4 	c #364813",
"-4 	c #1A2309",
";4 	c #283C0F",
">4 	c #20330D",
",4 	c #212C0B",
"'4 	c #283412",
")4 	c #384817",
"!4 	c #293111",
"~4 	c #36481C",
"{4 	c #344013",
"]4 	c #3C3E19",
"^4 	c #453D31",
"/4 	c #5F5A50",
"(4 	c #77726C",
"_4 	c #9E9C98",
":4 	c #636057",
"<4 	c #51493F",
"[4 	c #68615A",
"}4 	c #B5B3AF",
"|4 	c #525B44",
"14 	c #344F14",
"24 	c #405917",
"34 	c #4C641A",
"44 	c #23310D",
"54 	c #455218",
"64 	c #58544A",
"74 	c #7B7972",
"84 	c #5C6943",
"94 	c #2E4317",
"04 	c #3D5316",
"a4 	c #3B5116",
"b4 	c #43611A",
"c4 	c #2D4114",
"d4 	c #3B4E14",
"e4 	c #22300C",
"f4 	c #2D3D0F",
"g4 	c #2C4213",
"h4 	c #3B5615",
"i4 	c #304311",
"j4 	c #273511",
"k4 	c #3C4418",
"l4 	c #324614",
"m4 	c #2C3813",
"n4 	c #2A3B15",
"o4 	c #374919",
"p4 	c #334815",
"q4 	c #333518",
"r4 	c #314619",
"s4 	c #4C6222",
"t4 	c #3A5019",
"u4 	c #3D5217",
"v4 	c #303A16",
"w4 	c #273111",
"x4 	c #2A3811",
"y4 	c #1F270D",
"z4 	c #415D19",
"A4 	c #1C2C0B",
"B4 	c #283A0E",
"C4 	c #6E725C",
"D4 	c #534A42",
"E4 	c #66615A",
"F4 	c #5E564E",
"G4 	c #726F68",
"H4 	c #5D5750",
"I4 	c #554E46",
"J4 	c #645E57",
"K4 	c #75716A",
"L4 	c #6C6960",
"M4 	c #A4A49B",
"N4 	c #B3B4AA",
"O4 	c #A6A4A0",
"P4 	c #3C4E24",
"Q4 	c #46541D",
"R4 	c #657C36",
"S4 	c #687356",
"T4 	c #3F551C",
"U4 	c #53651E",
"V4 	c #404B1A",
"W4 	c #423D1A",
"X4 	c #47521D",
"Y4 	c #212F0C",
"Z4 	c #3B4815",
"`4 	c #385015",
" 5 	c #2D4612",
".5 	c #355216",
"+5 	c #28340E",
"@5 	c #5A6024",
"#5 	c #2E3A18",
"$5 	c #3F441D",
"%5 	c #2C3F15",
"&5 	c #374E18",
"*5 	c #4A5B18",
"=5 	c #39411E",
"-5 	c #4C4538",
";5 	c #5D564D",
">5 	c #888680",
",5 	c #625E53",
"'5 	c #514C44",
")5 	c #58514A",
"!5 	c #7B7874",
"~5 	c #666B5A",
"{5 	c #2B360D",
"]5 	c #394D14",
"^5 	c #2A4012",
"/5 	c #4C651E",
"(5 	c #365315",
"_5 	c #6D6B62",
":5 	c #66625A",
"<5 	c #77796B",
"[5 	c #3F5426",
"}5 	c #385515",
"|5 	c #425717",
"15 	c #3A4F18",
"25 	c #405719",
"35 	c #3D5C18",
"45 	c #3A5617",
"55 	c #2F4612",
"65 	c #435817",
"75 	c #3B5817",
"85 	c #2B3D0F",
"95 	c #325215",
"05 	c #3F5A17",
"a5 	c #2A3D12",
"b5 	c #354A16",
"c5 	c #324A15",
"d5 	c #44581E",
"e5 	c #293B13",
"f5 	c #41521C",
"g5 	c #323B16",
"h5 	c #3F531D",
"i5 	c #2F4416",
"j5 	c #293212",
"k5 	c #323A15",
"l5 	c #2C3212",
"m5 	c #343D21",
"n5 	c #9AA18B",
"o5 	c #4C6032",
"p5 	c #17230A",
"q5 	c #384F12",
"r5 	c #23330F",
"s5 	c #575F41",
"t5 	c #67615A",
"u5 	c #56504A",
"v5 	c #7F7B77",
"w5 	c #6B675F",
"x5 	c #86837D",
"y5 	c #86847B",
"z5 	c #737168",
"A5 	c #595549",
"B5 	c #C1C2BA",
"C5 	c #C2C1BB",
"D5 	c #B0AFA9",
"E5 	c #5B6249",
"F5 	c #2C3211",
"G5 	c #343C15",
"H5 	c #675C30",
"I5 	c #37441A",
"J5 	c #49542A",
"K5 	c #19230D",
"L5 	c #2D3711",
"M5 	c #2C2612",
"N5 	c #312914",
"O5 	c #302E13",
"P5 	c #3D4819",
"Q5 	c #313715",
"R5 	c #2F3814",
"S5 	c #3F5818",
"T5 	c #263010",
"U5 	c #3F5F1A",
"V5 	c #466118",
"W5 	c #35431A",
"X5 	c #273613",
"Y5 	c #2E3C16",
"Z5 	c #2D3910",
"`5 	c #2D291C",
" 6 	c #585149",
".6 	c #88867F",
"+6 	c #66655A",
"@6 	c #4D483E",
"#6 	c #7E7A74",
"$6 	c #6A6A61",
"%6 	c #405128",
"&6 	c #808270",
"*6 	c #313C10",
"=6 	c #2E4511",
"-6 	c #3A5715",
";6 	c #263610",
">6 	c #7F8371",
",6 	c #6B6660",
"'6 	c #6C6E62",
")6 	c #395618",
"!6 	c #2D3F11",
"~6 	c #323F14",
"{6 	c #304713",
"]6 	c #242E0C",
"^6 	c #42421C",
"/6 	c #313C15",
"(6 	c #243312",
"_6 	c #384D1D",
":6 	c #324419",
"<6 	c #2D3014",
"[6 	c #334C15",
"}6 	c #45641C",
"|6 	c #3F561A",
"16 	c #304A13",
"26 	c #253A10",
"36 	c #33451A",
"46 	c #282C10",
"56 	c #767669",
"66 	c #686059",
"76 	c #AAA8A3",
"86 	c #465032",
"96 	c #2C4512",
"06 	c #2C3D12",
"a6 	c #6A705A",
"b6 	c #67635F",
"c6 	c #8A8681",
"d6 	c #AAAAA0",
"e6 	c #ADABA6",
"f6 	c #5E5851",
"g6 	c #68625A",
"h6 	c #898680",
"i6 	c #3F3B1F",
"j6 	c #4A4724",
"k6 	c #2B3413",
"l6 	c #3C4B18",
"m6 	c #4B5A1C",
"n6 	c #5D7C1D",
"o6 	c #374416",
"p6 	c #3C4A19",
"q6 	c #23270F",
"r6 	c #3E3E1A",
"s6 	c #333314",
"t6 	c #272411",
"u6 	c #2F3315",
"v6 	c #344217",
"w6 	c #293C15",
"x6 	c #273812",
"y6 	c #3C5717",
"z6 	c #374F11",
"A6 	c #4C641B",
"B6 	c #3A5517",
"C6 	c #354E15",
"D6 	c #3A5515",
"E6 	c #2D3212",
"F6 	c #2B3C0F",
"G6 	c #1C240B",
"H6 	c #413B2F",
"I6 	c #7E7C72",
"J6 	c #67645A",
"K6 	c #4A453A",
"L6 	c #575147",
"M6 	c #58643A",
"N6 	c #585748",
"O6 	c #838577",
"P6 	c #324212",
"Q6 	c #3E5F17",
"R6 	c #2A3B0F",
"S6 	c #2C4012",
"T6 	c #273D10",
"U6 	c #727960",
"V6 	c #434436",
"W6 	c #385517",
"X6 	c #293C10",
"Y6 	c #19260A",
"Z6 	c #2A3E0F",
"`6 	c #395015",
" 7 	c #313712",
".7 	c #324216",
"+7 	c #32461A",
"@7 	c #314815",
"#7 	c #3E5F1B",
"$7 	c #3B5719",
"%7 	c #303B18",
"&7 	c #323015",
"*7 	c #384118",
"=7 	c #3E601A",
"-7 	c #2D4812",
";7 	c #223210",
">7 	c #284112",
",7 	c #233411",
"'7 	c #6B6F58",
")7 	c #B4B1AD",
"!7 	c #7D8A6A",
"~7 	c #324610",
"{7 	c #364F15",
"]7 	c #294011",
"^7 	c #434C1C",
"/7 	c #484A33",
"(7 	c #898B7E",
"_7 	c #9C9A94",
":7 	c #BEBFB6",
"<7 	c #625C55",
"[7 	c #30301D",
"}7 	c #283413",
"|7 	c #2F3D13",
"17 	c #405A18",
"27 	c #293C13",
"37 	c #36491C",
"47 	c #33461A",
"57 	c #445616",
"67 	c #2E3115",
"77 	c #40461B",
"87 	c #495F15",
"97 	c #232D0B",
"07 	c #262B10",
"a7 	c #2D3611",
"b7 	c #323C15",
"c7 	c #2E2D15",
"d7 	c #343E17",
"e7 	c #37451A",
"f7 	c #324017",
"g7 	c #33421F",
"h7 	c #2A3D14",
"i7 	c #2E430F",
"j7 	c #3C5518",
"k7 	c #2F4213",
"l7 	c #2D4413",
"m7 	c #426119",
"n7 	c #475B18",
"o7 	c #2A3911",
"p7 	c #4A4834",
"q7 	c #89897D",
"r7 	c #5D6051",
"s7 	c #323E1F",
"t7 	c #1D250E",
"u7 	c #505A3E",
"v7 	c #656A5A",
"w7 	c #747762",
"x7 	c #474339",
"y7 	c #26360C",
"z7 	c #29390D",
"A7 	c #395412",
"B7 	c #3B5319",
"C7 	c #294311",
"D7 	c #596445",
"E7 	c #9E9C97",
"F7 	c #3A452C",
"G7 	c #415E19",
"H7 	c #385916",
"I7 	c #1A280B",
"J7 	c #2F4812",
"K7 	c #3A5615",
"L7 	c #293E0F",
"M7 	c #3F5314",
"N7 	c #354714",
"O7 	c #303B12",
"P7 	c #344513",
"Q7 	c #363C15",
"R7 	c #37511A",
"S7 	c #333E19",
"T7 	c #314816",
"U7 	c #3F591B",
"V7 	c #284210",
"W7 	c #334D14",
"X7 	c #63744A",
"Y7 	c #86837F",
"Z7 	c #A19E9A",
"`7 	c #817D79",
" 8 	c #6F6B66",
".8 	c #696F5A",
"+8 	c #53742D",
"@8 	c #416219",
"#8 	c #29360F",
"$8 	c #354917",
"%8 	c #272A1A",
"&8 	c #443F32",
"*8 	c #BCBBB4",
"=8 	c #626156",
"-8 	c #4E503B",
";8 	c #2C2C18",
">8 	c #32451A",
",8 	c #324019",
"'8 	c #3A5619",
")8 	c #3C511D",
"!8 	c #666C54",
"~8 	c #3D4719",
"{8 	c #344218",
"]8 	c #42581F",
"^8 	c #425C17",
"/8 	c #384415",
"(8 	c #364618",
"_8 	c #3C4D1F",
":8 	c #37431C",
"<8 	c #314318",
"[8 	c #1E2B0D",
"}8 	c #222D11",
"|8 	c #395413",
"18 	c #344B14",
"28 	c #3F5917",
"38 	c #40581A",
"48 	c #334513",
"58 	c #3E5716",
"68 	c #3C4C16",
"78 	c #3C5219",
"88 	c #334C16",
"98 	c #395218",
"08 	c #1F220A",
"a8 	c #425022",
"b8 	c #374717",
"c8 	c #263A11",
"d8 	c #3A5816",
"e8 	c #53761D",
"f8 	c #1B2409",
"g8 	c #334B11",
"h8 	c #354414",
"i8 	c #283A13",
"j8 	c #364C18",
"k8 	c #5A693F",
"l8 	c #202A0C",
"m8 	c #2F4510",
"n8 	c #3E5A17",
"o8 	c #283A0F",
"p8 	c #3B5416",
"q8 	c #354B14",
"r8 	c #3E5014",
"s8 	c #425E1A",
"t8 	c #22320C",
"u8 	c #425918",
"v8 	c #3C5817",
"w8 	c #3D5218",
"x8 	c #2E3B13",
"y8 	c #344315",
"z8 	c #3B541B",
"A8 	c #1E250D",
"B8 	c #43521C",
"C8 	c #2E4814",
"D8 	c #1F2911",
"E8 	c #2A3913",
"F8 	c #415A21",
"G8 	c #36511A",
"H8 	c #354B16",
"I8 	c #243010",
"J8 	c #1D2C0C",
"K8 	c #3D442F",
"L8 	c #707364",
"M8 	c #7F8A6C",
"N8 	c #2A3F10",
"O8 	c #435A20",
"P8 	c #A09E9A",
"Q8 	c #ADACA8",
"R8 	c #605951",
"S8 	c #69655F",
"T8 	c #55504A",
"U8 	c #645E58",
"V8 	c #D3D2CE",
"W8 	c #8F9582",
"X8 	c #5A793A",
"Y8 	c #3D5A16",
"Z8 	c #385112",
"`8 	c #3C4E1F",
" 9 	c #575148",
".9 	c #7D7F6E",
"+9 	c #404F24",
"@9 	c #354518",
"#9 	c #334216",
"$9 	c #242912",
"%9 	c #35441A",
"&9 	c #4C5837",
"*9 	c #9BA28A",
"=9 	c #B8BAAE",
"-9 	c #465A2C",
";9 	c #2E3B16",
">9 	c #2D4813",
",9 	c #22320F",
"'9 	c #46401E",
")9 	c #435119",
"!9 	c #576527",
"~9 	c #374A14",
"{9 	c #2B3810",
"]9 	c #2E4311",
"^9 	c #384A11",
"/9 	c #44621C",
"(9 	c #26310D",
"_9 	c #384913",
":9 	c #465719",
"<9 	c #3A4C14",
"[9 	c #252D0D",
"}9 	c #323D16",
"|9 	c #324514",
"19 	c #4C621C",
"29 	c #3C4714",
"39 	c #43601C",
"49 	c #2D3F13",
"59 	c #365313",
"69 	c #425815",
"79 	c #3A4F14",
"89 	c #415B15",
"99 	c #364B14",
"09 	c #365018",
"a9 	c #364020",
"b9 	c #616453",
"c9 	c #415618",
"d9 	c #3D5616",
"e9 	c #2D4011",
"f9 	c #4D621A",
"g9 	c #304A15",
"h9 	c #375115",
"i9 	c #324010",
"j9 	c #435D14",
"k9 	c #394314",
"l9 	c #324617",
"m9 	c #385415",
"n9 	c #1B280D",
"o9 	c #344715",
"p9 	c #3B571D",
"q9 	c #687955",
"r9 	c #87867F",
"s9 	c #B6B4B0",
"t9 	c #3E5917",
"u9 	c #2A3E10",
"v9 	c #55514C",
"w9 	c #6F6A65",
"x9 	c #534C46",
"y9 	c #7B7570",
"z9 	c #D7D6D2",
"A9 	c #C0BEBB",
"B9 	c #A7AA9A",
"C9 	c #758954",
"D9 	c #2D3514",
"E9 	c #2D3613",
"F9 	c #222B0C",
"G9 	c #283111",
"H9 	c #4F5834",
"I9 	c #57534C",
"J9 	c #636257",
"K9 	c #615B4F",
"L9 	c #686159",
"M9 	c #83807B",
"N9 	c #586741",
"O9 	c #3A4E18",
"P9 	c #3A4E1A",
"Q9 	c #364D17",
"R9 	c #283D13",
"S9 	c #365319",
"T9 	c #3F5B19",
"U9 	c #2F3714",
"V9 	c #333E15",
"W9 	c #241F0F",
"X9 	c #292811",
"Y9 	c #2C3915",
"Z9 	c #2D3C12",
"`9 	c #1E270C",
" 0 	c #39551B",
".0 	c #4D6A1C",
"+0 	c #2D2B12",
"@0 	c #1D200B",
"#0 	c #556724",
"$0 	c #4C631E",
"%0 	c #27330F",
"&0 	c #25370F",
"*0 	c #1F310D",
"=0 	c #385318",
"-0 	c #332E15",
";0 	c #283312",
">0 	c #2B3B16",
",0 	c #334111",
"'0 	c #27310A",
")0 	c #597920",
"!0 	c #2A3D0F",
"~0 	c #354211",
"{0 	c #3C5617",
"]0 	c #3C5218",
"^0 	c #425B1F",
"/0 	c #3B492A",
"(0 	c #3F5817",
"_0 	c #505941",
":0 	c #67665C",
"<0 	c #343B22",
"[0 	c #2B3E11",
"}0 	c #405A15",
"|0 	c #3A4E15",
"10 	c #202F0E",
"20 	c #2F4212",
"30 	c #323717",
"40 	c #26350E",
"50 	c #141D09",
"60 	c #1D290D",
"70 	c #303F13",
"80 	c #2F4714",
"90 	c #748060",
"00 	c #A0A296",
"a0 	c #A9A7A2",
"b0 	c #9C9A96",
"c0 	c #7F7A75",
"d0 	c #A4A29D",
"e0 	c #6E755D",
"f0 	c #364F14",
"g0 	c #555748",
"h0 	c #7F7B76",
"i0 	c #CDCCC7",
"j0 	c #ABA8A4",
"k0 	c #5B554E",
"l0 	c #635B52",
"m0 	c #95928E",
"n0 	c #A19F9B",
"o0 	c #6B655F",
"p0 	c #8D8A85",
"q0 	c #94948A",
"r0 	c #556933",
"s0 	c #3B4915",
"t0 	c #606C4A",
"u0 	c #AEAFA2",
"v0 	c #A7A69E",
"w0 	c #B7B7AC",
"x0 	c #848174",
"y0 	c #5E5B4F",
"z0 	c #534D42",
"A0 	c #50463D",
"B0 	c #7D7873",
"C0 	c #837F7A",
"D0 	c #374A1B",
"E0 	c #263912",
"F0 	c #425814",
"G0 	c #365116",
"H0 	c #2A3912",
"I0 	c #2D3715",
"J0 	c #39491E",
"K0 	c #223010",
"L0 	c #395117",
"M0 	c #3A4D18",
"N0 	c #1C290C",
"O0 	c #425C1C",
"P0 	c #222B10",
"Q0 	c #1F2D10",
"R0 	c #19250C",
"S0 	c #394A14",
"T0 	c #20330E",
"U0 	c #293B12",
"V0 	c #2B2112",
"W0 	c #2E3F11",
"X0 	c #2E4210",
"Y0 	c #222D0A",
"Z0 	c #3C4D14",
"`0 	c #426118",
" a 	c #2B3A10",
".a 	c #22370E",
"+a 	c #364911",
"@a 	c #232E0B",
"#a 	c #475729",
"$a 	c #777A6C",
"%a 	c #94928D",
"&a 	c #918E89",
"*a 	c #2E3B17",
"=a 	c #23310E",
"-a 	c #324911",
";a 	c #3B4A17",
">a 	c #49581F",
",a 	c #323F15",
"'a 	c #242B0D",
")a 	c #324715",
"!a 	c #283610",
"~a 	c #4B5E2C",
"{a 	c #8B8783",
"]a 	c #605A54",
"^a 	c #59634C",
"/a 	c #9A9894",
"(a 	c #84807C",
"_a 	c #7E7A75",
":a 	c #BDBCB7",
"<a 	c #918E88",
"[a 	c #66605A",
"}a 	c #6B6561",
"|a 	c #B7B5B2",
"1a 	c #A2A09B",
"2a 	c #7E7E71",
"3a 	c #7A7871",
"4a 	c #D1D0CC",
"5a 	c #CACAC2",
"6a 	c #9A9A8F",
"7a 	c #A6A89B",
"8a 	c #828476",
"9a 	c #95968D",
"0a 	c #79746F",
"aa 	c #A29F9B",
"ba 	c #2C4214",
"ca 	c #263911",
"da 	c #9F9E95",
"ea 	c #606153",
"fa 	c #3D521B",
"ga 	c #435914",
"ha 	c #47691A",
"ia 	c #2D4118",
"ja 	c #21310F",
"ka 	c #2F4513",
"la 	c #212A0D",
"ma 	c #2D4015",
"na 	c #3C4D15",
"oa 	c #253310",
"pa 	c #3A4A15",
"qa 	c #2A2E10",
"ra 	c #373F16",
"sa 	c #383E17",
"ta 	c #272E13",
"ua 	c #1B200C",
"va 	c #373A16",
"wa 	c #2E3C12",
"xa 	c #293A13",
"ya 	c #1E290B",
"za 	c #2B390E",
"Aa 	c #485B18",
"Ba 	c #3E5317",
"Ca 	c #3B5318",
"Da 	c #29310F",
"Ea 	c #3C4D13",
"Fa 	c #3E5816",
"Ga 	c #1E2A0B",
"Ha 	c #2B4110",
"Ia 	c #425327",
"Ja 	c #495136",
"Ka 	c #78766E",
"La 	c #8F8C87",
"Ma 	c #97948F",
"Na 	c #BEBDB9",
"Oa 	c #16200A",
"Pa 	c #151D08",
"Qa 	c #1A220A",
"Ra 	c #212C0C",
"Sa 	c #304012",
"Ta 	c #1D1F0A",
"Ua 	c #242C0D",
"Va 	c #42581C",
"Wa 	c #353616",
"Xa 	c #342E16",
"Ya 	c #212E0E",
"Za 	c #1B2A0C",
"`a 	c #344612",
" b 	c #596449",
".b 	c #7B7D70",
"+b 	c #B3B1AC",
"@b 	c #93908C",
"#b 	c #A5A39F",
"$b 	c #4F5443",
"%b 	c #29351B",
"&b 	c #635C55",
"*b 	c #94918D",
"=b 	c #66615C",
"-b 	c #86837E",
";b 	c #5C5650",
">b 	c #6D6863",
",b 	c #BEBCB8",
"'b 	c #242A13",
")b 	c #75726C",
"!b 	c #D5D4CF",
"~b 	c #898780",
"{b 	c #95938D",
"]b 	c #B3B2AC",
"^b 	c #6E6A65",
"/b 	c #898781",
"(b 	c #525340",
"_b 	c #41621B",
":b 	c #3B4E1F",
"<b 	c #656359",
"[b 	c #8F9084",
"}b 	c #788061",
"|b 	c #354C17",
"1b 	c #466119",
"2b 	c #446218",
"3b 	c #3C5718",
"4b 	c #415F19",
"5b 	c #2F3D14",
"6b 	c #352F16",
"7b 	c #3C421A",
"8b 	c #2F3512",
"9b 	c #2A3910",
"0b 	c #21270A",
"ab 	c #313E15",
"bb 	c #283710",
"cb 	c #354415",
"db 	c #2E3A12",
"eb 	c #272E10",
"fb 	c #242B0F",
"gb 	c #2B3714",
"hb 	c #20260F",
"ib 	c #23230E",
"jb 	c #364A1C",
"kb 	c #324616",
"lb 	c #404D17",
"mb 	c #2A2E11",
"nb 	c #2B1F10",
"ob 	c #3C3A17",
"pb 	c #232D0D",
"qb 	c #4B5822",
"rb 	c #51573D",
"sb 	c #323A1F",
"tb 	c #313F10",
"ub 	c #555A48",
"vb 	c #625D58",
"wb 	c #9A9792",
"xb 	c #8A8782",
"yb 	c #94908B",
"zb 	c #736D67",
"Ab 	c #7D7E72",
"Bb 	c #3F611A",
"Cb 	c #CBCAC6",
"Db 	c #9F9E97",
"Eb 	c #6D6E60",
"Fb 	c #33361E",
"Gb 	c #30381A",
"Hb 	c #242D0F",
"Ib 	c #262D0F",
"Jb 	c #18230A",
"Kb 	c #3F4C2C",
"Lb 	c #83817C",
"Mb 	c #726E6A",
"Nb 	c #7D7771",
"Ob 	c #D0CFCA",
"Pb 	c #C8C7C2",
"Qb 	c #94908C",
"Rb 	c #6A635D",
"Sb 	c #75716B",
"Tb 	c #304E13",
"Ub 	c #5B534B",
"Vb 	c #A39E99",
"Wb 	c #87837F",
"Xb 	c #7B756F",
"Yb 	c #5B534A",
"Zb 	c #5F5851",
"`b 	c #817E79",
" c 	c #A3A19A",
".c 	c #5B6547",
"+c 	c #555147",
"@c 	c #CECDC9",
"#c 	c #C2C1BC",
"$c 	c #938F8A",
"%c 	c #78746C",
"&c 	c #646159",
"*c 	c #4B5838",
"=c 	c #222D0B",
"-c 	c #375016",
";c 	c #485130",
">c 	c #6F7163",
",c 	c #333C25",
"'c 	c #3A4F15",
")c 	c #4E651E",
"!c 	c #3A5314",
"~c 	c #2D4515",
"{c 	c #486A1C",
"]c 	c #364712",
"^c 	c #302F17",
"/c 	c #241F10",
"(c 	c #2B2A13",
"_c 	c #303513",
":c 	c #27350F",
"<c 	c #2C3210",
"[c 	c #344017",
"}c 	c #2F3F11",
"|c 	c #384515",
"1c 	c #2F3611",
"2c 	c #3B5218",
"3c 	c #343B15",
"4c 	c #27260F",
"5c 	c #2F2B15",
"6c 	c #2C3414",
"7c 	c #2D3E0F",
"8c 	c #3D5319",
"9c 	c #353613",
"0c 	c #342615",
"ac 	c #322213",
"bc 	c #303314",
"cc 	c #303F18",
"dc 	c #4D5E24",
"ec 	c #3A4F1C",
"fc 	c #486122",
"gc 	c #384513",
"hc 	c #42581A",
"ic 	c #4B6820",
"jc 	c #5E5850",
"kc 	c #9D9B97",
"lc 	c #918F8A",
"mc 	c #97938E",
"nc 	c #D3D1CE",
"oc 	c #B0AEAB",
"pc 	c #555C48",
"qc 	c #78746F",
"rc 	c #CCCAC6",
"sc 	c #B8B6B2",
"tc 	c #9B9892",
"uc 	c #88877C",
"vc 	c #8A8779",
"wc 	c #484B36",
"xc 	c #212A09",
"yc 	c #28370E",
"zc 	c #636956",
"Ac 	c #65605A",
"Bc 	c #68635E",
"Cc 	c #7A7570",
"Dc 	c #706A65",
"Ec 	c #AEABA7",
"Fc 	c #CDCBC7",
"Gc 	c #61724C",
"Hc 	c #365019",
"Ic 	c #545747",
"Jc 	c #4F4841",
"Kc 	c #5A534D",
"Lc 	c #7A7671",
"Mc 	c #A4A39E",
"Nc 	c #565049",
"Oc 	c #87867B",
"Pc 	c #3C441A",
"Qc 	c #324114",
"Rc 	c #405B19",
"Sc 	c #595548",
"Tc 	c #BAB8B4",
"Uc 	c #C5C4C0",
"Vc 	c #6B685E",
"Wc 	c #3C3E2D",
"Xc 	c #555D46",
"Yc 	c #405A17",
"Zc 	c #3E5618",
"`c 	c #2F4515",
" d 	c #3F5323",
".d 	c #545F40",
"+d 	c #263411",
"@d 	c #283311",
"#d 	c #3A4214",
"$d 	c #2E2716",
"%d 	c #222010",
"&d 	c #33391B",
"*d 	c #2C3B10",
"=d 	c #2A2F11",
"-d 	c #394A16",
";d 	c #3B5417",
">d 	c #293A11",
",d 	c #313B15",
"'d 	c #475E21",
")d 	c #25230F",
"!d 	c #3A3819",
"~d 	c #2C2813",
"{d 	c #38411B",
"]d 	c #3C4218",
"^d 	c #464A1D",
"/d 	c #48461F",
"(d 	c #513C23",
"_d 	c #302112",
":d 	c #5D4728",
"<d 	c #3B4C18",
"[d 	c #313F13",
"}d 	c #526A1F",
"|d 	c #47601A",
"1d 	c #577528",
"2d 	c #564F47",
"3d 	c #88847F",
"4d 	c #645F59",
"5d 	c #CFCECA",
"6d 	c #CBC9C5",
"7d 	c #C7C5C1",
"8d 	c #2A3619",
"9d 	c #84817C",
"0d 	c #C2C1BD",
"ad 	c #B2B0AC",
"bd 	c #74716C",
"cd 	c #66675A",
"dd 	c #5D634E",
"ed 	c #3C471F",
"fd 	c #2C4314",
"gd 	c #1F2416",
"hd 	c #3C531D",
"id 	c #626453",
"jd 	c #67615B",
"kd 	c #7B756E",
"ld 	c #78736D",
"md 	c #85827A",
"nd 	c #95918C",
"od 	c #95938F",
"pd 	c #7B806F",
"qd 	c #4E682D",
"rd 	c #253A0F",
"sd 	c #344D11",
"td 	c #354D12",
"ud 	c #47483A",
"vd 	c #514D43",
"wd 	c #9D9994",
"xd 	c #99958F",
"yd 	c #554C43",
"zd 	c #344915",
"Ad 	c #2E4212",
"Bd 	c #47581C",
"Cd 	c #4A4334",
"Dd 	c #5F564D",
"Ed 	c #7E7973",
"Fd 	c #726D67",
"Gd 	c #5F5D52",
"Hd 	c #566634",
"Id 	c #2C4114",
"Jd 	c #324316",
"Kd 	c #7B7F6E",
"Ld 	c #96938E",
"Md 	c #374127",
"Nd 	c #3B5115",
"Od 	c #2E4614",
"Pd 	c #2F3E11",
"Qd 	c #344A17",
"Rd 	c #385519",
"Sd 	c #304812",
"Td 	c #344916",
"Ud 	c #405E1A",
"Vd 	c #313814",
"Wd 	c #3B3F18",
"Xd 	c #323F12",
"Yd 	c #3F571A",
"Zd 	c #2B2511",
"`d 	c #252812",
" e 	c #2D2B17",
".e 	c #2D2D15",
"+e 	c #3A491E",
"@e 	c #343714",
"#e 	c #383F17",
"$e 	c #465C1D",
"%e 	c #334615",
"&e 	c #2D3813",
"*e 	c #44501C",
"=e 	c #565723",
"-e 	c #312E16",
";e 	c #393319",
">e 	c #312A13",
",e 	c #514527",
"'e 	c #463B24",
")e 	c #363D1A",
"!e 	c #2E2F16",
"~e 	c #37321A",
"{e 	c #3C311B",
"]e 	c #322414",
"^e 	c #3A2F19",
"/e 	c #352718",
"(e 	c #2F2314",
"_e 	c #3E301D",
":e 	c #312817",
"<e 	c #3B4619",
"[e 	c #3B4D15",
"}e 	c #2B3612",
"|e 	c #384516",
"1e 	c #384613",
"2e 	c #434F1B",
"3e 	c #697A42",
"4e 	c #4A4537",
"5e 	c #79756C",
"6e 	c #999892",
"7e 	c #807B76",
"8e 	c #A2A29B",
"9e 	c #1C220B",
"0e 	c #58524C",
"ae 	c #766F68",
"be 	c #525647",
"ce 	c #3A4926",
"de 	c #222C0F",
"ee 	c #2B3511",
"fe 	c #929088",
"ge 	c #9A9D88",
"he 	c #52523C",
"ie 	c #676259",
"je 	c #564D45",
"ke 	c #5E5750",
"le 	c #49433A",
"me 	c #434033",
"ne 	c #464B33",
"oe 	c #22360F",
"pe 	c #395416",
"qe 	c #49651D",
"re 	c #21340D",
"se 	c #334F15",
"te 	c #313E14",
"ue 	c #394C20",
"ve 	c #4D602C",
"we 	c #555F39",
"xe 	c #535C43",
"ye 	c #1F2A0C",
"ze 	c #425015",
"Ae 	c #57554B",
"Be 	c #BDBBB7",
"Ce 	c #85817C",
"De 	c #5F6451",
"Ee 	c #334516",
"Fe 	c #425B19",
"Ge 	c #3E4A2D",
"He 	c #676459",
"Ie 	c #736F67",
"Je 	c #616156",
"Ke 	c #151C08",
"Le 	c #2E3D14",
"Me 	c #364514",
"Ne 	c #334311",
"Oe 	c #212F0F",
"Pe 	c #2A4212",
"Qe 	c #27380F",
"Re 	c #2F4111",
"Se 	c #262E11",
"Te 	c #3F471E",
"Ue 	c #282A15",
"Ve 	c #21280F",
"We 	c #1E260E",
"Xe 	c #353E19",
"Ye 	c #2C2E15",
"Ze 	c #2C2B13",
"`e 	c #252A12",
" f 	c #2C2D13",
".f 	c #3C571D",
"+f 	c #45601A",
"@f 	c #354915",
"#f 	c #303411",
"$f 	c #546D23",
"%f 	c #466122",
"&f 	c #202A0E",
"*f 	c #2E3316",
"=f 	c #6F6039",
"-f 	c #364318",
";f 	c #2B2513",
">f 	c #37321D",
",f 	c #4A3C25",
"'f 	c #434122",
")f 	c #352818",
"!f 	c #36361A",
"~f 	c #283514",
"{f 	c #2C3513",
"]f 	c #2C3714",
"^f 	c #404919",
"/f 	c #3D431A",
"(f 	c #353F16",
"_f 	c #324215",
":f 	c #272D0E",
"<f 	c #3E5522",
"[f 	c #5F664D",
"}f 	c #87857D",
"|f 	c #787570",
"1f 	c #635F55",
"2f 	c #7A746E",
"3f 	c #97928D",
"4f 	c #A4A09B",
"5f 	c #919187",
"6f 	c #9C9C94",
"7f 	c #2B3412",
"8f 	c #2D3518",
"9f 	c #22380E",
"0f 	c #18210A",
"af 	c #5C5E51",
"bf 	c #706B66",
"cf 	c #ACA9A4",
"df 	c #3E492F",
"ef 	c #272D11",
"ff 	c #3D3B1F",
"gf 	c #3E392D",
"hf 	c #52483F",
"if 	c #5C5A4A",
"jf 	c #313C1B",
"kf 	c #2C2911",
"lf 	c #2B3514",
"mf 	c #344912",
"nf 	c #506D1A",
"of 	c #1A270B",
"pf 	c #141D06",
"qf 	c #334716",
"rf 	c #2B3910",
"sf 	c #3E5515",
"tf 	c #435018",
"uf 	c #5D5A53",
"vf 	c #706E66",
"wf 	c #3A4826",
"xf 	c #2F4711",
"yf 	c #25310C",
"zf 	c #667151",
"Af 	c #ABADA2",
"Bf 	c #9F9C96",
"Cf 	c #77756B",
"Df 	c #B2B1AC",
"Ef 	c #2D3321",
"Ff 	c #263510",
"Gf 	c #435E17",
"Hf 	c #1A2B0B",
"If 	c #22350E",
"Jf 	c #3E5619",
"Kf 	c #415A18",
"Lf 	c #2D3B16",
"Mf 	c #292813",
"Nf 	c #303E16",
"Of 	c #20270E",
"Pf 	c #283418",
"Qf 	c #3F5B1C",
"Rf 	c #1D260B",
"Sf 	c #3A5A19",
"Tf 	c #394917",
"Uf 	c #21290F",
"Vf 	c #3D4F16",
"Wf 	c #3C4E1A",
"Xf 	c #334B16",
"Yf 	c #393B14",
"Zf 	c #363D14",
"`f 	c #2C2914",
" g 	c #3C3B1B",
".g 	c #494222",
"+g 	c #354118",
"@g 	c #373D1F",
"#g 	c #2C2A17",
"$g 	c #2D2714",
"%g 	c #282613",
"&g 	c #2A2C16",
"*g 	c #262B15",
"=g 	c #2D3D19",
"-g 	c #465923",
";g 	c #19230C",
">g 	c #303912",
",g 	c #322914",
"'g 	c #363B17",
")g 	c #3C481B",
"!g 	c #304214",
"~g 	c #2D3E12",
"{g 	c #202C0B",
"]g 	c #405B1E",
"^g 	c #4D5A37",
"/g 	c #575E3A",
"(g 	c #3A3727",
"_g 	c #2F2B20",
":g 	c #342E24",
"<g 	c #4B453D",
"[g 	c #4F4A3C",
"}g 	c #596049",
"|g 	c #222D0D",
"1g 	c #1E2A0C",
"2g 	c #1F2C0E",
"3g 	c #2E4913",
"4g 	c #3A5013",
"5g 	c #7D7E74",
"6g 	c #8D8B85",
"7g 	c #645D56",
"8g 	c #5F5750",
"9g 	c #8C8C83",
"0g 	c #262C0F",
"ag 	c #2D2A14",
"bg 	c #22220E",
"cg 	c #382A17",
"dg 	c #473D32",
"eg 	c #3A461B",
"fg 	c #283411",
"gg 	c #323E18",
"hg 	c #1E2E0C",
"ig 	c #3E5C17",
"jg 	c #253C0F",
"kg 	c #2A4311",
"lg 	c #273E11",
"mg 	c #263C11",
"ng 	c #233310",
"og 	c #365014",
"pg 	c #49651A",
"qg 	c #3B4B14",
"rg 	c #48443C",
"sg 	c #474B37",
"tg 	c #263711",
"ug 	c #4B6F1B",
"vg 	c #898F76",
"wg 	c #A8A99F",
"xg 	c #AAAAA3",
"yg 	c #76746B",
"zg 	c #79766E",
"Ag 	c #959C87",
"Bg 	c #3B4914",
"Cg 	c #1F2E0F",
"Dg 	c #334517",
"Eg 	c #2D3B13",
"Fg 	c #3F5417",
"Gg 	c #2D410F",
"Hg 	c #304915",
"Ig 	c #2A4114",
"Jg 	c #2F4014",
"Kg 	c #303515",
"Lg 	c #47591F",
"Mg 	c #2B3411",
"Ng 	c #395A17",
"Og 	c #324412",
"Pg 	c #2F4413",
"Qg 	c #374114",
"Rg 	c #4D5A22",
"Sg 	c #3C3F1B",
"Tg 	c #312F17",
"Ug 	c #574C2C",
"Vg 	c #2A2C14",
"Wg 	c #3A3317",
"Xg 	c #303617",
"Yg 	c #2E3617",
"Zg 	c #2D3517",
"`g 	c #253712",
" h 	c #223011",
".h 	c #364A1A",
"+h 	c #231E0C",
"@h 	c #3E3519",
"#h 	c #373E18",
"$h 	c #37441D",
"%h 	c #293711",
"&h 	c #263613",
"*h 	c #293415",
"=h 	c #1C210D",
"-h 	c #374917",
";h 	c #2A2F13",
">h 	c #1B2209",
",h 	c #212911",
"'h 	c #3A451A",
")h 	c #272F10",
"!h 	c #273112",
"~h 	c #253812",
"{h 	c #2C3F12",
"]h 	c #161F09",
"^h 	c #52533F",
"/h 	c #5A544E",
"(h 	c #A5A59D",
"_h 	c #323121",
":h 	c #2E391A",
"<h 	c #222E0D",
"[h 	c #1D250C",
"}h 	c #25380E",
"|h 	c #345015",
"1h 	c #141C09",
"2h 	c #3B5315",
"3h 	c #3B4B13",
"4h 	c #2F3812",
"5h 	c #2C3F13",
"6h 	c #3A4927",
"7h 	c #737069",
"8h 	c #605952",
"9h 	c #93918B",
"0h 	c #9D9D94",
"ah 	c #A4A29C",
"bh 	c #5F5D54",
"ch 	c #3D4D27",
"dh 	c #334B17",
"eh 	c #4E6721",
"fh 	c #415217",
"gh 	c #3E5818",
"hh 	c #273911",
"ih 	c #363B18",
"jh 	c #273C12",
"kh 	c #334C14",
"lh 	c #344519",
"mh 	c #334E15",
"nh 	c #344817",
"oh 	c #23370F",
"ph 	c #354F16",
"qh 	c #2D4510",
"rh 	c #212A0F",
"sh 	c #42591A",
"th 	c #5D5928",
"uh 	c #505E26",
"vh 	c #3D521A",
"wh 	c #262410",
"xh 	c #353A16",
"yh 	c #2D2312",
"zh 	c #4A3921",
"Ah 	c #453F23",
"Bh 	c #3C3B1C",
"Ch 	c #475722",
"Dh 	c #253811",
"Eh 	c #2A3A17",
"Fh 	c #2B3C16",
"Gh 	c #47611D",
"Hh 	c #3B4818",
"Ih 	c #28240F",
"Jh 	c #2A2611",
"Kh 	c #303619",
"Lh 	c #33401A",
"Mh 	c #312814",
"Nh 	c #2A3011",
"Oh 	c #47391E",
"Ph 	c #1E190B",
"Qh 	c #2E2312",
"Rh 	c #2E3513",
"Sh 	c #263212",
"Th 	c #405B14",
"Uh 	c #36431A",
"Vh 	c #807C77",
"Wh 	c #979490",
"Xh 	c #74706A",
"Yh 	c #595149",
"Zh 	c #79786F",
"`h 	c #344714",
" i 	c #243011",
".i 	c #23300F",
"+i 	c #171C0A",
"@i 	c #344810",
"#i 	c #3E5E19",
"$i 	c #2A3A12",
"%i 	c #304212",
"&i 	c #334810",
"*i 	c #687552",
"=i 	c #6F6B64",
"-i 	c #AAAAA4",
";i 	c #B2B2AC",
">i 	c #6D6B61",
",i 	c #7F7D77",
"'i 	c #929189",
")i 	c #626355",
"!i 	c #212C0F",
"~i 	c #354412",
"{i 	c #41611A",
"]i 	c #365317",
"^i 	c #3B4D17",
"/i 	c #3A5014",
"(i 	c #364714",
"_i 	c #2D3413",
":i 	c #304015",
"<i 	c #484F1B",
"[i 	c #2B4214",
"}i 	c #3B5D19",
"|i 	c #3A5817",
"1i 	c #273F11",
"2i 	c #2E3B14",
"3i 	c #46492F",
"4i 	c #3A391C",
"5i 	c #2A2A12",
"6i 	c #343B17",
"7i 	c #3E371C",
"8i 	c #382C18",
"9i 	c #2A1D11",
"0i 	c #2A2415",
"ai 	c #39301C",
"bi 	c #2E3417",
"ci 	c #2A3516",
"di 	c #283913",
"ei 	c #2F2915",
"fi 	c #464B1E",
"gi 	c #21200C",
"hi 	c #383116",
"ii 	c #232513",
"ji 	c #445A23",
"ki 	c #222B13",
"li 	c #222E10",
"mi 	c #324917",
"ni 	c #3A5318",
"oi 	c #2E3414",
"pi 	c #374C17",
"qi 	c #3E4019",
"ri 	c #322714",
"si 	c #2F2D14",
"ti 	c #2A1C10",
"ui 	c #2B3013",
"vi 	c #375318",
"wi 	c #3D5520",
"xi 	c #7B7973",
"yi 	c #807B75",
"zi 	c #9E9D97",
"Ai 	c #A5A59E",
"Bi 	c #2D281E",
"Ci 	c #273210",
"Di 	c #1D2A0C",
"Ei 	c #344716",
"Fi 	c #355014",
"Gi 	c #43621B",
"Hi 	c #21290E",
"Ii 	c #24320C",
"Ji 	c #40601A",
"Ki 	c #2C4310",
"Li 	c #3F5819",
"Mi 	c #3D5315",
"Ni 	c #1D2A0B",
"Oi 	c #20320E",
"Pi 	c #484A3A",
"Qi 	c #B6B5B0",
"Ri 	c #CCCBC6",
"Si 	c #B6B7AF",
"Ti 	c #C1BFBB",
"Ui 	c #898982",
"Vi 	c #97978D",
"Wi 	c #848379",
"Xi 	c #76756B",
"Yi 	c #7D7F71",
"Zi 	c #394D1F",
"`i 	c #1C2B0C",
" j 	c #354C14",
".j 	c #212C0D",
"+j 	c #294211",
"@j 	c #253A11",
"#j 	c #334816",
"$j 	c #45441D",
"%j 	c #44451E",
"&j 	c #394714",
"*j 	c #334119",
"=j 	c #354C1E",
"-j 	c #2F4B13",
";j 	c #2E4911",
">j 	c #46611B",
",j 	c #2C3613",
"'j 	c #253110",
")j 	c #2F4214",
"!j 	c #374A17",
"~j 	c #36381A",
"{j 	c #40421E",
"]j 	c #3E431E",
"^j 	c #645931",
"/j 	c #2A2A15",
"(j 	c #2E3215",
"_j 	c #1F2D0E",
":j 	c #242D0E",
"<j 	c #374814",
"[j 	c #3D3D1A",
"}j 	c #28200E",
"|j 	c #261E0E",
"1j 	c #39451C",
"2j 	c #4E6720",
"3j 	c #26320E",
"4j 	c #374F18",
"5j 	c #354418",
"6j 	c #252D10",
"7j 	c #2B2F11",
"8j 	c #2B2912",
"9j 	c #2A2F14",
"0j 	c #395116",
"aj 	c #2F3E17",
"bj 	c #37491E",
"cj 	c #A4A19E",
"dj 	c #C9C8C3",
"ej 	c #565848",
"fj 	c #2E4514",
"gj 	c #293C0E",
"hj 	c #486719",
"ij 	c #202A0A",
"jj 	c #435B18",
"kj 	c #33391E",
"lj 	c #9B9793",
"mj 	c #D2D1CD",
"nj 	c #C0C1B8",
"oj 	c #A9ACA1",
"pj 	c #A1A497",
"qj 	c #9A9D91",
"rj 	c #A6A69D",
"sj 	c #79776E",
"tj 	c #6E6D62",
"uj 	c #807B74",
"vj 	c #96948F",
"wj 	c #AEAEA6",
"xj 	c #6D775B",
"yj 	c #1A260B",
"zj 	c #172009",
"Aj 	c #2E4912",
"Bj 	c #415D17",
"Cj 	c #2B4210",
"Dj 	c #1D2E0C",
"Ej 	c #19230A",
"Fj 	c #364717",
"Gj 	c #333A14",
"Hj 	c #3E381A",
"Ij 	c #505827",
"Jj 	c #415820",
"Kj 	c #354A19",
"Lj 	c #31481B",
"Mj 	c #273D0E",
"Nj 	c #21330C",
"Oj 	c #495918",
"Pj 	c #2F4712",
"Qj 	c #405E1C",
"Rj 	c #4F7220",
"Sj 	c #2B3312",
"Tj 	c #302F15",
"Uj 	c #3B3F1C",
"Vj 	c #231E0D",
"Wj 	c #344619",
"Xj 	c #3F3D20",
"Yj 	c #2E3818",
"Zj 	c #2A3515",
"`j 	c #384018",
" k 	c #283315",
".k 	c #434F17",
"+k 	c #303815",
"@k 	c #444B1C",
"#k 	c #3B3918",
"$k 	c #3B361D",
"%k 	c #323C1C",
"&k 	c #405023",
"*k 	c #567620",
"=k 	c #283D12",
"-k 	c #3B3718",
";k 	c #363C14",
">k 	c #333914",
",k 	c #314312",
"'k 	c #3C441C",
")k 	c #314414",
"!k 	c #2E371E",
"~k 	c #96968C",
"{k 	c #8C8782",
"]k 	c #888480",
"^k 	c #707365",
"/k 	c #34351B",
"(k 	c #3E5A15",
"_k 	c #425F1A",
":k 	c #3A5415",
"<k 	c #20290D",
"[k 	c #212B10",
"}k 	c #252E0F",
"|k 	c #22300B",
"1k 	c #2F4811",
"2k 	c #1E300D",
"3k 	c #2C4510",
"4k 	c #444A1E",
"5k 	c #334A12",
"6k 	c #655D54",
"7k 	c #B9B9B3",
"8k 	c #91908A",
"9k 	c #96998B",
"0k 	c #AFB0A7",
"ak 	c #99998E",
"bk 	c #7C7C73",
"ck 	c #88867D",
"dk 	c #8D8E81",
"ek 	c #85877B",
"fk 	c #1D220E",
"gk 	c #29400F",
"hk 	c #2B3813",
"ik 	c #2A3E12",
"jk 	c #25390E",
"kk 	c #17230B",
"lk 	c #3C5E19",
"mk 	c #4F6C16",
"nk 	c #2F3613",
"ok 	c #394B19",
"pk 	c #485724",
"qk 	c #435A22",
"rk 	c #2E4616",
"sk 	c #395217",
"tk 	c #20300B",
"uk 	c #455817",
"vk 	c #314C13",
"wk 	c #344E15",
"xk 	c #384016",
"yk 	c #43471D",
"zk 	c #42311C",
"Ak 	c #2E2314",
"Bk 	c #3A411C",
"Ck 	c #35431B",
"Dk 	c #35401B",
"Ek 	c #434722",
"Fk 	c #2C2D17",
"Gk 	c #415B1E",
"Hk 	c #2C3214",
"Ik 	c #25320D",
"Jk 	c #373316",
"Kk 	c #313116",
"Lk 	c #333618",
"Mk 	c #2C2C15",
"Nk 	c #2C2D18",
"Ok 	c #29320E",
"Pk 	c #23260E",
"Qk 	c #3B5D18",
"Rk 	c #2B3712",
"Sk 	c #47621F",
"Tk 	c #2C3C13",
"Uk 	c #222910",
"Vk 	c #141B09",
"Wk 	c #425825",
"Xk 	c #93938A",
"Yk 	c #918D87",
"Zk 	c #6F6A64",
"`k 	c #666059",
" l 	c #4E473F",
".l 	c #4A483A",
"+l 	c #2E381D",
"@l 	c #24350E",
"#l 	c #3A5918",
"$l 	c #2C4513",
"%l 	c #455F18",
"&l 	c #29390F",
"*l 	c #262E13",
"=l 	c #1E250B",
"-l 	c #20310C",
";l 	c #1A240B",
">l 	c #23350E",
",l 	c #162009",
"'l 	c #304414",
")l 	c #364D11",
"!l 	c #375214",
"~l 	c #4B453B",
"{l 	c #635D53",
"]l 	c #84817B",
"^l 	c #7C7C71",
"/l 	c #A1A09A",
"(l 	c #A7A6A0",
"_l 	c #74716A",
":l 	c #78746B",
"<l 	c #9B9B91",
"[l 	c #B4B3AE",
"}l 	c #48483D",
"|l 	c #3F5418",
"1l 	c #1B270C",
"2l 	c #303D11",
"3l 	c #282810",
"4l 	c #383618",
"5l 	c #3F4E1E",
"6l 	c #303916",
"7l 	c #3D5116",
"8l 	c #232C0D",
"9l 	c #2D4113",
"0l 	c #354417",
"al 	c #302D13",
"bl 	c #372617",
"cl 	c #2D2413",
"dl 	c #625531",
"el 	c #2B2114",
"fl 	c #322718",
"gl 	c #40411F",
"hl 	c #393919",
"il 	c #363319",
"jl 	c #3D4F20",
"kl 	c #2D3219",
"ll 	c #1A2209",
"ml 	c #252C0D",
"nl 	c #292511",
"ol 	c #312F15",
"pl 	c #2D2F12",
"ql 	c #2D3016",
"rl 	c #3B391E",
"sl 	c #485723",
"tl 	c #34491D",
"ul 	c #3E5F1D",
"vl 	c #406120",
"wl 	c #588026",
"xl 	c #435D1B",
"yl 	c #3B4D19",
"zl 	c #465E18",
"Al 	c #354812",
"Bl 	c #949B82",
"Cl 	c #9B9994",
"Dl 	c #746F69",
"El 	c #676059",
"Fl 	c #485431",
"Gl 	c #1B260D",
"Hl 	c #3C4F15",
"Il 	c #2E4415",
"Jl 	c #465120",
"Kl 	c #212D12",
"Ll 	c #364323",
"Ml 	c #40472D",
"Nl 	c #40472F",
"Ol 	c #313D1D",
"Pl 	c #304614",
"Ql 	c #2A4013",
"Rl 	c #4F4C3F",
"Sl 	c #A7A99E",
"Tl 	c #B0B2A8",
"Ul 	c #AEAFA6",
"Vl 	c #242F15",
"Wl 	c #3A5718",
"Xl 	c #2F2311",
"Yl 	c #66552E",
"Zl 	c #272C13",
"`l 	c #2B3516",
" m 	c #263611",
".m 	c #3B581A",
"+m 	c #21350D",
"@m 	c #314616",
"#m 	c #384917",
"$m 	c #292211",
"%m 	c #302515",
"&m 	c #241A0F",
"*m 	c #302617",
"=m 	c #4B4326",
"-m 	c #36351B",
";m 	c #423A20",
">m 	c #38471C",
",m 	c #435519",
"'m 	c #4D4A1F",
")m 	c #363518",
"!m 	c #312A12",
"~m 	c #443F1D",
"{m 	c #3A3518",
"]m 	c #4E4D2A",
"^m 	c #696956",
"/m 	c #6B6F56",
"(m 	c #728060",
"_m 	c #72865C",
":m 	c #6A7E55",
"<m 	c #576D3D",
"[m 	c #213010",
"}m 	c #3E561D",
"|m 	c #546938",
"1m 	c #576941",
"2m 	c #6F7B5D",
"3m 	c #889369",
"4m 	c #2F381D",
"5m 	c #30410E",
"6m 	c #33401C",
"7m 	c #777169",
"8m 	c #898681",
"9m 	c #808276",
"0m 	c #557337",
"am 	c #416218",
"bm 	c #1B230C",
"cm 	c #3A5717",
"dm 	c #3C5613",
"em 	c #324E15",
"fm 	c #345016",
"gm 	c #334713",
"hm 	c #2F3C14",
"im 	c #3C411F",
"jm 	c #5F6F43",
"km 	c #697954",
"lm 	c #616A4E",
"mm 	c #666957",
"nm 	c #6C6D61",
"om 	c #848578",
"pm 	c #837F79",
"qm 	c #717266",
"rm 	c #3E462B",
"sm 	c #283515",
"tm 	c #304611",
"um 	c #1F1F0C",
"vm 	c #332F1E",
"wm 	c #6A635C",
"xm 	c #97948E",
"ym 	c #989692",
"zm 	c #ABACA3",
"Am 	c #BFBEB9",
"Bm 	c #CBCAC5",
"Cm 	c #C8C6C1",
"Dm 	c #6E7462",
"Em 	c #395414",
"Fm 	c #3A5112",
"Gm 	c #394413",
"Hm 	c #465B18",
"Im 	c #22240E",
"Jm 	c #2D2E18",
"Km 	c #2F3119",
"Lm 	c #252D15",
"Mm 	c #1E290E",
"Nm 	c #283912",
"Om 	c #2E4612",
"Pm 	c #27380E",
"Qm 	c #41641B",
"Rm 	c #223111",
"Sm 	c #313D13",
"Tm 	c #2B2C12",
"Um 	c #413420",
"Vm 	c #21190F",
"Wm 	c #1F1D0F",
"Xm 	c #4D3C23",
"Ym 	c #3A411D",
"Zm 	c #3C4C22",
"`m 	c #1F230F",
" n 	c #28290E",
".n 	c #41381C",
"+n 	c #4B461F",
"@n 	c #332A15",
"#n 	c #3A3917",
"$n 	c #403D23",
"%n 	c #9B9E86",
"&n 	c #AEAF9E",
"*n 	c #A4A69A",
"=n 	c #B1B2A9",
"-n 	c #ADB3A2",
";n 	c #B3B4AB",
">n 	c #6C735D",
",n 	c #3B4929",
"'n 	c #89847E",
")n 	c #767069",
"!n 	c #40472E",
"~n 	c #5B574D",
"{n 	c #515C2F",
"]n 	c #485D1B",
"^n 	c #406519",
"/n 	c #202B0E",
"(n 	c #222F0D",
"_n 	c #131C09",
":n 	c #365015",
"<n 	c #3B5518",
"[n 	c #2E3412",
"}n 	c #29330F",
"|n 	c #2B2D17",
"1n 	c #6C6A5D",
"2n 	c #ACACA4",
"3n 	c #A3A09B",
"4n 	c #736D66",
"5n 	c #615B55",
"6n 	c #545447",
"7n 	c #626D50",
"8n 	c #455D2A",
"9n 	c #283D0F",
"0n 	c #2F3A11",
"an 	c #456117",
"bn 	c #2C2611",
"cn 	c #2F2C17",
"dn 	c #564E45",
"en 	c #888581",
"fn 	c #69645E",
"gn 	c #5D574F",
"hn 	c #7C7972",
"in 	c #A3A09C",
"jn 	c #ACABA6",
"kn 	c #636C55",
"ln 	c #253C10",
"mn 	c #324D13",
"nn 	c #334515",
"on 	c #504E21",
"pn 	c #374915",
"qn 	c #436419",
"rn 	c #314317",
"sn 	c #314118",
"tn 	c #2F3F1B",
"un 	c #2E3D1B",
"vn 	c #31401B",
"wn 	c #26330D",
"xn 	c #384C16",
"yn 	c #3C451A",
"zn 	c #252F12",
"An 	c #283317",
"Bn 	c #2D2F1A",
"Cn 	c #262E14",
"Dn 	c #54502B",
"En 	c #32351D",
"Fn 	c #3D351F",
"Gn 	c #312A14",
"Hn 	c #3B3C19",
"In 	c #44411D",
"Jn 	c #2A2014",
"Kn 	c #545346",
"Ln 	c #817E73",
"Mn 	c #7B7A6F",
"Nn 	c #97948C",
"On 	c #9A9A92",
"Pn 	c #858779",
"Qn 	c #757269",
"Rn 	c #7D8570",
"Sn 	c #535849",
"Tn 	c #534D46",
"Un 	c #736E68",
"Vn 	c #615951",
"Wn 	c #8B897E",
"Xn 	c #46592E",
"Yn 	c #2D4210",
"Zn 	c #3F5C15",
"`n 	c #436619",
" o 	c #1B290B",
".o 	c #2E400E",
"+o 	c #2B2F12",
"@o 	c #3B4319",
"#o 	c #262611",
"$o 	c #474238",
"%o 	c #78756F",
"&o 	c #828279",
"*o 	c #5B5D50",
"=o 	c #4A6030",
"-o 	c #324D17",
";o 	c #475C1B",
">o 	c #4A5A22",
",o 	c #282816",
"'o 	c #4A433B",
")o 	c #827F7A",
"!o 	c #655F59",
"~o 	c #82827A",
"{o 	c #B7B6B2",
"]o 	c #6C6963",
"^o 	c #283018",
"/o 	c #24340D",
"(o 	c #25310E",
"_o 	c #1F270C",
":o 	c #253511",
"<o 	c #1A220C",
"[o 	c #3D5918",
"}o 	c #334C13",
"|o 	c #2D3914",
"1o 	c #3C4A20",
"2o 	c #314113",
"3o 	c #304018",
"4o 	c #313917",
"5o 	c #312515",
"6o 	c #322717",
"7o 	c #353B1D",
"8o 	c #262E12",
"9o 	c #434D20",
"0o 	c #2D2E16",
"ao 	c #2C2B14",
"bo 	c #272410",
"co 	c #4C4D3E",
"do 	c #838278",
"eo 	c #878279",
"fo 	c #A2A797",
"go 	c #B9BBB0",
"ho 	c #A6A49E",
"io 	c #5A5E4F",
"jo 	c #1F300E",
"ko 	c #6C6D62",
"lo 	c #7C7670",
"mo 	c #8D8A86",
"no 	c #76716C",
"oo 	c #4E533E",
"po 	c #39462A",
"qo 	c #646754",
"ro 	c #6A6C5C",
"so 	c #686F58",
"to 	c #505341",
"uo 	c #555847",
"vo 	c #767F69",
"wo 	c #838B76",
"xo 	c #808773",
"yo 	c #7C8869",
"zo 	c #16210A",
"Ao 	c #344114",
"Bo 	c #333416",
"Co 	c #303015",
"Do 	c #3A3B18",
"Eo 	c #393119",
"Fo 	c #312714",
"Go 	c #262313",
"Ho 	c #534E44",
"Io 	c #47462D",
"Jo 	c #2F3E18",
"Ko 	c #2E4112",
"Lo 	c #333B13",
"Mo 	c #22220F",
"No 	c #88847D",
"Oo 	c #585148",
"Po 	c #6B655E",
"Qo 	c #615A54",
"Ro 	c #6A655E",
"So 	c #928F89",
"To 	c #66625C",
"Uo 	c #374B21",
"Vo 	c #2C3E13",
"Wo 	c #425E17",
"Xo 	c #20310F",
"Yo 	c #3A5312",
"Zo 	c #1E280C",
"`o 	c #2D3C14",
" p 	c #1C290A",
".p 	c #3F5716",
"+p 	c #49611D",
"@p 	c #4B631D",
"#p 	c #29380F",
"$p 	c #364014",
"%p 	c #2E3612",
"&p 	c #3A2C18",
"*p 	c #3C2C19",
"=p 	c #39391C",
"-p 	c #3F5821",
";p 	c #1B1F0C",
">p 	c #525241",
",p 	c #7C7B72",
"'p 	c #78776E",
")p 	c #909086",
"!p 	c #9A9691",
"~p 	c #88887F",
"{p 	c #919188",
"]p 	c #7F8075",
"^p 	c #6A6D5F",
"/p 	c #23390F",
"(p 	c #9F9D99",
"_p 	c #344322",
":p 	c #617349",
"<p 	c #B5B2AE",
"[p 	c #A8A5A1",
"}p 	c #A19E99",
"|p 	c #8C8781",
"1p 	c #817B75",
"2p 	c #B7B6B1",
"3p 	c #4F6139",
"4p 	c #2C3611",
"5p 	c #2A3313",
"6p 	c #3D321A",
"7p 	c #3A4318",
"8p 	c #2F3818",
"9p 	c #3F3C1B",
"0p 	c #333118",
"ap 	c #323A16",
"bp 	c #1A280A",
"cp 	c #314510",
"dp 	c #1A210B",
"ep 	c #303913",
"fp 	c #42491D",
"gp 	c #394815",
"hp 	c #333F16",
"ip 	c #2F2913",
"jp 	c #39381B",
"kp 	c #4E493E",
"lp 	c #868179",
"mp 	c #858079",
"np 	c #6A645C",
"op 	c #5F5951",
"pp 	c #655F56",
"qp 	c #A1A097",
"rp 	c #565147",
"sp 	c #3F5024",
"tp 	c #3C5116",
"up 	c #394515",
"vp 	c #425515",
"wp 	c #4D6E20",
"xp 	c #365415",
"yp 	c #2B4313",
"zp 	c #293B11",
"Ap 	c #2B3912",
"Bp 	c #334915",
"Cp 	c #2F3C12",
"Dp 	c #2F4011",
"Ep 	c #324916",
"Fp 	c #3E561A",
"Gp 	c #3C4317",
"Hp 	c #2C2E10",
"Ip 	c #2E3512",
"Jp 	c #302913",
"Kp 	c #424019",
"Lp 	c #3D2E19",
"Mp 	c #322614",
"Np 	c #3E351B",
"Op 	c #39361D",
"Pp 	c #39491C",
"Qp 	c #2F3D1A",
"Rp 	c #435D20",
"Sp 	c #3A3C29",
"Tp 	c #5B574F",
"Up 	c #9A9991",
"Vp 	c #BCBEB1",
"Wp 	c #8B8982",
"Xp 	c #6E6F62",
"Yp 	c #8E8D87",
"Zp 	c #D1CFCB",
"`p 	c #99A287",
" q 	c #B4B3AF",
".q 	c #C7C6C2",
"+q 	c #76746C",
"@q 	c #837F77",
"#q 	c #C7C8BF",
"$q 	c #BAB9B4",
"%q 	c #374F12",
"&q 	c #586744",
"*q 	c #999793",
"=q 	c #B5B2AD",
"-q 	c #75706A",
";q 	c #6D665F",
">q 	c #7A7670",
",q 	c #817D78",
"'q 	c #666F55",
")q 	c #2D4010",
"!q 	c #1C2B0B",
"~q 	c #2E4116",
"{q 	c #2A3717",
"]q 	c #3A3F1D",
"^q 	c #313F19",
"/q 	c #323816",
"(q 	c #364919",
"_q 	c #384C19",
":q 	c #313D18",
"<q 	c #40451D",
"[q 	c #2E3310",
"}q 	c #2E3011",
"|q 	c #263A0E",
"1q 	c #2B3D12",
"2q 	c #253116",
"3q 	c #46531F",
"4q 	c #302D14",
"5q 	c #302E16",
"6q 	c #5F5D4A",
"7q 	c #AAA69C",
"8q 	c #A4A098",
"9q 	c #837E77",
"0q 	c #7F7B72",
"aq 	c #5F5A53",
"bq 	c #4B433B",
"cq 	c #807F74",
"dq 	c #636255",
"eq 	c #374B12",
"fq 	c #3D4A13",
"gq 	c #2E3811",
"hq 	c #314A15",
"iq 	c #24280F",
"jq 	c #37481B",
"kq 	c #3B5819",
"lq 	c #2A3D0D",
"mq 	c #3E5719",
"nq 	c #435517",
"oq 	c #333114",
"pq 	c #353A17",
"qq 	c #343D16",
"rq 	c #2B3513",
"sq 	c #49421E",
"tq 	c #5C482B",
"uq 	c #634F2E",
"vq 	c #352C17",
"wq 	c #38371B",
"xq 	c #39461B",
"yq 	c #313D17",
"zq 	c #394E18",
"Aq 	c #374E11",
"Bq 	c #454234",
"Cq 	c #584F45",
"Dq 	c #9E9C94",
"Eq 	c #ADACA7",
"Fq 	c #969490",
"Gq 	c #A09B95",
"Hq 	c #969D89",
"Iq 	c #272E18",
"Jq 	c #5E584F",
"Kq 	c #595147",
"Lq 	c #68645D",
"Mq 	c #59524A",
"Nq 	c #706C64",
"Oq 	c #696960",
"Pq 	c #556C36",
"Qq 	c #8D8985",
"Rq 	c #655E58",
"Sq 	c #86827D",
"Tq 	c #817E7A",
"Uq 	c #898A7D",
"Vq 	c #283914",
"Wq 	c #2D3B15",
"Xq 	c #393D19",
"Yq 	c #41631D",
"Zq 	c #375118",
"`q 	c #404F18",
" r 	c #3C4D18",
".r 	c #252912",
"+r 	c #252A13",
"@r 	c #1C2B0D",
"#r 	c #355117",
"$r 	c #24300F",
"%r 	c #384B19",
"&r 	c #4D6424",
"*r 	c #243212",
"=r 	c #526721",
"-r 	c #383E18",
";r 	c #313516",
">r 	c #373523",
",r 	c #A2A095",
"'r 	c #A8A59C",
")r 	c #ACAC9F",
"!r 	c #ABAF9E",
"~r 	c #9B978D",
"{r 	c #5E5D4D",
"]r 	c #353D15",
"^r 	c #334F14",
"/r 	c #3B4C16",
"(r 	c #1A230A",
"_r 	c #1E2B0C",
":r 	c #293414",
"<r 	c #445322",
"[r 	c #34461B",
"}r 	c #212E0F",
"|r 	c #212F10",
"1r 	c #1F2E0E",
"2r 	c #425A15",
"3r 	c #45611A",
"4r 	c #48651E",
"5r 	c #5F5329",
"6r 	c #44441E",
"7r 	c #212711",
"8r 	c #252911",
"9r 	c #34381A",
"0r 	c #232710",
"ar 	c #392B1A",
"br 	c #2B2113",
"cr 	c #4E4726",
"dr 	c #343418",
"er 	c #31361B",
"fr 	c #23300D",
"gr 	c #433D31",
"hr 	c #564C43",
"ir 	c #87837E",
"jr 	c #41641A",
"kr 	c #40571D",
"lr 	c #2A3614",
"mr 	c #46582C",
"nr 	c #73855B",
"or 	c #55553D",
"pr 	c #4D563A",
"qr 	c #3A4727",
"rr 	c #86827E",
"sr 	c #C8C7C3",
"tr 	c #CCCBC7",
"ur 	c #78736E",
"vr 	c #98948E",
"wr 	c #B8B7B2",
"xr 	c #2C381D",
"yr 	c #1B240C",
"zr 	c #263215",
"Ar 	c #3B5017",
"Br 	c #223310",
"Cr 	c #385316",
"Dr 	c #3E5118",
"Er 	c #293511",
"Fr 	c #5A6D24",
"Gr 	c #272711",
"Hr 	c #818072",
"Ir 	c #AAAC9B",
"Jr 	c #A9AB9E",
"Kr 	c #9A988C",
"Lr 	c #6D6C60",
"Mr 	c #474335",
"Nr 	c #3E4023",
"Or 	c #334218",
"Pr 	c #2E4410",
"Qr 	c #4E563E",
"Rr 	c #314515",
"Sr 	c #3E5E18",
"Tr 	c #24340F",
"Ur 	c #232E13",
"Vr 	c #3A4D1A",
"Wr 	c #263913",
"Xr 	c #2F2C13",
"Yr 	c #3B3519",
"Zr 	c #455823",
"`r 	c #405421",
" s 	c #314711",
".s 	c #242F0C",
"+s 	c #354019",
"@s 	c #37321B",
"#s 	c #322617",
"$s 	c #333819",
"%s 	c #353518",
"&s 	c #283214",
"*s 	c #232A11",
"=s 	c #2C370F",
"-s 	c #2F3B10",
";s 	c #30361D",
">s 	c #6E6E63",
",s 	c #7B766F",
"'s 	c #5F5850",
")s 	c #4D5040",
"!s 	c #303A1E",
"~s 	c #49602B",
"{s 	c #3C4419",
"]s 	c #465A1E",
"^s 	c #395215",
"/s 	c #426219",
"(s 	c #4B583B",
"_s 	c #999691",
":s 	c #BDBBB8",
"<s 	c #5F6455",
"[s 	c #202D10",
"}s 	c #222C17",
"|s 	c #3F5918",
"1s 	c #2E4017",
"2s 	c #354D16",
"3s 	c #26390D",
"4s 	c #1F2D0F",
"5s 	c #294010",
"6s 	c #304114",
"7s 	c #223510",
"8s 	c #2A3A0E",
"9s 	c #334212",
"0s 	c #4A6A1F",
"as 	c #27310D",
"bs 	c #394C17",
"cs 	c #354C19",
"ds 	c #1C1F0D",
"es 	c #343222",
"fs 	c #919182",
"gs 	c #8B8A7F",
"hs 	c #6D6861",
"is 	c #484A31",
"js 	c #3E4819",
"ks 	c #3E4916",
"ls 	c #2A3B0E",
"ms 	c #182108",
"ns 	c #41482F",
"os 	c #1E290C",
"ps 	c #2C3E0E",
"qs 	c #2B3414",
"rs 	c #2D3511",
"ss 	c #3A511A",
"ts 	c #2E4215",
"us 	c #3E561F",
"vs 	c #1A250A",
"ws 	c #314714",
"xs 	c #3F3A1A",
"ys 	c #3A3E19",
"zs 	c #3F481C",
"As 	c #526529",
"Bs 	c #374016",
"Cs 	c #3D401B",
"Ds 	c #373C18",
"Es 	c #2C2711",
"Fs 	c #36351C",
"Gs 	c #36461E",
"Hs 	c #31371A",
"Is 	c #282C0E",
"Js 	c #1D260A",
"Ks 	c #4A5B33",
"Ls 	c #88877E",
"Ms 	c #49612B",
"Ns 	c #384F11",
"Os 	c #39442A",
"Ps 	c #3D581C",
"Qs 	c #2F4912",
"Rs 	c #313F14",
"Ss 	c #3F5222",
"Ts 	c #5E564F",
"Us 	c #76706A",
"Vs 	c #9F9C99",
"Ws 	c #C3C1BD",
"Xs 	c #8F8F87",
"Ys 	c #1A250D",
"Zs 	c #2A370E",
"`s 	c #354B11",
" t 	c #3B5A19",
".t 	c #355415",
"+t 	c #48671B",
"@t 	c #606E49",
"#t 	c #404E23",
"$t 	c #21280D",
"%t 	c #575449",
"&t 	c #747567",
"*t 	c #3C3325",
"=t 	c #3A4017",
"-t 	c #3D401D",
";t 	c #38501D",
">t 	c #2B3710",
",t 	c #536A1E",
"'t 	c #848A76",
")t 	c #333E22",
"!t 	c #2F3514",
"~t 	c #363A16",
"{t 	c #28350F",
"]t 	c #1D2B0E",
"^t 	c #2C3913",
"/t 	c #3A3E16",
"(t 	c #354918",
"_t 	c #1F250E",
":t 	c #2C4015",
"<t 	c #304617",
"[t 	c #375014",
"}t 	c #364913",
"|t 	c #384317",
"1t 	c #3D351A",
"2t 	c #3C3519",
"3t 	c #404720",
"4t 	c #3D4519",
"5t 	c #46581A",
"6t 	c #363A14",
"7t 	c #3F301F",
"8t 	c #2C2514",
"9t 	c #2B2814",
"0t 	c #313118",
"at 	c #303816",
"bt 	c #303814",
"ct 	c #1A2509",
"dt 	c #45562B",
"et 	c #5B624D",
"ft 	c #25350E",
"gt 	c #2E4515",
"ht 	c #485F1D",
"it 	c #2A410F",
"jt 	c #233210",
"kt 	c #30351C",
"lt 	c #BFBEBA",
"mt 	c #878480",
"nt 	c #2E420F",
"ot 	c #2E3B0F",
"pt 	c #3F5619",
"qt 	c #3A4F11",
"rt 	c #23300C",
"st 	c #1A270A",
"tt 	c #2D3B14",
"ut 	c #3E5E1F",
"vt 	c #60694F",
"wt 	c #616E43",
"xt 	c #46621A",
"yt 	c #42611B",
"zt 	c #334611",
"At 	c #2F381C",
"Bt 	c #445723",
"Ct 	c #39451D",
"Dt 	c #374116",
"Et 	c #405018",
"Ft 	c #687641",
"Gt 	c #21290C",
"Ht 	c #2A3E14",
"It 	c #1F2D0B",
"Jt 	c #3C5916",
"Kt 	c #1E300C",
"Lt 	c #2B3512",
"Mt 	c #40441C",
"Nt 	c #4B491D",
"Ot 	c #2B3B15",
"Pt 	c #2D3B1C",
"Qt 	c #3D541C",
"Rt 	c #1F2B0D",
"St 	c #334F16",
"Tt 	c #495F16",
"Ut 	c #3C3D18",
"Vt 	c #3F3E1A",
"Wt 	c #3D3319",
"Xt 	c #2F2616",
"Yt 	c #333C19",
"Zt 	c #313415",
"`t 	c #413F1C",
" u 	c #3A3817",
".u 	c #3A2B19",
"+u 	c #34351A",
"@u 	c #3E361D",
"#u 	c #2A2D17",
"$u 	c #3E4C1C",
"%u 	c #45511F",
"&u 	c #3A3E17",
"*u 	c #576229",
"=u 	c #86887B",
"-u 	c #827E78",
";u 	c #7D7A72",
">u 	c #262B11",
",u 	c #2E4213",
"'u 	c #395613",
")u 	c #384A14",
"!u 	c #3A5C18",
"~u 	c #45482A",
"{u 	c #6D6762",
"]u 	c #797672",
"^u 	c #8E8A86",
"/u 	c #566041",
"(u 	c #394613",
"_u 	c #2D3D10",
":u 	c #3B5714",
"<u 	c #3D5513",
"[u 	c #435C27",
"}u 	c #64625B",
"|u 	c #7A846B",
"1u 	c #3C5F18",
"2u 	c #303F15",
"3u 	c #22290C",
"4u 	c #394B18",
"5u 	c #405324",
"6u 	c #767B60",
"7u 	c #726F6A",
"8u 	c #6C6C61",
"9u 	c #25380D",
"0u 	c #324313",
"au 	c #1D2C0E",
"bu 	c #39561A",
"cu 	c #1D2B0A",
"du 	c #23360D",
"eu 	c #365417",
"fu 	c #3D5419",
"gu 	c #2E3F14",
"hu 	c #2A2911",
"iu 	c #283211",
"ju 	c #3A401D",
"ku 	c #4F691C",
"lu 	c #242F14",
"mu 	c #40531E",
"nu 	c #3A541B",
"ou 	c #314314",
"pu 	c #3A4D14",
"qu 	c #355013",
"ru 	c #2F3E10",
"su 	c #393A18",
"tu 	c #454024",
"uu 	c #3B421E",
"vu 	c #44561F",
"wu 	c #293012",
"xu 	c #3E421A",
"yu 	c #343F15",
"zu 	c #2A2912",
"Au 	c #35431C",
"Bu 	c #33441A",
"Cu 	c #425320",
"Du 	c #363E19",
"Eu 	c #221E0D",
"Fu 	c #21210D",
"Gu 	c #454628",
"Hu 	c #615D57",
"Iu 	c #94948D",
"Ju 	c #586149",
"Ku 	c #293810",
"Lu 	c #526D1D",
"Mu 	c #8A8E71",
"Nu 	c #5A534C",
"Ou 	c #726D69",
"Pu 	c #75716D",
"Qu 	c #938F8B",
"Ru 	c #40502B",
"Su 	c #2C3710",
"Tu 	c #29380D",
"Uu 	c #2E4714",
"Vu 	c #304712",
"Wu 	c #476719",
"Xu 	c #3D4326",
"Yu 	c #5F564F",
"Zu 	c #76736E",
"`u 	c #354C15",
" v 	c #344816",
".v 	c #4B5220",
"+v 	c #322B14",
"@v 	c #44451D",
"#v 	c #41421B",
"$v 	c #2C2C12",
"%v 	c #5F634D",
"&v 	c #575448",
"*v 	c #75716C",
"=v 	c #5B654C",
"-v 	c #26370D",
";v 	c #362E16",
">v 	c #372D18",
",v 	c #353A1C",
"'v 	c #3D511D",
")v 	c #27330D",
"!v 	c #243013",
"~v 	c #304415",
"{v 	c #567920",
"]v 	c #3C5A14",
"^v 	c #323F1A",
"/v 	c #353C18",
"(v 	c #394221",
"_v 	c #444322",
":v 	c #3F521D",
"<v 	c #364718",
"[v 	c #302A14",
"}v 	c #332B17",
"|v 	c #465E1E",
"1v 	c #394316",
"2v 	c #2E3611",
"3v 	c #1C240D",
"4v 	c #333619",
"5v 	c #3C3319",
"6v 	c #616152",
"7v 	c #6B6961",
"8v 	c #676B5A",
"9v 	c #313B23",
"0v 	c #354F14",
"av 	c #3D5A19",
"bv 	c #42621A",
"cv 	c #466519",
"dv 	c #334A14",
"ev 	c #354614",
"fv 	c #504F42",
"gv 	c #AAA8A4",
"hv 	c #CECCC9",
"iv 	c #D6D4D1",
"jv 	c #8C8984",
"kv 	c #3B4A28",
"lv 	c #365215",
"mv 	c #344C13",
"nv 	c #354611",
"ov 	c #445115",
"pv 	c #171E09",
"qv 	c #24360D",
"rv 	c #3A5A18",
"sv 	c #395313",
"tv 	c #395515",
"uv 	c #334F13",
"vv 	c #222611",
"wv 	c #43482F",
"xv 	c #59781F",
"yv 	c #373918",
"zv 	c #53581F",
"Av 	c #304115",
"Bv 	c #40541A",
"Cv 	c #3E431D",
"Dv 	c #333B15",
"Ev 	c #384918",
"Fv 	c #2E3021",
"Gv 	c #544F45",
"Hv 	c #69625A",
"Iv 	c #8C8A85",
"Jv 	c #3D5A15",
"Kv 	c #43601A",
"Lv 	c #384815",
"Mv 	c #2F2B12",
"Nv 	c #323416",
"Ov 	c #2E3415",
"Pv 	c #354C16",
"Qv 	c #1F270E",
"Rv 	c #21320C",
"Sv 	c #223610",
"Tv 	c #24310F",
"Uv 	c #3E541E",
"Vv 	c #3C5019",
"Wv 	c #314315",
"Xv 	c #42571B",
"Yv 	c #3B4B17",
"Zv 	c #323F19",
"`v 	c #232F0F",
" w 	c #3A4919",
".w 	c #4D5E1E",
"+w 	c #323716",
"@w 	c #343916",
"#w 	c #364416",
"$w 	c #27190E",
"%w 	c #595648",
"&w 	c #4B4B3B",
"*w 	c #384922",
"=w 	c #423C2F",
"-w 	c #6A6158",
";w 	c #A9A49E",
">w 	c #9C9892",
",w 	c #827E79",
"'w 	c #2C3420",
")w 	c #1E240E",
"!w 	c #415018",
"~w 	c #333F14",
"{w 	c #3C4E16",
"]w 	c #1B250B",
"^w 	c #263C10",
"/w 	c #3E5F19",
"(w 	c #384B10",
"_w 	c #2E3C13",
":w 	c #485E1F",
"<w 	c #465D1D",
"[w 	c #43601F",
"}w 	c #2C3C17",
"|w 	c #3A481D",
"1w 	c #3E511C",
"2w 	c #293713",
"3w 	c #446325",
"4w 	c #68794D",
"5w 	c #313E11",
"6w 	c #2E3D10",
"7w 	c #415719",
"8w 	c #121A08",
"9w 	c #3E5418",
"0w 	c #3B5019",
"aw 	c #414A1C",
"bw 	c #44511B",
"cw 	c #333019",
"dw 	c #2F3117",
"ew 	c #415917",
"fw 	c #3A4B13",
"gw 	c #273010",
"hw 	c #2D3F0F",
"iw 	c #19250A",
"jw 	c #2F4116",
"kw 	c #2E3F12",
"lw 	c #385219",
"mw 	c #455C21",
"nw 	c #3D541D",
"ow 	c #3E5416",
"pw 	c #3F4E1A",
"qw 	c #303313",
"rw 	c #424C1B",
"sw 	c #342314",
"tw 	c #44301D",
"uw 	c #20180A",
"vw 	c #2E2C1D",
"ww 	c #222810",
"xw 	c #222F12",
"yw 	c #304C15",
"zw 	c #1E2D0E",
"Aw 	c #283F12",
"Bw 	c #2A3314",
"Cw 	c #353026",
"Dw 	c #3A382D",
"Ew 	c #333F21",
"Fw 	c #151D07",
"Gw 	c #2E3B12",
"Hw 	c #325014",
"Iw 	c #384D16",
"Jw 	c #2E3711",
"Kw 	c #18240A",
"Lw 	c #304711",
"Mw 	c #3B5212",
"Nw 	c #466219",
"Ow 	c #324814",
"Pw 	c #364B15",
"Qw 	c #3B4518",
"Rw 	c #2A3F14",
"Sw 	c #3A561A",
"Tw 	c #3F5518",
"Uw 	c #38551A",
"Vw 	c #47621C",
"Ww 	c #334718",
"Xw 	c #2D3614",
"Yw 	c #273712",
"Zw 	c #334E12",
"`w 	c #364E14",
" x 	c #415E16",
".x 	c #626D4B",
"+x 	c #2D3521",
"@x 	c #20280A",
"#x 	c #1E200E",
"$x 	c #343D18",
"%x 	c #3A371D",
"&x 	c #2E2814",
"*x 	c #2B3112",
"=x 	c #1B210B",
"-x 	c #21290D",
";x 	c #394E16",
">x 	c #293311",
",x 	c #384B16",
"'x 	c #242D0D",
")x 	c #354A13",
"!x 	c #354C18",
"~x 	c #354E16",
"{x 	c #2A4213",
"]x 	c #364E13",
"^x 	c #3D561D",
"/x 	c #53661F",
"(x 	c #3E5019",
"_x 	c #384419",
":x 	c #40581B",
"<x 	c #48351F",
"[x 	c #23230D",
"}x 	c #2C3314",
"|x 	c #415022",
"1x 	c #34451C",
"2x 	c #22350D",
"3x 	c #3E5028",
"4x 	c #2C3D19",
"5x 	c #3D5D19",
"6x 	c #2F4911",
"7x 	c #2E4711",
"8x 	c #1C1D0A",
"9x 	c #2D3A11",
"0x 	c #24210F",
"ax 	c #25210E",
"bx 	c #26380D",
"cx 	c #3E5713",
"dx 	c #476114",
"ex 	c #506B1D",
"fx 	c #394814",
"gx 	c #404F19",
"hx 	c #394117",
"ix 	c #3F5C1C",
"jx 	c #364A18",
"kx 	c #577820",
"lx 	c #2B371D",
"mx 	c #84847B",
"nx 	c #939888",
"ox 	c #37501D",
"px 	c #252C0F",
"qx 	c #2A2112",
"rx 	c #251C10",
"sx 	c #26260F",
"tx 	c #3A5215",
"ux 	c #2D4411",
"vx 	c #24380E",
"wx 	c #2A3310",
"xx 	c #213210",
"yx 	c #3E5C15",
"zx 	c #3E5815",
"Ax 	c #1E280E",
"Bx 	c #3E5A14",
"Cx 	c #2E3D11",
"Dx 	c #25300D",
"Ex 	c #374318",
"Fx 	c #3E4A1D",
"Gx 	c #455420",
"Hx 	c #435B23",
"Ix 	c #293812",
"Jx 	c #23330C",
"Kx 	c #454D38",
"Lx 	c #817B76",
"Mx 	c #798863",
"Nx 	c #3E6017",
"Ox 	c #2C4912",
"Px 	c #2D380E",
"Qx 	c #383B17",
"Rx 	c #41391B",
"Sx 	c #343116",
"Tx 	c #2B2913",
"Ux 	c #2E3A15",
"Vx 	c #2B390C",
"Wx 	c #212B0C",
"Xx 	c #21300B",
"Yx 	c #405B16",
"Zx 	c #3B4B16",
"`x 	c #2B390F",
" y 	c #335015",
".y 	c #323A14",
"+y 	c #2D3915",
"@y 	c #344515",
"#y 	c #375013",
"$y 	c #445F1A",
"%y 	c #495533",
"&y 	c #686C5D",
"*y 	c #454520",
"=y 	c #42581D",
"-y 	c #3F5D19",
";y 	c #3C5215",
">y 	c #2F2615",
",y 	c #353E1C",
"'y 	c #314016",
")y 	c #202610",
"!y 	c #232C0F",
"~y 	c #455D15",
"{y 	c #374F17",
"]y 	c #375215",
"^y 	c #2B400F",
"/y 	c #2F4210",
"(y 	c #384217",
"_y 	c #323513",
":y 	c #313613",
"<y 	c #404A1F",
"[y 	c #1C240C",
"}y 	c #374C16",
"|y 	c #394727",
"1y 	c #75756B",
"2y 	c #A7A49F",
"3y 	c #999890",
"4y 	c #4B6135",
"5y 	c #2F4913",
"6y 	c #385714",
"7y 	c #263C0F",
"8y 	c #3D4C16",
"9y 	c #1E1F0B",
"0y 	c #3E5E1A",
"ay 	c #2F3413",
"by 	c #23200F",
"cy 	c #484621",
"dy 	c #1D1D0B",
"ey 	c #465522",
"fy 	c #323418",
"gy 	c #21260B",
"hy 	c #344512",
"iy 	c #2C4010",
"jy 	c #2F3D11",
"ky 	c #3D4E15",
"ly 	c #385616",
"my 	c #3C5C15",
"ny 	c #273E10",
"oy 	c #3A4617",
"py 	c #313C16",
"qy 	c #304411",
"ry 	c #3F611B",
"sy 	c #4E5738",
"ty 	c #8B8A84",
"uy 	c #525722",
"vy 	c #443D1E",
"wy 	c #25250F",
"xy 	c #334414",
"yy 	c #3F5616",
"zy 	c #242712",
"Ay 	c #252D12",
"By 	c #293717",
"Cy 	c #40471B",
"Dy 	c #26200F",
"Ey 	c #485B17",
"Fy 	c #42641C",
"Gy 	c #2D3912",
"Hy 	c #364A11",
"Iy 	c #364A15",
"Jy 	c #262C10",
"Ky 	c #353D18",
"Ly 	c #34450F",
"My 	c #272D0F",
"Ny 	c #2A2E12",
"Oy 	c #384B17",
"Py 	c #1E200C",
"Qy 	c #2A3210",
"Ry 	c #34441D",
"Sy 	c #6C6B61",
"Ty 	c #88847E",
"Uy 	c #6E6760",
"Vy 	c #A5A29D",
"Wy 	c #605A55",
"Xy 	c #42532E",
"Yy 	c #2F4C14",
"Zy 	c #324613",
"`y 	c #2F4A14",
" z 	c #17210A",
".z 	c #273110",
"+z 	c #2E2E12",
"@z 	c #2F2712",
"#z 	c #333117",
"$z 	c #4A4123",
"%z 	c #282514",
"&z 	c #272113",
"*z 	c #3A3418",
"=z 	c #4D5323",
"-z 	c #302F12",
";z 	c #27300E",
">z 	c #445418",
",z 	c #3E4F15",
"'z 	c #2C3610",
")z 	c #22330C",
"!z 	c #375112",
"~z 	c #324F14",
"{z 	c #273A0E",
"]z 	c #344410",
"^z 	c #35471C",
"/z 	c #28360D",
"(z 	c #454C35",
"_z 	c #5A6047",
":z 	c #3C5213",
"<z 	c #2A3611",
"[z 	c #474837",
"}z 	c #707165",
"|z 	c #293618",
"1z 	c #373617",
"2z 	c #41451C",
"3z 	c #333E16",
"4z 	c #2E3913",
"5z 	c #2E2C14",
"6z 	c #3D3920",
"7z 	c #1D210F",
"8z 	c #242E10",
"9z 	c #2D3A14",
"0z 	c #353D17",
"az 	c #2F4016",
"bz 	c #384315",
"cz 	c #344A12",
"dz 	c #202B0D",
"ez 	c #293210",
"fz 	c #3E4F18",
"gz 	c #385717",
"hz 	c #40511C",
"iz 	c #283711",
"jz 	c #2D2C12",
"kz 	c #2F3915",
"lz 	c #2C3A11",
"mz 	c #3C4E17",
"nz 	c #4B523B",
"oz 	c #7E7975",
"pz 	c #8F8A84",
"qz 	c #53543D",
"rz 	c #3C5917",
"sz 	c #1A270C",
"tz 	c #333D15",
"uz 	c #343315",
"vz 	c #2C2D12",
"wz 	c #372717",
"xz 	c #302F19",
"yz 	c #281D12",
"zz 	c #282813",
"Az 	c #3C391C",
"Bz 	c #352D16",
"Cz 	c #343017",
"Dz 	c #241C0E",
"Ez 	c #22260E",
"Fz 	c #333713",
"Gz 	c #283C0E",
"Hz 	c #455D16",
"Iz 	c #2B2911",
"Jz 	c #2E3211",
"Kz 	c #496616",
"Lz 	c #4E5F1C",
"Mz 	c #2C400F",
"Nz 	c #466919",
"Oz 	c #3C4E14",
"Pz 	c #2F3D16",
"Qz 	c #3D4E18",
"Rz 	c #C4C3BE",
"Sz 	c #4D5038",
"Tz 	c #485C1C",
"Uz 	c #3A4916",
"Vz 	c #3C3924",
"Wz 	c #767768",
"Xz 	c #606B4C",
"Yz 	c #22250E",
"Zz 	c #262C11",
"`z 	c #2E2612",
" A 	c #43381D",
".A 	c #221E10",
"+A 	c #21250E",
"@A 	c #1F280C",
"#A 	c #283618",
"$A 	c #41571F",
"%A 	c #2D3616",
"&A 	c #445916",
"*A 	c #335115",
"=A 	c #2D4310",
"-A 	c #20320D",
";A 	c #5A7620",
">A 	c #364A13",
",A 	c #283012",
"'A 	c #2E3113",
")A 	c #24240E",
"!A 	c #303214",
"~A 	c #3E341A",
"{A 	c #2E2212",
"]A 	c #3F4718",
"^A 	c #424D18",
"/A 	c #2C3514",
"(A 	c #363F15",
"_A 	c #2C3B17",
":A 	c #566C33",
"<A 	c #A1A094",
"[A 	c #B9B7B1",
"}A 	c #6D6965",
"|A 	c #BEBDB7",
"1A 	c #9D9F94",
"2A 	c #3A4D20",
"3A 	c #323D13",
"4A 	c #292E12",
"5A 	c #343016",
"6A 	c #343218",
"7A 	c #211F10",
"8A 	c #483A25",
"9A 	c #241F11",
"0A 	c #2A2B12",
"aA 	c #464023",
"bA 	c #282812",
"cA 	c #2B2D11",
"dA 	c #322917",
"eA 	c #41431E",
"fA 	c #25260E",
"gA 	c #2F2F13",
"hA 	c #2F3710",
"iA 	c #394617",
"jA 	c #3B3F1A",
"kA 	c #2A360E",
"lA 	c #43661A",
"mA 	c #384E13",
"nA 	c #4F6A1D",
"oA 	c #485F18",
"pA 	c #324219",
"qA 	c #59524C",
"rA 	c #252E10",
"sA 	c #363516",
"tA 	c #2A3013",
"uA 	c #393E24",
"vA 	c #464A36",
"wA 	c #334614",
"xA 	c #4A5A1C",
"yA 	c #3B4617",
"zA 	c #322214",
"AA 	c #564725",
"BA 	c #514826",
"CA 	c #242011",
"DA 	c #323517",
"EA 	c #293412",
"FA 	c #324912",
"GA 	c #19220B",
"HA 	c #3E571A",
"IA 	c #354511",
"JA 	c #445B16",
"KA 	c #59741F",
"LA 	c #2B370F",
"MA 	c #324612",
"NA 	c #253010",
"OA 	c #22250F",
"PA 	c #28300F",
"QA 	c #3B5C17",
"RA 	c #43471A",
"SA 	c #27220E",
"TA 	c #433E1C",
"UA 	c #2C3511",
"VA 	c #313513",
"WA 	c #394717",
"XA 	c #3D471B",
"YA 	c #393118",
"ZA 	c #566828",
"`A 	c #777662",
" B 	c #97948D",
".B 	c #AEADA8",
"+B 	c #5F5954",
"@B 	c #6C655D",
"#B 	c #908A84",
"$B 	c #A3A19C",
"%B 	c #6A7C53",
"&B 	c #161F08",
"*B 	c #3A4C18",
"=B 	c #201F0E",
"-B 	c #2F2817",
";B 	c #232612",
">B 	c #2F2C18",
",B 	c #252012",
"'B 	c #323218",
")B 	c #3F441E",
"!B 	c #38311D",
"~B 	c #424B21",
"{B 	c #393F1D",
"]B 	c #292613",
"^B 	c #3A321C",
"/B 	c #332C16",
"(B 	c #343117",
"_B 	c #212D0E",
":B 	c #20220E",
"<B 	c #20200E",
"[B 	c #362A17",
"}B 	c #303514",
"|B 	c #2D2F15",
"1B 	c #414C1A",
"2B 	c #344514",
"3B 	c #494E24",
"4B 	c #3B461E",
"5B 	c #292D15",
"6B 	c #31341F",
"7B 	c #3E4B15",
"8B 	c #3C4C14",
"9B 	c #374D14",
"0B 	c #6E765A",
"aB 	c #56574A",
"bB 	c #323C13",
"cB 	c #3D4F17",
"dB 	c #3A3E15",
"eB 	c #313612",
"fB 	c #252A11",
"gB 	c #232F10",
"hB 	c #5C6D3D",
"iB 	c #313C14",
"jB 	c #242F10",
"kB 	c #282F11",
"lB 	c #424319",
"mB 	c #2E2313",
"nB 	c #44361D",
"oB 	c #3B2B1B",
"pB 	c #221B0E",
"qB 	c #342A1A",
"rB 	c #2E2618",
"sB 	c #375315",
"tB 	c #334412",
"uB 	c #485A18",
"vB 	c #364713",
"wB 	c #1D210B",
"xB 	c #1B210C",
"yB 	c #243511",
"zB 	c #374A16",
"AB 	c #3B4217",
"BB 	c #25240D",
"CB 	c #323A17",
"DB 	c #38481B",
"EB 	c #242C0E",
"FB 	c #5A5E47",
"GB 	c #BBB9B2",
"HB 	c #9C9C92",
"IB 	c #756F6A",
"JB 	c #837F7B",
"KB 	c #707164",
"LB 	c #1D290C",
"MB 	c #2C2D15",
"NB 	c #343518",
"OB 	c #30331A",
"PB 	c #282B17",
"QB 	c #323019",
"RB 	c #2C2C17",
"SB 	c #352C19",
"TB 	c #262211",
"UB 	c #2F2B17",
"VB 	c #323316",
"WB 	c #413D21",
"XB 	c #313D1B",
"YB 	c #3D391F",
"ZB 	c #21190D",
"`B 	c #1D150C",
" C 	c #282211",
".C 	c #251A10",
"+C 	c #25230D",
"@C 	c #292D10",
"#C 	c #222511",
"$C 	c #3B5415",
"%C 	c #2C2A14",
"&C 	c #293313",
"*C 	c #22280D",
"=C 	c #273B11",
"-C 	c #44611A",
";C 	c #273316",
">C 	c #5E5E46",
",C 	c #2C4613",
"'C 	c #555446",
")C 	c #444C30",
"!C 	c #323713",
"~C 	c #292310",
"{C 	c #2E3613",
"]C 	c #49481C",
"^C 	c #2D2A12",
"/C 	c #645530",
"(C 	c #261C10",
"_C 	c #3C2D1D",
":C 	c #2B2216",
"<C 	c #322B19",
"[C 	c #1B150C",
"}C 	c #314018",
"|C 	c #18180C",
"1C 	c #202811",
"2C 	c #324C16",
"3C 	c #3A4D13",
"4C 	c #4D6B1D",
"5C 	c #465518",
"6C 	c #3D4913",
"7C 	c #303A13",
"8C 	c #303713",
"9C 	c #475F1E",
"0C 	c #253210",
"aC 	c #455818",
"bC 	c #445821",
"cC 	c #355417",
"dC 	c #565445",
"eC 	c #828179",
"fC 	c #8A8980",
"gC 	c #949589",
"hC 	c #8C8C82",
"iC 	c #999791",
"jC 	c #898682",
"kC 	c #6D6962",
"lC 	c #313B1D",
"mC 	c #292C11",
"nC 	c #2B2510",
"oC 	c #181A09",
"pC 	c #45411E",
"qC 	c #3C321B",
"rC 	c #3B311A",
"sC 	c #363316",
"tC 	c #2D3619",
"uC 	c #36341B",
"vC 	c #4E5C24",
"wC 	c #35361B",
"xC 	c #2E2817",
"yC 	c #222912",
"zC 	c #2E371B",
"AC 	c #38331B",
"BC 	c #262013",
"CC 	c #2B2214",
"DC 	c #232412",
"EC 	c #292C16",
"FC 	c #191E0C",
"GC 	c #4F3D23",
"HC 	c #2F2214",
"IC 	c #31341A",
"JC 	c #353918",
"KC 	c #1F200E",
"LC 	c #2D3012",
"MC 	c #2E2B15",
"NC 	c #3F2F1D",
"OC 	c #262012",
"PC 	c #43521F",
"QC 	c #343E14",
"RC 	c #283E0F",
"SC 	c #3B4412",
"TC 	c #455B18",
"UC 	c #435F1A",
"VC 	c #68724B",
"WC 	c #415F24",
"XC 	c #393E1E",
"YC 	c #3B2B18",
"ZC 	c #383E19",
"`C 	c #252C10",
" D 	c #313B11",
".D 	c #394417",
"+D 	c #362817",
"@D 	c #2B2715",
"#D 	c #36321C",
"$D 	c #3A421F",
"%D 	c #35381D",
"&D 	c #3A411F",
"*D 	c #3D5322",
"=D 	c #2A3019",
"-D 	c #222D12",
";D 	c #1B240D",
">D 	c #415B17",
",D 	c #2F3F0F",
"'D 	c #282F0E",
")D 	c #314013",
"!D 	c #384A17",
"~D 	c #3F5219",
"{D 	c #414E1C",
"]D 	c #283811",
"^D 	c #3E4618",
"/D 	c #302B13",
"(D 	c #45561D",
"_D 	c #4B5324",
":D 	c #3C4618",
"<D 	c #374D18",
"[D 	c #27310F",
"}D 	c #544A41",
"|D 	c #7D7973",
"1D 	c #9B9A90",
"2D 	c #88877F",
"3D 	c #79796F",
"4D 	c #8D8C84",
"5D 	c #646058",
"6D 	c #424232",
"7D 	c #282D0F",
"8D 	c #392C18",
"9D 	c #1E1C0B",
"0D 	c #2F3013",
"aD 	c #362918",
"bD 	c #372918",
"cD 	c #352C1B",
"dD 	c #372A1A",
"eD 	c #302A16",
"fD 	c #414B1E",
"gD 	c #3C451D",
"hD 	c #2E371A",
"iD 	c #283517",
"jD 	c #2F3517",
"kD 	c #404B23",
"lD 	c #35301A",
"mD 	c #382F1B",
"nD 	c #3A301C",
"oD 	c #302E18",
"pD 	c #292B15",
"qD 	c #292815",
"rD 	c #34481B",
"sD 	c #282A10",
"tD 	c #291D12",
"uD 	c #38351A",
"vD 	c #373A1B",
"wD 	c #282413",
"xD 	c #2C2213",
"yD 	c #222710",
"zD 	c #39441A",
"AD 	c #323D1A",
"BD 	c #303A14",
"CD 	c #24250D",
"DD 	c #485617",
"ED 	c #354513",
"FD 	c #3B4D14",
"GD 	c #435716",
"HD 	c #4E6F23",
"ID 	c #7A7870",
"JD 	c #7F7D74",
"KD 	c #556F33",
"LD 	c #817F7A",
"MD 	c #706A60",
"ND 	c #44361E",
"OD 	c #333517",
"PD 	c #3E491C",
"QD 	c #394819",
"RD 	c #323916",
"SD 	c #40371D",
"TD 	c #3E4016",
"UD 	c #3A311B",
"VD 	c #392F1B",
"WD 	c #313819",
"XD 	c #313619",
"YD 	c #393821",
"ZD 	c #3C421E",
"`D 	c #2F2F1A",
" E 	c #1B1E0B",
".E 	c #394B11",
"+E 	c #27340D",
"@E 	c #385119",
"#E 	c #406219",
"$E 	c #335116",
"%E 	c #395014",
"&E 	c #4F7621",
"*E 	c #394916",
"=E 	c #3C5618",
"-E 	c #2D4514",
";E 	c #42461B",
">E 	c #414C1B",
",E 	c #353A15",
"'E 	c #3E3C18",
")E 	c #42521B",
"!E 	c #353716",
"~E 	c #42511B",
"{E 	c #423E1A",
"]E 	c #3F2F1A",
"^E 	c #40321B",
"/E 	c #332614",
"(E 	c #574F43",
"_E 	c #665F57",
":E 	c #655E56",
"<E 	c #87847E",
"[E 	c #84837B",
"}E 	c #67635A",
"|E 	c #6B665F",
"1E 	c #67685B",
"2E 	c #352A16",
"3E 	c #323215",
"4E 	c #413B1F",
"5E 	c #3E3E1F",
"6E 	c #342E1A",
"7E 	c #332E19",
"8E 	c #433321",
"9E 	c #312B18",
"0E 	c #3E421D",
"aE 	c #37461D",
"bE 	c #343A1D",
"cE 	c #242C13",
"dE 	c #2A3616",
"eE 	c #333D1D",
"fE 	c #323119",
"gE 	c #342E1B",
"hE 	c #39361F",
"iE 	c #34351D",
"jE 	c #3A3C1C",
"kE 	c #252612",
"lE 	c #231E10",
"mE 	c #3F471D",
"nE 	c #424F1E",
"oE 	c #444921",
"pE 	c #262614",
"qE 	c #242711",
"rE 	c #241B0F",
"sE 	c #3D2F1E",
"tE 	c #38381B",
"uE 	c #3B4A1B",
"vE 	c #36451E",
"wE 	c #363F1A",
"xE 	c #334114",
"yE 	c #2E3E0F",
"zE 	c #5D7820",
"AE 	c #2C360E",
"BE 	c #49621A",
"CE 	c #415316",
"DE 	c #3B4229",
"EE 	c #48423A",
"FE 	c #89897F",
"GE 	c #2F3F17",
"HE 	c #3A5616",
"IE 	c #575B4B",
"JE 	c #696760",
"KE 	c #8A8A7F",
"LE 	c #A5A398",
"ME 	c #4D442F",
"NE 	c #505D26",
"OE 	c #40411B",
"PE 	c #38411A",
"QE 	c #566D26",
"RE 	c #304818",
"SE 	c #413C1C",
"TE 	c #423E21",
"UE 	c #393C1C",
"VE 	c #3A4B1F",
"WE 	c #393F1E",
"XE 	c #43521D",
"YE 	c #2A2813",
"ZE 	c #343419",
"`E 	c #242510",
" F 	c #25290F",
".F 	c #2C2D0E",
"+F 	c #394911",
"@F 	c #3B4B15",
"#F 	c #4A621A",
"$F 	c #3A4815",
"%F 	c #435619",
"&F 	c #455E1B",
"*F 	c #273813",
"=F 	c #2E3C15",
"-F 	c #3E4F1A",
";F 	c #43551B",
">F 	c #413E1B",
",F 	c #484C1E",
"'F 	c #353816",
")F 	c #3F361A",
"!F 	c #352B15",
"~F 	c #322516",
"{F 	c #555642",
"]F 	c #BDBBB5",
"^F 	c #9D9A94",
"/F 	c #999690",
"(F 	c #756F68",
"_F 	c #A29E98",
":F 	c #A8A89E",
"<F 	c #A2A199",
"[F 	c #3A4123",
"}F 	c #2D3714",
"|F 	c #303516",
"1F 	c #2D4016",
"2F 	c #2F3C15",
"3F 	c #20260E",
"4F 	c #22270E",
"5F 	c #2F2C15",
"6F 	c #292913",
"7F 	c #231C0E",
"8F 	c #3B311B",
"9F 	c #494A26",
"0F 	c #454424",
"aF 	c #3D391E",
"bF 	c #372C1B",
"cF 	c #202410",
"dF 	c #313C18",
"eF 	c #333C1A",
"fF 	c #242F13",
"gF 	c #364119",
"hF 	c #35451F",
"iF 	c #32391E",
"jF 	c #36421C",
"kF 	c #3A3E1C",
"lF 	c #282716",
"mF 	c #313818",
"nF 	c #353815",
"oF 	c #413F1B",
"pF 	c #2D2913",
"qF 	c #36301A",
"rF 	c #312517",
"sF 	c #2C2E12",
"tF 	c #474B1C",
"uF 	c #2F3414",
"vF 	c #2A2513",
"wF 	c #312715",
"xF 	c #292313",
"yF 	c #2D2F18",
"zF 	c #313F15",
"AF 	c #2C3718",
"BF 	c #394C1E",
"CF 	c #3B521C",
"DF 	c #435F19",
"EF 	c #3A4A14",
"FF 	c #4C681C",
"GF 	c #4C6019",
"HF 	c #45661C",
"IF 	c #4D4C3F",
"JF 	c #514940",
"KF 	c #99978D",
"LF 	c #3F492C",
"MF 	c #3D5619",
"NF 	c #545347",
"OF 	c #50493F",
"PF 	c #88847C",
"QF 	c #767762",
"RF 	c #475724",
"SF 	c #414F21",
"TF 	c #48531C",
"UF 	c #3D4418",
"VF 	c #42571E",
"WF 	c #49671B",
"XF 	c #445E23",
"YF 	c #2F3F19",
"ZF 	c #455D24",
"`F 	c #4C5E25",
" G 	c #454F1D",
".G 	c #4C4224",
"+G 	c #302F14",
"@G 	c #2D2715",
"#G 	c #292612",
"$G 	c #2A2012",
"%G 	c #1C1F0C",
"&G 	c #231D0D",
"*G 	c #433F1A",
"=G 	c #3C4F18",
"-G 	c #26330F",
";G 	c #272B0F",
">G 	c #47431E",
",G 	c #29340E",
"'G 	c #292E0F",
")G 	c #597422",
"!G 	c #4B551E",
"~G 	c #2E3D15",
"{G 	c #444D1B",
"]G 	c #41511A",
"^G 	c #342E15",
"/G 	c #483B1E",
"(G 	c #292E11",
"_G 	c #3F4C19",
":G 	c #4C4621",
"<G 	c #3B351B",
"[G 	c #37301A",
"}G 	c #5B574B",
"|G 	c #B5B3A7",
"1G 	c #B6B3AA",
"2G 	c #BEBFB1",
"3G 	c #86837B",
"4G 	c #68645F",
"5G 	c #515140",
"6G 	c #354215",
"7G 	c #38441A",
"8G 	c #283813",
"9G 	c #1F2C0B",
"0G 	c #202E0F",
"aG 	c #42411D",
"bG 	c #3F381E",
"cG 	c #362B19",
"dG 	c #2C2916",
"eG 	c #302717",
"fG 	c #273213",
"gG 	c #32411A",
"hG 	c #2E3F15",
"iG 	c #202B11",
"jG 	c #3A441C",
"kG 	c #282E13",
"lG 	c #363D1D",
"mG 	c #30361C",
"nG 	c #403820",
"oG 	c #3B3719",
"pG 	c #3A3019",
"qG 	c #383218",
"rG 	c #2B2816",
"sG 	c #353819",
"tG 	c #4B4122",
"uG 	c #4A4B1D",
"vG 	c #2A2610",
"wG 	c #332717",
"xG 	c #20180E",
"yG 	c #232111",
"zG 	c #24290E",
"AG 	c #415A1D",
"BG 	c #3A5414",
"CG 	c #374C14",
"DG 	c #4A6719",
"EG 	c #3A4D12",
"FG 	c #3D4631",
"GG 	c #63635A",
"HG 	c #5B5550",
"IG 	c #545148",
"JG 	c #1D2610",
"KG 	c #3A521D",
"LG 	c #393F21",
"MG 	c #343E19",
"NG 	c #3A3422",
"OG 	c #3E4B1E",
"PG 	c #4B5F22",
"QG 	c #4A6221",
"RG 	c #42501C",
"SG 	c #324117",
"TG 	c #557B1F",
"UG 	c #45621C",
"VG 	c #3A4C1C",
"WG 	c #486423",
"XG 	c #362F16",
"YG 	c #201A0B",
"ZG 	c #2B2211",
"`G 	c #2B3114",
" H 	c #2A2715",
".H 	c #4A4420",
"+H 	c #2C3413",
"@H 	c #273214",
"#H 	c #323114",
"$H 	c #3F481A",
"%H 	c #465B1B",
"&H 	c #262E0F",
"*H 	c #475C1D",
"=H 	c #3A4618",
"-H 	c #41361B",
";H 	c #3C3019",
">H 	c #45411D",
",H 	c #3B3017",
"'H 	c #524725",
")H 	c #2D3313",
"!H 	c #46531A",
"~H 	c #2B2915",
"{H 	c #3F382E",
"]H 	c #7B796D",
"^H 	c #B6B6AB",
"/H 	c #A7A79D",
"(H 	c #A4A59C",
"_H 	c #A0A097",
":H 	c #8D8D82",
"<H 	c #7F8471",
"[H 	c #303A1B",
"}H 	c #485021",
"|H 	c #364016",
"1H 	c #46551E",
"2H 	c #2B3D17",
"3H 	c #2C3D15",
"4H 	c #333715",
"5H 	c #485224",
"6H 	c #303718",
"7H 	c #374019",
"8H 	c #5A562F",
"9H 	c #3B3A1D",
"0H 	c #2D2816",
"aH 	c #3F4C21",
"bH 	c #3C3C1E",
"cH 	c #364F1A",
"dH 	c #4A4A1F",
"eH 	c #353C15",
"fH 	c #2D3618",
"gH 	c #272515",
"hH 	c #342C19",
"iH 	c #3F341B",
"jH 	c #353C1A",
"kH 	c #383A1C",
"lH 	c #402F1E",
"mH 	c #2A2213",
"nH 	c #2D2514",
"oH 	c #423E22",
"pH 	c #374216",
"qH 	c #416018",
"rH 	c #435F15",
"sH 	c #435F17",
"tH 	c #3F5815",
"uH 	c #304716",
"vH 	c #5E5F51",
"wH 	c #384820",
"xH 	c #40471A",
"yH 	c #3C421B",
"zH 	c #3F4A1C",
"AH 	c #374815",
"BH 	c #3B511A",
"CH 	c #4C671A",
"DH 	c #486717",
"EH 	c #516A1B",
"FH 	c #3E521B",
"GH 	c #3D3218",
"HH 	c #3A3B16",
"IH 	c #545C23",
"JH 	c #384019",
"KH 	c #38361B",
"LH 	c #363218",
"MH 	c #302113",
"NH 	c #373219",
"OH 	c #1B230E",
"PH 	c #222D10",
"QH 	c #324416",
"RH 	c #4B611A",
"SH 	c #425619",
"TH 	c #3A451B",
"UH 	c #273610",
"VH 	c #261F10",
"WH 	c #2E3A16",
"XH 	c #44561D",
"YH 	c #323414",
"ZH 	c #444C21",
"`H 	c #3E4E20",
" I 	c #31301F",
".I 	c #484134",
"+I 	c #B2B2AA",
"@I 	c #909186",
"#I 	c #A4A799",
"$I 	c #8E9083",
"%I 	c #7D7F72",
"&I 	c #43522F",
"*I 	c #2D3215",
"=I 	c #233010",
"-I 	c #455E1D",
";I 	c #415C1C",
">I 	c #363916",
",I 	c #314215",
"'I 	c #242C11",
")I 	c #36401C",
"!I 	c #3C3F20",
"~I 	c #2A3C14",
"{I 	c #39441B",
"]I 	c #2E3015",
"^I 	c #323014",
"/I 	c #3B3419",
"(I 	c #3A351A",
"_I 	c #3B331B",
":I 	c #332A18",
"<I 	c #383019",
"[I 	c #312C17",
"}I 	c #2B2212",
"|I 	c #2C2315",
"1I 	c #3E361E",
"2I 	c #2C3215",
"3I 	c #262810",
"4I 	c #43521E",
"5I 	c #323C1A",
"6I 	c #4C4E29",
"7I 	c #342F19",
"8I 	c #2F3216",
"9I 	c #292F11",
"0I 	c #385014",
"aI 	c #3B5816",
"bI 	c #597218",
"cI 	c #303C1D",
"dI 	c #3D5516",
"eI 	c #324519",
"fI 	c #3E432D",
"gI 	c #1C2210",
"hI 	c #273212",
"iI 	c #2E3915",
"jI 	c #364F17",
"kI 	c #304416",
"lI 	c #44561B",
"mI 	c #43581C",
"nI 	c #575028",
"oI 	c #535125",
"pI 	c #596827",
"qI 	c #40501C",
"rI 	c #3D3D1C",
"sI 	c #272213",
"tI 	c #363417",
"uI 	c #3E2D1B",
"vI 	c #3E2D1C",
"wI 	c #504123",
"xI 	c #2D4414",
"yI 	c #354718",
"zI 	c #405F1F",
"AI 	c #353D1C",
"BI 	c #3D4E21",
"CI 	c #4A5A20",
"DI 	c #2F3912",
"EI 	c #313B17",
"FI 	c #324618",
"GI 	c #3A3B28",
"HI 	c #68665C",
"II 	c #969A8B",
"JI 	c #7A7C6C",
"KI 	c #88887D",
"LI 	c #706C66",
"MI 	c #595D4D",
"NI 	c #43611C",
"OI 	c #547720",
"PI 	c #25320E",
"QI 	c #4F4522",
"RI 	c #322815",
"SI 	c #425E1B",
"TI 	c #2A3716",
"UI 	c #232E11",
"VI 	c #23210E",
"WI 	c #332A14",
"XI 	c #2B3713",
"YI 	c #35451A",
"ZI 	c #2B3A17",
"`I 	c #2F4114",
" J 	c #294013",
".J 	c #392819",
"+J 	c #362C19",
"@J 	c #302915",
"#J 	c #363015",
"$J 	c #322C17",
"%J 	c #41481F",
"&J 	c #424220",
"*J 	c #251F0E",
"=J 	c #231D0E",
"-J 	c #342D19",
";J 	c #382B1B",
">J 	c #342819",
",J 	c #3E3D18",
"'J 	c #3E4D1B",
")J 	c #38401D",
"!J 	c #4F5927",
"~J 	c #24270F",
"{J 	c #252C0E",
"]J 	c #2F420F",
"^J 	c #324213",
"/J 	c #304210",
"(J 	c #3B4C13",
"_J 	c #3E5814",
":J 	c #334512",
"<J 	c #3D5216",
"[J 	c #484E3B",
"}J 	c #97968F",
"|J 	c #38501A",
"1J 	c #374C1D",
"2J 	c #2A3810",
"3J 	c #374A11",
"4J 	c #3F4A19",
"5J 	c #2A3412",
"6J 	c #3E431B",
"7J 	c #323917",
"8J 	c #2C351A",
"9J 	c #323116",
"0J 	c #383217",
"aJ 	c #322417",
"bJ 	c #20170D",
"cJ 	c #3F5718",
"dJ 	c #455C18",
"eJ 	c #314614",
"fJ 	c #394E17",
"gJ 	c #354E17",
"hJ 	c #354D19",
"iJ 	c #333A1A",
"jJ 	c #37401F",
"kJ 	c #2A2C13",
"lJ 	c #3B4516",
"mJ 	c #323F16",
"nJ 	c #374819",
"oJ 	c #504E3F",
"pJ 	c #76776A",
"qJ 	c #9A9A90",
"rJ 	c #908E89",
"sJ 	c #727264",
"tJ 	c #3C551F",
"uJ 	c #44651A",
"vJ 	c #3F5A1A",
"wJ 	c #354A15",
"xJ 	c #3D2B19",
"yJ 	c #3C3B18",
"zJ 	c #445720",
"AJ 	c #373917",
"BJ 	c #283013",
"CJ 	c #2D3C13",
"DJ 	c #263012",
"EJ 	c #3C4A17",
"FJ 	c #48651B",
"GJ 	c #223410",
"HJ 	c #3B471A",
"IJ 	c #40361D",
"JJ 	c #44311E",
"KJ 	c #47351F",
"LJ 	c #362719",
"MJ 	c #382D1C",
"NJ 	c #404422",
"OJ 	c #404421",
"PJ 	c #41391F",
"QJ 	c #39431C",
"RJ 	c #2E3515",
"SJ 	c #3B3D17",
"TJ 	c #3E3F1C",
"UJ 	c #3C2E1D",
"VJ 	c #314015",
"WJ 	c #3E481E",
"XJ 	c #212A0E",
"YJ 	c #354512",
"ZJ 	c #435E1A",
"`J 	c #554F48",
" K 	c #82807A",
".K 	c #263612",
"+K 	c #1F2C10",
"@K 	c #45581B",
"#K 	c #41491B",
"$K 	c #252F11",
"%K 	c #3D4817",
"&K 	c #3A3F1C",
"*K 	c #2D2614",
"=K 	c #332A19",
"-K 	c #252211",
";K 	c #434E1F",
">K 	c #394618",
",K 	c #20290F",
"'K 	c #272413",
")K 	c #303415",
"!K 	c #40341C",
"~K 	c #403B1B",
"{K 	c #27240F",
"]K 	c #2E2F12",
"^K 	c #3D541E",
"/K 	c #433C2F",
"(K 	c #596342",
"_K 	c #506F1B",
":K 	c #404B19",
"<K 	c #2E4316",
"[K 	c #333A13",
"}K 	c #465B1E",
"|K 	c #292C12",
"1K 	c #364C1A",
"2K 	c #43631D",
"3K 	c #3C5B19",
"4K 	c #2B4014",
"5K 	c #3B341D",
"6K 	c #3F3920",
"7K 	c #41331F",
"8K 	c #2E2616",
"9K 	c #3E3C1E",
"0K 	c #544D26",
"aK 	c #323617",
"bK 	c #444522",
"cK 	c #2A2A14",
"dK 	c #3A3B1B",
"eK 	c #333519",
"fK 	c #272C12",
"gK 	c #272710",
"hK 	c #272E0E",
"iK 	c #1C230C",
"jK 	c #304410",
"kK 	c #2E4011",
"lK 	c #395012",
"mK 	c #3D5D18",
"nK 	c #606F4B",
"oK 	c #415C1A",
"pK 	c #1A280D",
"qK 	c #304C13",
"rK 	c #41421A",
"sK 	c #453E1A",
"tK 	c #3B5619",
"uK 	c #3E4717",
"vK 	c #344917",
"wK 	c #2A2E14",
"xK 	c #3C3B1E",
"yK 	c #221A0E",
"zK 	c #39331B",
"AK 	c #2A2812",
"BK 	c #334317",
"CK 	c #405617",
"DK 	c #314211",
"EK 	c #445717",
"FK 	c #354A10",
"GK 	c #1D2709",
"HK 	c #2D3911",
"IK 	c #2A2913",
"JK 	c #353418",
"KK 	c #456221",
"LK 	c #36501C",
"MK 	c #253212",
"NK 	c #4C6D21",
"OK 	c #7B7D71",
"PK 	c #45561A",
"QK 	c #4B601A",
"RK 	c #333F19",
"SK 	c #343716",
"TK 	c #3D511B",
"UK 	c #3B541A",
"VK 	c #3C5819",
"WK 	c #385817",
"XK 	c #283A14",
"YK 	c #32341A",
"ZK 	c #352F1A",
"`K 	c #453522",
" L 	c #3D341D",
".L 	c #5B542D",
"+L 	c #363317",
"@L 	c #453B1C",
"#L 	c #2F2A13",
"$L 	c #323016",
"%L 	c #6B5431",
"&L 	c #6E6336",
"*L 	c #303E18",
"=L 	c #2A3914",
"-L 	c #31431A",
";L 	c #39401D",
">L 	c #3D4621",
",L 	c #293014",
"'L 	c #42601A",
")L 	c #2B2F10",
"!L 	c #20290C",
"~L 	c #2B4310",
"{L 	c #364F13",
"]L 	c #9F9C98",
"^L 	c #737A63",
"/L 	c #3E4A18",
"(L 	c #486419",
"_L 	c #385618",
":L 	c #3C551E",
"<L 	c #2F3A17",
"[L 	c #263214",
"}L 	c #424A22",
"|L 	c #37371A",
"1L 	c #333719",
"2L 	c #212411",
"3L 	c #473E20",
"4L 	c #3F5016",
"5L 	c #2D3D11",
"6L 	c #4C5A1C",
"7L 	c #3A4F12",
"8L 	c #1F250A",
"9L 	c #475E2B",
"0L 	c #546A33",
"aL 	c #465326",
"bL 	c #384719",
"cL 	c #455920",
"dL 	c #4A6525",
"eL 	c #314319",
"fL 	c #30391A",
"gL 	c #3B4628",
"hL 	c #2D4014",
"iL 	c #40611A",
"jL 	c #343B14",
"kL 	c #333614",
"lL 	c #343517",
"mL 	c #291F10",
"nL 	c #353D16",
"oL 	c #4D6721",
"pL 	c #2D4415",
"qL 	c #2F3919",
"rL 	c #2D3718",
"sL 	c #2A3518",
"tL 	c #262913",
"uL 	c #202110",
"vL 	c #3F4B1A",
"wL 	c #353917",
"xL 	c #49461F",
"yL 	c #40321E",
"zL 	c #372D19",
"AL 	c #41331E",
"BL 	c #313D12",
"CL 	c #2D4017",
"DL 	c #3A421E",
"EL 	c #2E3213",
"FL 	c #26310C",
"GL 	c #4A6318",
"HL 	c #5B7043",
"IL 	c #5F644E",
"JL 	c #3A5919",
"KL 	c #385818",
"LL 	c #4D611A",
"ML 	c #3D551A",
"NL 	c #343D15",
"OL 	c #384717",
"PL 	c #303315",
"QL 	c #2C2A13",
"RL 	c #201C10",
"SL 	c #272713",
"TL 	c #2C2215",
"UL 	c #3F4B17",
"VL 	c #465118",
"WL 	c #323E1C",
"XL 	c #4D5432",
"YL 	c #59623C",
"ZL 	c #697B4E",
"`L 	c #696D5A",
" M 	c #808374",
".M 	c #8E907E",
"+M 	c #929188",
"@M 	c #B5B5AE",
"#M 	c #84867A",
"$M 	c #97958A",
"%M 	c #8B8E7B",
"&M 	c #1A1F0F",
"*M 	c #2D3E0D",
"=M 	c #496519",
"-M 	c #25310F",
";M 	c #483F1D",
">M 	c #3A3C15",
",M 	c #494F1C",
"'M 	c #3F4919",
")M 	c #3F3F19",
"!M 	c #293A0E",
"~M 	c #213110",
"{M 	c #2D3818",
"]M 	c #384E21",
"^M 	c #394D21",
"/M 	c #32441D",
"(M 	c #2D3A1A",
"_M 	c #202911",
":M 	c #3C4E1B",
"<M 	c #253414",
"[M 	c #2D3117",
"}M 	c #443920",
"|M 	c #333A18",
"1M 	c #554625",
"2M 	c #705832",
"3M 	c #2E2E13",
"4M 	c #394A17",
"5M 	c #293011",
"6M 	c #2E400F",
"7M 	c #435C18",
"8M 	c #646358",
"9M 	c #898581",
"0M 	c #697349",
"aM 	c #1D2F0C",
"bM 	c #345013",
"cM 	c #324211",
"dM 	c #3A4C16",
"eM 	c #424D1D",
"fM 	c #374E14",
"gM 	c #3C4D19",
"hM 	c #425019",
"iM 	c #3D441A",
"jM 	c #281C11",
"kM 	c #312F16",
"lM 	c #382D1A",
"mM 	c #313417",
"nM 	c #332D14",
"oM 	c #39481A",
"pM 	c #4F543C",
"qM 	c #B4B3AD",
"rM 	c #8F8D84",
"sM 	c #A9A6A1",
"tM 	c #6F6C61",
"uM 	c #67694C",
"vM 	c #2C3A17",
"wM 	c #28390D",
"xM 	c #334F12",
"yM 	c #374A15",
"zM 	c #353E15",
"AM 	c #292F10",
"BM 	c #2A4313",
"CM 	c #416019",
"DM 	c #345116",
"EM 	c #344C16",
"FM 	c #39501B",
"GM 	c #324717",
"HM 	c #232E14",
"IM 	c #364B1F",
"JM 	c #2E3F1A",
"KM 	c #33421B",
"LM 	c #324516",
"MM 	c #2C3E14",
"NM 	c #31381C",
"OM 	c #312A17",
"PM 	c #413F21",
"QM 	c #39311B",
"RM 	c #4A3F20",
"SM 	c #372917",
"TM 	c #251B0D",
"UM 	c #312712",
"VM 	c #393E15",
"WM 	c #44601C",
"XM 	c #2C4013",
"YM 	c #2B2B11",
"ZM 	c #353313",
"`M 	c #282610",
" N 	c #4B5633",
".N 	c #8C8A86",
"+N 	c #43591E",
"@N 	c #1E2E0B",
"#N 	c #37392C",
"$N 	c #3F5D18",
"%N 	c #455E18",
"&N 	c #3D401A",
"*N 	c #303D12",
"=N 	c #3B4E15",
"-N 	c #292C0F",
";N 	c #2F2A14",
">N 	c #2C3012",
",N 	c #41481A",
"'N 	c #2A2110",
")N 	c #271B10",
"!N 	c #27200F",
"~N 	c #20290E",
"{N 	c #3F501B",
"]N 	c #313B19",
"^N 	c #242C10",
"/N 	c #1E2B0F",
"(N 	c #3F3B2C",
"_N 	c #716E66",
":N 	c #939485",
"<N 	c #696C5B",
"[N 	c #96928D",
"}N 	c #85807C",
"|N 	c #5A544D",
"1N 	c #514941",
"2N 	c #9C9D8F",
"3N 	c #4A572A",
"4N 	c #2D3C10",
"5N 	c #2C3E0D",
"6N 	c #314910",
"7N 	c #364E1B",
"8N 	c #3D591A",
"9N 	c #47631B",
"0N 	c #2A4014",
"aN 	c #334811",
"bN 	c #2E4115",
"cN 	c #41631A",
"dN 	c #385314",
"eN 	c #394E15",
"fN 	c #4A6F1F",
"gN 	c #213011",
"hN 	c #324B19",
"iN 	c #3E521C",
"jN 	c #383018",
"kN 	c #38351B",
"lN 	c #57542C",
"mN 	c #34341A",
"nN 	c #3E331E",
"oN 	c #42361E",
"pN 	c #352D15",
"qN 	c #4E4721",
"rN 	c #4B5020",
"sN 	c #41451B",
"tN 	c #2D3411",
"uN 	c #45631B",
"vN 	c #324111",
"wN 	c #323F13",
"xN 	c #332915",
"yN 	c #888780",
"zN 	c #BAB8B5",
"AN 	c #727468",
"BN 	c #46552A",
"CN 	c #3C3C16",
"DN 	c #436119",
"EN 	c #566420",
"FN 	c #313914",
"GN 	c #3C3218",
"HN 	c #291D10",
"IN 	c #271A0F",
"JN 	c #3E391B",
"KN 	c #283313",
"LN 	c #2C3A18",
"MN 	c #313D1A",
"NN 	c #374117",
"ON 	c #3C4B16",
"PN 	c #434D1D",
"QN 	c #374714",
"RN 	c #454E1F",
"SN 	c #353F19",
"TN 	c #353E21",
"UN 	c #363A20",
"VN 	c #353824",
"WN 	c #494B3C",
"XN 	c #5C644E",
"YN 	c #383A29",
"ZN 	c #3E3E2C",
"`N 	c #433C2E",
" O 	c #4B4437",
".O 	c #555148",
"+O 	c #65674F",
"@O 	c #2B3113",
"#O 	c #374E17",
"$O 	c #425715",
"%O 	c #304011",
"&O 	c #3D5417",
"*O 	c #33460F",
"=O 	c #48661C",
"-O 	c #314112",
";O 	c #283715",
">O 	c #2D4314",
",O 	c #222F11",
"'O 	c #314C15",
")O 	c #334812",
"!O 	c #324F16",
"~O 	c #344414",
"{O 	c #2F3417",
"]O 	c #3C441E",
"^O 	c #37401D",
"/O 	c #41351D",
"(O 	c #3A2B1B",
"_O 	c #3F301A",
":O 	c #514324",
"<O 	c #2B3212",
"[O 	c #415717",
"}O 	c #283410",
"|O 	c #2B3214",
"1O 	c #282312",
"2O 	c #22250D",
"3O 	c #51473E",
"4O 	c #3D5819",
"5O 	c #474C1F",
"6O 	c #6A6D5B",
"7O 	c #7D7A74",
"8O 	c #2D4611",
"9O 	c #3C5B17",
"0O 	c #364F16",
"aO 	c #4B681A",
"bO 	c #4E691B",
"cO 	c #484F18",
"dO 	c #514322",
"eO 	c #322E12",
"fO 	c #2F2F17",
"gO 	c #3F431B",
"hO 	c #3C351B",
"iO 	c #292A12",
"jO 	c #455A22",
"kO 	c #293417",
"lO 	c #292E10",
"mO 	c #365017",
"nO 	c #5F7420",
"oO 	c #424719",
"pO 	c #323C16",
"qO 	c #2B3918",
"rO 	c #2A3A14",
"sO 	c #344611",
"tO 	c #24310D",
"uO 	c #4D6E1F",
"vO 	c #2F3E14",
"wO 	c #4E4B21",
"xO 	c #293411",
"yO 	c #2C360F",
"zO 	c #3F5218",
"AO 	c #4C6319",
"BO 	c #4D701F",
"CO 	c #324B12",
"DO 	c #466317",
"EO 	c #364D15",
"FO 	c #1F320D",
"GO 	c #3C551C",
"HO 	c #3C4F1B",
"IO 	c #3A491F",
"JO 	c #35441D",
"KO 	c #3F3E1D",
"LO 	c #38391A",
"MO 	c #425321",
"NO 	c #494E28",
"OO 	c #544B2A",
"PO 	c #353318",
"QO 	c #342715",
"RO 	c #383717",
"SO 	c #29350E",
"TO 	c #2D3513",
"UO 	c #343219",
"VO 	c #2A2613",
"WO 	c #24230F",
"XO 	c #2F2812",
"YO 	c #303613",
"ZO 	c #59574E",
"`O 	c #CAC9C3",
" P 	c #5D5D54",
".P 	c #465D1A",
"+P 	c #52563E",
"@P 	c #7C7975",
"#P 	c #77736E",
"$P 	c #4D671B",
"%P 	c #2E4811",
"&P 	c #405A16",
"*P 	c #587E21",
"=P 	c #4F6F1D",
"-P 	c #4D6B1C",
";P 	c #48641B",
">P 	c #334016",
",P 	c #2F2E12",
"'P 	c #353117",
")P 	c #444D1C",
"!P 	c #3D3F17",
"~P 	c #334818",
"{P 	c #2D3918",
"]P 	c #263014",
"^P 	c #35481C",
"/P 	c #383F15",
"(P 	c #344213",
"_P 	c #21270D",
":P 	c #243712",
"<P 	c #232C12",
"[P 	c #313F18",
"}P 	c #303F11",
"|P 	c #445D19",
"1P 	c #373F17",
"2P 	c #465A1D",
"3P 	c #444B19",
"4P 	c #3D5019",
"5P 	c #3A4714",
"6P 	c #2B3E0E",
"7P 	c #405818",
"8P 	c #375417",
"9P 	c #3A5519",
"0P 	c #294112",
"aP 	c #2E3615",
"bP 	c #2F3F13",
"cP 	c #384818",
"dP 	c #374017",
"eP 	c #2D370F",
"fP 	c #2E3912",
"gP 	c #334A16",
"hP 	c #2B4015",
"iP 	c #40581D",
"jP 	c #3D4C1B",
"kP 	c #3D5522",
"lP 	c #273013",
"mP 	c #3B4F20",
"nP 	c #444B20",
"oP 	c #36321A",
"pP 	c #3F4B1C",
"qP 	c #1E1B0C",
"rP 	c #3C391A",
"sP 	c #292911",
"tP 	c #3C4318",
"uP 	c #375514",
"vP 	c #282D10",
"wP 	c #2C3013",
"xP 	c #292A10",
"yP 	c #2E3C18",
"zP 	c #343A15",
"AP 	c #262910",
"BP 	c #393C1D",
"CP 	c #C6C4C1",
"DP 	c #4E483F",
"EP 	c #283010",
"FP 	c #555B3F",
"GP 	c #9EA195",
"HP 	c #1E280B",
"IP 	c #3B5717",
"JP 	c #243A0E",
"KP 	c #2B4513",
"LP 	c #4A6817",
"MP 	c #3E501A",
"NP 	c #4F6B1D",
"OP 	c #425718",
"PP 	c #324314",
"QP 	c #323412",
"RP 	c #2F2A17",
"SP 	c #282911",
"TP 	c #252910",
"UP 	c #2C3F14",
"VP 	c #2D3D1A",
"WP 	c #233012",
"XP 	c #394415",
"YP 	c #293113",
"ZP 	c #21230C",
"`P 	c #273912",
" Q 	c #1C270E",
".Q 	c #22210B",
"+Q 	c #363E16",
"@Q 	c #474F1D",
"#Q 	c #3B4B18",
"$Q 	c #2E2C12",
"%Q 	c #2E3F13",
"&Q 	c #3A3C16",
"*Q 	c #42501F",
"=Q 	c #4B5037",
"-Q 	c #37431B",
";Q 	c #3D4E16",
">Q 	c #2E4411",
",Q 	c #3C5315",
"'Q 	c #435A1E",
")Q 	c #444A1C",
"!Q 	c #486C1E",
"~Q 	c #394C19",
"{Q 	c #222E0B",
"]Q 	c #426519",
"^Q 	c #243413",
"/Q 	c #4B6A23",
"(Q 	c #233011",
"_Q 	c #425820",
":Q 	c #2A3718",
"<Q 	c #486223",
"[Q 	c #3D3F20",
"}Q 	c #3F491E",
"|Q 	c #313E1A",
"1Q 	c #3E3C1F",
"2Q 	c #282011",
"3Q 	c #312816",
"4Q 	c #40421C",
"5Q 	c #232810",
"6Q 	c #3E4715",
"7Q 	c #2E3214",
"8Q 	c #332B13",
"9Q 	c #2D1E11",
"0Q 	c #23200D",
"aQ 	c #272D13",
"bQ 	c #3C4919",
"cQ 	c #344919",
"dQ 	c #484537",
"eQ 	c #655D55",
"fQ 	c #8D8781",
"gQ 	c #4A4733",
"hQ 	c #53503F",
"iQ 	c #6D6761",
"jQ 	c #8C8883",
"kQ 	c #B1B0AA",
"lQ 	c #A09D99",
"mQ 	c #6A6E5D",
"nQ 	c #344A14",
"oQ 	c #426318",
"pQ 	c #455619",
"qQ 	c #3E4619",
"rQ 	c #47461D",
"sQ 	c #3A361A",
"tQ 	c #352F17",
"uQ 	c #43561C",
"vQ 	c #322F16",
"wQ 	c #39351C",
"xQ 	c #282310",
"yQ 	c #324418",
"zQ 	c #283915",
"AQ 	c #212F11",
"BQ 	c #3D5816",
"CQ 	c #303F10",
"DQ 	c #283113",
"EQ 	c #3B3D1A",
"FQ 	c #2F3C16",
"GQ 	c #393B18",
"HQ 	c #3C3A18",
"IQ 	c #382B16",
"JQ 	c #393818",
"KQ 	c #526D20",
"LQ 	c #3E5419",
"MQ 	c #40401A",
"NQ 	c #373118",
"OQ 	c #5E6345",
"PQ 	c #919780",
"QQ 	c #5D683F",
"RQ 	c #324012",
"SQ 	c #293E12",
"TQ 	c #304715",
"UQ 	c #333D16",
"VQ 	c #283210",
"WQ 	c #243410",
"XQ 	c #445B1A",
"YQ 	c #45661D",
"ZQ 	c #344B18",
"`Q 	c #4C5823",
" R 	c #334118",
".R 	c #5B4C2C",
"+R 	c #40361F",
"@R 	c #40331D",
"#R 	c #281F11",
"$R 	c #342919",
"%R 	c #2C2615",
"&R 	c #342B19",
"*R 	c #41331B",
"=R 	c #382915",
"-R 	c #3B2918",
";R 	c #282D15",
">R 	c #3F4A21",
",R 	c #32341E",
"'R 	c #3F3F2B",
")R 	c #413A2F",
"!R 	c #4D4B3A",
"~R 	c #97938D",
"{R 	c #78756E",
"]R 	c #75756C",
"^R 	c #353B26",
"/R 	c #3C5C17",
"(R 	c #2B3E0D",
"_R 	c #394319",
":R 	c #383718",
"<R 	c #3C401A",
"[R 	c #333512",
"}R 	c #3E3118",
"|R 	c #322C15",
"1R 	c #3A3017",
"2R 	c #372A19",
"3R 	c #5C5429",
"4R 	c #354315",
"5R 	c #364815",
"6R 	c #415919",
"7R 	c #333D14",
"8R 	c #2E3E19",
"9R 	c #212C11",
"0R 	c #263315",
"aR 	c #3C551A",
"bR 	c #3A3D16",
"cR 	c #47451D",
"dR 	c #3B3417",
"eR 	c #23290E",
"fR 	c #212A11",
"gR 	c #304218",
"hR 	c #484C2D",
"iR 	c #939686",
"jR 	c #AEAFA4",
"kR 	c #50583B",
"lR 	c #3D4A17",
"mR 	c #364615",
"nR 	c #252A10",
"oR 	c #1F320C",
"pR 	c #283613",
"qR 	c #273814",
"rR 	c #24260E",
"sR 	c #313618",
"tR 	c #2B2514",
"uR 	c #2A3211",
"vR 	c #334715",
"wR 	c #334A15",
"xR 	c #495E24",
"yR 	c #3B491B",
"zR 	c #435C1D",
"AR 	c #333718",
"BR 	c #332E18",
"CR 	c #473A23",
"DR 	c #302517",
"ER 	c #352617",
"FR 	c #372F1A",
"GR 	c #382A19",
"HR 	c #433D1C",
"IR 	c #4E4A1F",
"JR 	c #3E3A19",
"KR 	c #222714",
"LR 	c #4A6919",
"MR 	c #545C41",
"NR 	c #636852",
"OR 	c #5D5B4F",
"PR 	c #7D7B70",
"QR 	c #463F32",
"RR 	c #757669",
"SR 	c #8F8E86",
"TR 	c #8A8780",
"UR 	c #7F7F76",
"VR 	c #404C2B",
"WR 	c #3C5C18",
"XR 	c #23370D",
"YR 	c #3E4B1B",
"ZR 	c #262D10",
"`R 	c #344C17",
" S 	c #414F1B",
".S 	c #323318",
"+S 	c #302B15",
"@S 	c #282010",
"#S 	c #302B14",
"$S 	c #292A0F",
"%S 	c #33471A",
"&S 	c #2D4216",
"*S 	c #314418",
"=S 	c #37441B",
"-S 	c #364519",
";S 	c #2A3218",
">S 	c #494B20",
",S 	c #3C3F17",
"'S 	c #362F17",
")S 	c #2F3016",
"!S 	c #2C2715",
"~S 	c #233013",
"{S 	c #3D531C",
"]S 	c #3F521B",
"^S 	c #212C0E",
"/S 	c #4F4940",
"(S 	c #909185",
"_S 	c #3D4F1E",
":S 	c #1C260E",
"<S 	c #1E2A0E",
"[S 	c #16230A",
"}S 	c #284111",
"|S 	c #304618",
"1S 	c #253911",
"2S 	c #273714",
"3S 	c #212510",
"4S 	c #282A12",
"5S 	c #2F3116",
"6S 	c #272111",
"7S 	c #252110",
"8S 	c #2D2613",
"9S 	c #354413",
"0S 	c #242F0F",
"aS 	c #304111",
"bS 	c #2B3D14",
"cS 	c #566C25",
"dS 	c #45611F",
"eS 	c #2A3815",
"fS 	c #3C3F1F",
"gS 	c #322A19",
"hS 	c #322918",
"iS 	c #58492D",
"jS 	c #392F18",
"kS 	c #32321B",
"lS 	c #3C371F",
"mS 	c #3C501D",
"nS 	c #474E21",
"oS 	c #202611",
"pS 	c #352D19",
"qS 	c #1E1E0D",
"rS 	c #38511C",
"sS 	c #354D15",
"tS 	c #384527",
"uS 	c #636A50",
"vS 	c #5A544A",
"wS 	c #7E7770",
"xS 	c #A8A89F",
"yS 	c #3B3C2B",
"zS 	c #5D5B4D",
"AS 	c #9FA395",
"BS 	c #8A8D7D",
"CS 	c #7C7F72",
"DS 	c #2D3D18",
"ES 	c #365414",
"FS 	c #2F3617",
"GS 	c #2E3E18",
"HS 	c #3A4D1B",
"IS 	c #47561F",
"JS 	c #2E4019",
"KS 	c #33421A",
"LS 	c #2F3214",
"MS 	c #3B4A1A",
"NS 	c #3B4D1A",
"OS 	c #2C4016",
"PS 	c #2D2D14",
"QS 	c #3D531E",
"RS 	c #273113",
"SS 	c #374616",
"TS 	c #282C0F",
"US 	c #40471F",
"VS 	c #31301A",
"WS 	c #2F3619",
"XS 	c #2E4117",
"YS 	c #516A23",
"ZS 	c #455C1F",
"`S 	c #3A352A",
" T 	c #515644",
".T 	c #506C1E",
"+T 	c #1A230B",
"@T 	c #5C644B",
"#T 	c #4E593B",
"$T 	c #26330C",
"%T 	c #2C3A13",
"&T 	c #27400E",
"*T 	c #1F300C",
"=T 	c #374D20",
"-T 	c #4B5527",
";T 	c #323317",
">T 	c #1F200F",
",T 	c #283016",
"'T 	c #242B11",
")T 	c #364617",
"!T 	c #3C561B",
"~T 	c #394C1C",
"{T 	c #47551A",
"]T 	c #4B6227",
"^T 	c #3D401F",
"/T 	c #2D2B18",
"(T 	c #40321F",
"_T 	c #3B371D",
":T 	c #35411D",
"<T 	c #4E5E25",
"[T 	c #443A1F",
"}T 	c #425D20",
"|T 	c #2F2E17",
"1T 	c #41411D",
"2T 	c #333B14",
"3T 	c #2E4416",
"4T 	c #415E1A",
"5T 	c #587423",
"6T 	c #526734",
"7T 	c #5E5F54",
"8T 	c #5D554D",
"9T 	c #8E8B84",
"0T 	c #4E5739",
"aT 	c #6C765A",
"bT 	c #79796A",
"cT 	c #999A90",
"dT 	c #A4A59B",
"eT 	c #7B7A71",
"fT 	c #365113",
"gT 	c #415D16",
"hT 	c #4B6E1A",
"iT 	c #456419",
"jT 	c #32401A",
"kT 	c #3B4F1E",
"lT 	c #355319",
"mT 	c #233810",
"nT 	c #242D14",
"oT 	c #32411B",
"pT 	c #546B28",
"qT 	c #283015",
"rT 	c #263310",
"sT 	c #2C4410",
"tT 	c #2C3815",
"uT 	c #36441B",
"vT 	c #4C5520",
"wT 	c #2C2F13",
"xT 	c #3C3D1A",
"yT 	c #373D17",
"zT 	c #303018",
"AT 	c #34391C",
"BT 	c #3C3B1D",
"CT 	c #435F1E",
"DT 	c #4E701D",
"ET 	c #3D5F1A",
"FT 	c #4C681D",
"GT 	c #3A4B1A",
"HT 	c #344A16",
"IT 	c #374818",
"JT 	c #ADADA7",
"KT 	c #99A286",
"LT 	c #303D14",
"MT 	c #405722",
"NT 	c #2D3617",
"OT 	c #272B15",
"PT 	c #2E3D18",
"QT 	c #2B3915",
"RT 	c #1F2B10",
"ST 	c #2A3915",
"TT 	c #3B4C19",
"UT 	c #333E14",
"VT 	c #3E5220",
"WT 	c #2F2E18",
"XT 	c #3C401C",
"YT 	c #221C10",
"ZT 	c #3B451D",
"`T 	c #3E5721",
" U 	c #3E451B",
".U 	c #446120",
"+U 	c #567122",
"@U 	c #404B1C",
"#U 	c #233112",
"$U 	c #3B3C2C",
"%U 	c #575247",
"&U 	c #8B8F80",
"*U 	c #222C13",
"=U 	c #757F57",
"-U 	c #848177",
";U 	c #626457",
">U 	c #354912",
",U 	c #364A12",
"'U 	c #25300F",
")U 	c #3B5918",
"!U 	c #2E4315",
"~U 	c #3A521B",
"{U 	c #47621B",
"]U 	c #3A4C1F",
"^U 	c #303E17",
"/U 	c #455F1B",
"(U 	c #335215",
"_U 	c #2F3D17",
":U 	c #1C2410",
"<U 	c #1C220E",
"[U 	c #363019",
"}U 	c #3F371C",
"|U 	c #3B471C",
"1U 	c #445B1D",
"2U 	c #52731E",
"3U 	c #2D4614",
"4U 	c #3F5717",
"5U 	c #515721",
"6U 	c #414432",
"7U 	c #7D7B75",
"8U 	c #B5B6AB",
"9U 	c #333925",
"0U 	c #2B330D",
"aU 	c #3B4E17",
"bU 	c #38391B",
"cU 	c #353C1B",
"dU 	c #2F3B1A",
"eU 	c #242E12",
"fU 	c #2D4215",
"gU 	c #2F4310",
"hU 	c #3C481A",
"iU 	c #3A441E",
"jU 	c #333419",
"kU 	c #30411A",
"lU 	c #38481C",
"mU 	c #38451A",
"nU 	c #385617",
"oU 	c #3F3B2E",
"pU 	c #4E4F43",
"qU 	c #6C7C45",
"rU 	c #68635D",
"sU 	c #5A624B",
"tU 	c #4D711D",
"uU 	c #496817",
"vU 	c #364719",
"wU 	c #2C3812",
"xU 	c #2B3D15",
"yU 	c #293314",
"zU 	c #2F4B14",
"AU 	c #3D5014",
"BU 	c #373E15",
"CU 	c #3C381A",
"DU 	c #2F3215",
"EU 	c #2A3010",
"FU 	c #3C4A1D",
"GU 	c #3F541A",
"HU 	c #374C19",
"IU 	c #3F541E",
"JU 	c #425B1B",
"KU 	c #384E14",
"LU 	c #284110",
"MU 	c #455915",
"NU 	c #293C12",
"OU 	c #3D4B18",
"PU 	c #4B473C",
"QU 	c #7F7C78",
"RU 	c #756F67",
"SU 	c #838B6D",
"TU 	c #32451E",
"UU 	c #3D521D",
"VU 	c #465822",
"WU 	c #22250C",
"XU 	c #334215",
"YU 	c #182008",
"ZU 	c #293614",
"`U 	c #39471C",
" V 	c #426020",
".V 	c #344819",
"+V 	c #304216",
"@V 	c #3E541D",
"#V 	c #425D19",
"$V 	c #2E4815",
"%V 	c #446027",
"&V 	c #727169",
"*V 	c #69645F",
"=V 	c #394511",
"-V 	c #647C3F",
";V 	c #445F19",
">V 	c #435818",
",V 	c #405C1B",
"'V 	c #474C20",
")V 	c #262D15",
"!V 	c #181F0A",
"~V 	c #34431A",
"{V 	c #44461E",
"]V 	c #3C501B",
"^V 	c #2F3A18",
"/V 	c #22350C",
"(V 	c #3F422C",
"_V 	c #8B8A82",
":V 	c #85827C",
"<V 	c #575E45",
"[V 	c #1E2D0B",
"}V 	c #354218",
"|V 	c #384B1B",
"1V 	c #27300F",
"2V 	c #2B3510",
"3V 	c #1C280E",
"4V 	c #3F5517",
"5V 	c #29360E",
"6V 	c #2B380F",
"7V 	c #42661B",
"8V 	c #304117",
"9V 	c #405C1C",
"0V 	c #283B13",
"aV 	c #345117",
"bV 	c #697755",
"cV 	c #615E57",
"dV 	c #837E78",
"eV 	c #737661",
"fV 	c #4A5839",
"gV 	c #5A5E4C",
"hV 	c #2C400E",
"iV 	c #394B14",
"jV 	c #222B0D",
"kV 	c #385213",
"lV 	c #435B1B",
"mV 	c #33431B",
"nV 	c #2E3F17",
"oV 	c #2C3A14",
"pV 	c #405A1D",
"qV 	c #1E260B",
"rV 	c #2A370F",
"sV 	c #3B4917",
"tV 	c #44532E",
"uV 	c #75746A",
"vV 	c #7D7D70",
"wV 	c #B7B8B0",
"xV 	c #726C65",
"yV 	c #86817C",
"zV 	c #6A6A5E",
"AV 	c #395219",
"BV 	c #334013",
"CV 	c #2D3917",
"DV 	c #3C5211",
"EV 	c #3A5D19",
"FV 	c #2B4412",
"GV 	c #363C16",
"HV 	c #3B4F12",
"IV 	c #2C3D14",
"JV 	c #3A481A",
"KV 	c #3B571B",
"LV 	c #43621C",
"MV 	c #364D12",
"NV 	c #455917",
"OV 	c #395214",
"PV 	c #44641B",
"QV 	c #757B68",
"RV 	c #716C66",
"SV 	c #476217",
"TV 	c #293611",
"UV 	c #324115",
"VV 	c #445D1A",
"WV 	c #626950",
"XV 	c #474B38",
"YV 	c #2B3F13",
"ZV 	c #334A17",
"`V 	c #344D18",
" W 	c #3F5F1C",
".W 	c #2D4712",
"+W 	c #536620",
"@W 	c #636356",
"#W 	c #8F8E87",
"$W 	c #3B3F29",
"%W 	c #314A10",
"&W 	c #304010",
"*W 	c #455D1A",
"=W 	c #212A12",
"-W 	c #25330C",
";W 	c #2D3B0D",
">W 	c #416419",
",W 	c #1A240A",
"'W 	c #313911",
")W 	c #181C0A",
"!W 	c #1E2A0F",
"~W 	c #3A5418",
"{W 	c #365117",
"]W 	c #2C4116",
"^W 	c #3E5817",
"/W 	c #4A6917",
"(W 	c #395220",
"_W 	c #8A8A7D",
":W 	c #68645E",
"<W 	c #797D6B",
"[W 	c #3E5315",
"}W 	c #4D641B",
"|W 	c #4B6C1C",
"1W 	c #405B1B",
"2W 	c #435D19",
"3W 	c #323B24",
"4W 	c #67645D",
"5W 	c #3B4429",
"6W 	c #4E6E1D",
"7W 	c #2A4312",
"8W 	c #18210B",
"9W 	c #3C591B",
"0W 	c #263514",
"aW 	c #2B3D13",
"bW 	c #253412",
"cW 	c #253513",
"dW 	c #48631B",
"eW 	c #3B4F1A",
"fW 	c #2E3D0F",
"gW 	c #435B17",
"hW 	c #2B4612",
"iW 	c #405517",
"jW 	c #464136",
"kW 	c #847F79",
"lW 	c #7D7770",
"mW 	c #9F9B96",
"nW 	c #908C86",
"oW 	c #A3A29C",
"pW 	c #726E65",
"qW 	c #3E4617",
"rW 	c #324819",
"sW 	c #243711",
"tW 	c #374813",
"uW 	c #2C3C16",
"vW 	c #20220D",
"wW 	c #2E3F0D",
"xW 	c #272C0D",
"yW 	c #3A4813",
"zW 	c #151F0A",
"AW 	c #57721E",
"BW 	c #24340C",
"CW 	c #757768",
"DW 	c #9C9D93",
"EW 	c #3A4712",
"FW 	c #334011",
"GW 	c #415F18",
"HW 	c #3B5A18",
"IW 	c #3D5721",
"JW 	c #686A5D",
"KW 	c #7D7A75",
"LW 	c #85827E",
"MW 	c #324319",
"NW 	c #435F1B",
"OW 	c #263E0F",
"PW 	c #22370D",
"QW 	c #42631B",
"RW 	c #343B1E",
"SW 	c #736F6A",
"TW 	c #5F5953",
"UW 	c #95928C",
"VW 	c #766F67",
"WW 	c #BBBBB3",
"XW 	c #989590",
"YW 	c #353527",
"ZW 	c #253314",
"`W 	c #28350E",
" X 	c #344712",
".X 	c #3D5715",
"+X 	c #222610",
"@X 	c #231E0E",
"#X 	c #2A2B11",
"$X 	c #3C5B1A",
"%X 	c #3C5115",
"&X 	c #44611B",
"*X 	c #485137",
"=X 	c #848679",
"-X 	c #44581D",
";X 	c #364316",
">X 	c #243012",
",X 	c #334A18",
"'X 	c #71835C",
")X 	c #85807A",
"!X 	c #525C42",
"~X 	c #2A3411",
"{X 	c #3D5E17",
"]X 	c #436319",
"^X 	c #2D3710",
"/X 	c #354D13",
"(X 	c #526F1D",
"_X 	c #345217",
":X 	c #5A5249",
"<X 	c #A8AAA0",
"[X 	c #97978F",
"}X 	c #85817D",
"|X 	c #7C806C",
"1X 	c #2E4414",
"2X 	c #4C571B",
"3X 	c #3A3A17",
"4X 	c #342B15",
"5X 	c #1C1C0A",
"6X 	c #2D2914",
"7X 	c #2E3D13",
"8X 	c #385918",
"9X 	c #3C5E1A",
"0X 	c #354715",
"aX 	c #436218",
"bX 	c #3D5F19",
"cX 	c #3C5A16",
"dX 	c #3F5B18",
"eX 	c #4F5240",
"fX 	c #344215",
"gX 	c #2A3B13",
"hX 	c #4D631A",
"iX 	c #354420",
"jX 	c #767B6A",
"kX 	c #BBB9B5",
"lX 	c #66645C",
"mX 	c #495123",
"nX 	c #3C5114",
"oX 	c #3D4E19",
"pX 	c #2D4315",
"qX 	c #456417",
"rX 	c #344113",
"sX 	c #475C17",
"tX 	c #516E1D",
"uX 	c #345316",
"vX 	c #626255",
"wX 	c #BCBAB5",
"xX 	c #BDBFB6",
"yX 	c #B4B5AC",
"zX 	c #A09F97",
"AX 	c #B2B3AA",
"BX 	c #555C46",
"CX 	c #2F4717",
"DX 	c #2B2C10",
"EX 	c #41492D",
"FX 	c #444D27",
"GX 	c #2B2711",
"HX 	c #372616",
"IX 	c #383818",
"JX 	c #292D14",
"KX 	c #283713",
"LX 	c #3D5F1B",
"MX 	c #3D581B",
"NX 	c #19270A",
"OX 	c #1D270B",
"PX 	c #384E17",
"QX 	c #44641A",
"RX 	c #2F3B0F",
"SX 	c #415716",
"TX 	c #43561A",
"UX 	c #363721",
"VX 	c #353C13",
"WX 	c #364D1B",
"XX 	c #344415",
"YX 	c #415619",
"ZX 	c #41531A",
"`X 	c #4D5140",
" Y 	c #6E6B64",
".Y 	c #B8B5B2",
"+Y 	c #ACAAA6",
"@Y 	c #74776A",
"#Y 	c #1F300B",
"$Y 	c #3F5615",
"%Y 	c #385417",
"&Y 	c #2E3C11",
"*Y 	c #3E5A18",
"=Y 	c #3C4F14",
"-Y 	c #425D18",
";Y 	c #364017",
">Y 	c #455330",
",Y 	c #B6B8AD",
"'Y 	c #A3A29B",
")Y 	c #C0BEBA",
"!Y 	c #A7A5A0",
"~Y 	c #B5B5AD",
"{Y 	c #C5C5BF",
"]Y 	c #ADB2A0",
"^Y 	c #47622B",
"/Y 	c #2E4010",
"(Y 	c #7E7C73",
"_Y 	c #51543D",
":Y 	c #374417",
"<Y 	c #392C19",
"[Y 	c #292B14",
"}Y 	c #242311",
"|Y 	c #3D551D",
"1Y 	c #435B19",
"2Y 	c #384C13",
"3Y 	c #252E13",
"4Y 	c #67734D",
"5Y 	c #314213",
"6Y 	c #314C12",
"7Y 	c #42441C",
"8Y 	c #504E20",
"9Y 	c #454A1D",
"0Y 	c #363615",
"aY 	c #322F15",
"bY 	c #3D4E17",
"cY 	c #273215",
"dY 	c #5F6549",
"eY 	c #584E45",
"fY 	c #868A7A",
"gY 	c #333D12",
"hY 	c #243114",
"iY 	c #3E5414",
"jY 	c #52671A",
"kY 	c #46611A",
"lY 	c #456116",
"mY 	c #4B5D1B",
"nY 	c #35481F",
"oY 	c #827F7B",
"pY 	c #7E7C76",
"qY 	c #6B755A",
"rY 	c #414926",
"sY 	c #686758",
"tY 	c #727167",
"uY 	c #515246",
"vY 	c #53603E",
"wY 	c #36461B",
"xY 	c #2D2213",
"yY 	c #222210",
"zY 	c #2E401A",
"AY 	c #273211",
"BY 	c #394C13",
"CY 	c #2F3C10",
"DY 	c #2C380E",
"EY 	c #3A5214",
"FY 	c #3D5314",
"GY 	c #405217",
"HY 	c #3B4519",
"IY 	c #33391D",
"JY 	c #514A43",
"KY 	c #4D6730",
"LY 	c #373818",
"MY 	c #4C4D21",
"NY 	c #524D20",
"OY 	c #2C2411",
"PY 	c #2E3111",
"QY 	c #322915",
"RY 	c #2E2715",
"SY 	c #3C2D19",
"TY 	c #526720",
"UY 	c #415B19",
"VY 	c #546D20",
"WY 	c #4A4333",
"XY 	c #424E28",
"YY 	c #476319",
"ZY 	c #4C6E1A",
"`Y 	c #151E0A",
" Z 	c #324817",
".Z 	c #384B13",
"+Z 	c #486517",
"@Z 	c #385718",
"#Z 	c #364511",
"$Z 	c #4A6618",
"%Z 	c #252E0C",
"&Z 	c #746E67",
"*Z 	c #9C9992",
"=Z 	c #8A8881",
"-Z 	c #726E68",
";Z 	c #75726B",
">Z 	c #5F5952",
",Z 	c #4F4A40",
"'Z 	c #3A3829",
")Z 	c #373928",
"!Z 	c #363F16",
"~Z 	c #373827",
"{Z 	c #4A433A",
"]Z 	c #343026",
"^Z 	c #1D270F",
"/Z 	c #282F13",
"(Z 	c #2F2E16",
"_Z 	c #343A1A",
":Z 	c #342B17",
"<Z 	c #252E12",
"[Z 	c #313C13",
"}Z 	c #4F6A1C",
"|Z 	c #20300F",
"1Z 	c #445419",
"2Z 	c #3C382C",
"3Z 	c #8F8C85",
"4Z 	c #7D866D",
"5Z 	c #4F6121",
"6Z 	c #282E10",
"7Z 	c #464B1B",
"8Z 	c #2E2213",
"9Z 	c #24220E",
"0Z 	c #2A2010",
"aZ 	c #28310D",
"bZ 	c #848973",
"cZ 	c #707F51",
"dZ 	c #5E8129",
"eZ 	c #3F5D15",
"fZ 	c #486017",
"gZ 	c #3B4D13",
"hZ 	c #3E5512",
"iZ 	c #232B0D",
"jZ 	c #444A1A",
"kZ 	c #3B5515",
"lZ 	c #212E0B",
"mZ 	c #253A0E",
"nZ 	c #1F310E",
"oZ 	c #42452F",
"pZ 	c #7A756E",
"qZ 	c #79746E",
"rZ 	c #4F463D",
"sZ 	c #544D45",
"tZ 	c #473F36",
"uZ 	c #696B5E",
"vZ 	c #403F2D",
"wZ 	c #3F4929",
"xZ 	c #485222",
"yZ 	c #3D4D1D",
"zZ 	c #221F0D",
"AZ 	c #1F240D",
"BZ 	c #3A5815",
"CZ 	c #314618",
"DZ 	c #2E4114",
"EZ 	c #3D4D1A",
"FZ 	c #334112",
"GZ 	c #394F13",
"HZ 	c #3B5916",
"IZ 	c #3E5D16",
"JZ 	c #5A731F",
"KZ 	c #3D4D15",
"LZ 	c #577220",
"MZ 	c #423D32",
"NZ 	c #B5B3AE",
"OZ 	c #5C6C3F",
"PZ 	c #262D0D",
"QZ 	c #3A441A",
"RZ 	c #252F10",
"SZ 	c #2C2E11",
"TZ 	c #CACAC4",
"UZ 	c #BCBCB3",
"VZ 	c #8F9977",
"WZ 	c #465234",
"XZ 	c #2F3B0C",
"YZ 	c #222F0B",
"ZZ 	c #25320C",
"`Z 	c #182309",
" ` 	c #393F25",
".` 	c #6A6C60",
"+` 	c #39412A",
"@` 	c #355317",
"#` 	c #335012",
"$` 	c #395115",
"%` 	c #2B380E",
"&` 	c #1B2609",
"*` 	c #222711",
"=` 	c #403A31",
"-` 	c #494D35",
";` 	c #384126",
">` 	c #384422",
",` 	c #47531E",
"'` 	c #4D651E",
")` 	c #394B15",
"!` 	c #4F721E",
"~` 	c #2E4716",
"{` 	c #374E16",
"]` 	c #324317",
"^` 	c #1D290E",
"/` 	c #3E5B13",
"(` 	c #415615",
"_` 	c #473F34",
":` 	c #928F8B",
"<` 	c #C1C0BB",
"[` 	c #8D937F",
"}` 	c #45562E",
"|` 	c #3D4C17",
"1` 	c #2F4518",
"2` 	c #475825",
"3` 	c #58683F",
"4` 	c #272D14",
"5` 	c #32371D",
"6` 	c #96948D",
"7` 	c #B0B2A7",
"8` 	c #9A9992",
"9` 	c #8F947B",
"0` 	c #28320E",
"a` 	c #28340D",
"b` 	c #547024",
"c` 	c #7B7872",
"d` 	c #88877B",
"e` 	c #5A5F46",
"f` 	c #405328",
"g` 	c #273E0F",
"h` 	c #2C3C0E",
"i` 	c #324510",
"j` 	c #403C1C",
"k` 	c #4A591F",
"l` 	c #3D5016",
"m` 	c #435717",
"n` 	c #45641A",
"o` 	c #2C4113",
"p` 	c #44531D",
"q` 	c #425B1D",
"r` 	c #29300F",
"s` 	c #2F400F",
"t` 	c #2F4217",
"u` 	c #2C300F",
"v` 	c #292C13",
"w` 	c #2A3813",
"x` 	c #2F4E13",
"y` 	c #2F4B12",
"z` 	c #3F5914",
"A` 	c #496B1D",
"B` 	c #2A330F",
"C` 	c #596E24",
"D` 	c #4B443B",
"E` 	c #574D44",
"F` 	c #848875",
"G` 	c #47531B",
"H` 	c #373B1E",
"I` 	c #818273",
"J` 	c #74706B",
"K` 	c #828B6B",
"L` 	c #46641A",
"M` 	c #2D301B",
"N` 	c #837D75",
"O` 	c #6C645B",
"P` 	c #C2C0BB",
"Q` 	c #848373",
"R` 	c #313A16",
"S` 	c #2B420E",
"T` 	c #4C6F22",
"U` 	c #405E17",
"V` 	c #435B16",
"W` 	c #42551B",
"X` 	c #343B13",
"Y` 	c #1E230D",
"Z` 	c #3E5319",
"`` 	c #325015",
"  .	c #365816",
". .	c #3F601A",
"+ .	c #3A4818",
"@ .	c #374D16",
"# .	c #2E4611",
"$ .	c #1D240C",
"% .	c #4B721E",
"& .	c #324414",
"* .	c #425A18",
"= .	c #2D4714",
"- .	c #426418",
"; .	c #395318",
"> .	c #4E5322",
", .	c #444F1B",
"' .	c #2E3812",
") .	c #342D16",
"! .	c #314D16",
"~ .	c #27220F",
"{ .	c #344212",
"] .	c #2A3F0F",
"^ .	c #375817",
"/ .	c #445C15",
"( .	c #446217",
"_ .	c #46532D",
": .	c #414F22",
"< .	c #383417",
"[ .	c #75795F",
"} .	c #C6C4BD",
"| .	c #3C4E27",
"1 .	c #3A3E2A",
"2 .	c #544B43",
"3 .	c #A7A49E",
"4 .	c #7B766E",
"5 .	c #838071",
"6 .	c #40551D",
"7 .	c #303D17",
"8 .	c #1E270B",
"9 .	c #1F2E0B",
"0 .	c #40431A",
"a .	c #353B14",
"b .	c #1E260D",
"c .	c #47681B",
"d .	c #27370D",
"e .	c #314D13",
"f .	c #313D10",
"g .	c #3C4818",
"h .	c #23270D",
"i .	c #314111",
"j .	c #344316",
"k .	c #2C3412",
"l .	c #344B12",
"m .	c #415F1D",
"n .	c #33471B",
"o .	c #3F591A",
"p .	c #394B17",
"q .	c #3E4719",
"r .	c #425B18",
"s .	c #324214",
"t .	c #2C3C0D",
"u .	c #2B2F1D",
"v .	c #354122",
"w .	c #313E1C",
"x .	c #706F65",
"y .	c #CAC8C4",
"z .	c #9E9F94",
"A .	c #848478",
"B .	c #50483F",
"C .	c #4F463E",
"D .	c #545048",
"E .	c #454135",
"F .	c #31281B",
"G .	c #3A4B1C",
"H .	c #43581B",
"I .	c #354712",
"J .	c #3F4E17",
"K .	c #47681A",
"L .	c #323E12",
"M .	c #344416",
"N .	c #393E19",
"O .	c #354515",
"P .	c #4A681C",
"Q .	c #212310",
"R .	c #2B3C15",
"S .	c #48621B",
"T .	c #4E5C2D",
"U .	c #3D571B",
"V .	c #202F0F",
"W .	c #333F17",
"X .	c #353317",
"Y .	c #273314",
"Z .	c #455E17",
"` .	c #445A19",
" ..	c #28320F",
"...	c #2F4410",
"+..	c #434332",
"@..	c #413B2E",
"#..	c #4E463B",
"$..	c #544C43",
"%..	c #9E9A94",
"&..	c #6C7153",
"*..	c #656F50",
"=..	c #323B1E",
"-..	c #282711",
";..	c #2B3012",
">..	c #2C2B11",
",..	c #2E2315",
"'..	c #37371C",
")..	c #2F3319",
"!..	c #20260C",
"~..	c #324411",
"{..	c #435E16",
"]..	c #20320C",
"^..	c #35490F",
"/..	c #3B4418",
"(..	c #3D5013",
"_..	c #42631A",
":..	c #383C17",
"<..	c #385A19",
"[..	c #48612F",
"}..	c #767A6A",
"|..	c #334E13",
"1..	c #475920",
"2..	c #222B0F",
"3..	c #3C5919",
"4..	c #445E17",
"5..	c #395615",
"6..	c #2F430F",
"7..	c #3A5119",
"8..	c #36441F",
"9..	c #2E311B",
"0..	c #444136",
"a..	c #716E69",
"b..	c #9DA48F",
"c..	c #8B9C75",
"d..	c #627543",
"e..	c #404A1B",
"f..	c #45351E",
"g..	c #342515",
"h..	c #373019",
"i..	c #3D3320",
"j..	c #2B2215",
"k..	c #262210",
"l..	c #243611",
"m..	c #5A7E20",
"n..	c #4B721D",
"o..	c #50731A",
"p..	c #496719",
"q..	c #374B14",
"r..	c #435815",
"s..	c #303215",
"t..	c #2F3B12",
"u..	c #3D5A14",
"v..	c #253B0F",
"w..	c #354C12",
"x..	c #3F541D",
"y..	c #141B08",
"z..	c #252C18",
"A..	c #86867B",
"B..	c #212D0F",
"C..	c #4E6F1C",
"D..	c #1F2A0E",
"E..	c #21240E",
"F..	c #384617",
"G..	c #384911",
"H..	c #324811",
"I..	c #3D5916",
"J..	c #365013",
"K..	c #385518",
"L..	c #537721",
"M..	c #2A2F20",
"N..	c #4C483A",
"O..	c #938E88",
"P..	c #ADACA5",
"Q..	c #8E8C7E",
"R..	c #726656",
"S..	c #4F4532",
"T..	c #4C4127",
"U..	c #312D16",
"V..	c #1A250C",
"W..	c #2C4612",
"X..	c #344E12",
"Y..	c #3A4D15",
"Z..	c #3A4A17",
"`..	c #101506",
" +.	c #1A200B",
".+.	c #2F3E15",
"++.	c #19210A",
"@+.	c #253E0F",
"#+.	c #192108",
"$+.	c #364910",
"%+.	c #555B44",
"&+.	c #313520",
"*+.	c #C3C2BB",
"=+.	c #A8A89C",
"-+.	c #A3A196",
";+.	c #A6A69A",
">+.	c #858673",
",+.	c #3C4723",
"'+.	c #232010",
")+.	c #304215",
"!+.	c #2E420E",
"~+.	c #284012",
"{+.	c #23310B",
"]+.	c #2B410F",
"^+.	c #344F13",
"/+.	c #1D290A",
"(+.	c #1C250A",
"_+.	c #232A0F",
":+.	c #364C1C",
"<+.	c #515F33",
"[+.	c #727C60",
"}+.	c #7D7C74",
"|+.	c #4B523E",
"1+.	c #355017",
"2+.	c #424128",
"3+.	c #4C4533",
"4+.	c #35361A",
"5+.	c #2A3513",
"6+.	c #323B15",
"7+.	c #24390E",
"8+.	c #1E250A",
"9+.	c #344422",
"0+.	c #5C6C48",
"a+.	c #425920",
"b+.	c #2F4A15",
"c+.	c #425716",
"d+.	c #49641B",
"e+.	c #405918",
"f+.	c #212B0D",
"g+.	c #40521A",
"h+.	c #323D25",
"i+.	c #787770",
"j+.	c #7D7975",
"k+.	c #83827B",
"l+.	c #202D0F",
"m+.	c #797671",
"n+.	c #AAAB9E",
"o+.	c #B4B5AB",
"p+.	c #7B7A73",
"q+.	c #A3A497",
"r+.	c #78746A",
"s+.	c #434430",
"t+.	c #334319",
"u+.	c #2D3F16",
"v+.	c #303D10",
"w+.	c #2E3F0F",
"x+.	c #2B3711",
"y+.	c #202E0B",
"z+.	c #355316",
"A+.	c #374B16",
"B+.	c #606150",
"C+.	c #5C6646",
"D+.	c #46562A",
"E+.	c #41591D",
"F+.	c #222C11",
"G+.	c #485C31",
"H+.	c #5D654D",
"I+.	c #797C6C",
"J+.	c #535A44",
"K+.	c #554D3E",
"L+.	c #908F87",
"M+.	c #827F75",
"N+.	c #6E6D5E",
"O+.	c #555F3E",
"P+.	c #4C6227",
"Q+.	c #39531A",
"R+.	c #32451B",
"S+.	c #63605A",
"T+.	c #86827C",
"U+.	c #767C68",
"V+.	c #51643B",
"W+.	c #3F5A15",
"X+.	c #31400E",
"Y+.	c #445B18",
"Z+.	c #3B4F14",
"`+.	c #22360D",
" @.	c #27370C",
".@.	c #46671C",
"+@.	c #5C614A",
"@@.	c #7B7B72",
"#@.	c #273011",
"$@.	c #393629",
"%@.	c #69665B",
"&@.	c #646259",
"*@.	c #B9BCAD",
"=@.	c #CBCBC3",
"-@.	c #9B9F8F",
";@.	c #9D9D93",
">@.	c #9B9B90",
",@.	c #696E52",
"'@.	c #343E1B",
")@.	c #33461C",
"!@.	c #334411",
"~@.	c #3D5C17",
"{@.	c #536D1F",
"]@.	c #475B1D",
"^@.	c #496A18",
"/@.	c #233710",
"(@.	c #3B4323",
"_@.	c #58534A",
":@.	c #918F87",
"<@.	c #A8AB9D",
"[@.	c #838D74",
"}@.	c #758D4C",
"|@.	c #384A19",
"1@.	c #28350D",
"2@.	c #273116",
"3@.	c #626A53",
"4@.	c #848579",
"5@.	c #B3B5A9",
"6@.	c #919185",
"7@.	c #6C6961",
"8@.	c #67645B",
"9@.	c #787C6B",
"0@.	c #2C3B16",
"a@.	c #454324",
"b@.	c #5A5C4C",
"c@.	c #767368",
"d@.	c #BDBCB6",
"e@.	c #BFBEB6",
"f@.	c #ACAFA0",
"g@.	c #808B6B",
"h@.	c #3B411F",
"i@.	c #3A4616",
"j@.	c #141A07",
"k@.	c #466B1C",
"l@.	c #3D5D1A",
"m@.	c #2E3C19",
"n@.	c #797A6B",
"o@.	c #767668",
"p@.	c #6A705C",
"q@.	c #263015",
"r@.	c #93968A",
"s@.	c #736F68",
"t@.	c #7F7D76",
"u@.	c #6E6C62",
"v@.	c #453928",
"w@.	c #4C443A",
"x@.	c #554F47",
"y@.	c #67635D",
"z@.	c #96998C",
"A@.	c #B8BAAD",
"B@.	c #C3C2BC",
"C@.	c #939981",
"D@.	c #435E1D",
"E@.	c #41511D",
"F@.	c #3C581B",
"G@.	c #43681A",
"H@.	c #47591A",
"I@.	c #323D0F",
"J@.	c #313A14",
"K@.	c #343F10",
"L@.	c #4A681A",
"M@.	c #364E11",
"N@.	c #1B2B0B",
"O@.	c #375313",
"P@.	c #496320",
"Q@.	c #3E412E",
"R@.	c #504B44",
"S@.	c #C5C6BC",
"T@.	c #868D6E",
"U@.	c #494C3A",
"V@.	c #A3A19B",
"W@.	c #6D6A61",
"X@.	c #6F6A62",
"Y@.	c #5C584F",
"Z@.	c #545846",
"`@.	c #5D6742",
" #.	c #3C561E",
".#.	c #37471B",
"+#.	c #495322",
"@#.	c #2C3814",
"##.	c #32301F",
"$#.	c #706B64",
"%#.	c #87847C",
"&#.	c #9C9A93",
"*#.	c #76776D",
"=#.	c #485036",
"-#.	c #364D18",
";#.	c #394D16",
">#.	c #1C250B",
",#.	c #19240B",
"'#.	c #3E5216",
")#.	c #384816",
"!#.	c #304310",
"~#.	c #3B4E13",
"{#.	c #55683C",
"]#.	c #C3C2BE",
"^#.	c #9F9E98",
"/#.	c #656356",
"(#.	c #2D2315",
"_#.	c #242212",
":#.	c #444134",
"<#.	c #5F5D53",
"[#.	c #65645A",
"}#.	c #595349",
"|#.	c #A19F99",
"1#.	c #C9C8C4",
"2#.	c #B1B5A4",
"3#.	c #A1A68F",
"4#.	c #526C24",
"5#.	c #536E1F",
"6#.	c #385A16",
"7#.	c #476619",
"8#.	c #445F18",
"9#.	c #3E4315",
"0#.	c #393C16",
"a#.	c #414B19",
"b#.	c #374612",
"c#.	c #394D17",
"d#.	c #597134",
"e#.	c #5D5851",
"f#.	c #66625B",
"g#.	c #645D55",
"h#.	c #4E4F3E",
"i#.	c #1A240C",
"j#.	c #334B12",
"k#.	c #495233",
"l#.	c #635E57",
"m#.	c #747269",
"n#.	c #565648",
"o#.	c #4A5136",
"p#.	c #3B5024",
"q#.	c #3A4B14",
"r#.	c #313B1E",
"s#.	c #383C27",
"t#.	c #435121",
"u#.	c #292915",
"v#.	c #4A4235",
"w#.	c #504F3F",
"x#.	c #373D20",
"y#.	c #2C3A15",
"z#.	c #374918",
"A#.	c #19200A",
"B#.	c #232D0E",
"C#.	c #324E16",
"D#.	c #151E08",
"E#.	c #1F250B",
"F#.	c #54681C",
"G#.	c #435D17",
"H#.	c #585A43",
"I#.	c #B0AFAB",
"J#.	c #BEBFB7",
"K#.	c #747462",
"L#.	c #363D1B",
"M#.	c #2E2C16",
"N#.	c #3B392C",
"O#.	c #544F46",
"P#.	c #C6C5C1",
"Q#.	c #A7A89E",
"R#.	c #54761F",
"S#.	c #3C5515",
"T#.	c #415718",
"U#.	c #303413",
"V#.	c #282B0E",
"W#.	c #364413",
"X#.	c #383616",
"Y#.	c #3B4714",
"Z#.	c #445618",
"`#.	c #3C5814",
" $.	c #3D581A",
".$.	c #3A5B19",
"+$.	c #304610",
"@$.	c #19220C",
"#$.	c #222B0E",
"$$.	c #596344",
"%$.	c #6A6A5B",
"&$.	c #6C6C5F",
"*$.	c #827F74",
"=$.	c #595D41",
"-$.	c #2A3112",
";$.	c #1F2611",
">$.	c #47522C",
",$.	c #383C2A",
"'$.	c #384323",
")$.	c #222C10",
"!$.	c #666858",
"~$.	c #949689",
"{$.	c #425325",
"]$.	c #3E491A",
"^$.	c #23290F",
"/$.	c #3C431E",
"($.	c #2A3617",
"_$.	c #2F3917",
":$.	c #272C0E",
"<$.	c #222E0C",
"[$.	c #3F5216",
"}$.	c #24300C",
"|$.	c #294411",
"1$.	c #65625A",
"2$.	c #8E8D85",
"3$.	c #8C8A84",
"4$.	c #85837A",
"5$.	c #60644F",
"6$.	c #23230F",
"7$.	c #2A2A1C",
"8$.	c #544F47",
"9$.	c #716D66",
"0$.	c #736E65",
"a$.	c #625B53",
"b$.	c #595047",
"c$.	c #635B53",
"d$.	c #A8A59F",
"e$.	c #536B2B",
"f$.	c #364C13",
"g$.	c #3E5114",
"h$.	c #303D0F",
"i$.	c #4C6714",
"j$.	c #364216",
"k$.	c #1B270D",
"l$.	c #3C5413",
"m$.	c #375418",
"n$.	c #395B19",
"o$.	c #375114",
"p$.	c #2E3212",
"q$.	c #353618",
"r$.	c #4C4C3D",
"s$.	c #676757",
"t$.	c #959387",
"u$.	c #65664C",
"v$.	c #262D11",
"w$.	c #303C18",
"x$.	c #25300B",
"y$.	c #4B5C35",
"z$.	c #828079",
"A$.	c #878C79",
"B$.	c #262F14",
"C$.	c #303F17",
"D$.	c #313517",
"E$.	c #36441A",
"F$.	c #7C7B6A",
"G$.	c #3C471D",
"H$.	c #424F1B",
"I$.	c #252F0C",
"J$.	c #202D0B",
"K$.	c #3B4D16",
"L$.	c #383E25",
"M$.	c #898C7D",
"N$.	c #96958E",
"O$.	c #696A5E",
"P$.	c #626951",
"Q$.	c #6F675F",
"R$.	c #8A8981",
"S$.	c #919288",
"T$.	c #93928C",
"U$.	c #5D664A",
"V$.	c #201E0D",
"W$.	c #544E42",
"X$.	c #79776F",
"Y$.	c #575249",
"Z$.	c #53493F",
"`$.	c #58663C",
" %.	c #293A0D",
".%.	c #2A3C0D",
"+%.	c #3B4C12",
"@%.	c #2A2712",
"#%.	c #17220B",
"$%.	c #2A3511",
"%%.	c #24290F",
"&%.	c #354D17",
"*%.	c #30301C",
"=%.	c #4A473B",
"-%.	c #686559",
";%.	c #4C5139",
">%.	c #161E0B",
",%.	c #364D1A",
"'%.	c #253113",
")%.	c #2F3712",
"!%.	c #395114",
"   .  +  @  #  $  %  &  *  =  -  ;  >  ,  '  )  !  ~  {  ]  ^  /  (  _  :  <  [  }  |  1  2  3  4  5  6  7  8  9  0  a  b  c  d  e  f  g  h  i  j  k  l  m  n  o  p  q  r  s  t  u  v  w  x  y  z  A  B  C  D  E  F  G  H  I  J  K  L  M  N  O  P  Q  R  S  T  U  V  W  X  Y  Z  `   . .. +. @. #. $. %. &. *. =. -. ;. >. ,. '. ). !. ~. {. ]. ^. /. (. _. :. <. [. }. |. 1. 2. 3. 4. 5. 6. 7. ",
"8. 9. 0. a. b. c. d. e. f. g. h. i. j. k. l. m. n. o. p. q. r. s. t. u. v. w. x. y. z. A. B. C. D. E. F. G. H. I. J. K. L. M. N. O. P. Q. R. S. T. U. V. W. X. Y. Z. `.  + .+ ++ @+ #+ $+ %+ &+ *+ =+ -+ ;+ >+ ,+ '+ )+ !+ ~+ {+ ]+ ^+ /+ (+ _+ :+ <+ [+ }+ |+ 1+ 2+ 3+ 4+ 5+ 6+ 7+ 8+ 9+ 0+ a+ b+ c+ d+ e+ f+ g+ h+ i+ j+ k+ l+ m+ n+ o+ p+ q+ r+ s+ t+ u+ v+ w+ x+ y+ z+ A+ B+ C+ D+ E+ F+ G+ ",
"H+ I+ J+ K+ L+ M+ N+ O+ P+ Q+ R+ S+ T+ U+ V+ W+ X+ Y+ Z+ `+  @ .@ +@ @@ #@ $@ %@ &@ *@ =@ -@ ;@ >@ ,@ '@ )@ !@ ~@ {@ ]@ ^@ /@ (@ _@ :@ <@ [@ }@ |@ 1@ 2@ 3@ 4@ 5@ 6@ 7@ 8@ 9@ 0@ a@ b@ c@ d@ e@ f@ g@ h@ i@ j@ k@ l@ m@ n@ o@ p@ q@ r@ g@ s@ t@ u@ v@ w@ x@ y@ z@ A@ B@ C@ D@ E@ F@ G@ H@ I@ J@ K@ L@ M@ N@ O@ P@ Q@ R@ S@ >+ T@ U@ V@ W@ X@ Y@ Z@ `@  # .# +# @# ## $# %# &# *# =# -# y. ;# ># ",
",# '# )# !# ~# {# ]# ^# /# (# _# :# <# [# }# |# 1# 2# 3# 4# 5# 6# 7# 8# 9# 0# a# b# c# d# e# f# g# h# i# j# k# l# m# n# o# p# q# r# s# t# u# v# w# x# y# z# A# B# C# D# E# F# G# H# I# J# K# L# M# |. N# O# P# Q# R# S# T# U# r. V# W# X# Y# Z# `#  $ .$ +$ @$ #$ $$ %$ &$ *$ =$ -$ ;$ >$ ,$ '$ )$ !$ ~$ k. {$ ]$ ^$ /$ ($ _$ :$ <$ [$ }$ |$ 1$ 2$ 3$ 4$ e@ 5$ 6$ 7$ 8$ 9$ 0$ a$ b$ c$ d$ e$ f$ ",
" # g$ h$ i$ j$ k$ l$ m$ n$ o$ p$ q$ r$ s$ t$ u$ v$ w$ x$ y$ z$ A$ B$ C$ D$ E$ F$ G$ H$ *@ I$ J$ K$ L$ M$ N$ O$ P$ Q$ R$ S$ T$ U$ V$ W$ X$ Y$ Z$ `$  % .% +% @% #% $% %% &% *% =% -% ;% >% ,% q+ '% )% !% ~% {% i$ a$ ]% ^% /% (% _% :% <% _$ [% }% |% 1% 2% 3% 4% 5% 6% 7% 8% 9% 0% a% b% c% B@ d% e% f% g% h% i% j% k% l% m% n% o% p% q% r% s% t% u% v% w% x% y% z% A% f@ B% C% D% E% F% G% H% ",
"I% J% K% L% M% N% O% P% Q% R% S% T% U% V% W% X% Y% Z% `% m%  & .& +& @& #& $& %& && *& =& -& ;& >& ,& '& )& !& K. ~& {& ]& ^& /& (& _& :& <& [& }& |& 1& 2& 3& 4& 5& 6& 7& 8& 9& 0& a& b& c& f@ d& e& f& g& h& i& j& k& l& m& n& 6  o& p& q& r& s& t& u& v& w& x& y& z& A& B& C& D& E& F& G& H& I& J& K& L& M& N& O& v+ P& Q& R& S& T& U& V& W& X& Y& Z&  @ `&  * .* +* @* #* $* %* &* ** =* -* ",
";* >* ,* '* )* !* ~* {* ]* ^* /* (* _* :* <* [* }* |* 1* 2* 3* 4* 5* 6* 7* 8* 9* 0* a* b* c* d* e* f* g* h* i* j* k* l* m* n* o* p* q* r* s* t* u* v* w* x* y* z* A* B* C* D* E* |  F* G* H* I* J* K* L* M* N* O* P* `& Q* R* S* T* U* V* W* X* Y* Z* `*  = .= += @= #= $= %= &= *= == -= ;= >= ,= '= )= != ~= {= ]= ^= /= (= _= := t@ <= [= }= |= 1= 2= 3= 4= 5= 5  6= 7= 8= f+ 9= 0= d@ a= ,  ",
"b= c= d= e= f= g= h= i= j= k= l= a$ m= n= o= p= q= r= s= t= u= v= w= x= y= Z+ z= A= B= C= D= E= F= G= H= j  I= J= K= L= M= N= O= P= Q= R= S= T= U= V= W= X= Y= Z= `=  - .- +- @- #- ]. $- %- &- *- =- -- m* ;- >- ,- '- )- !- ~- {- ]- ^- /- (- _- :- <- [- }- |- W= 1- 2- 3- 4- 5- 6- 7- 8- 9- 0- a- b- k. c- d- e- f- g- h- f+ i- j- k- l- m- n- o- p- q- z= r- s- t- u- v- w- x-  # y- z- := ",
"^. A- m= B- C- D- E- F- G- H- I- J- K- L- M- N- O- P- Q- 0& R- S- T- U- O  V- W- -& X- Y- Z- a& `-  ; .;  ; +; @; #; T$ $; %; &; *; =; -; ;; >; ,; '; ); !; ~; {; ]; ^; /; (; _; :; <; [; }; 7$ /= |; 1; G. 2; 3; 4; 5; 6; 7; 8; 9; 0; a; b; c; d; e; f; 8% g; _; h; i; j; k; l; m; n; o; p; q; r; s; t; u; P@ _$ v; w; x; #* &* y; z; A; B; C; D; h- E; F; G; H; I; J; K; L; M; N; O; P; Q; R; ",
"f+ '= S; T; U; V; W; X; Y; Z; `;  > .> +> @> #> $> %> j& &> *> F% => -> ;> >> ,> '> )> !> ~> {> ]> ^> ]@ /> (> _> :> <> [> }> |> 1> 2> 3> 4> 5> 6> 7> 8> 9> 0> a> b> c> d> e> f> g> h> i> j> k> l> m> n> o> p> q> 3; r> s> t> u> v> := i- w> x> y> z> A> B> C> D> E> F> G> H> I> w+ J> K> u+ L> M> N> O> P> Q> R> a; S> T> U> V> W> W* X# e  S  X> Y> Z> `>  , ., +, @, #, $, %, &, *, =, 0& -, ",
";, >, ,, ', ), z> !, ~, {, ], ^, /, (, _, :, <, [, }, R@ |, Z+ (, l+ 6= }  1, 2, S  `@ 3, 4, 5, 6, 7, 8, 9, 0, a, b, c, d, e, f, g, d% h, i, j, k, l, m, n, o, p, q, r, s, t, u, 1- v, w, x, y, z, A, B, C, D, T$ q> @; E, F, G, H, u> 8= I, J, K, L, M, N, O, P, Q, R, S, T, U, V, W, X, Y, Z, `,  ' .' +' @' #' $' %' s@ &' z= *' 5,  @ =' -' ;' >' Q- <  ,' '' 5  4= )' !' ~' {' v> ]' ^' /' ",
"(' r# _' :' <' B> 4- [' t@ }' |' 1' 7$ 2' 3' %; 4' 5' 6' M# 7' 8' 9' 0' a' b' c' U* d' e' f' a$ g' h' i' j' k' q> l' m' n' |> %# o' p' q' r' s' t' u' v' w' x' y' z' A' B' C' D' E' F' G' H' I' J' K' L' M' N' O' P' %; Q' R' /= 6. S' T' U' V' W' X' Y' $% Z' `'  ) .) +) @) #) $) %) &) *) =) -) $# ;) >) ,) ') )) !) ~) `> {) ]) ^) /) () _) :) <) [) }) |) 1) 2) 3) 4) 5) 6) 7) 8) 9) 0) a) ",
"b) c) d) e) f) g) h) i) j) k) i$ H; l) m) a  n) o) p) q) 4# r) s) t) u) v) w) x) y) z) A) B) C) `, D) E) F) G) H) I) J) K) P& L) M) N) O) P) Q) R) S) T) U) V) W) X) Y) Z) `) F'  ! .! +! @! #! $! %! &! *! =! -! ;! >! ,! '! )! !! ~! {! %, ]! ^! /! I> (! _! :! <! [! }! |! 1! U) 2! 3! 4! 5! 6! 7! 3) 8! 9! 0! a! b! c! d! e! f! ^% j% 1' g! h! i! ^  j! k! l! m! n! |> )% J@ o! p! _= q! r! ",
"s! t! u! v! w! x! y! z! A! B! C! )+ D! E! F! l# $+ G! H! I! J! (, K! L! :) M! N! 9$ O! ]) c& P! Q! R! 5. S! T! /> U! V! W! X! Y! Z! `!  ~ .~ +~ @~ #~ i$ C= $~ %~ &~ *~ =~ -~ ;~ >~ ,~ '~ )~ !~ ~~ {~ ]~ ^~ /~ w> (~ _~ :~ <~ [~ }~ |~ 1~ |' 2~ 3~ 4~ 5~ 6~ 7~ 8~ 9~ 0~ a~ b~ ;% z, c~ d~ e~ p; f~ g~ h~ i~ j~ z% k~ l~ !+ m~ n~ o~ p~ q~ S@ r~ s~ t~ 5. u~ v~ w~ x~ y~ z~ A~ j> ^. B~ `+ C~ D~ ",
"E~ F~ G~ H~ I~ J~ K~ L~ M~ N~ O~ P~ Q~ R~ S~ T~ U~ V~ U$ W~ X~ Y~ Z~ `~  { .{ +{ @{ #{ %. -& ${ %{ &{ *{ ,# ={ -{ P  C; ;{ >{ ,{ '{ ){ !{ v= ~{ {{ ]{ ^{ /{ ({ _{ :{ <{ [{ }{ |{ 1{ 2{ 3{ 4{ 5{ 6{ u; 7{ 8{ 9{ 0{ a{ b{ c{ d{ e{ f{ g{ O! h{ i{ j{ k{ l{ m{ n{ o{ p{ q{ r{ s{ t{ u{ a' 3  v{ w{ x{ y{ z{ A{ B{ 0& C{ a; ,+ D{ 9# E{ F{ G{ H{ /= g+ I{ J{ B; K{ L{ S@ M{ N{ O{ P{ Q{ R{ S{ D{ T{ ",
"U{ V{ W{ X{ Y{ Z{ `{ f!  ] .] .# B% +] @] #] $] %] &] *] =] 0$ -] ;] c' >] c' J# B% ,] '] )] !] ~] e@ {] ]] ^] /] #' (] _] /$ j{ i! :] <] [] l) }] |] 1] U> X- 2] 3] 4] )> p! 5] 6] u) >{ 7] 8] k= 9] j- 0] a] &- b] E; c] %{ d] e] f] g] h] 4$ i] j] k] l] m] n] o] p] q] r] s] a+ t] 6. Z. u] v] w] x] y] z] |% A] 7$ B] C] D] E] F] G] H] _$ b= {- I] J% ]] <) J] |. K] ]- L] M] N] O] P] Q] ",
"R] S] 1$ T] U] V] W] O+ X] Y] Z] #{ `]  ^ .^ +^ @^ #^ $^ %^ &^ *^ 4] =^ 4  -^ B  _$ ;^ >^ ,^ '^ /= )^ !^ B% v. ~^ {^ /, ]^ ^^ /^ (^ 2  &, R; _^ :^ <^ [^ }^ |^ 1^ z- 2^ 3^ 4^ 1  5^ 6^ 7^ w] 8^ 9^ 0^ a^ b^ F] c^ d^ e^ h& f^ {{ `& g^ h^ Y. i^ j^ k^ l^ m^ n^ o^ p^ z! q^ r^ s^ t^ ^) N# u^ v^ w^ x^ }& y^ z^ A^ B^ C^ D^ E^ F^ G^ ;) ~. H^ m% I^ j+ J^ K^ L^ ,. M^ N^ O^ P^ Q^ R^ S^ n~ T^ U^ ",
"V^ W^ 0= X^ Y^ Z^ `^  / ./ +/ @/ #/ $/ %/ &/ */ =/ -/ ;/ >/ ,/ '/ `> )/ !/ 4$ ~/ {/ 3= ]/ ^/ // (/ _/ Q; :/ k^ </ [/ 1! Z] }/ L{ P* |/ 0; 1/ 2/ 3/ 4/ >> b{ u{ 5/ D. W{ R; w. J% `, 6/ 7/ 8/ 9/ 0/ y) a/ b/ j& c/ d/ e/ f/ c' O  g/ h/ i/ j/ k/ l/ m/ (+ n/ o/ p/ a& q/ r/ s/ t/ u/ v/ w/ x/ y/ z/ A/ B/ C/ D/ E/ F/ G/ H/ I/ ^+ J/ K/ L/ H^ M/ N/ O/ P/ Q/ %# R/ M# S/ T/ U/ V/ B) W/ X/ Y/ Z/ ",
"`/  ( .( +( @( #( $( _  z{ %( &( 1! '. *( =( -( ;( -] >( l) ,( L& '( )( !( ~( 8' {( J@ ]( ^( /( (( _( :( z. <( s- ]{ [( }( a; E; 1! |( 1( 5, 2( 3( 4( 5( 6( 7( D! 8( n- 9( 0( 7$ :{ a( j+ b( c( d( a' j& e( f( g( V# z; h( i( j( k( l( m( n( h. o( p( q( r( s( t( j~ u( v( w( x( y( H; z( A( i~ B( C( D( E( F( G( H( I( 7( J( K( L( M( N( I/ O( </ P( Q( R( S( W- T( U( V( W( X( Y( Z( `(  _ ._ ",
"+_ @_ #_ $_ %_ P! &_ C% *_ =_ -_ H% ;_ f$ O* _$ V> >_ ($ ,_ '. '_ )_ !_ D  x% %{ y- ~_ {_ ]_ d* ^_ /_ (_ __ :_ <_ [_ 3# }_ |_ S@ )) 1_ D! 2_ 3_ 4_ 5_ R@ 6_ P{ 7_ #* w. Q{ 8_ 9_ 0_ a_ b_ c_ 1$ V' !> d_ ~+ 5( e_ f_ g_ h_ i_ W^ j_ k_ l_ m_ n_ o_ p_ q_ r_ s_ Z@ t_ u_ v_ w_ x_ y_ C] ') z_ A_ B_ C_ D_ E_ F_ G_ H_ I_ 4+ J_ K_ L_ M_ N_ O_ P_ Q_ R_ S_ <^ T_ `> 1^ M] U_ '= V_ W_ X_ Y_ Z_ `_ ",
" : .: +: @: #: $: %: &: %: *: P! u@ =: d@ `, ^  ;_ 0# C% K# <^ u= -: ;: >: ,: o- v@ +# ': ): o& ^' !: 4# 9' ~: {: c& ]: 3, B{ ^: G* *# /: (: _: :: R& s; <: @: S; [: }: |: 9! W! O~ 1: 2: [= o- 3: 4: 5: 6: 7: 8: W^ 9: 0: a: I, b: c: d: e: f: g: h: i: >{ j: k: 9- l: m: n: o: p: q: r: s: t: u: v: w: x: y: z: N  A: B: C: F( 0/ 5^ D: R@ E: F: T' G: H: ~. I: ~] J: }# K: :! L: M: N: g~ O: ",
"P: Q: R: S: T: U: V: W: X: {{ >> Y: Z: `: ,: 7&  < ,, b' .< /$ +< @< #< $< %< &< *< V  i& =< O! 1^ =, -< }% ., ;< >< d] ,< '< )< c' !< ~< {< <  M( n% ]< r- ^< :+ /< (< _< :< 9( << [< }< |< -. 1< 2< 3< 4< 5< S% 6< 7< 8< :+ `& 9< ^+ 0< a< b< c< d< u~ 4. P& e< 4$ f< g< h< i< j< k< l< m< n< o< p< q< r< s< t< u< v< w< x< y< z< A< B< C< D< E< F< G< H< I< J< K< L< M< N< O< P< Q< R< S< T< ",
"U< V< W< X< Y< Z< `<  [ .[ +[ N; *> @[ #[ $[ {% h! %[ &[ *[ =[ -[ ;[ >[ G. ,[ '[ )[ ![ /_ ~[ {[ =_ ][ H; ^[ }( B% g' /[ ([ D= :< v+ _[ `> V> :[ r~ <[ [[ }[ |[ o% 1[ =_ 2[ 3[ 4[ <) 5[ 6[ 7[ 8[ R  9[ 0[ 8+ a[ 0= ., b[ c[ y$ d[ P> P& l> e[ f[ g[ h[ 9< i[ >' 5/ j[ k[ l[ m[ n[ o[ p[ q[ r[ s[ t[ u[ v[ w[ x[ y[ z[ A[ B[ C[ D[ E[ F[ G[ H[ I[ J[ K[ L[ M[ N[ 7/ O[ P[ :; N+ Q[ R[ S[ T[ U[ V[ ",
"W[ X[ Y[ .: Z[ `[ b_ J% /+ 9; s~  } +{ .} +} @} #} $} %} &} *} =} -} ;} 8. >} ,} '} )} !} ~} {} <* 9( #{ B% J@ ]} ^} /} (} J% 6  s@ (_ _} :} <} l> 7$ %{ [} }} *> |} 1} 2} W{ 3} 4} 5} 6} 7} n/ 8} 9} O/ '' 0} a} D. 3} v. b} c} d} .* t- (: |  e} f} g} h} /= i} j} k} l} m} n} o} p} q} r} s} t} u} v} q{ w} x} y} z} A} B} C} D} E} F} G} S; H} I} J} K} L} M} z* N} O} P} Q} R} S} &  T} U} ",
"V} W} X} b: Y} Z} ($ `}  | .| z= +| '. @| #| $| %| l' &| 1@ *| =| -| ;| >| ,| '| )| !| ~| {| ]| ^| @, E; /| (| _| :| <| [| }| || 1| >] r. 2| ~! i_ b] }% 3| 4| w. 5/ 5| 6| ') 7| G  )( 8| 9| 0| E% (] v- d@ a| y- b| ~: 8! B% c| d| s@ /, '( Z: e| f| g| ^} h| 6} g} i| j| |. L/ `> k| l| m| n| o| p| q| r| s| t| u| N& v| w| x| 9[  < y| m% z| A| B| C| D| E| F| G| H| X[ I| :& A& J| K| L| M| ",
"N| O| P| Q| F( R| S| T| U| V| P& &% W| X| Y| Z| g  `| _>  1 .1 .1 +1 {& @1 #1 $1 %1 &1 *1 =1 -1 ;1 >1 ~. D; 1  ,1 '1 R( )1 !1 ~1 ^+ {1 -_ ]1 ^1 /1 C% M( (1 Y: C$ _1 Z: :1 <1 [1 l+ }1 A_ |1 11 r& {< q- x. 21 *# }] 31 41 1! 51 61 x% 71 81 f& 91 01 a1 *~ b1 c1 d1 e1 9) f1 g1 `# h1 i1 j1 k1 l1 m1 s| n1 A. o1 7' 6= p1 q1 w; ~: r1 L! s1 e+ 4] t1 u1 v1 w1 x1 y1 z1 A1 B1 C1 D1 E1 F1 G1 H1 ",
"I1 J1 K1 L1 1< M1 N1 7( O1 L] P1 4. 5. Q1 e+ R1 S1 {& T1 U1 V1 W1 X1 9, Y1 Z1 `1  2 .2 +2 @2 #2 $2 %2 &2 *2 =2 H; D. -2 ;2 >2 d1 ,2 '2 )2 !2 ~2 {2 '< c& t> Q- ]2 R/ ^2 '# h- ;( 2[ J# ': /2 (2 _2 :2 <2 [2 *, }2 |2 12 22 32 42 52 62 72 82 w+ 92 l! .{ 02 a2 := b2 c2 (, d2 e2 f2 g2 h2 i2 j2 k2 l2 m2 n2 X& C( o2 p2 q2 5= r2 (* s2 t2 Y& u2 C; z( v2 w2 M+ x2 y2 p~ P{ '_ z2 A2 B2 C2 D2 E2 ",
"F2 D/ G2 H2 ^% x{ T* I2 5= e^ _) J2 K2 i$ 4= 0& L2 M2 N2 O2 P2 Q2 R2 S2 T2 U2 V2 W2 X2 Y2 Z2 `2  3 .3 +3 @3 :/ #3 (] $3 %3 &3 *3 B) 6( =3 -3 ;3 X{ +_ C{ |}  # 0$ >3 *~ }+ ,3 '3 )3 !3 ~3  ' {3 ]3 ^3 /3 (3 _3 :3 <3 [3 }3 -1 |3 +^ l* 13 23 h- 33 43 53 63 A+ +| 73 83 /| 93 03 a3 G$ b3 c3 d3 e3 E  (^ f3 g3 h3 >_ h} i3 T) j3 k3 l3 m3 n3 o3 p3 q3 r3 {} s3 t3 u3 _3 P> v3 w3 x3 y3 z3 A3 B3 ",
"C3 D3 E3 F3 G3 H3 I3 J3 Y: K3 L3 y$ M3 ($ N3 n% F^ O3 P3 ,| Q3  3 R3 S3 |@ T3 U3 V3 W3 .+ X3 Y3 Z3 P' `3  4 .4 k% .~ (, +4 @4 #4 $4 %4 *( W- h@ &4 *4 =4 ^^ `# -4 ;4 Q- Q- }' >4 $[ n! ,4 e} '4 )4 !4 #4 ~4 {4 ]4 ^4 /4 (4 _4 :4 <4 [4 }4 |4 14 c1 24 b( 34 44 v@ 8( 54 w+ 62 64 O$ 74 84 b: 94 04 a4 z% z_ U> 0_ b4 :1 c4 01 d4 e4 f4 g4 h4 i4 j4 z| ,> k4 l4 o} m4 n4 o4 p4 I$ q4 M} r4 s4 =  ",
"t4 u4 |~ v4 U] 3, w4 x4 y4 z4 !1 1_ d@ =_ A4 B% B4 &. {- C4 D4 E4 F4 G4 H4 I4 J4 K4 L4 M4 N4 =1 O4 l* X+ P4 3, Q4 >{ X> R4 S4 T4 U4 V4 O[ Z= W4 X4 Y4 Z4 F/ /+ `4 |}  $  5 .5 c[ +5 6' f3 }2 @5 #5 $5 %5 &5 u) *5 =5 -5 ;5 >5 ,5 '5 )5 !5 i- ~5 o1 {5 ]5 6} }% ^5 X& /5 (5 ,1 _5 :5 <5 [5 j[ }5 <} |5 15 4$ 25 35 ]1 45 o= 55 65 75 85 Q~ 95 ]1 05 a$ a5 (1 b5 c5 t= d5 /= e5 H, f5 g5 5$ >) h5 ",
"C* h4 Y# i5 j5 k5 l5  [ E^ m5 n5 o5 Q~ +* p5 I% q5 r5 i@ 3  s5 t5 u5 v5 w5 H= x5 y5 z5 A5 B5 C5 D5 E5 s; F5 G5 H5 I5 y% K/ J5 K5 u; L5 M5 N5 M% O5 P5 Q5 R5 S5 T5 b] b2 o! z. 3) >  U5 V5 0_ K  *. W5 X5 Y5 q/ ,: Z5 `5  6 .6 +6 @6 #6 $6 %6 &] &6 *6 =6 <{ L! {( -6 [) (^ ;6 >6 ,6 '6 )6 6* 7$ P* !6 }= B) ~6 9= A| V- {6 P* r1 &( ]6 q@ {( M( i- o_ #{ g- ^6 /6 (6 _6 r~ =: E} :6 <6 3[ [6 }6 ",
"|6 16 u( 26 ^: 36 46 L! E3 56 66 w_ 76 86 {^ 96 i4 06 d= n% B4 a6 b6 c6 d6 e6 n: f6 g6 h6 N$ #} m. u% [} i6 j6 k6 l6 R] m6 *, n6 o6 p6 X( {{ q6 r6 s6 t6 u6 v6 e> w6 x6 B{ y6 z6 A6 n3 B6 C6 D6 ]2 C$ Z* (, #- E6 F6 G6 H6 I6 J6 K6 L6 M6 N6 k* $| O6 P6 <  }( Q6 R6 S6 T6 !- U6 K. V6 W6 16 X6 D= v> j> Y6 h- r1 x) 35 [< n= S| Z6 ,' ,>  5 4  n! `6 6  C: *:  7 .7 +7 @7 #7 $7 %7 &7 c~ p_ *7 ",
"~6 =7 s3 -7 u> ;7 >7 M( ,7 '7 )7  3 +^ [> // !7 ~7 B) {7 R^ ]7 ^7 /7 (7 _7 :7 #> 03 *1 <7 [7 }7 |7 e~ 17 27 37 47 57 67 77 q= 87 97 *_ $( 07 a7 b7 c7 B1 d7 e7 f7 g7 h7 i7 j7 !6 k7 ]' ($ l7 m7 U> n7 c5 ^' o7 s_ 31 p+ <[ p7 q7 r7 s7 r- t7 u7 v7 w7 x7 y7 z7 A7 B7 '+ C7 j& D7 E7 F7 G7 H7 g! I7 N; c= j~ J7 T' O; ]+ g[ {: K7 L7 M7 A  c= /= s- N7 !. L- O7 P7 Q7 3* +| R7 :* b! S7 T7 P& U7 ",
"4( m< 0# T' V7 W7 )% L) _$ X7 Y7 q> Z7 `7  8 w  +^ .8 +8 @8 b] #8 $8 %8 &8 h< *8 =8 -8 ;8 >8 93 ,8 '8 )8 ;2 !8 B= J' ~8 {8 ]8 E= ^8 ,# a( X# /8 [} (8 _8 :8 <8 j( [8 }8 |8 18 28 38 O& e/ 48 58 68 a) 4# 78 88 98 K  v~ ]- 08 a8 b8 @: c8 d8 k7 L) #/ e8 J# f8 g8 }= h8 i8 j8 k8 %] l8 N# <) e$ R_ b2 f1 ): m8 n8 o8 p8 q8 r8 s8 t8 u8 0{ v8 !! s- w8 [) x8 y8 z8 A8 B8 C8 D8 E8 P@ F8 G8 H8 I8 ",
"78 J% J8 3} K8 L8 M8 N8 $/ O8 u# P8 Q8 R8 S8 T8 U8 V8 Z| W8 X8 Y8 Z8 8= `8  9 .9 +9 @9 #9 $9 %9 &9 *9 =9 g  &] -9 a_ ]< ;9 /+ c$ :< >9 ,9 d% '9 )9 !9 ~9 {9 e@ 5) <* u% [^ ]9 ^9 /9 (9 ({ _9 o% :9 <9 [9 Y: ') }9 z] |9 19 29 c] ,1 39 49 U| 1. 59 69 79 7$ 06 89 99 3] u] 09 a9 b9 c9 a& d@ d9 e9 b4 f9 |> 1( `, g9 h9 O1 i9 v> Y( >' J% L] j9 N^ k9 S| R^ l9 y) 4# l! m9 n9 t( '' k. 4= o= z$ ",
"o9 p9 q9 r9 :> s9 T. K; t9 u9 v9 K= L= H. S$ w9 x9 y9 z9 A9 T1 B9 C9  # 02 D9 E9 F9 G9 H9 I9 J9 K9 L9 M9 P' s9 N9 `& O9 P9 Q9 R9 k> S9 T9 U9 V9 W9 X9 Y9 Z9 z. `9 ;6 '' 26  0 .0 +0 @0 A| z] e  #0 $0 %0 &0 *0 =0 :+ S  -0 ;0 >0 I& 2< P( ,0 &' '0 )0 !0 =. ~0 {0 `, |~ ]0 M] ^0 /0 :/ *# d1 {% }1 /+ (0 w; W{ A{ g' _0 :0 i# <0 [0 =* 4[ ,9 }0 |0 X( 10 20 30 5( P{ 40 50 '3 60 =. 70 f& 80 %. ",
"90 00 a0 b0 $& c0 d0 e0 f[ f0 g0 h0 h# i0 j0 E7 k0 l0 m0 O4 n0 o0 p0 q0 r0 s0 t0 u0 v0 w0 x0 y0 z0 A0 $& B0 C0 D0 E; 20  @ E0 h! F0 G0 )( H0 Y: d/ I0 J0 K0 L0 M0 &* {)  @ N0 h% O0 W5 P0 Q0 o7 R0 u) S0 '' T0 (* U0 1. V0 M  %% {9 W0 X0 h$ 1^ Y0 v) O  :: Z0 41 (= D. `0 :[ {7 A.  a .a {] o+ +a _= @a k. #a $a %a +^ h* &a g  *a =a N# -a 40 ;) ;a B( >a ,a 'a m^ [1 o& :{ X_ )a '# !a =: ~a ",
"H) [> `1 '@ {a ]a c0 i< 9= |% ^a /a (a _a q> :a <a [a }a |a H. 1a ]a 2a a- U% 3a 4a 5a 6a 7a 8a 9a 0a aa n. l* ba ca da ea fa V> ga ha g] c[ )% t~ @) ia ja ka 18 {7 la `# ma f. na y% oa G6 '> !3 pa {+ ;> o8 (1 E^ qa ra sa ta ua va y~ P7 wa xa >) ya za Aa D. Ba Ca Da Ea Fa ;~ o8 Ga Ha &. b- Ia Ja Ka l# La Ma R2 Na #^ %] o) Oa Pa Qa Ra Sa Ta Ua Va c] Wa Xa Ya Za `a >> ;4 *_  b .b +b ",
"P' n0 q> @b #b w  (4 {@ $b a5 %b &b *b =b -b [> I= ;b >b ,b l* w( k# 'b i{ v@ )b !b 4' ~b {b ]b ^b 4' /b ~| (b _b :b <b [b }b |b 1b %* E; l} 2b g! 3b c4 l) 9; ~_ 4b `4 5b 6b 7b g. 8b .# 9b 0b G6 ab bb i& cb x8 db eb fb gb hb E9 ib <& gb jb z% `> kb K/ lb mb nb ob pb qb rb sb tb o9 3, ub 8, vb wb xb +; i< yb zb $| ,@ l* Ab Bb `7 Cb Z| Db Eb Fb Gb Hb Ib ]3 8{ p- Jb 8+ Kb Lb Mb L$ Nb ",
"Ob ;- g  Pb <> &] Qb Rb Sb {^ Tb Ub Vb Wb n: i# q> Xb Yb Zb `b  c .c V& F^ |^ +c @c ++ V~ P8 #c $c %c &c *c =c -c =( -4 ;c >c ,c =: 'c )c W- !c S; ^! Z6 ~c i$ 20 {c ]c x) ^c /c (c _c 5, :c <c [9 [c l2 E^ }c |c $# 1c x6 R  2c 3c 4c 5c P] 6c T5 B] 7c 8c 9c 0c ac bc cc dc ec fc gc hc ic jc q> kc !@ lc `b P8 T$ mc '@ nc oc pc .} qc  ; rc '@ sc R2 tc uc vc wc xc yc D< zc Ac o) Bc Cc Dc ",
"Ec Fc @; rc }4 k* Sb &} Gc -> <{ Hc Ic Jc Kc Lc Mc l* H= Nc 3' Oc Pc Qc Rc i; Sc Tc O= l* Uc n. Vc Wc j^ Z# Xc Yc #[ Zc `c  d .d +d g1 i! )) <  h} @~ 20 R^ 1, 1. j> 83 @d #d $d %d &d *d =d -d d+ )= ;d h[ >d U< |> q^ ,d X> 'd )d !d <& ~d {d ]! ]d ^d /d (d _d :d C| <d v/ [d }d v^ q< |d 1d 2d 3d n: 4d H. xb rc 5d 6d 7d !@ 8d 4= 9d _> 0d Uc ad bd cd dd ed fd .} 8[ gd hd id !& a  jd kd ",
"ld md nd G. od pd qd 6*  ) rd sd td 7& b{ -@ ud vd '| wd xd yd ._ z| zd Ad Bd Cd Dd Ed Fd _a Gd Hd Id Jd Kd Ld Md Nd `@ Od Pd Qd Rd *^ K# &. 9! 99 Sd Td N; Ud Vd Wd Xd Yd Zd `d  e .e +e @e #e $e f) [0 %e &e *e ^[ =e -e Z. ;e >e ,e 'e )e !e ~e {e ]e ^e /e (e _e :e <e [e M[ }e 6+ |e 1e 2e 3e 4e 5e 6e Y3 7e _a sc N= h# 8e 9e U% 0e ae w5 be ce W7 ca de j4 J7 ee fe ge ;( D: he ie je ke ",
"l: le me ne oe pe qe i_ n3 9! !( re <* *4 se V' te ue ve we xe ye {] f3 `+ ze Ae Be Qb Ce De Ee Fe Ge He Ie 9d Je Ke Le Me Ne y{ Oe K^ P* Pe )3 Qe 0_ e/ Re H, Se Te Ue Ve We Xe Ye Ze `e  f %e .f c5 N( +f @f n! l) #f $f %f &f *f i) =f -f !, -; y3 ;f >f ,f 'f )f !f ~f {f ]f ^f /f (f +5 _f :f <f [f }f |f 1f 2f 3f 4f 5f 6f 7f C% 8f v^ $, D! d@ 9f 0f Z# *_ J% af bf cf df 7f ef ff gf hf ",
"if jf kf lf C% y6 mf nf {- of I[ pf of U' ~: I7 qf ^  j} (< rf E^ -a sf /_ tf uf o) vf wf xf yf zf Af Bf Cf Df e6 Ef f4 Ff @: *< .{ Gf 1! $[ Hf If  { Jf Kf %> u% %- Lf Mf  . Nf #4 Of Pf Qf Rf `> Sf 2= *~ Tf z) i- Uf Vf Wf Xf Yf Zf `f  g .g +g @g #g $g %g &g *g B3 =g -g ;g >g ,g 'g )g !g ~g {g ]g ^g /g (g _g :g <g [g }g |g 1g b] 2g 2_ If 3g +[ 2= 4g  * 5g 6g 7g 8g 9g 0g ag bg cg dg ",
"eg fg gg J% hg S; V- O_ e  ') ig jg kg *3 q. of z= lg mg Q{ _/ ng og pg :c qg rg sg tg y= ug vg wg xg O2 yg zg %^ Ag Bg Cg Dg Eg ,  Fg Gg N8 r) .a 88 u~ d@ <{ f@ Hg &3 Ig &: Jg 8^ 07 Kg +, Lg ^' Mg Qd Ng =0 10 2  q& +( Og Pg q} Qg N  Rg Sg Tg Ug Vg Wg Xg Yg Zg `g  h .h ]. z, +h @h #h $h %h &h *h =h {+ C% 3g -h ;h >h ,h 'h )h L  !h ~h 1| {h ]h U> ,) ^h q> U$ _4 /h (h _h L  j! ta :h ",
"S[ o7 }' ($ 5  t- <h |  [h }h hg >9 |h $/ -_ T0 F, *# 2= Ha Q~ 1h }] 2h 51 3h 4h << 5h 6h 7h 8h 9h P' 0h ah bh `7 l* ch dh N& eh fh C% gh ': :{ {) ,  b+ (| U* o} %> hh ih jh O{ kh !g l@ lh E^ mh nh oh 5* ph d@ s) qh rh sh Tf th uh vh wh xh yh zh Ah Bh Ch ./ I@ Dh Eh Fh +* Gh Hh Ih Jh Kh Lh M& Y9 Oe _+ ;( Mh Nh Ya k> Oh Ph Qh Rh Sh ;( %{ R! K& Th Uh F) Vh Wh b0 Xh Yh Zh M^ `h @[  i ",
".i e' D= K# *^ 4$ '3 U> +i (= H* i- @i $, J% @' z= &. P> #i i@ $i e9 &( %i D; &i g' *i w_ Tc O4 =i -i ;i wg >i ,i 'i )i !i {{ j^ ~i R6 {i ]i h& ^i f} /i ]9 e+ N; I7 J@ 1( j( a5 (i _i :i <i X6 [i ,> }i |i (] {: 1i g4 2i L] p< 3i 4i 5i 6i 7i 8i 9i 0i ai bi ci di J8 ei -: ^  e# fi gi hi ii ji ki li mi }2 l8 ni oi pi qi ri si ti ui w> de vi h4 0! wi xi yi =b H. N= zi Ai U$ Bi Ci Y: Di ",
"Ei K;  # ba Fi Gi &% Xf Hi Ii 5  W# e< e4 Ji 7) 2= E% := n! Ki Li ;' Mi s2 Ni Oi Pi Qi Ri Si Ti o. Ui Vi Wi 3@ Xi ,@ Yi Zi Z] Oa `i Y#  j A_ ~-  | g[ .j x- +j => $/ @j b& *# #j $j 4! %j &j *j =j E; -j ;j >j (| H7 ,j 'j )j ,1 P! !j ~j {j ]j Y- ^j /j $% (j &  C( _j :j ^+ <j {4 [j }j |j D9 e> 1j 2j (6 l. Q# 3j Hb 4j 5j 6j 7j 8j 9j 0j aj M! c' bj xi O4 +; G) cj Pb dj i# *] ej fj J# _  ",
"(, <) D] _  gj hj L/ h8 r. {g x) z] ij /) h& 5| rd oh E; K# -6 5. (] z- jj &0 *# kj lj mj nj oj pj qj rj sj tj uj vj wj xj yj :1 /| zj Aj m% 'j Bj o} Cj .5 Dj I; Ej `& f, }5 Fj Gj Hj Ij Jj Kj U' Lj Mj Nj Oj S] ]7 Pj D: Qj Rj ;6 Sj $_ Tj Uj Vj Wj Xj Yj q$ Zj `j  k k. x. .k ]- +k @k #k $k %k &k *k :/ =k &, /! /- -k ;k >k ,k Of 'k )k  a __ !k ~k ]@ Be {k lj ]k 0, {@ m  ^k /k `: L] M{ ",
"(k Ad D! )( _k :k <k [k }k |k |' ^+ F} J# a& g! 1k 2k 3k 4k c5 X& 92 V> 4= Z# 5k <h 6k #b 7k 8k 9k 0k U1 ak bk ck dk 6a ek fk Z( gk p5 mg -& hk ik lg jk {{ X0 Z6 kk g$ lk mk i: nk ok pk qk :' rk _  sk tk uk f+ 1. vk Le wk X& s( xk H  yk zk Ak Bk Ck Dk Ek Fk ~# Gk Hk M) Ik W0 X: Jk Kk Lk Mk Nk Ok Pk j@ Qk R! Rk Sk @) I3 Qj Tk Uk Vk L/ Wk Xk T$ Yk Zk `k l: l:  l .l +l 1! @l #l $l %l ",
"&l Y: z% )( 1  P@ E^ *l =l -l Ii ;l >l $# Y: {6 8! ,l X0 'l A_ )l *# U0 g! |/ !l s- ~l {l ]l ^l /l I= H. (l _l :l Ka <l [l }l -* ,+ n! r~ 4$ |l b] W- &. #: {{ 1l L{ 1| J2 2l 3l 4l 5l 6l 7l t= .} }h <^ i! jh {h c9 J8 8l U9 9l [/ 0l R^ al bl cl dl el fl gl hl il jl kl f$ ll j~ ml nl ol pl ql rl sl tl ul vl wl D! =: $( xl hk yl zl 8+ Al Bl T2 Cl xb Dl jd El Fl X6 !< Y: }% Gl F* &. ^' ",
"t8 >l O~ N/ G  y4 Hl Il Jl 2, }i :1 9! e^ J] ja Kl Ll Ml Nl Ol Pl g! Ql )) 3] E: () Rl P' K$ G$ a0 I. :> q> Sl Tl Ul Ed s9  1 Vl h{ h{ M_ N0 M! )) `4 c= e} B4 ;] 8! Wl !l L/ Xl Yl x: Zl `l  m .m '  b] ]2 Hg +m Q{ (] @m #m #j #j c= 0= `[ $m %m &m *m =m -m ;m >m Lh o( #@ ,m 'm )m !m ~m {m ]m ^m /m (m _m :m <m [m ]] }m |m 1m 2m 3m 4m 5m 6m 7m 8m 2; 9m 0m 9( am N0 }h {{ P& bm cm o- (^ ",
"dm /, em /) fm gm hm e' im jm km lm mm nm om pm h6 3a qm rm sm +~ D= v> 5< tm rf um vm wm #] c0 xm ym I) o# zm Am Bm ,b j0 Cm Dm T> Em Fm M^ k@ 18 Gm hk Hm tm j& d= W# B) k3 A] Im Jm Km Lm Mm Nm J8 ($ Om b{ 8! r@ Pm 1' Qm l7 Rm D= ^+ /, Sm Tm Um Vm Wm E@ Xm Ym Zm `m 2i  n .n +n @n #n $n %n &n *n =n -n ;n >n }( ,n yi 'n U~ Cc )n _> !n h4 ~n {n ]n `& ^n s- `@ /n of (n T| _n :n Ya .} ",
">2 Pe s& W7 <n [n Y) }n |n 1n 2n 3n 4n 5n -{ 6n 7n 8n t= n8 }' 9n 8; R_ 0n an 4{ bn cn dn en fn gn hn in jn V~ e6 4' sc 3; P2 kn ln mn J; 4_ |> nn on T  pn qn a& c[ *: h- >_ 8= rn sn tn un z< vn E% F  V> ') u9 E% S| ~% `~ $l P> 18 wn k> xn yn zn An Bn Cn }# Dn En Fn Gn 5i Hn In Jn m> Kn Ln Mn Nn On Pn Qn Rn '' Sn c0 Tn c, Zk Un Vn Wn Xn Yn Zn $/ &( `n h} n%  o T6 B$ .o o= ^' of e  ",
">+ e  S6 *~ A6 +o @o #o Z' $o .3 %o &o *o =o -o d1  0 e+ J8 Z:  { }_ b[ W_ ;o 0g >o ,o 'o )o $& !o ~o i< {o k# I. i< Z3 ]o ^o oh T6 +~ D! /o cm S6 |) I< z$ >l v; M] (o F< _o k> u9 {g :o <o Uk g] << b4 %i ka P( 8! ;{ $l $l {6 [o #: ;* 2b }o E/ |o 1o 2o 3o 4o 5o 6o 7o 8o 9o 0o ao bo co do eo x5 jn fo go ho io jo ko T$ _a Xb lo mo no Lc oo po qo ro so to uo vo wo xo yo j~ Di J@ u@ 3) ",
"zo ,  Ao $~ Bo Co Do Eo Fo Go Ho Io Jo 6' Pj `& ka Ko k@ h- Q{ ;{ /+ 8b %~ Lo }[ Mo kf ^4 No Oo Po Qo Ro So n0 ke  ; To Uo &* 0$ 9) Vo ~. G; *^ 4/ C< Wo :+ Xo [% Pe &. /_ X5 Yo ][ ~g P! Zo `o x' -. N( /) Q- p- {{ t-  p f+ 92 n3 W7 (| .p +p @p #p U) $p %p #% &p *p =p -p x, ;p Ci >p ,p 'p )p !p ~p {p ]p 3; ^p /p (p 9  Tc '& j# Uc xm  ; _p :p Ld Wh <p [p O2 }p |p 1p 2p 3p {] 1( se F  ",
"9! y( 4p 5p 6p 7p B- 67 {8 8p 9p 0p ap R  S> 5k y- bp := ') cp R^ dp ep fp gp hp ip jp kp lp mp np op pp }@ qp )o rp sp N^ z% tp I/ up $* vp &0 3j wp >_ l) *3 h! xp -7 ya yp zp Ap hp %@ Z< Q* a5 Bp w) Cp i! 7$ N; W# 4  9) Dp Ep ;* Fp 1c Gp Hp Ip o' Jp Kp Lp Mp Np Op Pp Qp Rp Z( Sp Tp Up Vp jn Wp Xp Yp Zp `p 2= Y7  q .q (l +q @q #q $q %q &q <3 *q =q -q w9 ;q _4 >q ,q 'q )q q- G0  : ",
"!q w% ~q {q ]q ^q s. /q (q _q :q <q [q }q g' -a `i |q yp H, D= 1q 'l 2q 3q }. Dg 4q 5q 6q 7q 8q 9q 0q aq bq cq dq #- |~ $. D6 gm P* eq fq gq S@ %h ~g hq  # L)  # N; y- M# ]- <% 9! iq '  -f jq &: Le g_ I> :c kq I$ n! 75 lq Q_ Y. Tk mq nq oq pq qq rq [- sq tq uq vq wq xq yq zq Aq =a Bq Cq Dq Eq Fq U~ 9, Gq Hq Iq Jq Kq Lq Y3 Mq Nq #b Oq k: Pq 3d O4 O2 /a Qq (p Rq Sq Tq Uq S@ '3 {% J] ",
"Vq yj U@ Wq Xq U  2g Yq Zq !) `q  r .r +r Zo x- @r a( ka #r |~ l> $r %r &r *r =r -r ;r >r ,r 'r )r !r #} ~r {r ]r y7 h| )> ^r `> 0j @, i{ /r ~_ l. e@ o} 0; ($ Y: _| _$ >l K7 x% (r F< _r :r <r [r }r |r K* 1r r[ S@ E; 3) Jb /o 18 2r 3r 4r 5r 6r +- 7r 8r 9r 0r ar br cr dr er Q7 fr Ib $0 gr hr {& T$ ir Zk x7 !h jr <$ kr lr mr nr or )o pr V' qr rr _> sr tr _> p0 ur m0 vr wr xr Q~ :{ 5h ",
"Oi yr zr %5 tg ma l) .a 55 2[ 2[ =. Ar D8 Br D] g9 z| Y: Cr |: Ad E} Dr Er u] Fr 3) M% Gr Hr Ir Jr Kr Lr Mr Nr Or ;] (r Pr ,) c1 @l Qr pa z~ s- D= ;. C; k@ d@ 0$ S/ Rr H; }' Sr Tr o' h- Ur Vr zd >* Wr L! S@ {% g' H* 6  Pe `i h& 0# h] i] Xr Yr Zr `r  s .s +s @s #s $s %s &s *s Bp =s -s ;s >s ,s 's qc )s pe !s ~s {s ]s ^s ': U' /s #{ k7 B; (s j  _s +; &] @b :s _4 xb #; wr <s zj (, -_ ",
"!/ [s }s |s 1s 2s 3s 4s 5s 7$ o} {{ 6s ^  7s em {) e^ 8s Ad u9 9s k% 0s as Ei bs 9^ cs ds es fs gs hs is bn zn js ks =a ls ms m5 )b ns '2 4+ n= os c2 s= ^' 5( O! ~) J@ 7$ j} D= R! o= ps qs rs ss ts us S6 Q> vs }  d@ *, 1_ |< i_ u9 ws p! xs ys zs As n1 Bs Cs Ds Es 2- Fs Gs Hs v4 +{ Is Js I[ Ks Ls Ms Ns Os Q3 'i  @ pe 0& Ps H, d1 Qs Rs M# Ss Ts Us Zk 1; Wb Vs Tc Ws <> {& Xs Q{ 1' -^ ",
",> 80 +* J% u( B= !1 Ys N; Zs `s L{ i! S  D]  t E% L] Bp #{ .t (0 +t @t #t 6_ e@ d# *, }8 $t %t &t *t =t -t ;t r% >t '3 ,t 't T. +b )t !t ~t ,> ^' {t ]t h& ^t r5 Y: o= Jb /t pq .$ c_ (t _t rh b{ :t <t .# o} ;4 >{ -j 1, >' [t }t <( 5s |t 1t 2t 4q 3t 4t 5t 7@ kb 6t 7t 8t 9t 0t at T^ bt M^ ct y. r5 J] dt @b +; ]@ et ft gt b{ {_ ht it q~ k- jt kt _s Q' @; <> lt ,b _> %; ,b mt nt 1l W{ ",
"y2 := ft ot {. pt 1, C) qt rt e1 st ;4 3< 1_ 8+  $ #{ z~ tt Qk ut vt #b wt xt yt bb X6 '% zt At Bt zq Ct Dt Y. 88 Et Ft 6g e6 #; V~ =' $t Gt +) Ht N8 It Jt !l h! x8 D  Kt s} -0 Lt Mt Nt Ot Pt Qt h} >l Rt O! St [$ ][ ;< @' X6 Tt E  t- Ut Vt Wt Xt Yt Zt `t  u @) @n .u +u @u #u $u %u &u !> ,) t( L2 *u =u '} v_ -u ;u >u o7 8{ ;< ,u 'u )u !u 9! k} ~u Ed {u ]u h* @; sc ^u Z7 #> /u Ni 5  ",
"hp M( h! (u )# `a 9! #{ ]c _u  & f[ W# :u i$ s3 s) i! <u Tr [u }u 2; ad |u 1b 1u L0 u; 9^ 2u 3u l< T: E. 4u q; 5u 6u Y3 h0 7u ,6 8u 9u 0u au ]! bu )% cu du eu |h fu gu 3g hu iu ju x@ ku lu mu nu Ad l) ou %> J% (= $' -& 16 {: pu qu ru Q! su ># tu uu vu wu g. xu yu zu ao Au Bu Cu Du }# k& >  Eu Fu Gu Hu [, q> Iu Ju .~ r[ u~ Ku ;_ J# Lu vk z% c2 L{ Mu Nu Ou Pu Qu R$ A9 4' &] Ru i- =. ",
"T@ u; 18 l/ }r Su g[ S{ 9! Tu =_ ,k }} d} (k Uu Vu b{ Wu hh {: Xu Yu g# Zu zt >' L] `u  v .v +v @v #v $v X_ {= %v &v E4 Lc -u *v =v tm e^ ~( 48 R7 8+ If e$ oh -v y| )a {6 ;v >v ,v 'v )v !v ~v {v <] )# k. d@ C] se Jb n% If 7$ j{ ]v  } N# R_ ^v /v (v _v :v <v 15 {s [v }v 6c |v I3 db 1v 2v 3v 4v 5v nk 6v 7v 8v 9v 0v >' av bv cv << 7$ _1 x$ dv 9) 0_ ev fv /& gv hv iv 4a jv kv I^ [t lv ",
"o= W{ mv nv ov V+ E< }+ pv }2 Om S| qv hg o& rv P> d@ &0 sv tv uv vv wv &: ^r 8+ xv Cr r( yv zv O[ Av Bv Cv Dv G_ Ev Fv Gv Hv Iv =) Jv R_ (, Kv C% 50 ,( )3 D) m% h$ Lv Mv Xa Nv Ov xh 92 g- M  5| '. Pv Qv Rv 1g 16 u9 S@ Sv Tv u9 :: 7_ U) '' M+ Uk >^ Uv Vv Wv Xv j% Yv j% Zv `v  w .w +w @w #w $w yh bn %w &w *w =_ &0 ^2 <) =^ 9[ ($ yp %( )( 5| W! G, s= Uu =w -w ;w >w ,w 'w  # &0 ~7 ~- ",
")w D* !w Q; ~w {w L5 Sj ]w V' Y: !3 ^w -_ E; P* 1! <) u( kh S( /w P> `~ )( Z# (w _w 6. J' R0 :w <w [w }w |w 1w 2w /+ L^ {6 3w 4w S{ 5w #{ B6 6w 7w 8w N{ }% L{ l. 9w 0w aw bw &u cw dw p% ew fw L! &0 @) gw '( '/ q5 Mi hw /= iw 8+ Pl h! s@ ^' 1] 5( jw C: kw lw 4# J@ oh ^: l4 mw nw ow pw qw rw sw tw uw vw ww xw u9 `# =. ~: Om .} '3 Ni yw ;_ >* v3 U- zw |( Aw Bw Cw Dw Ew T6 n! b] w@ [< ",
"vs Fw Gw Hw o9 Iw Jw _} ye Kw V/ D= Lw S@ N; Pm }( y- s@ s- Q/ 1( Mw Nw Ow Pw o8 Qw }o F/ Rw Sw Tw Uw Vw Ww 5: Xw Yw Zw L# `w  x :< >) C; :n *: .x +x @x 0& <+ #x C{ @7 Ko F/ $x %x &x ~6 *x =x -x ;x >x ,x 'x kw F, )x Th e  14 Pr wk 9! ]7 Om Pg !x =) ($ ~x J# 4| iw {x ]x y%  * ^x /x (x _x :x <x [x }x |x 1x d* e9 J& |  2x ;l `i 3x 4x 1, 1r 1' 5x 6x ^w 7x P* a;  & )< Q{ 2[ &. d@ s) t, ",
"E; ft 8x Bp 9x `a 0x ax C{ g@ 0f J8 -j 2=  o S@ s- $/ bx (: 96 ') cx dx N# ex (, fx E% '# -c |h 6= Z] g3 gx hx ix jx 4/ kx '( W{ 6  =_  $ 1' lx mx nx ox g] 92 @: :< 4# e  !g px qx rx j; sx I3 i~ <1 =a g1 3| tx k> gm 5| &. !' ux T: rf 2= vx wx P@ xx Oi yx r5 zx 41 Ax Bx Og c= 2! Cx Dx a' u~ y) x] Ex Fx Gx Hx Ix ;@ 0= Jx _$ Kx kc Lx Mx N# =_ B% Nx 96 -j of Ox J% Px +( ,1 ]1  < C8 ;4 ",
"2[  f Qx Rx Sx ~. Tx Co Ux Vx Wx Pa I% /p := .{ Xx I7 d4 B] 7' Q; Oi =( Yx R_ 1~ Zx gm `x  y ]7 K{ 8+ u> .y 2i +y @y #y $y w+ ~:  < M] i@ Qe %y 8h ]@ &y bs }' *y t& =y {> -y ;y M} >y ,y 'y )y j8 C; !y >k zd 8' [: ~y  { B% *' _$ {y }_ ]y t~ Z: Da yt 0& ^y n% U> Y. -] T6 /y ,  A* (y fr C= Fj _y >, :y <y k5 [y }2 }y W{ |y 1y +3 2y P8 xb 3y 4y 5y 6y 7y 0$ F, re }( 8y I@ 4$ 0= 9y 8+ 0y ",
"ay Ib by cy dy ey y3 fy l1 gy hy S  J8 B+ iy 34 R; <) [< %i ') 6w wk jy :% b] D] ky z( o+ E; R( ly my ny oy Av py 'l N8 28 ;{ ^: := qy ry -* f+ sy '& ty _, i$ uy vy wy #) xy yy i2 t* zy -= Ay By Cy (e Dy B+ Ey mv {6 N# +~ Fy _$ Gy Hy Iy qu Ku Jy c4 >x Ky |1 Ly |  (1 c( ;y My Ny -x Oy Eg %. Jb oi Py Qy ,d ^+ y. Ry Sy Ty Uy Vy sr q> 9d Wy Xy Yy Zy %{ `y zo g!  z 0{ H0 .z B+ +z @z d~ ",
"#z $z %z &z 8@ >u *z B1 =z j5 -z ;z  ) n3 j~ >z Om {7 Hb |0 Om ,z y| 'z )z ft 1] 6] _$ )_ !z Q~ ~z &( {z ]z .h ^z h~ 01 /z c= (z _z u~ 3* :z <z ') [z .6 }z |z 1z 2z 3z 4z 1$ &3 07 5z 6z =$ 7z 8z Wv 9z 0z az l@ Nd 40 {) 9$ t- Pe bz t; Z} cz 6  h| &. ]! dz ez Gh fz Rf gz hz o' iz x^ jz =( ]9 =k kz [y lz }; mz nz 9g :> oz no pz U~ T1 76 qz  ) _* dv rz /| E; Za E; sz `6 $: tz uz vz wz ",
"xz yz zz yz Az Bz Cz B[ ;h B@ Dz Ez 8; w. 3l Fz z| r1 'j F^ Gz Hz h9 Iz Jz N#  5 Kz h{ Lz 4  Mz 9( v3 Nz F} Oz Pz `& Qz +c Ti O2 Rz Sz q< yj Tz Uz 7p Vz Wz Xz Yz yl Zz te  } px `z *p  A .A +A @A 3o f% #A $A %A T* &A *A =A B~ -A ;A )# i{ >A c' i[ sz ,A K* 2& 'A {s )A b' Iz !A ~A {A ]A ^A G5 /A (A 5= _A :A <A [A U~ h# }A 5n Bc 7d |A 1A 2A i_ 7$ `v 3A .5 M( [0 l+  o n- 4A 5A 6A 7A 8A ",
":@ Xg 9A Cz 0A aA ]* bA M~ cA dA eA [* .j fA gA hA 4. ng iA N^ 9# `, jA l; /_ ,) ;) 7l kA lA *# Z] i[ 4} {- mA nA *- oA pA >! qA &a 2; rA 7^ r< 8: sA tA uA vA db wA xA yA q  5z zA AA BA CA DA `m Qp EA FA GA HA S5 IA 7' 3) JA K# KA G, LA MA NA x% {{ ^< fg OA Cx PA B; QA RA SA TA UA VA WA XA YA #_ ZA `A  B <> h# .B ]b H. +B @B #B $B %B N8 g! &. J% ;@ &( &B V- J# J% *B =B -B ;B >B ,B ",
"'B U} )B !B ~B z: {B ]B ^B /B (B 9i ~* _B :B <B [B }B |B 1B 1$ 2B B{ 3B 4B 5B 14 |> Qe 8^ of O1 =A E  &. ,. 6B 7B _[ 8B 9B 0B S3 Df O2 aB bB cB dB eB fB gB hB iB jB kB lB mB nB oB pB qB rB ]B ;& U= s+ S@ }o sB g1 =# tB V  uB .| 7= K; vB X- 6  ') sk Cx wB xB yB zB ~9 Z> AB BB &! y2 CB DB EB i- W  FB GB $+ {& zi G! HB ^/ o. IB JB KB kb j4 ~% of v@ M^ G3 LB gB 8[ E6 g. %s MB NB OB PB ",
"QB 3& RB SB T= TB Op UB VB C| WB XB YB ZB `B  C .C 3l +C @C #C $C d% %C C2 &C *^ *C yp kh =C (, X# {' -C ~- ;C >C @A >A (, ,C 'C >q +^ n. )C !C ~C Z< /- V[ i] {C }k ]C ^C  = /C (C _C :C <C [C }C |C 1C 2C 4) %# 3C I/ 4C 5C 6C r. &0 B  48 7C 8C f| h] 9C 'y Ib 0C |9 A- sB 6{ -^ aC 94 bC h7 cC >% 0& dC eC 6g fC @q gC 7a hC iC jC kC lC ,) t& {h d& ]w mC nC oC pC NB qC rC sC tC uC vC wC ",
"xC yC ._ zC AC BC CC /# CC DC ;f EC FC GC HC IC JC (- 0x KC j/ p< LC MC NC OC PC QC a- 9) RC {6 SC as TC UC fj VC Sy Ao `, ~3 WC Y3 R8 &} l* XC YC |+ ZC `C  D Bs &- #% .D +D @D #D O+ $D %D &D *D =D -D ;D D  Q{ >D ,D %: P7 'D ') 26 a& )D x+ !D 15 ~D {D iA Q* ]D N7 e# 0' ^D !+ /D (D _D :D <D [D A2 }D t5 |D 1D *| 2D 3D 4D 8, 5D 6D ;6 g! i& )w t& <. 7D 8D 9D 0D ^B aD bD cD dD eD fD gD ",
"hD iD ff jD kD lD mD nD oD pD qD rD sD tD uD F& G2 vD Mf >u wD xD yD B[ zD AD BD CD Lv Bj M( -^ DD ED FD GD k: HD ID JD =l 10 ,. KD LD qc 2p MD ND >B OD PD QD RD SD TD UD VD &D WD XD YD ZD `D @s F2  E Y@ )= G, .E Ad P> +E Dp @E  { #E $E %E y| &E *E =E S; -E l; ;E >E ,E 'E )E !E ~E {E ]E ^E /E (E _E :E `k Cl 8, <E [E }E |E 1E >x 4u kg l7 %h }% u& Ds ol 2E 3E 4E 5E 6E 7E 8E 9E 0E aE ",
"bE cE dE eE 0z fE gE hE iE jE m, kE vz *) lE mE nE oE pE qE rE sE tE yC uE vE wE xE I< >' yE 5$ zE AE BE CE ^' <] DE EE FE GE #: HE IE JE KE LE ME NE 4v OE PE QE RE SE u[ TE UE VE WE XE YE ZE B& z/ `E  F )h .F +F @F 6. @l N^ 7< Sa @[  y T' #F ($ $F %F &F *F i: =F -F ;F >F ,F |t 'F )F w, !F ~F {F ]F ^F /F (F _F O= Be :F <F [F }F |F 1F 2F @k 3F 4F 5F 6F 7F 8F (- 9F 0F aF bF cF dF eF ",
"fF gF hF iF jF kF A2 lF mF nF oF 4l pF qF rF sF tF uF vF wF ar xF yF 4o o  zF AF BF CF j{ {_ DF &A EF FF GF Ik HF &_ IF JF KF LF T9 MF NF OF PF QF RF SF TF UF VF Pv WF XF YF ZF `F i$  G .G +G @G #G $G %G &G *G Ne =G /* j{ -G ;G >G s( h] }) ,G %# 'G )G !G ~G {G V9 ]G ^G /G 7@ (G _G :G <G [G B[ }G |G 1G 2G 3G -u ae 8m 4G 5G 6G 7G ]< 8G e5 9G 0G -F 0z aG bG br cG dG eG AC WE fG gG hG ",
"iG zz jG kG 0z lG mG nG oG pG qG rG sG Oh Go tG uG 'B vG @G wG xG yG H- zG Z5 o% k% AG :/ BG CG DG 99 ~9 EG 1_ K^ L# FG GG HG IG JG a$ KG LG MG NG OG PG QG RG SG TG Pg UG Y! VG WG x{ 'g XG YG ZG `G  H A> %g .H +H @H S% `w {% 31 #H $H 0u %H &H c4 *H X! Ko Dv =H -H ;H >H ,H 'H )H A] iu !H `/ ~H {H ]H ^H /H (H _H :H M4 <H [H }H |H 1H 2H 3H zn 4H $) 5H 6H 7H 8H o{ 9H 0H aH bH cH 8G r4 ",
"z= Zj Y) dH eH fH gH hH iH UD NB jH kH Wt lH mH nH 5A :G ,; E| B> oH pH c( u~ :+ qH '] Q; rH C; i} Pd Lw j~ sH |< tH uH vH 'C wH c< J# Z: |b xH yH zH {h i~ AH BH CH a& .5 DH EH ix FH 07 GH HH IH JH #= KH LH MH NH OH Y# g4 PH Y# x4 Ap QH RH p< n% SH v) ph TH UH Sm +$ VH d> jq WH XH j3 YH ZH `H  I .I -} +I @I #I $I %I &I 'y *I l{ =I T: -I ;I >I r% e- ,I 'I )I ~t }F !I Zv Fh 'v ~I `; ",
"x6 {I JC ]I ^I /I (I _I :I <I w& [I 9E }I |I 1I 2I 3I 4I 5I 6I 7I 8I 9I ]f y% &0 1] 0I >) 1[ =- aI k@ _1 bI l+ (, w. `+ cI dI d9 v2 `+ eI fI gI hI |[ iI R_ 5~ jI kI Ko p& (^ +F lI mI nI oI pI qI rI sI tI uI vI wI rE 0x z% o} fr ft xI yI [m ,u k> #7 ik zI @m `@ X6 -x Bh AI g& BI CI M+ DI EI 1F FI GI HI II JI KI LI MI NI }7 OI ep =a PI QI RI ol SI TI UI U0 VI WI XI YI ZI `I :' := aI ",
" J S7 .J +J @J #J $J %J Q: &J *J =J a~ -J ;J >J ,J Zl 'J )I U, )J !J ~J {J kA ]J ~: b2 ^J /J (J _J != `v :J /1 J% ^5 jo 4  Q> <J T6 d= [J }J (% |J 1J Jo d= 2J ][ N> !/ *3 kh 3J 4J F{ 5J 6J Du 7J 8J 9J 0J E& aJ ]e bJ kE cJ dJ 8s g! ^. eJ 9! w) @r UC fJ gJ h+ fj hJ &. 0w iJ jJ y@ kJ lJ 06 8/ mJ N_ nJ oJ pJ qJ rJ sJ tJ K! 65 uJ vJ wJ ~v xJ t3 yJ zJ AJ BJ CJ DJ EJ FJ b{ c8 GJ :] =. jo ",
"|* HJ IJ JJ KJ LJ MJ NJ OJ PJ QJ RJ SJ TJ Q+ UJ VJ WJ ]z `G M< 5E A> .n ;G XJ 5k e< h- gp B{ YJ 2[ {_ T| ZJ D! {6 oh G* w- @f =+ W7 s3 `J  K K/ Hg .K em S* +K =k z% >l [) <{ ^8 (= @K #K uk $K Qe %K q~ &K _@ >y *K =K -K ;K >K P> *4 =4 &0 9' 1^ F^ ~' 1( .o B; q& hq 0_ 8( ,K 'K )K !K ~K {K ]K R! Y: P> ^K /K %] _4 (K <{ M) u8 _K }] :K #/ >g <K [K }K |K 1K K  4# k. $C 2K @7 Ad }( 3K 4K ",
"B; 2g 5K 6K 7K UJ V= 8K 9K 0K t9 o   f OB aK bK cK dK <* eK y] y< fK gK R] <k Lw hK ep iK L  J; s= jK kK z- 9! k> 9# Fg lK a5 ev mK nK Y7  8 oK ~: 85 &* cz pK p- 0_ S( U* &( nt qK |e rK sK tK U' uK vK $i wK U= xK yK zK AK BK #{ CK a! d$ m9 P_ :% DK EK FK }0  m 2: GK !a P@ HK Se IK JK 6G {= KK UH LK MK NK _E OK D! ^[ .}  j BG J@ PK 5$ QK RK $p SK o% TK Tr 5h cs UK |7 VK P* ~g WK lg ",
"a5 XK V[ YK ZK |I `K  L .L +L @L #L $L %L &L *L =L UH [0 -L k{ *@ ;L >L ,L `[ 'L Py )L =l !L x. Rv ~L *~ 45 cm 1( 0} A+ {L <* `u I$ ,q ]L ^L %e S6 Yn S| 1, Re `i It Om of Q# Fi 0) DI /L (L _L Y: V9 L] :L <L [L }L |L 1L 0D 2L 3L 4L Iy 5L 1k 7} G* .z 6L m8 {7 21 N^ L% 7L 8L YI 9L 0L aL bL cL dL eL =: f& c8 fL gL hL ,: o} t& iL A~ Ya /= 6] jL kL lL mL nL *# oL t8 5k pL K7 *^ R! kg -* ",
">* 94 qL rL sL OB tL uL vL Rh wL xL W) yL zL AL m& Zx BL CL DL j_ :L Qd EL w. FL C- j> ,( E^ 3  U* !% %i >' x% l7 ,. GL 9{ f^ f@ HL #] H. IL JL w+ )/ ]2 W# au >* If x% S@ J] KL !3 g5 N& LL ML H- NL m- OL PL !t qE QL w, RL SL TL UL G^ VL S| pu 5  WL XL YL ZL `L  M .M +M @M #M qm $M %M &M ww E> (% Zw )' mg $# E; +* .{ *M =M s= z( -M )) ;M >M ,M 'M )M qw >( -* B% Nz <* !M )j Ql 6* ~M ",
"Ya _  fG {M ]M ^M /M (M _M :M <M [M xC }M |M 1M 2M 3M t, *x $) c_ j8 #w N% G0 am rh T' Jb _[ 0= #{ G  4M 5M &( Q{ Aw `6 6M 7M #! 8M 9M +; 0M aM 7' ny |> >* 0& 5x C] bM 3  j& e$ =: cM dM e3 eM fM gM =* xt zD hM iM Ds jM kM lM mM nM oM l( 26 Lw I* pM 0  qM rM sM @; Be _4 h# pm tM Q2 w( uM vM %: ($ ): wM xM ^. `y M( ;4 9! /~ F* 7$ `i yM Oi zM AM 4L )F >d `o +) BM 5y h{ >* (| 8+ M] C= ",
"CM DM EM FM GM HM IM JM KM LM MM NM gE OM PM QM RM SM TM UM VM WM :| hk CK XM lg |% r= d& iy t8 2| YM ZM `M &' v~ R{ yy f0 D)  N k* 4' .N +N jg ;< g' @N #N I[ Uu h} 5] $N 8' 1( /} %N V  w% &N (= *N ;7 =N -N ;N >N ,N 'N )N !N ~N {N ]N ^N /N tv Lt (N _N :N <N -q [N }N %| Y7 |N 1N 4n pz 2N 3N 4N T' N; 5N 6N ;' ]i {h ^J N^ 7N 8N >' 9N H, 0N b: aN ]! bN B= Dh  & ]= .j Q# /} cN .} U5 dN ",
"eN b} g4 n3 fN gN hN z= Om {7 l) iN jN kN lN YK mN nN oN pN qN M[ rN sN d> M< g' tN :< uN vN g! #p wN bg xN }e )D O; Pg y$ }( yN zN k* <3  ' t~ t> }/ AN $; BN t~ &0 w. Og Ki t~ yw D. `+ CN [[ `: DN o] Rx EN FN ,< GN HN IN JN KN LN MN NN w6 [6 ON PN QN RN SN TN UN VN WN XN YN ZN `N  O .O +O @O #O $# $O 2= %O ^' h& &O *O 9' +~ =6 <* =O h& -O ': 5, ;O >O ,O P{ {% 38 %- l} 'O 0# -# |  ",
"9! qu s@ )O {i M( ,# z$ x% !O Q~ ~O )4 {O ]O ^O )1 z1 /O (O )f _O :O kL Bz <O 8} .z Qe 4  [O ^w }O |O u/ 1O 1* 2O ;^ -2 i- 5I 3O |E =1 V1 *. 4O 5O 6O &a Yk 7O zj (: 8O d4 ~( 14 9O 0O aO bO va _f c- cO dO eO fO gO 5F hO iO jO /M kO p{ lO Fe mO nO oO pO qO rO sO ;{ p- W- v> tO 04 uO T& vO Q7 wO xO yO zO /o 7w *{ $# AO BO h{ CO DO 8[ R* EO Z: o8 u@ FO pL /* Oe <z p~ [t R  B  -& <n a[ ",
"~_ !1 3^ G0 Xx ., Pe 1' 1| mg |  [[ GO HO IO JO KO LO MO NO OO PO Tx *) QO W* <6 su RO 9_ SO z] #% TO Jo UO VO WO XO YO _| ZO Ld `O />  P =_ .P +P @P #P ur Vy 3$ *- [/ $P m% %P &P *P =P -P ;P >P ^} Lo ,P 'P iO )P !P z$ ~P {P ]P ^P /P (P $H R6 t1 _P :P <P [P d] r= o= l= }P |P tB 1P 2P NL g{ 3P EA _! 4P {z 5P  o yE `x #i k! 6P !M 7P 8P 9P 0P  < Cg aP 2C bP s- cP dP y| eP N8 $' E3 P! ",
"fP ;{ gP +~ Em J@ 1( Q~ &* iw &0 #m hP iP jP kP lP mP nP oP pP eF [H E' qP rP *) sP tP uP Y# vP ^< 5@ wP xP yP zP AP RD BP ^u CP O4 *] DP EP FP )o n0 P' #+ GP HP IP JP 2^ {- KP LP MP NP OP G% Z; PP tF QP 5i RP SP qa TP UP VP WP [0 mq XP u[ YP '4 ZP `P  Q N> jt .Q w4 pO +Q @Q zB Z9 #Q $Q %Q &Q *Q =Q -Q Pp ;Q >Q ,Q 'Q :{ o} )Q MA !Q U% j4 .# RC M_ ~Q hh %@ B$ M! u+ S@ {Q '- -A 6_ !t ",
"px z; j% M( ]Q P> 1, S( 8= 8! o= ma ^Q %Q c5 /Q (Q _Q :Q <Q [Q }Q |Q 1Q  L qx 2Q 3Q 4Q 5Q 3  6Q 7Q 8Q 9Q 0Q k; aQ bQ cQ dQ eQ fQ O4 kc gQ hQ '@ iQ jQ kQ lQ mQ fr {i Pj := nQ !( oQ pQ F_ qQ rQ +Q sQ wz tQ uQ vQ wQ xQ yQ zQ ^= AQ Q, BQ CQ DQ EQ FQ J0 _  8d 6s GQ HQ IQ JQ S] UH r5 KQ LQ MQ NQ X} rn OQ PQ QQ 2J 3} 4. 1q 8= $# RQ *- d= SQ jB {( M( &: MM TQ UQ =+ () }e ($ h{ T6 &* @: M^ ",
";  3I VQ WQ X! D] 49 21 '' ,( XQ Z@ YQ r5 ^: ZQ Xf )a &( K- `Q  R Fj .R +R @R #R $R %R &R sw *R jp =R -R rF AF ;R Hb >R ,R 'R )R )n Ec !R ~R 5d s9 )@ {R ]R ^R .5 /R {) S5 M# 3) (R #% hi _R :R 8# <R [R }R |R 1R 2R 3R 4R 1( o7 3, ^+ 5R ~g 6R 7R W} 8R 9R 0R aR bR cR dR YA +v eR fR F/ #9 ~6 X5 RK gR hR iR jR kR M# &. *{ k7 lR mR o8 #/ zp nR oR 0$ 2, pR qR ^N |o V& x8 e4 LB rR Y( bm  v ",
"sR tR uR 0g ~g n! K[ 9) b{ `i vR tK :< T: l8 :] N# i[ wR xR yR zR AR BR ;J CR DR |I ER FR GR HR IR JR W% KR X^ F' 7&  } LR MR NR OR PR V3 QR RR SR !o TR UR VR Vo WR h! XR tp 4. 9# Xd pC YR ZR e] `R  S .S +S @S #S $S %S &S *S t~ {- M# F] I< 0u g5 =S -S ;S 9} >S ,S 'S )S !S !$ ~S {S ]S L- CJ ^S Z; X^ /S (S _S  @ %( ;4 @l o} ~$ 4# L! :S <S [S }S {{ |S 5   J }h (5 Il Ad 1S 2S 3S 4S 5S ",
"6S 7S 8S kz ;x 5x q& 9S h{ 0S @y +~ 2[ aS kA ]2 oh i! '= bS cS dS eS fS gS 6E hS iS MJ jS kS 0% lS mS nS oS pS qS rS (3 sS tS uS vS wS xS yS zS AS <5 BS CS DS |  |h q8 &' =E {1 ES b| i~ FS GS HS wL IS JS KS LS y] ,x MS 8R a$ $' Ow sS m- NS OS PS QS YI RS 6s SS TS US Kh VS WS XS a( 5. Kv u( W6 YS ZS `S  T .T +T @T #T $T x) zw %T z] +* S6 &T T6 D] =C q- *T F* W# <{ 9_ 'l =T -T ;T at ",
">T ,T W5 t_ 'T v^ S] ~i 01 Ap z% ux '. &% 7c g! i_ 1r Gl )T !T ~T {T ]T ^T /T 6E X[ (T _T :T <T [T }T |T 1T %A 2T 3T jI 4T 5T 6T 7T 8T 9T 0T aT bT cT dT eT W# pe fT k% Z6 ,1 gT hT iT `, jT kT UP lT 7P mT 6/ nT >K oT pT qT rT hL E% vR sT tT j( r= @m  * uT vT wT xT yT zT AT BT %7 CT K! DT /w ET FT ~I GT HT <: IT &] JT KT LT r) |) q& R_ %: x; 2= 16 2= ,+ :n lz '= {% {: x| 0C MT f! NT ",
"OT PT &s QT Y5 RT G* j- iw ($ i- Og -v >' Fi i$ >d H* V> zd ST TT UT VT fS WT W= XT YT ZT `T QG  U .U mI +U lz @U #U 1q 9) )u L! $U ,[ %U &U *U =U -U qM ;U >U p4 zd ,U 'U a| L^ _| )U V> !U ~U fd p- >j ,# {U D. ]U ^U /U {8 %Q /! =. Vo (U _U :U <U ,C cP [U `* }U +z |U dF ;  4, QD 1U W7 2U 3U k@ 4U J# e= 5U 'U 6U &] 7U +; 8U 9U 0U g' ,+ =& 7& T| g! '. /| 4. aU S@ )# )+ em c5 yQ bU cU ",
"q) Ck dU eU *S fU ]= Tk Q~ c8 v3 P* D] ~. e  gU W! >' _c M( ^' Z9 K< B7 hU iU jU 47 :6 ZS ;  kI jq kU Av lU S^ mU MK r5 O! [  nU 4# oU Sq uj pU }( qU rU sU  @ P> .< }1 ^[ (< 2. &_ ($ T: T: 9O dv v; tU 3^ w; uU 4= vU Rp bb hh _j 4$ wU -& #! xU yU zU AU BU CU DU EU FU GU HU l1 9' IU JU KU LU YJ MU NU K/ nM OU PU P' QU m0 RU i< SU TU J% =_ -A gU 7$ 0$ g' i@ Bv `v `# Pj r- o% UU J3 VU ",
"WU XU ,2 YU }r ZU gN Nm /$ &0 d1 ,+ g9 _$ R{ Ad GU 9G D! @l (1 `U x@ r- #*  V Lf .V Gk +V @V ': `, pR #V  z ,: 0+ 10 2[ 0O vN 1  $V %V &V *V aa =V 28 -V s- ]2 w+ mR ;V N# n} 8! F, 9_ >V ,V D  T' {7 7$ 0I H* <  21 :o G0 a5 2[ '' 1( ,k i$ 'V gM )V t9 4$ !V ;> ~V {V z! p^ ]V ]! x' ^V T@ 6. /V S  cM :  d/ k> Ad (V gn sM K4 _V :V %^ ~@ <V [V /= {] BG Z+ kh r~ ~_ f1 L! o} a! {- Y( }V |V ",
"1V 2V Tr bx l+ 3V b{ 9! 7x 4V yj f$ >* %e 5V 6V <. 6. ,: 1q 7V q; &3 %i %T u. 8V 9V J@ P7 ^s [t 9[ v> 2h @l O# o7 0V C8 73 Y: G* e( aV bV cV dV eV 4] >] >l K  Q; P| {h +5 V> !M ;( g3 S@ W- O; *# n- i[ :n fV gV hV v; <1 R( y- h! jo iV ~6 jV kV az lV k@ <. z( mV nV oV pV ka qV rV `: *4 9n K# 9| R^ sV d= v= }' tV uV X3 ho vV wV xV yV  2 zV X_ h- r~ B% Z] vk h] 4R l> AV BV ~_ A. CV H> ",
"DV k: e^ Vx /o O1 n2 _B EV FV 3} Q; &. n% GV HV 9- x. IV JV KV LV Id kI =_ 0; ,9 Hl Pj v^ W( MV 9n {% NV LB F, GU C= H] OV PV Q- 8! FV /^ QV RV m' ~V `6 i@ %N SV TV 4( UV L! W- (o 2[ n! `~ 0= [m Y: VV WV Cl XV <1 )/ Ow ') g$ d= u@ =_ *_ 9B .$ YV ZV %{ K& `V j& h~ >* )4  W >+ j> Zc m2 ~] i- O& FD {+ 1q .W '= +W @W E7 od T. -u m# %1 @1 w_ #W $W T/ [6 Kt %W &W B+ a( 2, *W r~ U- $: =W ",
"-] d& R6 j{ -W ;W F/ Qa >W =_ ,W @[ '+ J8 xN 'W )W !W |b Pv ~W D: {W o= ]W _$ `@ !3 ^W V  o7 0& N/ ,# A+ ;{ D= Dp /1 6{ /W := 2= _$ 1| l) (W _W :W <W [W 3) }W c* |W 1W =F 0; w. 2W z~ 1, R_ e^ M] 3W 4W xb jC 5W 6W 2, %, 1~ 96 7W <^ !' 8W ]0 4= ix C] 9W 0W %' z. =E aW bW cW O7 s; dW w@ eW 0v fW gW Pg hW %# &l iW jW +; &]  ; kW lW mW nW @M .B oW pW ^N ;6 :  qW 6_ bb yj r1 rW sW LB tW ",
"[$ uW $/ +5 r1 rs vW u& wW J8 0; i~ xW ^+ yW Ya H; rd N) J# `} ~x 4^ >d zW 1| }% 4| -E Q{ K/ v> &( }o AW PV td g1 h} E  BW -> T6 -_ =6 ,+ `c Ge CW DW EW z| FW T/ Qe ;. `, t& dm }% =E GW HW IW JW E7 KW n. LW MW +T R; N# uJ (, U' J# NW ,: Z: =C OW PW @' VK ,_ f& QW zp << i^ '> {y iy k% Z# ,( )% q@ 'L re i+ |  j> RW f* K= SW en TW UW VW WW 2; G! XW )| YW BW b' ,u 7_ 5  &3 ZW dp u% `W ",
" X :J .X jL ;k +X @X #X 0_ U% 3[ $X WQ Pd P* /N l. Ni 0$ v2 u% a5 o-  # &0 y- l. fP p5 v[ 80 H% 4_ _u %X ,. 8! &X B] P& !/ WR 7y ^  R; M( Sr #{ *X =X u: -X ;X Ao 0# Z] `} >X )- B6 E; ,X 'X b  #> q> )X jc !X T_ Dj {z C] C] l} :/ D! 5! ~X 4H /| Aj {X 7' d= 4) A] *{ ws S/ ]X Pg P> ^X I/ /X Ku 4$ (X B] Om iw 6* >d _X :X ,q Z3 e6 (> M9 3; <X [X 76 Rz }X U~ |X [k 8s -M &0 Rk 8+ <k fP  @ ",
"1X 2X 3X 4X `M 5X (G 6X 7X }+ v> fU H0 h! U0 IT A~ 8X V> 9X ^w W#  m t8 #{ 1! ;( 0X a- 3} P& {% k> a4 J@ 2[ )q X! s- Fi aX M; bX  $ cX D= dX -c 4$ eX gq fX _6 ,z M{ mv 6= gX hX 16 iX jX kX M= Zp }4 lX mX R@ P* =A XR -C nX {6 e@ s@ ~W oX 45 y- pX &. E; h- qX rX ;6 e/ 2= 8( M) 8( K/ sX V- tX 40 )u p! ') Kw Er R_ uX vX ]L ]u Ld ym '@ wX xX yX 3n s9 I= h* zX AX BX f@ CX Y: 1_ a= &- DX ",
"EX FX AJ GX HX IX JX Tx eN {g Pg -& KX gJ LX MX 9n C8 s@ NX '3 [^ OX a$ PX >l r- ;d c( T0 5| p! 9! &, ;) g' QX Pm RX !0 3  |1 80 ~% %P /, SX TX +/ UX _u VX WX XX YX )q [) ,) ZX `X  Y Fd .Y :s +Y @Y {M ^, #Y BQ <{ $Y %Y tb Re &Y l> K  *Y #@ X0 9[ F, 4  Q{ }_ Dp {{ h- .* ]y :< m9 B~ =Y 9l dJ ,4 mf -Y )( *~ ;Y l~ g' >Y Rq Cc 5n !@ N= U1 ,! ,Y 'Y gv )Y !Y ~Y Q$ {Y ]Y ^Y ng /n /Y #4 Gb ",
"(Y _Y :Y 07 <Y |F [Y }Y ,= oa %- k{ |Y g- k@ k> $, 6* ;{ >l 0= [. 0& |  J; k! 1Y 2Y ]_ s= L! G% 7$ }t 0$ O{ D; 3Y 4Y N# G% 80 5Y ka 6Y 4M 7Y 8Y 5z 9Y 0Y aY ef ;D 1$ bY ya ]- i| cY dY eY JB T~ fY e9 L] =, Jt H% .} s= >A NW Ei gY /= 1, R- 0= Re hY 96 iY !c F6 i@ 1! J% 80 `& -& F6 jY kY HE O; {6 nQ [| lY Dr 7} mY 6] nY oY od R2 `7 Zb kX wr ,b pY Ma T$ ~& o) o# 3n @+ P$ qY r( rY sY tY ",
"uY vY wY 1x oS B^ xY yY zY W# /_ AY >0 uH Z] F, 8! T& y6 BY V> R  )% D. CY !6 vN 6V w. DY tm EY !6 FY #{ GY HY IY JY _V KY B4 BY z% Ow LY MY NY OY PY QY RY SY Do a- TY UY x+ ,) 9# Zy VY WY XY ($ YY 6= `a ZY `Y W{ =< k. Yc XM Z] (, Lw r= X5  Z j( T6 .Z gU +Z @Z oh _r _1 P* g! ]i #Z '] J] (_ 9_ P_ .X $Z 9# h@ `w %Z Hy KW <> gv T~ &Z uj *Z =Z ;- -Z *| B0 ;Z R8 >Z ,Z 'Z )Z !Z ~Z {Z ]Z ",
"^Z <! 'y :. /Z (Z _Z :Z <Z ~] U> [Z S; =C S@ )O 8) X6 &( $# u@ )O 7$ 99 }Z *~ tp J% ~:  a 4= }/ J] @l x) b1 |Z 1Z 2Z 9d 3Z 4Z 5Z ': '# |7 6Z '/ 7Z qw 8Z 9Z 0Z s. aZ bZ cZ dZ eZ c= T9 fZ gZ S| v- W( qy hZ ~- iZ Yz jZ l| kZ G0 E; s@ s- B4 N; g$ _r >9 [  lZ 7$ ]i r@ 1} mZ nZ v> i@ %X <* ]2 `: W{ =# l> B4 FV B$ >3 f4 5k oZ pZ qZ U8 }D rZ sZ tZ uZ vZ wZ xZ yZ Dj /= [y 1= i+ 6{ t( zZ hy ",
")) O{ AZ BZ CZ -  DZ EZ ~g R; &. FZ GZ 4. v8 R6 O1 D< HZ R_ =_ !/ IZ g! JZ 1/ O& u~ M) g' F  .a S@ I% .4 Dr KZ LZ 0) MZ T3 )7 NZ OZ PZ Pj Hb Gx QZ v4 *. RZ SZ Z' %r i# TZ UZ VZ WZ =F XZ YZ ZZ b] ;y >] `Z  ` .` +` yO Cp *, X! ca ]} @` +[ j~  ^ D! o} *, &, M( 45 )) D) #` '. B~ 2= 20 F: f@ $` %` &` R_ j{ o- z= ;{ D  ,9 *` =` -` ;` >` ,` '` R& mv )` ~: xA L  M( _| C( !` $N 4* ~` `V {` ",
"o- j8 c4 uP $i g- ]` Ca w= D= x- ,j ^` Re <^ h& /` J2 J7 :/ ~: =. [( Q! ~0 }o qX (` Om Z: 8; L{ e$ @N 8! Qy r8 ,G n- N] _` yd :` <` [` }` |` 1` _A 2` 3` az 0O 4` 5` 6` }4 7` {Y ;- 8` 9` 0` a` C6 )x b` c` d` e` f` Z9 I2 |9 E  s= 2= Qs Cj mh rd $3 [0 G, g` K# v/ Ei Z: =. z$ I7 $7 u; `Y N# m2 x+ o% }( 9l k> h`  x 2[ i` dI j` x^ k` *N 5w '< %: 4^ R  D6 l` m` Y: n` QH o` p` q` c- z! M# ",
"N% r` N@ s` g( Y( %@ t` xI u` #X v` w` I/ `4 ^} x. `0 b= 2= 4$ 4g x` cJ ;d y` z` A` 7W 1} =. L{ B% FV v. B` j~ ;* L7 Tr C` D` E` XW F` ~^ G` U) H` I` J` K` L` f- M` N` O` Yk 0  :> P` Q` R` hm I/ *- S` T` U` V` .# W` NN X` Y` {` 4$ v+ Z` Sr `` &( kK aW   .1, 0_ 4O _  kK Q{ . .+ .@ .G* ;d ~_ 9; ^! 1| J] 8+ ;{ _J 0! # .&l $ .Zo % .& .Ao '= J# * .x+ &. y+ *. = .- .; .{x E^ l1 T5 > .V* ",
"9! V/ , .' .) .! .5y =C B4 `s r% ~ .{ .%. U% QN }c 1, !' n! p5 O@ ] .^ .;* $/ / .2[ rz l> [d F} !( g' {( -x w+ ( .m% 2= 3  _ .'o Sy : .< .29 ]9 [ .} .N= dj | .3= 1 .2 .3 .4 .:~ P8 o) 5 .6 .7 .8 .yf 9 .Z# ng _+ >3 b: %h 0 .a .y` b .Q* `o Q6 -6 c .d .g4 e .@@ i$ q= =_ f .I> {7 g .h .R6 &W 1, _  5| i .Z: yc z| e  a= J7 h{ e^ j .k .]G ~2 -& l .%. _B g' Q# rt 1( m .n .a_ o .p .8z -c 17 ",
"S6 H% q .r .)= f$ -* M] 9! g! px Z% S] Pd =G _u 5} s ..W oe !( t .1~ #4 Ow Pv #{ 1( h& 3) d+ $[ >* ]2 /X 4b Q{ c2 r~ -l 7' rv u .v .QT 1   a w .x .Vy y .;- z .BV A .B .C .D .N' E .F .Mk G .&s oM H^ /* |g H .I .nv J .]- }! 41 mv a5 1, Q{ }h !/ K .`s a! Z# x@ 40 vR j- L .M .)% N .O .P .^' 80 5s '. >% {( Gg b| '' Pj '' D= 8) k. 7f .) Q .R .r5 S .M! => 2x ja T .$N I, #( uO ,a (q  t 4b ",
"U .V .W .;. L% Y4 X .W# q& !) Y .[; 8z Z .`& 44 B% yu 5/ ;_ {- 85 D! C= 8( W7 x$ 6P 3) b2 3) $~ t~ R( ` . .....-_ a{ x$ qv B6 XM 80 }8 `P Oe +..@..#..$..El %..&..}u *..=..-..;..>..YA ,..'..)..}x !..8l )u wa k@ j> '+ 8s L] p2 ~..{..a2 !( 85 P* ]..ft ^..;> /..v{ [D (..!4 S6 _u aw @y /' 1( E% ,. *3 J] _..e .}^ Q~ ft +~ u@ y7 r[ nk :..B( bc p< =. h} <..[..}..;< b| wJ W_ ,> 18 9; Qj D3 ",
"8( |..1..yp 2..Z9  & k@ Pc ; .c& ~q 5_ {Q Pj ;( >l Pg =: w@ X! ($ /o W- .| FA ') 1] D= 8P 3..`a :] ,  4/ 4..5..%# 6..u9 qv  { e  ;) 1! H; O9 Fi 7..8..9..0..1N a..b..c..d..e..9J f..g..h..i..j..k..R# %5 @m az J@ l..D; m..n..() yy M@ %N S{ wR o..L) dv }] p..:j q..gu r..s..B{ |  t..s& n! 5  w- ,D u..v..ln }/ f& ] .&5 {% q- w..{g ^D ~J zP x..S( e< y..z..A..eI [) B..NW W- 4} P& f0 tU C..",
"v> K  FI  # D..t- ^5 E% E..F..0G ~% OS G..H..~: :{ E; }h &B r) se F} z= L{ jK I..;< ($ <+ L] |l 1S *W H] +| 9n  $ J..l+ =. G0 Z: z. g4 T| c' R6 R@ $V K..L..M..N..>b `k O..P..Q..R..S..%s mN T..U..6Z Y: 1' ;] 0# V..9N 17 {0 bb [} |  $@ Z: &. T' 5/ kh l4 {7 !( C< eJ -2 j- i$ T6 J] -6 7' i@ +] h& n! W..': b] !3 @{ [6 X..Y..tg Tv Z..20 p< N& H% C$ X6 `..,7 MV !1  +. { 4s of (, }( [6 R{ ",
"k{ zp RG .+.W5 hG ;7 SQ {h z] >* M( ++.>' ^{ () hg wk @+.l) Z: o+ #+.!% U> $+.mK M( ~- ^. S@ l> P! 6} l. Li d@ $l |> U' {{ *Y 9! `# i+ 9$ 0_ K& xy ^) O# %+. K &+.<7 )o $2 *+.6` =+.-+.;+.>+.,+.'+.)+.ma +K V> /, !+.17 z~ $' Yv N( vR ~+.h- ^  K# D= v> a( ^w ou K; {+.7' X# 96 Vu 55 OV '* =C v; -* ]+.o8 E; .} T| L] ^+./+.N> g4 (+.J; Z] p} _+.:+.ma }c t= td G9 :/ Q* ng iw H; Ga <+.[+.}+.",
"|+.1+.2+.3+.4+.W^ 5+.4{ <h [8 6+.-v -( :{ 7+.8+.=_ ;( 9+.0+.a+.4^ b+.T| ;) l .5k h- c+.d+.HE D! g' g! i! kh H* h- 3^ ($ n! g' ,# P~ 3: 2[ e+.f+.g+.h+.i+.j+.k+.l+.>Z m+.*b n+.b  o+.p+.q+.r+.s+.ql t+.@H u+.+[ Z: h3 f4 v+.w+.=( [d x+.($ y+.{{ 2  '' 5$ $# /p d@ G0 9[ g! <* z+.s@ 8= Yn R_ b{ =. H* nU n3 Xx DM ($ $# /R aI _$ A+.f- B+.C+.D+.xt &0 xI E+.Q* N; ({ R5 MK F+.G+.H+.I+.*8 lt R2 ",
"J+.;) K+.L+.M+.N+.O+.P+.Q+.Ww 'l f) K< m- Pa 9G ,> R+.S+.T+. B U+.V+.a[ ,l W+.X+.9_ Z: Y+.Z+.0; Za 1_ R; h] a; bp `+.0=  @.;6 J7 '1 oh du .@.g' +@.oW +^ aa @@.#@.$@.%@.&@.0. *@.=@.-@.;@.>@.,@.'@.:q )@.]. !@.~@.%0 Zy {@.Dx wx /r 0: ]@.:[ 9B ^@.mh 9( y; {( .{ 9[ =_ ;( D! Z: mg Om :n ^' /@.z% ,+ v= 1' )/ K# Pr -_ J] }c <) Q# )j (@._@.:@.<@.[@.}@.|@.1@.1( sS 2@.3@.4@.5@.6@.Nq 7@.8@.9@.",
"#9 0@.a@.b@.c@.d@.]b e@.f@.g@.h@.}y i@.}+ j@.Ni D! k@.9! l@.m@.-8 n@.o@.p@....~- dv ws 4$ n} `~ g! ~: (_ DK  { u> v. =_  ' 88 `0 ft ka 96 q@.r@.Eq s@.t@. Y u@.Xt v@.w@.x@.y@.z@.qM <` A@.B@.C@.D@.E@.F@.S| 04 G@.Re wk H@.I@.|! (} J@.ik K@.k! L@.!/ =. 2= O~ `> 4T }= ik If g! Q- @r GW ~: @l M@.N@.yw ;7 O@.8' 6Y S  d= c* l8 S@ H* P@.Q@.R@.S$ gv S@.T@.{% !) y. U@.V@.Cc W@.X@.Y@.Z@.`@. #.",
"wu .#.+#.@#.##.$#.%#.&#.*#.=#.j8 -#.;#.>#.Rt 9! ,#.i4 R{ 5| 9! Er '#.)#.20 ]2 !#.k: Z5 ~#.e9 nt $l [< }} `a Fa jo S| =C (| ;3  { ~9 Ad {#.d0 ]#.#b G$ ^#.d0 /#.(#._#.:#.<#.[#.}#.|#.// 1#.2#.3#.4#.5#.6#.:= 7#.c[ 8#.o; 9#.0#.a#.b#.c#.H% )_ aS i4 {z /2 4j 0$ dv :) {` 7& ^   } 5  r5 b_ 'O ~: l% h- h4 `i _$ <{ _$ Jt 16 Pg C] ,9 NU (D d#.mm e#.f#.g#.h#.]! i#.j#.k#.l#.m#.n#.o#.p#.UP q#.l) ",
"!) r#.s#.Fj t#.u#.v#.w#.x#.y#.e~ }8 z#.A#.f+ .$ .j B#.&0 C#.D#.iq s; E#.<U hP +* g' F#.;( b- -A ,) g! w; 26 .} 0= 8= G#./$ 2[ 0v tg H#.:> 4' tr I#.J#.76 G! K#.L#.M#.N#._@.&@.O#.,@ Z7 a0 P#.Q#.#Q R#.S( S#.ow !6 T#.U#.V#.W#.X#.Y#.Z#.=_ 6  Dh b2 }o `#.N; Z+ >d k> ws U) h]  $.9! 2[ >Q *^ 7$ L] Ni S  9; .$.5/ 0# J% +$.80 @$.hL #$.o= X* $$.%$.&$.*$.=$.-$.;$.u. >$.,$.'$.R .;  q .q& r5 ws ",
")$.!$.~$.{$.fH ]$.^$.}x /$.)..5I ($.VF 2  }* _$.+w :$.N8 8! 7$ [x vW 8 .OX Rf CY <$.[$.{% }$.|$.>% g1 g' d= 3b (1 Q{ :< 4_ 26 9( B6 1$.c6 pm 2$.3$.4$.Wi 1; 5$.R! 6$.7$.8$.9$.0$.a$.b$.c$.d$.D5 e$.*- !' f$.3. g$.h$.i$.0u {+ eP Ff j$.M( A+.k$.l$.l .0P /_ m% m$.c= n$.Q! iz k6 n! ^5 99 ($ )( J# <^ () yj Cr n! M) 9! o$.iy S* Q, C% |c p$.q$.r$.s$.t$.u$.>t v$.zr w$.r5 }( Y. x$.:j U> o} o- ",
"y$.z$.+; A$.B$..) C$.Gr D$.E$.5b KX hL f+ Ix `l F$.G$.nS vi n! H$.]1 I$.i[ J$.K$.^[ K] se C; 96 !/ ,) y| J% :| L$.M$.N$.O$.e^ G  ~c P$.Q$.Yb 1$.l# R$.S$.T$.U$.3) yc V$.W$.X$.om Y$.$..}D Z$..  `$.M)  %.*d .%.zt 53 h{ +%.R^ Re ^' ^* @%.8] #%.9l n3 2[ 2= 8! 44 'O p- c1 $%.%%.L! ]= 4= mg '= Tr ^  @l >' /1 >l @f i_ /$ ;( h} h! aS v) &%.)d *%.=%.-%.;%.N& >%.,%.'%.)%.Hb aN !%.C; &0 -2 1, "};
