/* XPM */
static char * 1_2_xpm[] = {
"128 128 8682 3",
"   	c #3B3D18",
".  	c #D2D388",
"+  	c #CACA86",
"@  	c #B0B557",
"#  	c #5A5D2B",
"$  	c #F4F1AF",
"%  	c #6A6F2B",
"&  	c #939744",
"*  	c #8A8E47",
"=  	c #525521",
"-  	c #A2A55E",
";  	c #000000",
">  	c #BCBD70",
",  	c #BDC06C",
"'  	c #FFFFAB",
")  	c #CACC77",
"!  	c #9A9D55",
"~  	c #7F8534",
"{  	c #585A2C",
"]  	c #FFFFF5",
"^  	c #FFFFAA",
"/  	c #ECED96",
"(  	c #C5C778",
"_  	c #C0C371",
":  	c #AFB16B",
"<  	c #808249",
"[  	c #64682E",
"}  	c #B8B67A",
"|  	c #FFFFA6",
"1  	c #B8BA6E",
"2  	c #484925",
"3  	c #B1B369",
"4  	c #16170B",
"5  	c #BABB74",
"6  	c #C9CA7D",
"7  	c #95975B",
"8  	c #767847",
"9  	c #CDD174",
"0  	c #888C47",
"a  	c #787E31",
"b  	c #B0B077",
"c  	c #4E4E34",
"d  	c #A0A06C",
"e  	c #C2C27D",
"f  	c #3E4121",
"g  	c #2E3014",
"h  	c #C2C86A",
"i  	c #545633",
"j  	c #93984B",
"k  	c #626240",
"l  	c #BCBE72",
"m  	c #939553",
"n  	c #909159",
"o  	c #AAAB66",
"p  	c #FFFFC7",
"q  	c #E5E598",
"r  	c #818150",
"s  	c #555730",
"t  	c #8D8E5B",
"u  	c #7C803F",
"v  	c #9C9E5A",
"w  	c #A0A25A",
"x  	c #D3D484",
"y  	c #9EA251",
"z  	c #ABAF5A",
"A  	c #DEE187",
"B  	c #A6AD4B",
"C  	c #505322",
"D  	c #A9AD5F",
"E  	c #FFFFB2",
"F  	c #767845",
"G  	c #999A5E",
"H  	c #A1A260",
"I  	c #D7DA82",
"J  	c #F7F5A9",
"K  	c #FEFF99",
"L  	c #868A41",
"M  	c #CDD078",
"N  	c #565833",
"O  	c #FFFFEF",
"P  	c #484924",
"Q  	c #FFFFC0",
"R  	c #DBDD84",
"S  	c #1D1F0D",
"T  	c #D4D38F",
"U  	c #BEBF75",
"V  	c #333616",
"W  	c #959853",
"X  	c #1B1C0F",
"Y  	c #606039",
"Z  	c #DEDE8D",
"`  	c #FFFFB7",
" . 	c #BBBC70",
".. 	c #FFFF9C",
"+. 	c #8A8C67",
"@. 	c #EFEF97",
"#. 	c #A7A76A",
"$. 	c #D2D47C",
"%. 	c #848457",
"&. 	c #757747",
"*. 	c #F3F3A2",
"=. 	c #8D8F4F",
"-. 	c #ADAF66",
";. 	c #4C4D35",
">. 	c #A5A959",
",. 	c #EBEB9A",
"'. 	c #62633A",
"). 	c #DCDE84",
"!. 	c #FFFFB1",
"~. 	c #44471B",
"{. 	c #F2F39A",
"]. 	c #535431",
"^. 	c #DBDE85",
"/. 	c #8C9043",
"(. 	c #828548",
"_. 	c #D0D180",
":. 	c #DADD87",
"<. 	c #D3D582",
"[. 	c #252618",
"}. 	c #686942",
"|. 	c #555636",
"1. 	c #FFFFB5",
"2. 	c #B1B368",
"3. 	c #B5B476",
"4. 	c #CFCE89",
"5. 	c #3F4026",
"6. 	c #646441",
"7. 	c #FFFFB3",
"8. 	c #AFAF72",
"9. 	c #565B23",
"0. 	c #EDEF98",
"a. 	c #C4C47E",
"b. 	c #1B1C0C",
"c. 	c #BCBE74",
"d. 	c #3A3D18",
"e. 	c #FFFFB9",
"f. 	c #EAE99F",
"g. 	c #B0B457",
"h. 	c #71734F",
"i. 	c #C4C47C",
"j. 	c #65673A",
"k. 	c #95975A",
"l. 	c #ADAC76",
"m. 	c #CBCC81",
"n. 	c #979A4E",
"o. 	c #AEB069",
"p. 	c #7D823E",
"q. 	c #747933",
"r. 	c #BABD67",
"s. 	c #B6B966",
"t. 	c #D8D987",
"u. 	c #FAFB9B",
"v. 	c #989D49",
"w. 	c #BAC05D",
"x. 	c #F1F29B",
"y. 	c #A7AB58",
"z. 	c #080804",
"A. 	c #CECC8F",
"B. 	c #D2D57D",
"C. 	c #B5B66E",
"D. 	c #91954C",
"E. 	c #A4A668",
"F. 	c #C3C576",
"G. 	c #FFFFF6",
"H. 	c #727553",
"I. 	c #E4E786",
"J. 	c #4A4E1F",
"K. 	c #FFFFDD",
"L. 	c #555635",
"M. 	c #5D5D42",
"N. 	c #C9CA81",
"O. 	c #272710",
"P. 	c #CDCD8A",
"Q. 	c #727444",
"R. 	c #898B51",
"S. 	c #2C2C21",
"T. 	c #656543",
"U. 	c #5E6326",
"V. 	c #F8F7B2",
"W. 	c #6F723A",
"X. 	c #BEBF79",
"Y. 	c #E2E491",
"Z. 	c #72734F",
"`. 	c #D6D888",
" + 	c #A5A75D",
".+ 	c #91954B",
"++ 	c #6C6E51",
"@+ 	c #A1A360",
"#+ 	c #A1A554",
"$+ 	c #DBDC88",
"%+ 	c #ADAF5F",
"&+ 	c #FFFFD5",
"*+ 	c #C9CC78",
"=+ 	c #AFB165",
"-+ 	c #494A2F",
";+ 	c #CDCF83",
">+ 	c #2E3013",
",+ 	c #C7C684",
"'+ 	c #A2A74E",
")+ 	c #EAED8E",
"!+ 	c #DBDD86",
"~+ 	c #6E6F46",
"{+ 	c #D9DB81",
"]+ 	c #CACA7F",
"^+ 	c #4F5320",
"/+ 	c #7D7E55",
"(+ 	c #8D9154",
"_+ 	c #8C9040",
":+ 	c #EAEC8B",
"<+ 	c #34351D",
"[+ 	c #A5A666",
"}+ 	c #7B7E3D",
"|+ 	c #DADD80",
"1+ 	c #C2C66C",
"2+ 	c #B5B95F",
"3+ 	c #565A22",
"4+ 	c #A1A165",
"5+ 	c #D5D782",
"6+ 	c #C5C77E",
"7+ 	c #393B20",
"8+ 	c #282A11",
"9+ 	c #BBBC72",
"0+ 	c #F7F999",
"a+ 	c #8A8A66",
"b+ 	c #C3C47A",
"c+ 	c #5F6035",
"d+ 	c #B0B363",
"e+ 	c #B3B476",
"f+ 	c #96965E",
"g+ 	c #95975E",
"h+ 	c #AFB168",
"i+ 	c #565927",
"j+ 	c #E6E694",
"k+ 	c #727452",
"l+ 	c #2C2F15",
"m+ 	c #4D4E34",
"n+ 	c #3E411C",
"o+ 	c #D6D68B",
"p+ 	c #FFFFC2",
"q+ 	c #D6D78C",
"r+ 	c #70723F",
"s+ 	c #BABA77",
"t+ 	c #A0A553",
"u+ 	c #CECF7E",
"v+ 	c #FFFFC3",
"w+ 	c #DFDE96",
"x+ 	c #51512F",
"y+ 	c #7C7C52",
"z+ 	c #4A4C1F",
"A+ 	c #D8DA83",
"B+ 	c #ADAE72",
"C+ 	c #010101",
"D+ 	c #757A35",
"E+ 	c #C5C679",
"F+ 	c #7A7B49",
"G+ 	c #ABAC6C",
"H+ 	c #A2A460",
"I+ 	c #626727",
"J+ 	c #BBBB77",
"K+ 	c #A7AA5D",
"L+ 	c #FFFFCC",
"M+ 	c #EFEDA4",
"N+ 	c #D2D57C",
"O+ 	c #424426",
"P+ 	c #333425",
"Q+ 	c #525433",
"R+ 	c #5D6031",
"S+ 	c #858941",
"T+ 	c #A4A762",
"U+ 	c #BAB97C",
"V+ 	c #B6B86B",
"W+ 	c #9FA158",
"X+ 	c #5E6327",
"Y+ 	c #C3C479",
"Z+ 	c #80843C",
"`+ 	c #B3B471",
" @ 	c #959A45",
".@ 	c #FEFFA6",
"+@ 	c #313315",
"@@ 	c #A6A669",
"#@ 	c #C5C872",
"$@ 	c #8F9344",
"%@ 	c #B7B96D",
"&@ 	c #B0B362",
"*@ 	c #ACAC71",
"=@ 	c #74792E",
"-@ 	c #FFFFDA",
";@ 	c #D4D588",
">@ 	c #9D9F5B",
",@ 	c #A6A95F",
"'@ 	c #42441B",
")@ 	c #ACB05E",
"!@ 	c #DAD98F",
"~@ 	c #FFFFFF",
"{@ 	c #565A24",
"]@ 	c #6F7047",
"^@ 	c #A3A757",
"/@ 	c #FFFF99",
"(@ 	c #FFFF90",
"_@ 	c #91915A",
":@ 	c #292B11",
"<@ 	c #393924",
"[@ 	c #EAEB93",
"}@ 	c #B1B270",
"|@ 	c #AAAD5F",
"1@ 	c #D4D686",
"2@ 	c #CFD17C",
"3@ 	c #82834F",
"4@ 	c #4B4E1E",
"5@ 	c #B9BC6A",
"6@ 	c #85874B",
"7@ 	c #C5C774",
"8@ 	c #B1B463",
"9@ 	c #CCCD7D",
"0@ 	c #FFFFC8",
"a@ 	c #FFFFD0",
"b@ 	c #A8A968",
"c@ 	c #757840",
"d@ 	c #6B6F2D",
"e@ 	c #696E2A",
"f@ 	c #DAD79A",
"g@ 	c #A5A85E",
"h@ 	c #BEC071",
"i@ 	c #FFFFBD",
"j@ 	c #6A6D39",
"k@ 	c #BEBF78",
"l@ 	c #9B9F51",
"m@ 	c #969B4B",
"n@ 	c #FFFFE4",
"o@ 	c #FFFFAF",
"p@ 	c #A1A261",
"q@ 	c #B2B463",
"r@ 	c #C9CA7C",
"s@ 	c #F1F493",
"t@ 	c #76774B",
"u@ 	c #94945F",
"v@ 	c #BFC174",
"w@ 	c #E8EA8F",
"x@ 	c #A8AC60",
"y@ 	c #AAAB67",
"z@ 	c #BBBB7B",
"A@ 	c #DDE082",
"B@ 	c #A7AB5C",
"C@ 	c #D2D382",
"D@ 	c #646929",
"E@ 	c #919359",
"F@ 	c #D7D97F",
"G@ 	c #DDE181",
"H@ 	c #515233",
"I@ 	c #424227",
"J@ 	c #969952",
"K@ 	c #A6A763",
"L@ 	c #959952",
"M@ 	c #5D5D38",
"N@ 	c #E7E891",
"O@ 	c #6E7041",
"P@ 	c #41412D",
"Q@ 	c #7C8041",
"R@ 	c #D8DF70",
"S@ 	c #E0E678",
"T@ 	c #5C6025",
"U@ 	c #9B9B62",
"V@ 	c #464A1D",
"W@ 	c #F5F3AA",
"X@ 	c #636441",
"Y@ 	c #D4D495",
"Z@ 	c #D3D386",
"`@ 	c #717248",
" # 	c #FCFBA6",
".# 	c #565929",
"+# 	c #5F603E",
"@# 	c #696A3B",
"## 	c #F8F6A9",
"$# 	c #8B8B59",
"%# 	c #F3F1A7",
"&# 	c #D3D38A",
"*# 	c #76783F",
"=# 	c #BDBF75",
"-# 	c #D7D789",
";# 	c #545722",
"># 	c #8F924C",
",# 	c #DDDE8D",
"'# 	c #A3A561",
")# 	c #797F31",
"!# 	c #B5B574",
"~# 	c #7A7C45",
"{# 	c #55572D",
"]# 	c #7F8342",
"^# 	c #FFFFBA",
"/# 	c #BEC16B",
"(# 	c #B8BE60",
"_# 	c #9FA257",
":# 	c #B9BC68",
"<# 	c #D1D57B",
"[# 	c #A2A45C",
"}# 	c #141509",
"|# 	c #DADC86",
"1# 	c #8F9158",
"2# 	c #EEEDA7",
"3# 	c #17180A",
"4# 	c #B1B366",
"5# 	c #585A30",
"6# 	c #737542",
"7# 	c #A9AB64",
"8# 	c #989A55",
"9# 	c #D2D383",
"0# 	c #C5C485",
"a# 	c #020302",
"b# 	c #A5A957",
"c# 	c #E0E57C",
"d# 	c #EFF097",
"e# 	c #8B8F49",
"f# 	c #9EA24F",
"g# 	c #626444",
"h# 	c #B7B971",
"i# 	c #7B7C4A",
"j# 	c #CCCF7B",
"k# 	c #BDBE77",
"l# 	c #AAAD61",
"m# 	c #CACC78",
"n# 	c #E3E586",
"o# 	c #FFFFA8",
"p# 	c #7A7C52",
"q# 	c #B3B75F",
"r# 	c #F6F6A2",
"s# 	c #FDFDAA",
"t# 	c #88885F",
"u# 	c #CBCD79",
"v# 	c #DBDE83",
"w# 	c #A1A456",
"x# 	c #818451",
"y# 	c #BCBC7A",
"z# 	c #6A6B55",
"A# 	c #B0B16F",
"B# 	c #9EA156",
"C# 	c #A6A861",
"D# 	c #818736",
"E# 	c #BDC06D",
"F# 	c #EFF48D",
"G# 	c #A4A671",
"H# 	c #EBED90",
"I# 	c #9EA05C",
"J# 	c #7A7B52",
"K# 	c #6C702D",
"L# 	c #929357",
"M# 	c #BCBE6D",
"N# 	c #E8E895",
"O# 	c #010000",
"P# 	c #F9F9AA",
"Q# 	c #838550",
"R# 	c #A8A96B",
"S# 	c #9FA25B",
"T# 	c #919645",
"U# 	c #24260F",
"V# 	c #9A9D54",
"W# 	c #FFFFBC",
"X# 	c #A3A65A",
"Y# 	c #989A5D",
"Z# 	c #C2C47D",
"`# 	c #8E8E5C",
" $ 	c #62633B",
".$ 	c #C7C977",
"+$ 	c #C9CB72",
"@$ 	c #878A43",
"#$ 	c #7E8241",
"$$ 	c #838741",
"%$ 	c #FFFDB7",
"&$ 	c #656848",
"*$ 	c #C1C375",
"=$ 	c #FFFFF4",
"-$ 	c #A5A66B",
";$ 	c #999B68",
">$ 	c #D9D986",
",$ 	c #696A56",
"'$ 	c #E0E289",
")$ 	c #222215",
"!$ 	c #6D6F3D",
"~$ 	c #A2A36A",
"{$ 	c #B8B978",
"]$ 	c #C1C36E",
"^$ 	c #FFFFA7",
"/$ 	c #1A1C0B",
"($ 	c #F0F09A",
"_$ 	c #070705",
":$ 	c #D0D572",
"<$ 	c #7C7D4B",
"[$ 	c #CECF88",
"}$ 	c #EFF291",
"|$ 	c #939457",
"1$ 	c #FFFFBB",
"2$ 	c #B5B869",
"3$ 	c #363725",
"4$ 	c #8F8F5D",
"5$ 	c #373721",
"6$ 	c #747740",
"7$ 	c #8D904C",
"8$ 	c #DADC87",
"9$ 	c #1C1E0C",
"0$ 	c #9C9F5C",
"a$ 	c #DEDE91",
"b$ 	c #939752",
"c$ 	c #737734",
"d$ 	c #999D50",
"e$ 	c #C4C678",
"f$ 	c #74792F",
"g$ 	c #7A7C43",
"h$ 	c #888952",
"i$ 	c #FDFBB3",
"j$ 	c #A9AB66",
"k$ 	c #C2C37A",
"l$ 	c #CED276",
"m$ 	c #ADAF6C",
"n$ 	c #A6A95C",
"o$ 	c #C7C974",
"p$ 	c #ACAB75",
"q$ 	c #909255",
"r$ 	c #D0D181",
"s$ 	c #909157",
"t$ 	c #949663",
"u$ 	c #939749",
"v$ 	c #797958",
"w$ 	c #3A3C25",
"x$ 	c #2F3114",
"y$ 	c #444626",
"z$ 	c #87866A",
"A$ 	c #D0D184",
"B$ 	c #B6B76E",
"C$ 	c #B7B772",
"D$ 	c #C1C17E",
"E$ 	c #A1A35B",
"F$ 	c #CDCF7D",
"G$ 	c #E4E399",
"H$ 	c #FFFFD8",
"I$ 	c #BBBD6F",
"J$ 	c #2B2E17",
"K$ 	c #878961",
"L$ 	c #A9AA68",
"M$ 	c #E4E591",
"N$ 	c #E6E78F",
"O$ 	c #959754",
"P$ 	c #C9CA7A",
"Q$ 	c #FFFFB4",
"R$ 	c #CFD277",
"S$ 	c #C6C77C",
"T$ 	c #B1B36A",
"U$ 	c #B0B36A",
"V$ 	c #585C24",
"W$ 	c #929360",
"X$ 	c #ECEB9A",
"Y$ 	c #B0B16A",
"Z$ 	c #DDDE89",
"`$ 	c #C7CB76",
" % 	c #BDBE7A",
".% 	c #FFFFBE",
"+% 	c #9A9B5D",
"@% 	c #939458",
"#% 	c #AFB167",
"$% 	c #EBED91",
"%% 	c #EEEF9B",
"&% 	c #737739",
"*% 	c #98995E",
"=% 	c #363818",
"-% 	c #8F9253",
";% 	c #CCCD7F",
">% 	c #C1C372",
",% 	c #060604",
"'% 	c #FFFFAD",
")% 	c #484C1D",
"!% 	c #86884D",
"~% 	c #838740",
"{% 	c #9CA14F",
"]% 	c #B8B971",
"^% 	c #A0A261",
"/% 	c #A6A95A",
"(% 	c #EDEE97",
"_% 	c #91944B",
":% 	c #9FA359",
"<% 	c #B8BB6A",
"[% 	c #3F421A",
"}% 	c #C2C37B",
"|% 	c #8C923B",
"1% 	c #EDEC9D",
"2% 	c #94964E",
"3% 	c #121307",
"4% 	c #3B3D21",
"5% 	c #A5A663",
"6% 	c #A1A363",
"7% 	c #868A3F",
"8% 	c #FFFFC1",
"9% 	c #595D25",
"0% 	c #DDE085",
"a% 	c #C8C97A",
"b% 	c #646647",
"c% 	c #67693E",
"d% 	c #010201",
"e% 	c #A1A558",
"f% 	c #F7F99B",
"g% 	c #555924",
"h% 	c #B2B46A",
"i% 	c #FFFFA5",
"j% 	c #3D3F19",
"k% 	c #ACAE67",
"l% 	c #9CA052",
"m% 	c #D9DB85",
"n% 	c #A1A941",
"o% 	c #545730",
"p% 	c #7A7F31",
"q% 	c #EAE89E",
"r% 	c #F3F594",
"s% 	c #CBCD80",
"t% 	c #444530",
"u% 	c #A8B148",
"v% 	c #696A3D",
"w% 	c #35361D",
"x% 	c #A8A86D",
"y% 	c #E1E192",
"z% 	c #939651",
"A% 	c #797C3E",
"B% 	c #252610",
"C% 	c #787A47",
"D% 	c #97975F",
"E% 	c #6D6E55",
"F% 	c #8D8E58",
"G% 	c #A3A560",
"H% 	c #525333",
"I% 	c #9B9C64",
"J% 	c #A3A562",
"K% 	c #878850",
"L% 	c #858752",
"M% 	c #C1C17C",
"N% 	c #282912",
"O% 	c #898B52",
"P% 	c #9B9C5F",
"Q% 	c #7B7C47",
"R% 	c #B0AF79",
"S% 	c #959656",
"T% 	c #92964B",
"U% 	c #B5B47A",
"V% 	c #878851",
"W% 	c #7B803A",
"X% 	c #070804",
"Y% 	c #1E1F11",
"Z% 	c #808150",
"`% 	c #7E7F49",
" & 	c #A5A56B",
".& 	c #B3B56E",
"+& 	c #76793E",
"@& 	c #6F704B",
"#& 	c #B0B268",
"$& 	c #75754C",
"%& 	c #B2B85A",
"&& 	c #DEE089",
"*& 	c #AAAD66",
"=& 	c #979958",
"-& 	c #D8D989",
";& 	c #D4D38D",
">& 	c #727344",
",& 	c #80824A",
"'& 	c #D3D880",
")& 	c #5E5F4C",
"!& 	c #7C7D4E",
"~& 	c #B5B47B",
"{& 	c #0C0D05",
"]& 	c #6B6D3B",
"^& 	c #5A5C32",
"/& 	c #868752",
"(& 	c #979761",
"_& 	c #A19F6D",
":& 	c #8C8D55",
"<& 	c #F8FBA1",
"[& 	c #4F5134",
"}& 	c #8F9058",
"|& 	c #949659",
"1& 	c #A9AB69",
"2& 	c #A7A76B",
"3& 	c #7A7B4A",
"4& 	c #868654",
"5& 	c #686941",
"6& 	c #9C9D61",
"7& 	c #9A9A66",
"8& 	c #9F9F67",
"9& 	c #9D9E61",
"0& 	c #888C45",
"a& 	c #41441A",
"b& 	c #A6A668",
"c& 	c #89896D",
"d& 	c #AAAB63",
"e& 	c #9C9A6F",
"f& 	c #97995A",
"g& 	c #BCBD71",
"h& 	c #C9C983",
"i& 	c #ABAB74",
"j& 	c #7B7F3A",
"k& 	c #B8B872",
"l& 	c #0B0C05",
"m& 	c #67683A",
"n& 	c #888A4D",
"o& 	c #6D703A",
"p& 	c #ACAF64",
"q& 	c #323320",
"r& 	c #52532B",
"s& 	c #83844F",
"t& 	c #CBCB88",
"u& 	c #3D4019",
"v& 	c #BABC72",
"w& 	c #706F47",
"x& 	c #B0AF76",
"y& 	c #CCCC81",
"z& 	c #969956",
"A& 	c #373A16",
"B& 	c #717245",
"C& 	c #8C8F49",
"D& 	c #8E914D",
"E& 	c #3B3C20",
"F& 	c #94945E",
"G& 	c #9FA15C",
"H& 	c #474B1D",
"I& 	c #94955D",
"J& 	c #969661",
"K& 	c #8C8F4A",
"L& 	c #A5A764",
"M& 	c #6B6C41",
"N& 	c #D7D980",
"O& 	c #D3D580",
"P& 	c #585B2C",
"Q& 	c #5E602E",
"R& 	c #FFFFAE",
"S& 	c #5D5E3C",
"T& 	c #595B35",
"U& 	c #888B4B",
"V& 	c #979952",
"W& 	c #5E6228",
"X& 	c #929451",
"Y& 	c #90905C",
"Z& 	c #3B3E18",
"`& 	c #B8B683",
" * 	c #A3A466",
".* 	c #3D3F20",
"+* 	c #686848",
"@* 	c #777849",
"#* 	c #757646",
"$* 	c #717147",
"%* 	c #83854E",
"&* 	c #919259",
"** 	c #868653",
"=* 	c #5C5F2F",
"-* 	c #71743B",
";* 	c #B0AF78",
">* 	c #797A45",
",* 	c #A09F6B",
"'* 	c #97985E",
")* 	c #40431A",
"!* 	c #7B7D44",
"~* 	c #7D7E47",
"{* 	c #A6A864",
"]* 	c #91925A",
"^* 	c #494A2C",
"/* 	c #525331",
"(* 	c #2A2C11",
"_* 	c #81834D",
":* 	c #505136",
"<* 	c #A5A56D",
"[* 	c #F7FB97",
"}* 	c #F0F38E",
"|* 	c #A0A25F",
"1* 	c #AFB650",
"2* 	c #C2C278",
"3* 	c #CCCC86",
"4* 	c #B2B65F",
"5* 	c #CBCE74",
"6* 	c #585A36",
"7* 	c #A8AA62",
"8* 	c #6D6E44",
"9* 	c #999A5C",
"0* 	c #7D7F4A",
"a* 	c #5E5E43",
"b* 	c #767843",
"c* 	c #999B5C",
"d* 	c #919063",
"e* 	c #97985D",
"f* 	c #7E7D52",
"g* 	c #545531",
"h* 	c #797A48",
"i* 	c #7E8048",
"j* 	c #7D7F48",
"k* 	c #5A5B35",
"l* 	c #ABAC6D",
"m* 	c #5C5C44",
"n* 	c #6A6B3E",
"o* 	c #949561",
"p* 	c #80824C",
"q* 	c #A4A46D",
"r* 	c #525621",
"s* 	c #7B7E40",
"t* 	c #676939",
"u* 	c #67693C",
"v* 	c #8D8E5A",
"w* 	c #676941",
"x* 	c #A1A266",
"y* 	c #B8B973",
"z* 	c #C8CA78",
"A* 	c #C2C281",
"B* 	c #DADB84",
"C* 	c #D0CF88",
"D* 	c #888951",
"E* 	c #A0A35D",
"F* 	c #8E914F",
"G* 	c #121209",
"H* 	c #7B7F3D",
"I* 	c #E9EA97",
"J* 	c #9CA054",
"K* 	c #32321D",
"L* 	c #8D8D5F",
"M* 	c #9FA065",
"N* 	c #909351",
"O* 	c #131408",
"P* 	c #90905D",
"Q* 	c #464823",
"R* 	c #2D2F12",
"S* 	c #848455",
"T* 	c #9C9E60",
"U* 	c #91934F",
"V* 	c #747640",
"W* 	c #A9A966",
"X* 	c #626531",
"Y* 	c #20210D",
"Z* 	c #60632F",
"`* 	c #98995D",
" = 	c #AEAD76",
".= 	c #A2A167",
"+= 	c #7E7F50",
"@= 	c #979666",
"#= 	c #505133",
"$= 	c #AEB169",
"%= 	c #79794B",
"&= 	c #A0A066",
"*= 	c #A3A364",
"== 	c #7F833D",
"-= 	c #1F1F13",
";= 	c #D7D788",
">= 	c #EBED8C",
",= 	c #B0B55C",
"'= 	c #939565",
")= 	c #CCCC85",
"!= 	c #2A2B1B",
"~= 	c #ECEAA4",
"{= 	c #ADAD72",
"]= 	c #9B9B60",
"^= 	c #B2B56A",
"/= 	c #858750",
"(= 	c #919457",
"_= 	c #6D703D",
":= 	c #B5B380",
"<= 	c #474A1E",
"[= 	c #858650",
"}= 	c #38391F",
"|= 	c #888956",
"1= 	c #B4B37B",
"2= 	c #777749",
"3= 	c #747543",
"4= 	c #626434",
"5= 	c #4E5024",
"6= 	c #6E6F43",
"7= 	c #0E0F06",
"8= 	c #959561",
"9= 	c #909256",
"0= 	c #5E5E3A",
"a= 	c #8A8A57",
"b= 	c #908F64",
"c= 	c #919061",
"d= 	c #7C7D4F",
"e= 	c #727539",
"f= 	c #414420",
"g= 	c #575838",
"h= 	c #A8A76E",
"i= 	c #60603E",
"j= 	c #7B7B5C",
"k= 	c #BEC16E",
"l= 	c #A2A657",
"m= 	c #DADA8D",
"n= 	c #A0A54F",
"o= 	c #BEC172",
"p= 	c #595D24",
"q= 	c #A8AA66",
"r= 	c #A6A863",
"s= 	c #E1E489",
"t= 	c #51552A",
"u= 	c #848745",
"v= 	c #A9AB67",
"w= 	c #3F4128",
"x= 	c #797B43",
"y= 	c #999A62",
"z= 	c #7E8143",
"A= 	c #A0A260",
"B= 	c #94965B",
"C= 	c #1F2113",
"D= 	c #515232",
"E= 	c #73734B",
"F= 	c #56582F",
"G= 	c #67693B",
"H= 	c #7C7D47",
"I= 	c #313314",
"J= 	c #21230F",
"K= 	c #737444",
"L= 	c #6A6B40",
"M= 	c #828253",
"N= 	c #808050",
"O= 	c #C0BE88",
"P= 	c #646636",
"Q= 	c #71743A",
"R= 	c #8B8E57",
"S= 	c #727248",
"T= 	c #6E6E43",
"U= 	c #A9AB6A",
"V= 	c #5E5F39",
"W= 	c #494D1D",
"X= 	c #A2A55C",
"Y= 	c #BDBF6D",
"Z= 	c #BABB6D",
"`= 	c #FFFFA9",
" - 	c #D2D287",
".- 	c #888954",
"+- 	c #D9DB88",
"@- 	c #8E9341",
"#- 	c #1E1F0E",
"$- 	c #343615",
"%- 	c #060702",
"&- 	c #969569",
"*- 	c #858655",
"=- 	c #AFAF70",
"-- 	c #9FA064",
";- 	c #4B4D2C",
">- 	c #A4A467",
",- 	c #393921",
"'- 	c #4A4B2C",
")- 	c #747548",
"!- 	c #82844E",
"~- 	c #8A8B56",
"{- 	c #787944",
"]- 	c #898A52",
"^- 	c #8D8F55",
"/- 	c #4C4C33",
"(- 	c #555829",
"_- 	c #76764E",
":- 	c #5B5E31",
"<- 	c #95965D",
"[- 	c #797B47",
"}- 	c #91915B",
"|- 	c #B0B073",
"1- 	c #4E4E32",
"2- 	c #828351",
"3- 	c #8A8B58",
"4- 	c #4D511F",
"5- 	c #7F8343",
"6- 	c #B5B867",
"7- 	c #353816",
"8- 	c #777941",
"9- 	c #B2B46C",
"0- 	c #A6A76A",
"a- 	c #959758",
"b- 	c #989A5C",
"c- 	c #F4F794",
"d- 	c #FFFFA1",
"e- 	c #4F502C",
"f- 	c #CFCE85",
"g- 	c #A8A965",
"h- 	c #94974B",
"i- 	c #83854B",
"j- 	c #8A8B5A",
"k- 	c #777844",
"l- 	c #6E703D",
"m- 	c #929263",
"n- 	c #989768",
"o- 	c #77774F",
"p- 	c #6C6C41",
"q- 	c #A3A273",
"r- 	c #5D5F32",
"s- 	c #5E5E39",
"t- 	c #A3A26E",
"u- 	c #66683E",
"v- 	c #17170B",
"w- 	c #6B6B42",
"x- 	c #6C6D42",
"y- 	c #5A5D2E",
"z- 	c #3F4219",
"A- 	c #808051",
"B- 	c #5F6039",
"C- 	c #51522D",
"D- 	c #75764A",
"E- 	c #8D8D60",
"F- 	c #898860",
"G- 	c #A4A663",
"H- 	c #707530",
"I- 	c #666844",
"J- 	c #90915C",
"K- 	c #E3E58D",
"L- 	c #CDCF79",
"M- 	c #A9AE55",
"N- 	c #777C30",
"O- 	c #D6D787",
"P- 	c #BCBD78",
"Q- 	c #76784B",
"R- 	c #D7D985",
"S- 	c #82863F",
"T- 	c #FEFF9D",
"U- 	c #F6F99C",
"V- 	c #6F6F5A",
"W- 	c #918F64",
"X- 	c #5F6137",
"Y- 	c #91925B",
"Z- 	c #828254",
"`- 	c #727343",
" ; 	c #696A3E",
".; 	c #9A9A64",
"+; 	c #787946",
"@; 	c #5E6036",
"#; 	c #434325",
"$; 	c #555632",
"%; 	c #87894E",
"&; 	c #A4A569",
"*; 	c #777651",
"=; 	c #686842",
"-; 	c #5E6033",
";; 	c #696A40",
">; 	c #646442",
",; 	c #4F5028",
"'; 	c #22240E",
"); 	c #A6A570",
"!; 	c #6D6F40",
"~; 	c #44471E",
"{; 	c #9C9C68",
"]; 	c #6F723D",
"^; 	c #7B7D47",
"/; 	c #CAC98D",
"(; 	c #21220E",
"_; 	c #E9EB91",
":; 	c #34371F",
"<; 	c #B7B67C",
"[; 	c #ACAE63",
"}; 	c #D6D688",
"|; 	c #313414",
"1; 	c #E0DFA0",
"2; 	c #878D36",
"3; 	c #DEE087",
"4; 	c #5B5C34",
"5; 	c #676839",
"6; 	c #9C9D62",
"7; 	c #74744E",
"8; 	c #929162",
"9; 	c #616141",
"0; 	c #2F311C",
"a; 	c #313222",
"b; 	c #81834F",
"c; 	c #9F9F68",
"d; 	c #80814A",
"e; 	c #7C7C4B",
"f; 	c #636535",
"g; 	c #505233",
"h; 	c #696A41",
"i; 	c #757648",
"j; 	c #73744A",
"k; 	c #4B4E22",
"l; 	c #7B7C4E",
"m; 	c #727440",
"n; 	c #595A31",
"o; 	c #2B2C12",
"p; 	c #313215",
"q; 	c #494A31",
"r; 	c #97985F",
"s; 	c #545723",
"t; 	c #82844C",
"u; 	c #B0B366",
"v; 	c #6B702C",
"w; 	c #FFFFF1",
"x; 	c #454626",
"y; 	c #89903A",
"z; 	c #373A19",
"A; 	c #575836",
"B; 	c #A3A461",
"C; 	c #FFFFE8",
"D; 	c #898C50",
"E; 	c #8B8E4D",
"F; 	c #D8D88D",
"G; 	c #9C9F59",
"H; 	c #91915E",
"I; 	c #6F7042",
"J; 	c #707146",
"K; 	c #101007",
"L; 	c #63643D",
"M; 	c #5E5E42",
"N; 	c #595B32",
"O; 	c #74754C",
"P; 	c #5F6036",
"Q; 	c #606139",
"R; 	c #777654",
"S; 	c #4B4D28",
"T; 	c #5B5C35",
"U; 	c #5F6034",
"V; 	c #565733",
"W; 	c #63643B",
"X; 	c #4F512B",
"Y; 	c #5E5F37",
"Z; 	c #727345",
"`; 	c #535434",
" > 	c #878A53",
".> 	c #5E5F36",
"+> 	c #6A6C42",
"@> 	c #B3B470",
"#> 	c #787A4B",
"$> 	c #C7C786",
"%> 	c #B9B978",
"&> 	c #B3B567",
"*> 	c #F7F7A2",
"=> 	c #DFDD9A",
"-> 	c #919453",
";> 	c #9B9E5A",
">> 	c #AFB264",
",> 	c #CFD080",
"'> 	c #CED079",
")> 	c #BDC071",
"!> 	c #77794F",
"~> 	c #838544",
"{> 	c #050503",
"]> 	c #737347",
"^> 	c #969666",
"/> 	c #9B9D5D",
"(> 	c #51532C",
"_> 	c #434427",
":> 	c #3A3B1D",
"<> 	c #363729",
"[> 	c #595A2F",
"}> 	c #65663E",
"|> 	c #808053",
"1> 	c #404226",
"2> 	c #707339",
"3> 	c #383922",
"4> 	c #41412F",
"5> 	c #3F3F29",
"6> 	c #686841",
"7> 	c #5B5B3B",
"8> 	c #61613E",
"9> 	c #7E804E",
"0> 	c #636341",
"a> 	c #5D5D3B",
"b> 	c #54572B",
"c> 	c #030302",
"d> 	c #7D7E4C",
"e> 	c #77794C",
"f> 	c #FFFFC4",
"g> 	c #111208",
"h> 	c #8B9138",
"i> 	c #8C8C59",
"j> 	c #9B9C5E",
"k> 	c #AFB459",
"l> 	c #C0C07E",
"m> 	c #5F613E",
"n> 	c #B6BC5B",
"o> 	c #ABAB71",
"p> 	c #5F6130",
"q> 	c #A1A268",
"r> 	c #51532E",
"s> 	c #6B6C3B",
"t> 	c #777950",
"u> 	c #474825",
"v> 	c #57582E",
"w> 	c #797B49",
"x> 	c #4B4B2D",
"y> 	c #42432E",
"z> 	c #383B16",
"A> 	c #4D4E2F",
"B> 	c #60613A",
"C> 	c #424521",
"D> 	c #7C7B51",
"E> 	c #707048",
"F> 	c #67683D",
"G> 	c #323221",
"H> 	c #48492C",
"I> 	c #A8A773",
"J> 	c #757935",
"K> 	c #89895B",
"L> 	c #929458",
"M> 	c #A2A267",
"N> 	c #76775B",
"O> 	c #7A7C47",
"P> 	c #FFFFFC",
"Q> 	c #3C3F18",
"R> 	c #2C2D1F",
"S> 	c #64692C",
"T> 	c #95975C",
"U> 	c #D3D48A",
"V> 	c #989960",
"W> 	c #A2A55B",
"X> 	c #B0B265",
"Y> 	c #CECE85",
"Z> 	c #C7C880",
"`> 	c #ACB065",
" , 	c #414223",
"., 	c #7E7D56",
"+, 	c #494A2D",
"@, 	c #0E0E06",
"#, 	c #535432",
"$, 	c #414322",
"%, 	c #44461F",
"&, 	c #4E4F2C",
"*, 	c #76774E",
"=, 	c #75754F",
"-, 	c #505031",
";, 	c #70704B",
">, 	c #5E5F3A",
",, 	c #313417",
"', 	c #4D4E2D",
"), 	c #414327",
"!, 	c #52542F",
"~, 	c #71714B",
"{, 	c #393B1E",
"], 	c #676B30",
"^, 	c #67683F",
"/, 	c #7D8046",
"(, 	c #20210E",
"_, 	c #7B7D45",
":, 	c #7B7D46",
"<, 	c #A6A95E",
"[, 	c #8D9049",
"}, 	c #ACAF5F",
"|, 	c #BABE6D",
"1, 	c #989E42",
"2, 	c #757845",
"3, 	c #989A5B",
"4, 	c #BEBE7B",
"5, 	c #B9BA6F",
"6, 	c #9FA352",
"7, 	c #E3E391",
"8, 	c #D9DA8C",
"9, 	c #B4B764",
"0, 	c #111107",
"a, 	c #64633D",
"b, 	c #6A6C3B",
"c, 	c #555629",
"d, 	c #3B3B24",
"e, 	c #424223",
"f, 	c #49493A",
"g, 	c #4F4F2D",
"h, 	c #515036",
"i, 	c #414229",
"j, 	c #535433",
"k, 	c #272817",
"l, 	c #4E4F31",
"m, 	c #4A4B2D",
"n, 	c #45462D",
"o, 	c #3F4029",
"p, 	c #585835",
"q, 	c #555631",
"r, 	c #333423",
"s, 	c #87885A",
"t, 	c #ACAB74",
"u, 	c #363916",
"v, 	c #86874B",
"w, 	c #121309",
"x, 	c #AFB078",
"y, 	c #D2D675",
"z, 	c #D1D385",
"A, 	c #AEAF71",
"B, 	c #8B8F48",
"C, 	c #FFFFDF",
"D, 	c #CCCF76",
"E, 	c #858945",
"F, 	c #F3F598",
"G, 	c #8C8D60",
"H, 	c #C2C374",
"I, 	c #131509",
"J, 	c #5E5F3B",
"K, 	c #808151",
"L, 	c #73763C",
"M, 	c #5B5D32",
"N, 	c #1A1B10",
"O, 	c #363621",
"P, 	c #595A39",
"Q, 	c #535330",
"R, 	c #5F603A",
"S, 	c #64653C",
"T, 	c #707143",
"U, 	c #2E2F27",
"V, 	c #444529",
"W, 	c #32331D",
"X, 	c #43442A",
"Y, 	c #505034",
"Z, 	c #555535",
"`, 	c #565635",
" ' 	c #7C7D51",
".' 	c #828450",
"+' 	c #B5B677",
"@' 	c #4F5027",
"#' 	c #9D9E5B",
"$' 	c #959658",
"%' 	c #6E713A",
"&' 	c #A3A367",
"*' 	c #A4A75D",
"=' 	c #979955",
"-' 	c #757647",
";' 	c #23250E",
">' 	c #FDFEA6",
",' 	c #D4D58B",
"'' 	c #B5B66D",
")' 	c #767A3E",
"!' 	c #D7DA7D",
"~' 	c #606331",
"{' 	c #A0A54E",
"]' 	c #909253",
"^' 	c #BBBB75",
"/' 	c #9FA15A",
"(' 	c #A1A457",
"_' 	c #525431",
":' 	c #1C1F13",
"<' 	c #151A11",
"[' 	c #0E130E",
"}' 	c #0E140E",
"|' 	c #0E140D",
"1' 	c #0F150E",
"2' 	c #0C110B",
"3' 	c #0D130C",
"4' 	c #0E150E",
"5' 	c #0E130C",
"6' 	c #111710",
"7' 	c #0D120C",
"8' 	c #0F150D",
"9' 	c #0E120C",
"0' 	c #202419",
"a' 	c #4F5035",
"b' 	c #414226",
"c' 	c #7D7E4D",
"d' 	c #8F8F56",
"e' 	c #626532",
"f' 	c #6B6C3D",
"g' 	c #5F6134",
"h' 	c #9C9B64",
"i' 	c #878C3F",
"j' 	c #A0A167",
"k' 	c #A5A862",
"l' 	c #949750",
"m' 	c #D6D68C",
"n' 	c #D2D28D",
"o' 	c #C3C37F",
"p' 	c #BABB6F",
"q' 	c #15160A",
"r' 	c #7E823A",
"s' 	c #B4B66D",
"t' 	c #646546",
"u' 	c #90944D",
"v' 	c #B8BD60",
"w' 	c #9F9F66",
"x' 	c #4C4E31",
"y' 	c #151A10",
"z' 	c #161C13",
"A' 	c #0C120B",
"B' 	c #12170F",
"C' 	c #0F140D",
"D' 	c #0C110C",
"E' 	c #0D130D",
"F' 	c #111910",
"G' 	c #0B110C",
"H' 	c #0C130D",
"I' 	c #11170F",
"J' 	c #1F2317",
"K' 	c #2D2D1E",
"L' 	c #6A6C3C",
"M' 	c #5F603D",
"N' 	c #AAAB6A",
"O' 	c #7C7E52",
"P' 	c #848841",
"Q' 	c #EEEF95",
"R' 	c #A0A25D",
"S' 	c #E2E581",
"T' 	c #D1D187",
"U' 	c #303214",
"V' 	c #FCFF98",
"W' 	c #DFE383",
"X' 	c #4E4E37",
"Y' 	c #888C48",
"Z' 	c #96994A",
"`' 	c #424420",
" ) 	c #2F3214",
".) 	c #383A23",
"+) 	c #181D13",
"@) 	c #141A11",
"#) 	c #0A0F0B",
"$) 	c #0B100B",
"%) 	c #10160E",
"&) 	c #0F150F",
"*) 	c #0F170F",
"=) 	c #0D110B",
"-) 	c #0B110B",
";) 	c #141911",
">) 	c #2B2E1E",
",) 	c #7F8247",
"') 	c #747451",
")) 	c #43442B",
"!) 	c #6F713D",
"~) 	c #7F814B",
"{) 	c #66673C",
"]) 	c #939460",
"^) 	c #6A6E33",
"/) 	c #3C3D26",
"() 	c #CBCD7E",
"_) 	c #9A9D56",
":) 	c #5D602F",
"<) 	c #A3A272",
"[) 	c #D8DD72",
"}) 	c #818449",
"|) 	c #AAAC64",
"1) 	c #9EA154",
"2) 	c #22230F",
"3) 	c #B5B76B",
"4) 	c #0A110C",
"5) 	c #090F0B",
"6) 	c #090F0A",
"7) 	c #070C09",
"8) 	c #080D0A",
"9) 	c #080F0B",
"0) 	c #0A120D",
"a) 	c #09100C",
"b) 	c #09100B",
"c) 	c #09110C",
"d) 	c #090F0C",
"e) 	c #0A110B",
"f) 	c #666645",
"g) 	c #838453",
"h) 	c #9B9B66",
"i) 	c #676A3A",
"j) 	c #81834C",
"k) 	c #909350",
"l) 	c #595E24",
"m) 	c #484B32",
"n) 	c #C4C57C",
"o) 	c #353616",
"p) 	c #B6B86E",
"q) 	c #BBBD6E",
"r) 	c #BFC171",
"s) 	c #9A9C5C",
"t) 	c #E8E7A3",
"u) 	c #E3E490",
"v) 	c #BABB6E",
"w) 	c #A8AA69",
"x) 	c #B4B66B",
"y) 	c #0A100B",
"z) 	c #070D09",
"A) 	c #080E0A",
"B) 	c #080D09",
"C) 	c #0B120D",
"D) 	c #0A120C",
"E) 	c #0B110D",
"F) 	c #0B130E",
"G) 	c #606138",
"H) 	c #99996A",
"I) 	c #A8A870",
"J) 	c #AAA975",
"K) 	c #DBDA95",
"L) 	c #D2D872",
"M) 	c #A1A361",
"N) 	c #8C8F4D",
"O) 	c #CDCE7F",
"P) 	c #90944F",
"Q) 	c #8C8D58",
"R) 	c #8F914E",
"S) 	c #D5D781",
"T) 	c #CCCD83",
"U) 	c #E3E58B",
"V) 	c #F2F498",
"W) 	c #43471C",
"X) 	c #5F6142",
"Y) 	c #C2C578",
"Z) 	c #92964A",
"`) 	c #2C3118",
" ! 	c #080F0A",
".! 	c #0A100C",
"+! 	c #25291B",
"@! 	c #8F8F5A",
"#! 	c #605F40",
"$! 	c #918F62",
"%! 	c #323414",
"&! 	c #CECE89",
"*! 	c #D0D087",
"=! 	c #BFC074",
"-! 	c #CCCD79",
";! 	c #DADB87",
">! 	c #9D9D69",
",! 	c #151509",
"'! 	c #EFEEA6",
")! 	c #484C21",
"!! 	c #56582D",
"~! 	c #F4F697",
"{! 	c #9C9D5D",
"]! 	c #9D9F5C",
"^! 	c #686D29",
"/! 	c #B4B76A",
"(! 	c #E9E8A0",
"_! 	c #0B130D",
":! 	c #0B120C",
"<! 	c #080E0B",
"[! 	c #444632",
"}! 	c #616434",
"|! 	c #868753",
"1! 	c #5B5C40",
"2! 	c #73763E",
"3! 	c #A7A869",
"4! 	c #65692D",
"5! 	c #D2D47E",
"6! 	c #90925B",
"7! 	c #A6AA5C",
"8! 	c #96975D",
"9! 	c #D8DA8C",
"0! 	c #C3C571",
"a! 	c #CCCB85",
"b! 	c #80853C",
"c! 	c #B1B36B",
"d! 	c #ADAE69",
"e! 	c #DEDF8C",
"f! 	c #96975C",
"g! 	c #393E21",
"h! 	c #070B08",
"i! 	c #0C140E",
"j! 	c #8F8D64",
"k! 	c #B8B77D",
"l! 	c #858A40",
"m! 	c #A0A163",
"n! 	c #A1A74F",
"o! 	c #7E7F4E",
"p! 	c #C3C37C",
"q! 	c #949658",
"r! 	c #F0EFA3",
"s! 	c #808246",
"t! 	c #D3D387",
"u! 	c #E8E98F",
"v! 	c #848742",
"w! 	c #A6A769",
"x! 	c #C6CA6F",
"y! 	c #71772D",
"z! 	c #CFCF81",
"A! 	c #DBDA96",
"B! 	c #0E150D",
"C! 	c #09100A",
"D! 	c #090E0A",
"E! 	c #0B140D",
"F! 	c #272A10",
"G! 	c #6C6E40",
"H! 	c #4C4F27",
"I! 	c #323517",
"J! 	c #A7A967",
"K! 	c #D8D795",
"L! 	c #A5A766",
"M! 	c #CECF82",
"N! 	c #ABAE5D",
"O! 	c #757A2F",
"P! 	c #6A6B43",
"Q! 	c #DFE286",
"R! 	c #69694D",
"S! 	c #16170A",
"T! 	c #C4C57B",
"U! 	c #7E7F4B",
"V! 	c #2E3113",
"W! 	c #858940",
"X! 	c #6E722C",
"Y! 	c #323514",
"Z! 	c #090D09",
"`! 	c #242719",
" ~ 	c #7E7F51",
".~ 	c #797B4A",
"+~ 	c #81824F",
"@~ 	c #727441",
"#~ 	c #AAAB6E",
"$~ 	c #BCBE70",
"%~ 	c #9E9F66",
"&~ 	c #CDD076",
"*~ 	c #E0E18A",
"=~ 	c #B5B86D",
"-~ 	c #AAAD5C",
";~ 	c #C6C879",
">~ 	c #FAFA9D",
",~ 	c #919258",
"'~ 	c #86884E",
")~ 	c #71724B",
"!~ 	c #AFB067",
"~~ 	c #B5B76C",
"{~ 	c #2D321F",
"]~ 	c #080E09",
"^~ 	c #63653E",
"/~ 	c #717145",
"(~ 	c #ACAD70",
"_~ 	c #B3B56C",
":~ 	c #C8C783",
"<~ 	c #D6D781",
"[~ 	c #C3C66C",
"}~ 	c #CCCF7D",
"|~ 	c #F8F7A3",
"1~ 	c #ABAB6A",
"2~ 	c #CBCC7B",
"3~ 	c #ADB15C",
"4~ 	c #F5F891",
"5~ 	c #1A1B0C",
"6~ 	c #F3F2A3",
"7~ 	c #FFFFAC",
"8~ 	c #0F0F08",
"9~ 	c #0A110D",
"0~ 	c #6F7146",
"a~ 	c #84864D",
"b~ 	c #070704",
"c~ 	c #9B9B65",
"d~ 	c #494A32",
"e~ 	c #A4A959",
"f~ 	c #949944",
"g~ 	c #E3E29E",
"h~ 	c #BCBD73",
"i~ 	c #E7EB88",
"j~ 	c #57584B",
"k~ 	c #32331F",
"l~ 	c #333415",
"m~ 	c #595E25",
"n~ 	c #E1E099",
"o~ 	c #E2E290",
"p~ 	c #8A8B57",
"q~ 	c #212617",
"r~ 	c #CAC98A",
"s~ 	c #6C6D3F",
"t~ 	c #565737",
"u~ 	c #343520",
"v~ 	c #87865C",
"w~ 	c #BBBB78",
"x~ 	c #DDDF87",
"y~ 	c #9B9D5F",
"z~ 	c #848747",
"A~ 	c #BEC075",
"B~ 	c #818544",
"C~ 	c #A0A35F",
"D~ 	c #B4B46F",
"E~ 	c #D6D789",
"F~ 	c #D5D585",
"G~ 	c #8E943E",
"H~ 	c #929452",
"I~ 	c #5B5C38",
"J~ 	c #5D5E39",
"K~ 	c #1E2115",
"L~ 	c #070E0A",
"M~ 	c #090E0B",
"N~ 	c #424528",
"O~ 	c #7E7E52",
"P~ 	c #38392E",
"Q~ 	c #8C904B",
"R~ 	c #ECED97",
"S~ 	c #9B9F50",
"T~ 	c #24250F",
"U~ 	c #50522F",
"V~ 	c #47482B",
"W~ 	c #C3C672",
"X~ 	c #A4A46A",
"Y~ 	c #8A8B51",
"Z~ 	c #8E9248",
"`~ 	c #656A29",
" { 	c #8F9150",
".{ 	c #ADAF68",
"+{ 	c #CBCD7C",
"@{ 	c #FBFDA2",
"#{ 	c #484833",
"${ 	c #767940",
"%{ 	c #7A7C49",
"&{ 	c #707145",
"*{ 	c #040402",
"={ 	c #C4C76E",
"-{ 	c #050604",
";{ 	c #EFEE9F",
">{ 	c #63672D",
",{ 	c #8F934B",
"'{ 	c #93935F",
"){ 	c #959759",
"!{ 	c #8F924D",
"~{ 	c #8C8D5B",
"{{ 	c #A4A85A",
"]{ 	c #E8E994",
"^{ 	c #7D7C55",
"/{ 	c #323727",
"({ 	c #6C6C43",
"_{ 	c #7B7C4B",
":{ 	c #75754A",
"<{ 	c #737449",
"[{ 	c #989A5A",
"}{ 	c #D9D98F",
"|{ 	c #A6A765",
"1{ 	c #696A4B",
"2{ 	c #919354",
"3{ 	c #A7A963",
"4{ 	c #E0E284",
"5{ 	c #B2B370",
"6{ 	c #8A8B54",
"7{ 	c #ADAE68",
"8{ 	c #9FA259",
"9{ 	c #E9EA93",
"0{ 	c #C0C272",
"a{ 	c #292D1C",
"b{ 	c #0B140E",
"c{ 	c #404128",
"d{ 	c #6C6E41",
"e{ 	c #42451B",
"f{ 	c #3C3D2F",
"g{ 	c #AEB15F",
"h{ 	c #B0BA49",
"i{ 	c #A8A973",
"j{ 	c #78784F",
"k{ 	c #DBDC89",
"l{ 	c #E2E294",
"m{ 	c #94965C",
"n{ 	c #858748",
"o{ 	c #BFBF7F",
"p{ 	c #86874E",
"q{ 	c #FFFEAF",
"r{ 	c #AFB068",
"s{ 	c #D2D876",
"t{ 	c #B9B882",
"u{ 	c #96985A",
"v{ 	c #5A5C30",
"w{ 	c #060603",
"x{ 	c #43433A",
"y{ 	c #BDBC83",
"z{ 	c #FFFFB0",
"A{ 	c #B7B67B",
"B{ 	c #1A1C0C",
"C{ 	c #4C4E2B",
"D{ 	c #E5E694",
"E{ 	c #A5A66E",
"F{ 	c #5A5C36",
"G{ 	c #B2B46D",
"H{ 	c #969660",
"I{ 	c #BFC172",
"J{ 	c #C7CA72",
"K{ 	c #BDBE74",
"L{ 	c #767748",
"M{ 	c #23271C",
"N{ 	c #494935",
"O{ 	c #505422",
"P{ 	c #919066",
"Q{ 	c #9FA161",
"R{ 	c #383A20",
"S{ 	c #979957",
"T{ 	c #FFFFCD",
"U{ 	c #FFFFDC",
"V{ 	c #91935E",
"W{ 	c #C8C881",
"X{ 	c #F7FA9B",
"Y{ 	c #787A4F",
"Z{ 	c #FFFF9E",
"`{ 	c #5D5E40",
" ] 	c #7C7E48",
".] 	c #ABAD65",
"+] 	c #C8CB79",
"@] 	c #D9DB83",
"#] 	c #C4C482",
"$] 	c #242A18",
"%] 	c #4A4B2F",
"&] 	c #6A6D3B",
"*] 	c #7A7B48",
"=] 	c #8D8D5D",
"-] 	c #8D8D54",
";] 	c #BEC076",
">] 	c #D1D476",
",] 	c #81844B",
"'] 	c #C9CB7A",
")] 	c #E1E09A",
"!] 	c #C3C674",
"~] 	c #909158",
"{] 	c #A2A462",
"]] 	c #6A6C3A",
"^] 	c #C6C776",
"/] 	c #020202",
"(] 	c #73792F",
"_] 	c #CCCB83",
":] 	c #09110B",
"<] 	c #ADAE76",
"[] 	c #4C4C36",
"}] 	c #9A9B5A",
"|] 	c #ADAF69",
"1] 	c #B9BB70",
"2] 	c #18180F",
"3] 	c #333515",
"4] 	c #71714C",
"5] 	c #E3E68D",
"6] 	c #4A4D1F",
"7] 	c #75765E",
"8] 	c #BFC072",
"9] 	c #989B57",
"0] 	c #C0C174",
"a] 	c #4D4F2F",
"b] 	c #E7E895",
"c] 	c #919543",
"d] 	c #6E703E",
"e] 	c #12170C",
"f] 	c #2C2D19",
"g] 	c #676741",
"h] 	c #B9BA79",
"i] 	c #D3D292",
"j] 	c #B3B27B",
"k] 	c #47491C",
"l] 	c #81834B",
"m] 	c #666A34",
"n] 	c #363816",
"o] 	c #969A4F",
"p] 	c #EAF08B",
"q] 	c #6D6F4D",
"r] 	c #BFC272",
"s] 	c #C0C07A",
"t] 	c #FFFFA3",
"u] 	c #747647",
"v] 	c #6A6D37",
"w] 	c #969859",
"x] 	c #7D7F4C",
"y] 	c #AEAE6F",
"z] 	c #404223",
"A] 	c #777847",
"B] 	c #7E804C",
"C] 	c #3F402D",
"D] 	c #A09F67",
"E] 	c #A8AA65",
"F] 	c #979856",
"G] 	c #B9BB6B",
"H] 	c #2F3213",
"I] 	c #B7BA6D",
"J] 	c #434428",
"K] 	c #DEDC9C",
"L] 	c #939462",
"M] 	c #919455",
"N] 	c #696A3A",
"O] 	c #DFDF92",
"P] 	c #B6BB66",
"Q] 	c #F5F3AC",
"R] 	c #B2B46B",
"S] 	c #78794A",
"T] 	c #50522C",
"U] 	c #757744",
"V] 	c #8E9348",
"W] 	c #2B2D11",
"X] 	c #474A29",
"Y] 	c #FFFFEB",
"Z] 	c #ADAE6B",
"`] 	c #BBBB7C",
" ^ 	c #8B8E51",
".^ 	c #FFFFF3",
"+^ 	c #3A3C29",
"@^ 	c #8C8D59",
"#^ 	c #ABAC69",
"$^ 	c #7B7D4A",
"%^ 	c #AEAE6D",
"&^ 	c #D6D784",
"*^ 	c #C1C275",
"=^ 	c #D6DA7B",
"-^ 	c #797C3F",
";^ 	c #0B130C",
">^ 	c #0C150F",
",^ 	c #171C11",
"'^ 	c #4E4E30",
")^ 	c #616335",
"!^ 	c #585C27",
"~^ 	c #999A61",
"{^ 	c #797965",
"]^ 	c #929362",
"^^ 	c #D3D583",
"/^ 	c #80843E",
"(^ 	c #A3A75C",
"_^ 	c #B4B762",
":^ 	c #9C9C6F",
"<^ 	c #7D8133",
"[^ 	c #CBCB86",
"}^ 	c #D1D37D",
"|^ 	c #FFFFFB",
"1^ 	c #4D4F22",
"2^ 	c #242818",
"3^ 	c #0A130D",
"4^ 	c #2C2F17",
"5^ 	c #444721",
"6^ 	c #7D7D4C",
"7^ 	c #292C14",
"8^ 	c #A2A171",
"9^ 	c #ABAD64",
"0^ 	c #9A9F51",
"a^ 	c #D2D770",
"b^ 	c #D1D86A",
"c^ 	c #A5AA54",
"d^ 	c #11130B",
"e^ 	c #616333",
"f^ 	c #9A9E51",
"g^ 	c #8A895F",
"h^ 	c #51532D",
"i^ 	c #AEAE72",
"j^ 	c #7F8143",
"k^ 	c #6F713C",
"l^ 	c #7E813E",
"m^ 	c #4A4C24",
"n^ 	c #BCBF75",
"o^ 	c #464827",
"p^ 	c #C4C57A",
"q^ 	c #CACB80",
"r^ 	c #4A4D23",
"s^ 	c #FFFFD6",
"t^ 	c #41412C",
"u^ 	c #A7A964",
"v^ 	c #7E8050",
"w^ 	c #080904",
"x^ 	c #747646",
"y^ 	c #7F804C",
"z^ 	c #6E7042",
"A^ 	c #96975E",
"B^ 	c #BABE67",
"C^ 	c #B6B770",
"D^ 	c #25270F",
"E^ 	c #1F2515",
"F^ 	c #828251",
"G^ 	c #4A4B2E",
"H^ 	c #767646",
"I^ 	c #7B7E3F",
"J^ 	c #6E7230",
"K^ 	c #BABC70",
"L^ 	c #80804E",
"M^ 	c #EDEF96",
"N^ 	c #72744E",
"O^ 	c #D1D27F",
"P^ 	c #BDBF6E",
"Q^ 	c #AEB06A",
"R^ 	c #C5C776",
"S^ 	c #C6C976",
"T^ 	c #9C9F53",
"U^ 	c #B4B66F",
"V^ 	c #272B1B",
"W^ 	c #0C130E",
"X^ 	c #070D0A",
"Y^ 	c #1E2015",
"Z^ 	c #323415",
"`^ 	c #646730",
" / 	c #D2D290",
"./ 	c #4B4D2E",
"+/ 	c #8F9054",
"@/ 	c #0E0F07",
"#/ 	c #9CA24C",
"$/ 	c #D2D772",
"%/ 	c #FFFFE3",
"&/ 	c #F3F2A8",
"*/ 	c #7E7D6F",
"=/ 	c #808636",
"-/ 	c #E1E386",
";/ 	c #9FA068",
">/ 	c #737445",
",/ 	c #C7C77D",
"'/ 	c #F4F696",
")/ 	c #848454",
"!/ 	c #C7C782",
"~/ 	c #A8AC5A",
"{/ 	c #CDCE85",
"]/ 	c #41431D",
"^/ 	c #808152",
"// 	c #868A49",
"(/ 	c #70723E",
"_/ 	c #3B3E2C",
":/ 	c #999B66",
"</ 	c #F9F99E",
"[/ 	c #AFB265",
"}/ 	c #3B3E19",
"|/ 	c #9CA04E",
"1/ 	c #838655",
"2/ 	c #4E4F34",
"3/ 	c #A8AA64",
"4/ 	c #A4A662",
"5/ 	c #B9BA70",
"6/ 	c #A1A368",
"7/ 	c #919357",
"8/ 	c #1D1E16",
"9/ 	c #08100B",
"0/ 	c #3A3B17",
"a/ 	c #6F7043",
"b/ 	c #404122",
"c/ 	c #83844E",
"d/ 	c #A0A458",
"e/ 	c #7C7D56",
"f/ 	c #F5F793",
"g/ 	c #5A5B42",
"h/ 	c #BBBD73",
"i/ 	c #CCCE7F",
"j/ 	c #5B5C41",
"k/ 	c #85884F",
"l/ 	c #E1E583",
"m/ 	c #FFFFA2",
"n/ 	c #ECEBA0",
"o/ 	c #FAFD98",
"p/ 	c #6A6B49",
"q/ 	c #202518",
"r/ 	c #212317",
"s/ 	c #53562C",
"t/ 	c #272911",
"u/ 	c #5D5D40",
"v/ 	c #5B5D33",
"w/ 	c #C0C07C",
"x/ 	c #B8BB68",
"y/ 	c #EFF096",
"z/ 	c #F0F193",
"A/ 	c #8A8A60",
"B/ 	c #D8DA89",
"C/ 	c #F4F3A8",
"D/ 	c #82824F",
"E/ 	c #C7C979",
"F/ 	c #707240",
"G/ 	c #2D2F13",
"H/ 	c #797950",
"I/ 	c #70713E",
"J/ 	c #AEAF6F",
"K/ 	c #868659",
"L/ 	c #C0C07F",
"M/ 	c #8D933F",
"N/ 	c #FFFFBF",
"O/ 	c #414227",
"P/ 	c #282819",
"Q/ 	c #C5C76F",
"R/ 	c #F6F894",
"S/ 	c #636633",
"T/ 	c #898B53",
"U/ 	c #96985B",
"V/ 	c #919257",
"W/ 	c #B4B66C",
"X/ 	c #CED17A",
"Y/ 	c #E3E495",
"Z/ 	c #353521",
"`/ 	c #0C120E",
" ( 	c #222719",
".( 	c #2E2F21",
"+( 	c #959662",
"@( 	c #616532",
"#( 	c #81824E",
"$( 	c #D8D98B",
"%( 	c #D4D585",
"&( 	c #BBBD72",
"*( 	c #5C5C4C",
"=( 	c #46472F",
"-( 	c #BCBE75",
";( 	c #797A52",
">( 	c #ADAF63",
",( 	c #BDBF71",
"'( 	c #F5F894",
")( 	c #D9DA82",
"!( 	c #FEFF9F",
"~( 	c #E9EA91",
"{( 	c #171C13",
"]( 	c #3D3F27",
"^( 	c #818058",
"/( 	c #585A2D",
"(( 	c #131409",
"_( 	c #58593A",
":( 	c #9C9F57",
"<( 	c #B4B669",
"[( 	c #A1A54D",
"}( 	c #393B18",
"|( 	c #76774D",
"1( 	c #BEC170",
"2( 	c #7D8045",
"3( 	c #A7A865",
"4( 	c #FBFE9B",
"5( 	c #DBDD89",
"6( 	c #525330",
"7( 	c #77784A",
"8( 	c #AAAC65",
"9( 	c #6D6F43",
"0( 	c #8E9153",
"a( 	c #DFE08C",
"b( 	c #A2A265",
"c( 	c #EDED9E",
"d( 	c #B4B763",
"e( 	c #8D8E5E",
"f( 	c #D8D985",
"g( 	c #F0F488",
"h( 	c #C8CD6E",
"i( 	c #545631",
"j( 	c #9FA15F",
"k( 	c #91944A",
"l( 	c #CACC7A",
"m( 	c #D8DC79",
"n( 	c #E4E889",
"o( 	c #36371A",
"p( 	c #0D160F",
"q( 	c #0E1710",
"r( 	c #121912",
"s( 	c #181D14",
"t( 	c #575831",
"u( 	c #2E301E",
"v( 	c #6E6F40",
"w( 	c #56573C",
"x( 	c #B2B26E",
"y( 	c #787A52",
"z( 	c #D1D287",
"A( 	c #E1E388",
"B( 	c #E7EA8A",
"C( 	c #97985A",
"D( 	c #72763B",
"E( 	c #6F7144",
"F( 	c #92945F",
"G( 	c #E3E48F",
"H( 	c #E2E587",
"I( 	c #8F934A",
"J( 	c #B4B66A",
"K( 	c #898D4A",
"L( 	c #2E331E",
"M( 	c #0B120E",
"N( 	c #0A120E",
"O( 	c #0D1510",
"P( 	c #101812",
"Q( 	c #121B14",
"R( 	c #42432A",
"S( 	c #404126",
"T( 	c #595C28",
"U( 	c #4F521F",
"V( 	c #3D3E2B",
"W( 	c #7F8145",
"X( 	c #CFD082",
"Y( 	c #9DA14F",
"Z( 	c #888B44",
"`( 	c #C8CB76",
" _ 	c #989C4F",
"._ 	c #B7B87F",
"+_ 	c #72734A",
"@_ 	c #C1C081",
"#_ 	c #6F7145",
"$_ 	c #787B3D",
"%_ 	c #878A4C",
"&_ 	c #101710",
"*_ 	c #111A13",
"=_ 	c #D1D091",
"-_ 	c #7A7E38",
";_ 	c #60603D",
">_ 	c #7D7E4E",
",_ 	c #4F512E",
"'_ 	c #DFDD9C",
")_ 	c #C1C279",
"!_ 	c #50512E",
"~_ 	c #3D3E21",
"{_ 	c #A2A362",
"]_ 	c #23240F",
"^_ 	c #8A8D59",
"/_ 	c #C4C777",
"(_ 	c #767846",
"__ 	c #707144",
":_ 	c #898B4A",
"<_ 	c #A9AB68",
"[_ 	c #BABD6A",
"}_ 	c #C8CB72",
"|_ 	c #4C4C2E",
"1_ 	c #0F1811",
"2_ 	c #131A13",
"3_ 	c #19231B",
"4_ 	c #23291A",
"5_ 	c #6F7143",
"6_ 	c #68693C",
"7_ 	c #3E3F2F",
"8_ 	c #747545",
"9_ 	c #8C8D53",
"0_ 	c #939461",
"a_ 	c #B4B570",
"b_ 	c #D0D17D",
"c_ 	c #CFD27B",
"d_ 	c #5D6026",
"e_ 	c #87884A",
"f_ 	c #EAE99E",
"g_ 	c #BFC26B",
"h_ 	c #878B49",
"i_ 	c #CDD07A",
"j_ 	c #A1A36E",
"k_ 	c #B7BB66",
"l_ 	c #F4F5A0",
"m_ 	c #1C2015",
"n_ 	c #0A130E",
"o_ 	c #0D150F",
"p_ 	c #141C14",
"q_ 	c #1E2A1F",
"r_ 	c #60613D",
"s_ 	c #6A6C40",
"t_ 	c #65663D",
"u_ 	c #B9BC70",
"v_ 	c #696A4D",
"w_ 	c #BDBC7F",
"x_ 	c #B6B58A",
"y_ 	c #818739",
"z_ 	c #F1F395",
"A_ 	c #DFE283",
"B_ 	c #4C4C2F",
"C_ 	c #A2A55A",
"D_ 	c #AFB161",
"E_ 	c #DBDD82",
"F_ 	c #818350",
"G_ 	c #555643",
"H_ 	c #1E1E0C",
"I_ 	c #919356",
"J_ 	c #CACB7E",
"K_ 	c #0E150F",
"L_ 	c #141C15",
"M_ 	c #182219",
"N_ 	c #D0D08B",
"O_ 	c #C8C886",
"P_ 	c #D2D18B",
"Q_ 	c #858A3B",
"R_ 	c #F5F797",
"S_ 	c #A7AB59",
"T_ 	c #C7CB72",
"U_ 	c #888A56",
"V_ 	c #CED07B",
"W_ 	c #929377",
"X_ 	c #A5A665",
"Y_ 	c #8B8C51",
"Z_ 	c #8F9156",
"`_ 	c #BDBF72",
" : 	c #DBDF79",
".: 	c #0C120D",
"+: 	c #111912",
"@: 	c #182119",
"#: 	c #202B21",
"$: 	c #252C1D",
"%: 	c #404027",
"&: 	c #383A16",
"*: 	c #565832",
"=: 	c #7A7A51",
"-: 	c #B9BA75",
";: 	c #9B9D5C",
">: 	c #BCBE73",
",: 	c #B1B65E",
"': 	c #A1A25A",
"): 	c #868C3D",
"!: 	c #1F200D",
"~: 	c #83854A",
"{: 	c #C7C689",
"]: 	c #727637",
"^: 	c #C3C572",
"/: 	c #AEB454",
"(: 	c #EEEF98",
"_: 	c #D6D882",
":: 	c #363A27",
"<: 	c #1A241B",
"[: 	c #1E271D",
"}: 	c #616340",
"|: 	c #646735",
"1: 	c #8A8C54",
"2: 	c #868657",
"3: 	c #46482C",
"4: 	c #AAAB68",
"5: 	c #D5D87D",
"6: 	c #E2E485",
"7: 	c #929743",
"8: 	c #87884F",
"9: 	c #8C8F43",
"0: 	c #F8FA97",
"a: 	c #353522",
"b: 	c #8E8E58",
"c: 	c #949654",
"d: 	c #121913",
"e: 	c #1A241A",
"f: 	c #1F2A1F",
"g: 	c #5B5D30",
"h: 	c #838256",
"i: 	c #797B46",
"j: 	c #A9AA6A",
"k: 	c #C0C179",
"l: 	c #C4C676",
"m: 	c #FEFFA4",
"n: 	c #A9AC60",
"o: 	c #363721",
"p: 	c #FEFF9B",
"q: 	c #979A4F",
"r: 	c #808252",
"s: 	c #B5B865",
"t: 	c #9E9E68",
"u: 	c #CDCF7B",
"v: 	c #BCBE76",
"w: 	c #131D15",
"x: 	c #1F2B20",
"y: 	c #222D21",
"z: 	c #242C1E",
"A: 	c #5B5C30",
"B: 	c #616336",
"C: 	c #B1B171",
"D: 	c #858946",
"E: 	c #8F9347",
"F: 	c #C5C772",
"G: 	c #505231",
"H: 	c #AEAF65",
"I: 	c #FEFEA8",
"J: 	c #D7D981",
"K: 	c #A3A362",
"L: 	c #151609",
"M: 	c #838254",
"N: 	c #949558",
"O: 	c #EDEE94",
"P: 	c #757645",
"Q: 	c #D3D38B",
"R: 	c #767841",
"S: 	c #9DA24F",
"T: 	c #252A1A",
"U: 	c #09120D",
"V: 	c #172118",
"W: 	c #1D261D",
"X: 	c #263225",
"Y: 	c #6C6E47",
"Z: 	c #484B1F",
"`: 	c #4F5034",
" < 	c #878658",
".< 	c #8E9054",
"+< 	c #B8B779",
"@< 	c #D7D984",
"#< 	c #CCCD80",
"$< 	c #666756",
"%< 	c #9EA05D",
"&< 	c #FCFE9B",
"*< 	c #B2B564",
"=< 	c #5B5F27",
"-< 	c #A0A74D",
";< 	c #FEFEA2",
">< 	c #F2F497",
",< 	c #7D8042",
"'< 	c #1F2017",
")< 	c #565837",
"!< 	c #606238",
"~< 	c #0D130E",
"{< 	c #1F291E",
"]< 	c #232E23",
"^< 	c #6D6D46",
"/< 	c #84874C",
"(< 	c #A8A76D",
"_< 	c #D8D78E",
":< 	c #ECEBA1",
"<< 	c #E3E687",
"[< 	c #B8B975",
"}< 	c #010001",
"|< 	c #4F5128",
"1< 	c #16180B",
"2< 	c #2E301A",
"3< 	c #8B8C5C",
"4< 	c #929365",
"5< 	c #2E2F1A",
"6< 	c #0C150E",
"7< 	c #0E1610",
"8< 	c #1C271D",
"9< 	c #253024",
"0< 	c #2D3522",
"a< 	c #808056",
"b< 	c #4B4B2F",
"c< 	c #808247",
"d< 	c #393C1A",
"e< 	c #2F3115",
"f< 	c #90934E",
"g< 	c #A3A462",
"h< 	c #D0D182",
"i< 	c #FFFFCB",
"j< 	c #6B6F35",
"k< 	c #8B8E4E",
"l< 	c #FDFF99",
"m< 	c #E2E48A",
"n< 	c #FFFFCE",
"o< 	c #5E6132",
"p< 	c #080C08",
"q< 	c #0D150E",
"r< 	c #131B13",
"s< 	c #1C241B",
"t< 	c #253125",
"u< 	c #515433",
"v< 	c #6D6D52",
"w< 	c #A0A165",
"x< 	c #95965B",
"y< 	c #DADD85",
"z< 	c #C5CA68",
"A< 	c #D7D88A",
"B< 	c #8F924A",
"C< 	c #C9CA84",
"D< 	c #7A8031",
"E< 	c #383820",
"F< 	c #989F3F",
"G< 	c #A2A266",
"H< 	c #717534",
"I< 	c #172017",
"J< 	c #222E22",
"K< 	c #232D23",
"L< 	c #585841",
"M< 	c #949465",
"N< 	c #878855",
"O< 	c #BCBC78",
"P< 	c #D1D479",
"Q< 	c #BEBF74",
"R< 	c #E3EA7E",
"S< 	c #8A8F3E",
"T< 	c #5A5B38",
"U< 	c #8C8D56",
"V< 	c #3A3B20",
"W< 	c #909250",
"X< 	c #D5D58C",
"Y< 	c #737545",
"Z< 	c #273226",
"`< 	c #3F452D",
" [ 	c #8D8D5C",
".[ 	c #474826",
"+[ 	c #1B1A13",
"@[ 	c #949657",
"#[ 	c #C1C27A",
"$[ 	c #95965A",
"%[ 	c #313415",
"&[ 	c #5C6026",
"*[ 	c #6F7057",
"=[ 	c #C0C279",
"-[ 	c #B9BB6F",
";[ 	c #B9BB6D",
">[ 	c #A3A36C",
",[ 	c #FFFFCF",
"'[ 	c #5E6328",
")[ 	c #E6E986",
"![ 	c #171B13",
"~[ 	c #070E09",
"{[ 	c #0D140E",
"][ 	c #121A13",
"^[ 	c #1A231B",
"/[ 	c #242F23",
"([ 	c #7D7F53",
"_[ 	c #656738",
":[ 	c #A7A66F",
"<[ 	c #737447",
"[[ 	c #7A7B46",
"}[ 	c #D2D191",
"|[ 	c #ADAD71",
"1[ 	c #C0C175",
"2[ 	c #B3B957",
"3[ 	c #DBDB8C",
"4[ 	c #96975B",
"5[ 	c #BBBD6D",
"6[ 	c #BFC16C",
"7[ 	c #CFD27A",
"8[ 	c #6E732D",
"9[ 	c #23240E",
"0[ 	c #172018",
"a[ 	c #202A20",
"b[ 	c #293528",
"c[ 	c #6A6A44",
"d[ 	c #949462",
"e[ 	c #57593B",
"f[ 	c #8F914F",
"g[ 	c #E4E493",
"h[ 	c #E5E78A",
"i[ 	c #ECEE93",
"j[ 	c #A3A56C",
"k[ 	c #D2D392",
"l[ 	c #5E5E3D",
"m[ 	c #6A6A4A",
"n[ 	c #8E9050",
"o[ 	c #939360",
"p[ 	c #BEBF7A",
"q[ 	c #A2A463",
"r[ 	c #D2D47F",
"s[ 	c #CBCB81",
"t[ 	c #282818",
"u[ 	c #0C140F",
"v[ 	c #0E1510",
"w[ 	c #1E291F",
"x[ 	c #54593C",
"y[ 	c #868850",
"z[ 	c #5B5E30",
"A[ 	c #949655",
"B[ 	c #404224",
"C[ 	c #6E6E47",
"D[ 	c #CCCD81",
"E[ 	c #AAAA6D",
"F[ 	c #BDBE79",
"G[ 	c #9FA062",
"H[ 	c #68693D",
"I[ 	c #BEBE75",
"J[ 	c #84883F",
"K[ 	c #BDC263",
"L[ 	c #DBDA92",
"M[ 	c #D1D18C",
"N[ 	c #F0EEAA",
"O[ 	c #CACC76",
"P[ 	c #D2D380",
"Q[ 	c #545838",
"R[ 	c #141B14",
"S[ 	c #1E281E",
"T[ 	c #263125",
"U[ 	c #585A32",
"V[ 	c #63643F",
"W[ 	c #515322",
"X[ 	c #B5B670",
"Y[ 	c #BEBE79",
"Z[ 	c #BABC6F",
"`[ 	c #BABD6C",
" } 	c #D0D27B",
".} 	c #A7AC52",
"+} 	c #A4A75E",
"@} 	c #AEB163",
"#} 	c #B8BA6D",
"$} 	c #7E8335",
"%} 	c #BCC066",
"&} 	c #FFFFC5",
"*} 	c #191A0C",
"=} 	c #10160D",
"-} 	c #101711",
";} 	c #1A231A",
">} 	c #232D22",
",} 	c #2A3529",
"'} 	c #BABF6F",
")} 	c #595943",
"!} 	c #393B17",
"~} 	c #84893C",
"{} 	c #4E5222",
"]} 	c #8C8F4E",
"^} 	c #A9AC61",
"/} 	c #D5D77E",
"(} 	c #FFFFE6",
"_} 	c #B1B75F",
":} 	c #232511",
"<} 	c #888A57",
"[} 	c #D1D37C",
"}} 	c #B8BC63",
"|} 	c #33351C",
"1} 	c #B2B274",
"2} 	c #D1D090",
"3} 	c #D1D181",
"4} 	c #797A49",
"5} 	c #141D15",
"6} 	c #1B251C",
"7} 	c #273326",
"8} 	c #898B54",
"9} 	c #7C7B52",
"0} 	c #EBEB9B",
"a} 	c #3B3C22",
"b} 	c #898A56",
"c} 	c #97986C",
"d} 	c #5A5E2A",
"e} 	c #18180A",
"f} 	c #ACAF5A",
"g} 	c #F9FB9A",
"h} 	c #7F833E",
"i} 	c #C7C780",
"j} 	c #D7D68D",
"k} 	c #CCCC87",
"l} 	c #FFFEB3",
"m} 	c #F4F990",
"n} 	c #E8EB89",
"o} 	c #131B14",
"p} 	c #293527",
"q} 	c #BEBC85",
"r} 	c #7D7F45",
"s} 	c #A1A265",
"t} 	c #606142",
"u} 	c #B4B76B",
"v} 	c #9A9E50",
"w} 	c #BFC078",
"x} 	c #9C9E5B",
"y} 	c #CCCE7C",
"z} 	c #C1C370",
"A} 	c #91915C",
"B} 	c #939558",
"C} 	c #CDD172",
"D} 	c #D1D380",
"E} 	c #D2D18C",
"F} 	c #909549",
"G} 	c #FFFFD4",
"H} 	c #FDFDA6",
"I} 	c #5F633B",
"J} 	c #222D22",
"K} 	c #4E553B",
"L} 	c #6A6E2E",
"M} 	c #040303",
"N} 	c #7C7E4A",
"O} 	c #ABAD69",
"P} 	c #575841",
"Q} 	c #CACB83",
"R} 	c #B1B26D",
"S} 	c #CDCF77",
"T} 	c #E2E683",
"U} 	c #AFAD7A",
"V} 	c #B8BA68",
"W} 	c #939559",
"X} 	c #7C7B58",
"Y} 	c #9D9F60",
"Z} 	c #4C4D37",
"`} 	c #848746",
" | 	c #C6C972",
".| 	c #BFBF80",
"+| 	c #787C4A",
"@| 	c #0B0F09",
"#| 	c #2A2F1E",
"$| 	c #323722",
"%| 	c #232817",
"&| 	c #212618",
"*| 	c #141914",
"=| 	c #191E15",
"-| 	c #1C2314",
";| 	c #1D2416",
">| 	c #151B15",
",| 	c #192011",
"'| 	c #2F3421",
")| 	c #343927",
"!| 	c #2C301E",
"~| 	c #333824",
"{| 	c #656947",
"]| 	c #D1D284",
"^| 	c #979A53",
"/| 	c #BDBD7C",
"(| 	c #74773B",
"_| 	c #C3C676",
":| 	c #969857",
"<| 	c #79794E",
"[| 	c #31321A",
"}| 	c #D2D682",
"|| 	c #434339",
"1| 	c #9D9C6C",
"2| 	c #272910",
"3| 	c #797E35",
"4| 	c #4C501F",
"5| 	c #A1A263",
"6| 	c #999963",
"7| 	c #BABE65",
"8| 	c #F5F6A0",
"9| 	c #3A3B23",
"0| 	c #424628",
"a| 	c #181D11",
"b| 	c #222616",
"c| 	c #2F3423",
"d| 	c #303422",
"e| 	c #272C1B",
"f| 	c #303524",
"g| 	c #090E09",
"h| 	c #232818",
"i| 	c #232718",
"j| 	c #282C1D",
"k| 	c #2E321F",
"l| 	c #3A3E2C",
"m| 	c #3A3E2D",
"n| 	c #1D2016",
"o| 	c #25291F",
"p| 	c #2C3119",
"q| 	c #7B7B4E",
"r| 	c #0A0B05",
"s| 	c #BFBE82",
"t| 	c #AAAA70",
"u| 	c #828546",
"v| 	c #8B8C56",
"w| 	c #777A3C",
"x| 	c #9EA062",
"y| 	c #EFEDA6",
"z| 	c #C9CB77",
"A| 	c #DADD7F",
"B| 	c #EDEBA8",
"C| 	c #9DA158",
"D| 	c #A1A36A",
"E| 	c #848845",
"F| 	c #CAC88D",
"G| 	c #FFFFF2",
"H| 	c #696D33",
"I| 	c #EFF193",
"J| 	c #B5BA5F",
"K| 	c #555923",
"L| 	c #212410",
"M| 	c #373D1D",
"N| 	c #4C5034",
"O| 	c #2E3321",
"P| 	c #1C2115",
"Q| 	c #252B19",
"R| 	c #10150E",
"S| 	c #121810",
"T| 	c #1F2418",
"U| 	c #2E3223",
"V| 	c #212616",
"W| 	c #1D2014",
"X| 	c #242915",
"Y| 	c #2D3022",
"Z| 	c #1B1E15",
"`| 	c #2A2E1E",
" 1 	c #787A4C",
".1 	c #898C4C",
"+1 	c #5E6227",
"@1 	c #616334",
"#1 	c #C0BD85",
"$1 	c #8D8F56",
"%1 	c #D7D696",
"&1 	c #2B2D15",
"*1 	c #8A8C4F",
"=1 	c #A2A55D",
"-1 	c #C0BF85",
";1 	c #DEDD95",
">1 	c #9EA150",
",1 	c #BABB75",
"'1 	c #B4B962",
")1 	c #434230",
"!1 	c #D7D78C",
"~1 	c #B7B96B",
"{1 	c #B3B765",
"]1 	c #FFFFFD",
"^1 	c #777B36",
"/1 	c #7F814E",
"(1 	c #F4F897",
"_1 	c #8D8F5C",
":1 	c #DEDF87",
"<1 	c #949D3C",
"[1 	c #C6CA70",
"}1 	c #F0EEA3",
"|1 	c #BABC74",
"11 	c #797E30",
"21 	c #A9AC64",
"31 	c #3A3C18",
"41 	c #9EA255",
"51 	c #DFDF91",
"61 	c #7B8032",
"71 	c #B4B576",
"81 	c #F5F3A8",
"91 	c #676758",
"01 	c #D2D578",
"a1 	c #C1C376",
"b1 	c #3D402B",
"c1 	c #4B4F21",
"d1 	c #1B1C0D",
"e1 	c #65653D",
"f1 	c #E2E38D",
"g1 	c #86884F",
"h1 	c #9D9D64",
"i1 	c #E4E68A",
"j1 	c #A2A378",
"k1 	c #DFE282",
"l1 	c #B6B870",
"m1 	c #90905F",
"n1 	c #A9A96D",
"o1 	c #666A31",
"p1 	c #8A903B",
"q1 	c #B1B55E",
"r1 	c #C9C996",
"s1 	c #787954",
"t1 	c #EAEA90",
"u1 	c #C7CA74",
"v1 	c #C2C486",
"w1 	c #8C8C64",
"x1 	c #FFFFB8",
"y1 	c #2A2C12",
"z1 	c #797D37",
"A1 	c #C6C977",
"B1 	c #A1A262",
"C1 	c #FFFFB6",
"D1 	c #9E9F5E",
"E1 	c #6A6E32",
"F1 	c #7D7F44",
"G1 	c #D4D68E",
"H1 	c #4B4D36",
"I1 	c #242510",
"J1 	c #B4B866",
"K1 	c #B2B36D",
"L1 	c #FAFA9F",
"M1 	c #57584D",
"N1 	c #F6F997",
"O1 	c #8A8A5A",
"P1 	c #060703",
"Q1 	c #787948",
"R1 	c #93945D",
"S1 	c #AAAC66",
"T1 	c #4A4C1E",
"U1 	c #DBDD85",
"V1 	c #F1F295",
"W1 	c #A2A74C",
"X1 	c #C1C56A",
"Y1 	c #E9EA8F",
"Z1 	c #F3F39D",
"`1 	c #EEF08B",
" 2 	c #646828",
".2 	c #858756",
"+2 	c #8A8D46",
"@2 	c #A8AA5E",
"#2 	c #A2A658",
"$2 	c #C4C86B",
"%2 	c #363623",
"&2 	c #6B6F2B",
"*2 	c #444624",
"=2 	c #E3E491",
"-2 	c #F3F1AD",
";2 	c #91944E",
">2 	c #FCFAAE",
",2 	c #CAD077",
"'2 	c #2A2C1C",
")2 	c #5D602E",
"!2 	c #98995F",
"~2 	c #2E3114",
"{2 	c #A6A86C",
"]2 	c #454920",
"^2 	c #97995F",
"/2 	c #FCFAB2",
"(2 	c #EBED94",
"_2 	c #E2E488",
":2 	c #545721",
"<2 	c #919454",
"[2 	c #C6C974",
"}2 	c #A5A763",
"|2 	c #ABAF59",
"12 	c #A6AA5A",
"22 	c #696E2C",
"32 	c #A7AA67",
"42 	c #A3A470",
"52 	c #FCFF9C",
"62 	c #EAEC8D",
"72 	c #C9C886",
"82 	c #C7C975",
"92 	c #FFFFD3",
"02 	c #7F8057",
"a2 	c #FBFAA9",
"b2 	c #AFB25D",
"c2 	c #DDDE8C",
"d2 	c #868B3D",
"e2 	c #D0D37A",
"f2 	c #8C8C65",
"g2 	c #9A9C5F",
"h2 	c #72743D",
"i2 	c #65692E",
"j2 	c #A3A55F",
"k2 	c #D9D990",
"l2 	c #474831",
"m2 	c #8F9152",
"n2 	c #E4E58B",
"o2 	c #727348",
"p2 	c #D7D88E",
"q2 	c #A5A860",
"r2 	c #FFFFEA",
"s2 	c #6F7141",
"t2 	c #A0A35E",
"u2 	c #FFFF9F",
"v2 	c #818156",
"w2 	c #666939",
"x2 	c #908F5E",
"y2 	c #F2F1A3",
"z2 	c #9FA05F",
"A2 	c #8E9154",
"B2 	c #D7D887",
"C2 	c #E1E292",
"D2 	c #979B50",
"E2 	c #B7BA64",
"F2 	c #606427",
"G2 	c #E1E290",
"H2 	c #DBDD81",
"I2 	c #0F1008",
"J2 	c #B8B983",
"K2 	c #D3D67F",
"L2 	c #DDDF89",
"M2 	c #A7A682",
"N2 	c #A6AA5E",
"O2 	c #D0D27E",
"P2 	c #2D2F17",
"Q2 	c #A6A85F",
"R2 	c #AFB16E",
"S2 	c #80824D",
"T2 	c #DDE08D",
"U2 	c #494A3B",
"V2 	c #979B4B",
"W2 	c #B4B765",
"X2 	c #75755B",
"Y2 	c #9DA058",
"Z2 	c #C1C371",
"`2 	c #D7DA7F",
" 3 	c #FCFE9F",
".3 	c #E0E092",
"+3 	c #B0B365",
"@3 	c #696C34",
"#3 	c #A5A760",
"$3 	c #6A6E2B",
"%3 	c #ADB063",
"&3 	c #C5C86F",
"*3 	c #B1B364",
"=3 	c #191A0B",
"-3 	c #FFFFD2",
";3 	c #F7FD87",
">3 	c #83893E",
",3 	c #919368",
"'3 	c #F3F499",
")3 	c #FFFFA0",
"!3 	c #EAEB94",
"~3 	c #5D5C40",
"{3 	c #5F632C",
"]3 	c #949752",
"^3 	c #828255",
"/3 	c #7D7F4D",
"(3 	c #4E5120",
"_3 	c #D7D886",
":3 	c #C0C274",
"<3 	c #D3D586",
"[3 	c #D4D580",
"}3 	c #AAAF54",
"|3 	c #C8CF69",
"13 	c #B2B373",
"23 	c #989A60",
"33 	c #505420",
"43 	c #A8AD59",
"53 	c #999C54",
"63 	c #FBFD9C",
"73 	c #515521",
"83 	c #F4F2A6",
"93 	c #969855",
"03 	c #FEFFA3",
"a3 	c #ECED95",
"b3 	c #D5DA6F",
"c3 	c #B5B773",
"d3 	c #B5B86C",
"e3 	c #494B3A",
"f3 	c #6B712B",
"g3 	c #5D5E49",
"h3 	c #B8B976",
"i3 	c #E2E489",
"j3 	c #EDF089",
"k3 	c #6A6C3F",
"l3 	c #AFB263",
"m3 	c #CACD76",
"n3 	c #6A6D32",
"o3 	c #AAAB6F",
"p3 	c #A8AB58",
"q3 	c #989A57",
"r3 	c #838549",
"s3 	c #1B1D0C",
"t3 	c #CDCE7E",
"u3 	c #9FA54C",
"v3 	c #6E6E42",
"w3 	c #7F8148",
"x3 	c #BBBC75",
"y3 	c #F2F1A0",
"z3 	c #AFB360",
"A3 	c #C9CB7E",
"B3 	c #717440",
"C3 	c #D6DB7A",
"D3 	c #6D6F3F",
"E3 	c #ABAD6D",
"F3 	c #D5D686",
"G3 	c #A5A859",
"H3 	c #B2B470",
"I3 	c #898E41",
"J3 	c #A2A364",
"K3 	c #C6CB69",
"L3 	c #BBBF66",
"M3 	c #E5E78D",
"N3 	c #C2CA5D",
"O3 	c #ADB161",
"P3 	c #FFFFC6",
"Q3 	c #DDE180",
"R3 	c #565A23",
"S3 	c #2D2E15",
"T3 	c #909066",
"U3 	c #AFB06B",
"V3 	c #DBDB8D",
"W3 	c #BCBD74",
"X3 	c #ACAE65",
"Y3 	c #C3C96C",
"Z3 	c #BBBC7C",
"`3 	c #21230E",
" 4 	c #5E603F",
".4 	c #ACAF61",
"+4 	c #9C9F55",
"@4 	c #4A4D2C",
"#4 	c #7C7E4F",
"$4 	c #B1B461",
"%4 	c #4E511F",
"&4 	c #FFFFDB",
"*4 	c #3C3D24",
"=4 	c #7D8139",
"-4 	c #474B1E",
";4 	c #919353",
">4 	c #C3C47F",
",4 	c #9DA05E",
"'4 	c #B1B460",
")4 	c #DFE37D",
"!4 	c #DADE7F",
"~4 	c #CCCD7B",
"{4 	c #020201",
"]4 	c #AFB26E",
"^4 	c #58573F",
"/4 	c #7F814C",
"(4 	c #8F905D",
"_4 	c #DADB8A",
":4 	c #525332",
"<4 	c #919263",
"[4 	c #D0D085",
"}4 	c #A3A65D",
"|4 	c #585B29",
"14 	c #3E411E",
"24 	c #E7E994",
"34 	c #DCDA9B",
"44 	c #B4B571",
"54 	c #CFD083",
"64 	c #FFFF8D",
"74 	c #F4F793",
"84 	c #70762E",
"94 	c #969B50",
"04 	c #B9BD67",
"a4 	c #C5C96F",
"b4 	c #B3B762",
"c4 	c #F9FB98",
"d4 	c #F5F798",
"e4 	c #71743E",
"f4 	c #A3A657",
"g4 	c #B2B953",
"h4 	c #BFC26F",
"i4 	c #C9C884",
"j4 	c #E9EC8C",
"k4 	c #E0E18B",
"l4 	c #9C9D75",
"m4 	c #9DA443",
"n4 	c #F9FB95",
"o4 	c #878853",
"p4 	c #7B7D48",
"q4 	c #A4A55F",
"r4 	c #C6C77B",
"s4 	c #BDBD7B",
"t4 	c #8A8C51",
"u4 	c #BDBF73",
"v4 	c #646634",
"w4 	c #A6A76E",
"x4 	c #DBD993",
"y4 	c #C3C575",
"z4 	c #8E8F54",
"A4 	c #F1F19F",
"B4 	c #41441B",
"C4 	c #ABAF5F",
"D4 	c #C9CC77",
"E4 	c #E8E995",
"F4 	c #61623C",
"G4 	c #21220F",
"H4 	c #BBBC74",
"I4 	c #A0A176",
"J4 	c #AEB263",
"K4 	c #95994F",
"L4 	c #BCBF6E",
"M4 	c #EBE9A6",
"N4 	c #FEFDA1",
"O4 	c #AAAE60",
"P4 	c #A9AB6B",
"Q4 	c #666A32",
"R4 	c #FFFFE7",
"S4 	c #CACB82",
"T4 	c #CACF71",
"U4 	c #F4F2A8",
"V4 	c #57593E",
"W4 	c #D2D384",
"X4 	c #C9CB79",
"Y4 	c #E4E78B",
"Z4 	c #82844D",
"`4 	c #CCCE7B",
" 5 	c #BAB97B",
".5 	c #939658",
"+5 	c #7C7F45",
"@5 	c #D9DB80",
"#5 	c #C8CE64",
"$5 	c #62653A",
"%5 	c #C7C77E",
"&5 	c #747642",
"*5 	c #BABB70",
"=5 	c #A4A956",
"-5 	c #CACD75",
";5 	c #E7E88E",
">5 	c #E8EA92",
",5 	c #D8D88A",
"'5 	c #707248",
")5 	c #9DA24B",
"!5 	c #92983D",
"~5 	c #E1E67A",
"{5 	c #D4D77B",
"]5 	c #3B3E1B",
"^5 	c #12130A",
"/5 	c #9A9B5E",
"(5 	c #989B55",
"_5 	c #545823",
":5 	c #898B5A",
"<5 	c #A3A467",
"[5 	c #9EA157",
"}5 	c #D2D485",
"|5 	c #B6B96F",
"15 	c #D3D972",
"25 	c #53542F",
"35 	c #545430",
"45 	c #676842",
"55 	c #CBCE76",
"65 	c #C8CE66",
"75 	c #6B6F3D",
"85 	c #E5E49A",
"95 	c #BCBD76",
"05 	c #B6B771",
"a5 	c #555922",
"b5 	c #919361",
"c5 	c #7A7B6E",
"d5 	c #B8BB69",
"e5 	c #E2E586",
"f5 	c #E8EA90",
"g5 	c #A6AE48",
"h5 	c #8C8F4F",
"i5 	c #BABC6D",
"j5 	c #A3A659",
"k5 	c #E5E888",
"l5 	c #B1B856",
"m5 	c #5E603A",
"n5 	c #7D8049",
"o5 	c #64653D",
"p5 	c #9B9E53",
"q5 	c #6F7240",
"r5 	c #B0B06E",
"s5 	c #8C8C5C",
"t5 	c #C5C580",
"u5 	c #DCDE87",
"v5 	c #2C2E13",
"w5 	c #45481D",
"x5 	c #C1C473",
"y5 	c #000001",
"z5 	c #F1F29F",
"A5 	c #909544",
"B5 	c #B6B675",
"C5 	c #A7A784",
"D5 	c #C6C584",
"E5 	c #929555",
"F5 	c #A5A85A",
"G5 	c #040302",
"H5 	c #515436",
"I5 	c #9F9F6C",
"J5 	c #EBEC90",
"K5 	c #969C48",
"L5 	c #9C9D5C",
"M5 	c #959A49",
"N5 	c #C5CF57",
"O5 	c #FFFF78",
"P5 	c #F0EFA4",
"Q5 	c #FFFF9D",
"R5 	c #FFFFC9",
"S5 	c #5D5F36",
"T5 	c #BDBF74",
"U5 	c #9D9E6D",
"V5 	c #7C7F42",
"W5 	c #BEC06F",
"X5 	c #D4D67F",
"Y5 	c #F9FAA4",
"Z5 	c #D5DA7B",
"`5 	c #878A54",
" 6 	c #8F9348",
".6 	c #C1C571",
"+6 	c #8C9238",
"@6 	c #ADAD6F",
"#6 	c #B0B175",
"$6 	c #6C6E3E",
"%6 	c #71753A",
"&6 	c #9F9E69",
"*6 	c #1F210D",
"=6 	c #C1C277",
"-6 	c #CBCC7E",
";6 	c #A7AA5E",
">6 	c #CDD468",
",6 	c #A0A25C",
"'6 	c #F1F393",
")6 	c #FFFF95",
"!6 	c #D7D78A",
"~6 	c #696B48",
"{6 	c #4D5120",
"]6 	c #ADB066",
"^6 	c #B1B365",
"/6 	c #DCE087",
"(6 	c #7C7E54",
"_6 	c #5D5E43",
":6 	c #BEC078",
"<6 	c #C2C764",
"[6 	c #FFFFE2",
"}6 	c #777848",
"|6 	c #575738",
"16 	c #C3C47E",
"26 	c #8C8B5F",
"36 	c #C5C873",
"46 	c #8B8B5E",
"56 	c #5E5E3E",
"66 	c #989957",
"76 	c #9B9B64",
"86 	c #717535",
"96 	c #C5C38A",
"06 	c #B8BB67",
"a6 	c #AAAE58",
"b6 	c #E0E18D",
"c6 	c #1E1F0D",
"d6 	c #82834D",
"e6 	c #AEAD89",
"f6 	c #AAAA6A",
"g6 	c #9CA04F",
"h6 	c #A0A456",
"i6 	c #FAFC9A",
"j6 	c #393826",
"k6 	c #707346",
"l6 	c #B5B572",
"m6 	c #A7A86D",
"n6 	c #BFC07D",
"o6 	c #48492A",
"p6 	c #A5A46D",
"q6 	c #DDDC92",
"r6 	c #CBCE7A",
"s6 	c #E5E692",
"t6 	c #CECD84",
"u6 	c #FDFF96",
"v6 	c #7C7E50",
"w6 	c #93935D",
"x6 	c #686A3D",
"y6 	c #65683A",
"z6 	c #81853C",
"A6 	c #70743F",
"B6 	c #CBCF71",
"C6 	c #41451B",
"D6 	c #575A34",
"E6 	c #CED081",
"F6 	c #F5F88F",
"G6 	c #7B7D43",
"H6 	c #9DA05C",
"I6 	c #A1A944",
"J6 	c #E8EB83",
"K6 	c #BFC469",
"L6 	c #BBBC77",
"M6 	c #BCC25B",
"N6 	c #1A1A10",
"O6 	c #5F5F39",
"P6 	c #47472C",
"Q6 	c #656638",
"R6 	c #7E814A",
"S6 	c #82844B",
"T6 	c #B2B467",
"U6 	c #F4F597",
"V6 	c #C2C571",
"W6 	c #EBED8E",
"X6 	c #848358",
"Y6 	c #CCCF78",
"Z6 	c #C4C294",
"`6 	c #A0A356",
" 7 	c #BBBF65",
".7 	c #67693D",
"+7 	c #2C2D1A",
"@7 	c #7A7D4B",
"#7 	c #CACA83",
"$7 	c #727448",
"%7 	c #9EA064",
"&7 	c #91926F",
"*7 	c #9B9C5D",
"=7 	c #6E723A",
"-7 	c #B2B468",
";7 	c #EDED94",
">7 	c #E6E990",
",7 	c #D4DC6C",
"'7 	c #DCDD8C",
")7 	c #7C7F44",
"!7 	c #8B8E50",
"~7 	c #61662F",
"{7 	c #535825",
"]7 	c #ADAD7A",
"^7 	c #BEC07A",
"/7 	c #34381B",
"(7 	c #838650",
"_7 	c #91954E",
":7 	c #EAED8C",
"<7 	c #787E30",
"[7 	c #A2A656",
"}7 	c #3D3E28",
"|7 	c #A8AB5C",
"17 	c #F3F2A7",
"27 	c #D6D87F",
"37 	c #BFC079",
"47 	c #BEC26C",
"57 	c #81863B",
"67 	c #818347",
"77 	c #AAA96E",
"87 	c #D0CF8F",
"97 	c #8F9057",
"07 	c #F4F4A1",
"a7 	c #B5BB5C",
"b7 	c #858564",
"c7 	c #B0B16D",
"d7 	c #646928",
"e7 	c #898C4F",
"f7 	c #C7C87B",
"g7 	c #717154",
"h7 	c #A0A161",
"i7 	c #D8D986",
"j7 	c #D4D581",
"k7 	c #79794F",
"l7 	c #BDBE75",
"m7 	c #ADAE6A",
"n7 	c #B8BA73",
"o7 	c #35351F",
"p7 	c #88894F",
"q7 	c #979959",
"r7 	c #BDBF77",
"s7 	c #D2D481",
"t7 	c #C1C272",
"u7 	c #E3E782",
"v7 	c #686A4D",
"w7 	c #666942",
"x7 	c #50522E",
"y7 	c #484C1E",
"z7 	c #5B5B36",
"A7 	c #C2C574",
"B7 	c #696B43",
"C7 	c #B7BA69",
"D7 	c #8C8F56",
"E7 	c #F9FA9C",
"F7 	c #A5A664",
"G7 	c #B5B770",
"H7 	c #2B2D12",
"I7 	c #CCCE79",
"J7 	c #C7CA6D",
"K7 	c #D9DA91",
"L7 	c #828736",
"M7 	c #93974B",
"N7 	c #030402",
"O7 	c #75764C",
"P7 	c #6D7136",
"Q7 	c #7E804D",
"R7 	c #C7C97B",
"S7 	c #C1C472",
"T7 	c #8E914B",
"U7 	c #9A9C5E",
"V7 	c #A1A553",
"W7 	c #282A10",
"X7 	c #838555",
"Y7 	c #DDDC90",
"Z7 	c #60603A",
"`7 	c #33341C",
" 8 	c #2F3118",
".8 	c #676938",
"+8 	c #989B5A",
"@8 	c #A0A358",
"#8 	c #6C712B",
"$8 	c #8E8F55",
"%8 	c #ADB064",
"&8 	c #090A05",
"*8 	c #EBF08B",
"=8 	c #858654",
"-8 	c #9B9E56",
";8 	c #F9FC99",
">8 	c #E9EE85",
",8 	c #6E6F56",
"'8 	c #494B2C",
")8 	c #858652",
"!8 	c #636530",
"~8 	c #D6D491",
"{8 	c #8F953B",
"]8 	c #BCC06A",
"^8 	c #D3D688",
"/8 	c #6D6E50",
"(8 	c #62643C",
"_8 	c #909154",
":8 	c #AEAD75",
"<8 	c #C0C369",
"[8 	c #F0F197",
"}8 	c #B5B478",
"|8 	c #8B913C",
"18 	c #A8AA67",
"28 	c #EDEDA1",
"38 	c #91954D",
"48 	c #8D8D6F",
"58 	c #54564B",
"68 	c #74744D",
"78 	c #B6B86F",
"88 	c #888E37",
"98 	c #98995C",
"08 	c #545822",
"a8 	c #C9CB82",
"b8 	c #C2C477",
"c8 	c #626628",
"d8 	c #9E9F67",
"e8 	c #BCBE6A",
"f8 	c #FFFF98",
"g8 	c #D9DC7E",
"h8 	c #A5A56E",
"i8 	c #959755",
"j8 	c #D4D48B",
"k8 	c #BBC063",
"l8 	c #C4C675",
"m8 	c #7A7E3C",
"n8 	c #FFFFD7",
"o8 	c #C2C570",
"p8 	c #A4A755",
"q8 	c #CCD070",
"r8 	c #FFFFDE",
"s8 	c #555839",
"t8 	c #36371E",
"u8 	c #797C42",
"v8 	c #8E9051",
"w8 	c #BAB97E",
"x8 	c #63653B",
"y8 	c #808349",
"z8 	c #757742",
"A8 	c #6C6D49",
"B8 	c #72743A",
"C8 	c #9EA24E",
"D8 	c #383B17",
"E8 	c #656836",
"F8 	c #A8AA63",
"G8 	c #5B5B38",
"H8 	c #A3A854",
"I8 	c #7E8047",
"J8 	c #80814E",
"K8 	c #F5F69A",
"L8 	c #939551",
"M8 	c #989B4F",
"N8 	c #C1C270",
"O8 	c #C4C772",
"P8 	c #5C5D4B",
"Q8 	c #6E704E",
"R8 	c #292A19",
"S8 	c #BFC270",
"T8 	c #C3C382",
"U8 	c #8F9055",
"V8 	c #A1A460",
"W8 	c #989A59",
"X8 	c #A1A555",
"Y8 	c #8D8F59",
"Z8 	c #989E45",
"`8 	c #373916",
" 9 	c #ABAE64",
".9 	c #D5D87C",
"+9 	c #F2F493",
"@9 	c #DADC85",
"#9 	c #262810",
"$9 	c #C3C76A",
"%9 	c #73753C",
"&9 	c #C3C76E",
"*9 	c #EEEF97",
"=9 	c #B5B672",
"-9 	c #94945C",
";9 	c #DEDD96",
">9 	c #505421",
",9 	c #7D8239",
"'9 	c #8A8D47",
")9 	c #818441",
"!9 	c #B7B96F",
"~9 	c #969861",
"{9 	c #C1C471",
"]9 	c #44471C",
"^9 	c #98995B",
"/9 	c #929649",
"(9 	c #B3BA57",
"_9 	c #A4A563",
":9 	c #010100",
"<9 	c #3E3F23",
"[9 	c #7F814A",
"}9 	c #636828",
"|9 	c #42441D",
"19 	c #A8AB61",
"29 	c #B4B56C",
"39 	c #FDFCAB",
"49 	c #626728",
"59 	c #CDCC88",
"69 	c #E9E89E",
"79 	c #3C3E18",
"89 	c #828357",
"99 	c #A0A54D",
"09 	c #EEEDA6",
"a9 	c #606235",
"b9 	c #DEDD92",
"c9 	c #A6AA54",
"d9 	c #66684D",
"e9 	c #7A7B47",
"f9 	c #C9CD74",
"g9 	c #B6BA6B",
"h9 	c #C3C574",
"i9 	c #D4D77A",
"j9 	c #A6A95B",
"k9 	c #A0A35A",
"l9 	c #D9DD7B",
"m9 	c #E9EA9A",
"n9 	c #919366",
"o9 	c #3B3D1A",
"p9 	c #727347",
"q9 	c #8F9159",
"r9 	c #8E9052",
"s9 	c #ABAE60",
"t9 	c #B4B85F",
"u9 	c #A7A671",
"v9 	c #F8FB98",
"w9 	c #DEDF88",
"x9 	c #A7A977",
"y9 	c #767853",
"z9 	c #93974A",
"A9 	c #D7D983",
"B9 	c #E3E585",
"C9 	c #A3A94A",
"D9 	c #CED077",
"E9 	c #909546",
"F9 	c #D2D47D",
"G9 	c #ADAF6A",
"H9 	c #D3D48B",
"I9 	c #D8DA7E",
"J9 	c #CDCD81",
"K9 	c #A8A966",
"L9 	c #E1E28B",
"M9 	c #E3E58C",
"N9 	c #616139",
"O9 	c #C1BF85",
"P9 	c #595941",
"Q9 	c #9B9D5A",
"R9 	c #949667",
"S9 	c #7C7F41",
"T9 	c #D1D382",
"U9 	c #A6A760",
"V9 	c #CBCC82",
"W9 	c #AEB25A",
"X9 	c #F6FA8D",
"Y9 	c #C8C983",
"Z9 	c #868942",
"`9 	c #C1CA59",
" 0 	c #464A1E",
".0 	c #6D6F50",
"+0 	c #808633",
"@0 	c #838841",
"#0 	c #0F0F07",
"$0 	c #F8F5B1",
"%0 	c #BFC07A",
"&0 	c #22230E",
"*0 	c #AEAF6A",
"=0 	c #393B29",
"-0 	c #E8EC84",
";0 	c #B1B26E",
">0 	c #6D7134",
",0 	c #CFCF91",
"'0 	c #B5B76E",
")0 	c #B7BA68",
"!0 	c #303114",
"~0 	c #E2E584",
"{0 	c #595D2C",
"]0 	c #FFFFA4",
"^0 	c #B2B466",
"/0 	c #BDBD98",
"(0 	c #383B1A",
"_0 	c #A9A872",
":0 	c #E9EB8E",
"<0 	c #595B2F",
"[0 	c #D8D78D",
"}0 	c #767746",
"|0 	c #3A3B21",
"10 	c #909156",
"20 	c #70723C",
"30 	c #A2A65A",
"40 	c #F0EFA7",
"50 	c #C2C572",
"60 	c #91944C",
"70 	c #7D804B",
"80 	c #C6C77A",
"90 	c #838744",
"00 	c #D5DB79",
"a0 	c #999B57",
"b0 	c #9FA258",
"c0 	c #DADE81",
"d0 	c #6E6F48",
"e0 	c #B9BC6B",
"f0 	c #9A9C5A",
"g0 	c #4A4D1E",
"h0 	c #83863F",
"i0 	c #EAED8B",
"j0 	c #A7AA5A",
"k0 	c #C1C17F",
"l0 	c #BDC164",
"m0 	c #000100",
"n0 	c #B3B379",
"o0 	c #90906F",
"p0 	c #3A3B22",
"q0 	c #999B52",
"r0 	c #575C23",
"s0 	c #AEB164",
"t0 	c #C9CA85",
"u0 	c #949754",
"v0 	c #ABAE63",
"w0 	c #AFB070",
"x0 	c #565935",
"y0 	c #7C7E4E",
"z0 	c #6F742D",
"A0 	c #B3B668",
"B0 	c #71762D",
"C0 	c #7C7D49",
"D0 	c #B8B877",
"E0 	c #9C9E57",
"F0 	c #1E1F0C",
"G0 	c #C1C374",
"H0 	c #606133",
"I0 	c #7A7C48",
"J0 	c #8D8F4C",
"K0 	c #98985E",
"L0 	c #FCFEA2",
"M0 	c #646543",
"N0 	c #757938",
"O0 	c #F9FAA3",
"P0 	c #93974D",
"Q0 	c #B4B57A",
"R0 	c #D1D677",
"S0 	c #5D6127",
"T0 	c #767A3F",
"U0 	c #656B2A",
"V0 	c #CACA82",
"W0 	c #99A046",
"X0 	c #7C7E44",
"Y0 	c #AEB25E",
"Z0 	c #D5D58E",
"`0 	c #B7BE53",
" a 	c #B6B76A",
".a 	c #9D9E7B",
"+a 	c #9EA05F",
"@a 	c #676B2B",
"#a 	c #65663A",
"$a 	c #A7AA61",
"%a 	c #A6A960",
"&a 	c #C5C584",
"*a 	c #757937",
"=a 	c #7E8437",
"-a 	c #A4A859",
";a 	c #8F9543",
">a 	c #949575",
",a 	c #43432A",
"'a 	c #838458",
")a 	c #BCBF6D",
"!a 	c #717630",
"~a 	c #BEC361",
"{a 	c #9EA05E",
"]a 	c #9E9E7C",
"^a 	c #C0C75B",
"/a 	c #FFFF9A",
"(a 	c #C0BF8C",
"_a 	c #8F8F77",
":a 	c #A2A74F",
"<a 	c #FFFFEC",
"[a 	c #787C33",
"}a 	c #6F742C",
"|a 	c #171710",
"1a 	c #7A7A4F",
"2a 	c #929841",
"3a 	c #DEDE8C",
"4a 	c #4D5020",
"5a 	c #757C30",
"6a 	c #9DA052",
"7a 	c #E8E797",
"8a 	c #727349",
"9a 	c #656838",
"0a 	c #888A50",
"aa 	c #6D6F4C",
"ba 	c #ABAC67",
"ca 	c #898F3F",
"da 	c #D1D28A",
"ea 	c #E5E3A2",
"fa 	c #62662C",
"ga 	c #A5A662",
"ha 	c #BDBC84",
"ia 	c #939A3C",
"ja 	c #DBDA93",
"ka 	c #B0B461",
"la 	c #4E4F2D",
"ma 	c #999A63",
"na 	c #DFE18C",
"oa 	c #C6CC6B",
"pa 	c #A3A65B",
"qa 	c #C7CB6F",
"ra 	c #98A03E",
"sa 	c #2F311D",
"ta 	c #93945B",
"ua 	c #8D8C5D",
"va 	c #FFFFCA",
"wa 	c #D9DC82",
"xa 	c #606233",
"ya 	c #8F944A",
"za 	c #C8CA7B",
"Aa 	c #888A51",
"Ba 	c #96965D",
"Ca 	c #8B8E4B",
"Da 	c #9C9F5A",
"Ea 	c #26270F",
"Fa 	c #BCC069",
"Ga 	c #FFFFE1",
"Ha 	c #8A8C4A",
"Ia 	c #E2E194",
"Ja 	c #DFE288",
"Ka 	c #CDCD85",
"La 	c #ADAD70",
"Ma 	c #929551",
"Na 	c #9D9C6D",
"Oa 	c #C9CF67",
"Pa 	c #9C9E5C",
"Qa 	c #8B8D54",
"Ra 	c #ADAF67",
"Sa 	c #D2D483",
"Ta 	c #A4A75C",
"Ua 	c #818168",
"Va 	c #5F6327",
"Wa 	c #A6A666",
"Xa 	c #ADAE6D",
"Ya 	c #A3A55C",
"Za 	c #0D0D06",
"`a 	c #777A43",
" b 	c #D1D47B",
".b 	c #888F37",
"+b 	c #DEE182",
"@b 	c #E2E09E",
"#b 	c #8C8D52",
"$b 	c #ABAF5D",
"%b 	c #535622",
"&b 	c #BCBB80",
"*b 	c #808153",
"=b 	c #B7BE5C",
"-b 	c #515135",
";b 	c #5E5F34",
">b 	c #BCBD79",
",b 	c #8C9045",
"'b 	c #575B24",
")b 	c #9B9C5C",
"!b 	c #6E732C",
"~b 	c #7A7F39",
"{b 	c #9B9D5E",
"]b 	c #0F0F06",
"^b 	c #82834A",
"/b 	c #7D8336",
"(b 	c #818444",
"_b 	c #999962",
":b 	c #909449",
"<b 	c #ECEAA1",
"[b 	c #555826",
"}b 	c #F4F1AB",
"|b 	c #D0D278",
"1b 	c #606144",
"2b 	c #0E0E07",
"3b 	c #EAE8A3",
"4b 	c #2A2D12",
"5b 	c #191B0B",
"6b 	c #989C54",
"7b 	c #16160E",
"8b 	c #D9DB84",
"9b 	c #93964F",
"0b 	c #D2D480",
"ab 	c #CACD7D",
"bb 	c #BFC26A",
"cb 	c #828449",
"db 	c #95984D",
"eb 	c #747833",
"fb 	c #D6D980",
"gb 	c #565741",
"hb 	c #B3B373",
"ib 	c #FBFDA1",
"jb 	c #F1F0AA",
"kb 	c #BBBC79",
"lb 	c #F3F39C",
"mb 	c #E9ED86",
"nb 	c #D7D982",
"ob 	c #C1C567",
"pb 	c #80853D",
"qb 	c #777944",
"rb 	c #3A3A2D",
"sb 	c #4F5225",
"tb 	c #717633",
"ub 	c #2B2D14",
"vb 	c #ADAE67",
"wb 	c #64653E",
"xb 	c #8D8E57",
"yb 	c #BDC168",
"zb 	c #A9AB62",
"Ab 	c #888965",
"Bb 	c #B2B26C",
"Cb 	c #C5CB5F",
"Db 	c #5A5B4F",
"Eb 	c #282918",
"Fb 	c #DBDB91",
"Gb 	c #D1D384",
"Hb 	c #BBBE6B",
"Ib 	c #515428",
"Jb 	c #767751",
"Kb 	c #A9AD64",
"Lb 	c #393A1D",
"Mb 	c #CFD17B",
"Nb 	c #1F1F0D",
"Ob 	c #B4B863",
"Pb 	c #D9D991",
"Qb 	c #030202",
"Rb 	c #9A9F50",
"Sb 	c #828834",
"Tb 	c #232411",
"Ub 	c #7E7F4F",
"Vb 	c #D8D794",
"Wb 	c #373A17",
"Xb 	c #D9DA8B",
"Yb 	c #77774C",
"Zb 	c #CDCE82",
"`b 	c #DEE088",
" c 	c #66692F",
".c 	c #C2C476",
"+c 	c #999B5A",
"@c 	c #A5A566",
"#c 	c #3A3D19",
"$c 	c #1A1B13",
"%c 	c #6B6C45",
"&c 	c #424334",
"*c 	c #C4C575",
"=c 	c #DFE08B",
"-c 	c #FBFE99",
";c 	c #FFFF9B",
">c 	c #606628",
",c 	c #4B4D43",
"'c 	c #41451E",
")c 	c #95965C",
"!c 	c #969953",
"~c 	c #7E833D",
"{c 	c #989961",
"]c 	c #9DA152",
"^c 	c #CBC98C",
"/c 	c #686B38",
"(c 	c #898A58",
"_c 	c #71744F",
":c 	c #989B56",
"<c 	c #CACD7A",
"[c 	c #F2F0A9",
"}c 	c #959757",
"|c 	c #B9BB71",
"1c 	c #C3C477",
"2c 	c #888B49",
"3c 	c #A4AA4F",
"4c 	c #090805",
"5c 	c #979763",
"6c 	c #3C4018",
"7c 	c #A9AA6C",
"8c 	c #C1C373",
"9c 	c #BBC159",
"0c 	c #CECE86",
"ac 	c #7C8232",
"bc 	c #5A5E25",
"cc 	c #EEF094",
"dc 	c #D4D489",
"ec 	c #82873E",
"fc 	c #888B4D",
"gc 	c #D6D981",
"hc 	c #7D7F46",
"ic 	c #777C35",
"jc 	c #B6BB5C",
"kc 	c #C2C768",
"lc 	c #E3E295",
"mc 	c #999B5B",
"nc 	c #8E963A",
"oc 	c #D0CF8A",
"pc 	c #DBDA91",
"qc 	c #E7EA8B",
"rc 	c #AAAA8D",
"sc 	c #9FA162",
"tc 	c #8B8C53",
"uc 	c #9D9F59",
"vc 	c #BFC175",
"wc 	c #F6F5A6",
"xc 	c #BABA72",
"yc 	c #6D7230",
"zc 	c #AEAF6D",
"Ac 	c #B4BC53",
"Bc 	c #FFFFD1",
"Cc 	c #ADAE6F",
"Dc 	c #34361B",
"Ec 	c #9C9D6C",
"Fc 	c #B8BA75",
"Gc 	c #9E9F61",
"Hc 	c #CBCD7D",
"Ic 	c #CACA81",
"Jc 	c #AFAF6D",
"Kc 	c #70723A",
"Lc 	c #B2B271",
"Mc 	c #A7A966",
"Nc 	c #BBBC76",
"Oc 	c #B8BA70",
"Pc 	c #101108",
"Qc 	c #CFD47C",
"Rc 	c #5F6146",
"Sc 	c #E3E684",
"Tc 	c #5D6226",
"Uc 	c #424327",
"Vc 	c #717631",
"Wc 	c #636533",
"Xc 	c #A5A375",
"Yc 	c #C1C27B",
"Zc 	c #3F431A",
"`c 	c #43422E",
" d 	c #2E3112",
".d 	c #EAE9A4",
"+d 	c #CDCE7A",
"@d 	c #AFB25E",
"#d 	c #BFC173",
"$d 	c #CFCF86",
"%d 	c #909545",
"&d 	c #CCCF77",
"*d 	c #C1C27E",
"=d 	c #E9E897",
"-d 	c #515422",
";d 	c #797A4B",
">d 	c #404121",
",d 	c #5C5D3B",
"'d 	c #43432B",
")d 	c #222314",
"!d 	c #2C2C1A",
"~d 	c #34361D",
"{d 	c #424226",
"]d 	c #5A5C33",
"^d 	c #080803",
"/d 	c #5D5E35",
"(d 	c #858845",
"_d 	c #C4C67A",
":d 	c #FDFCB3",
"<d 	c #B5B479",
"[d 	c #393B22",
"}d 	c #373920",
"|d 	c #3F3F28",
"1d 	c #7C7C53",
"2d 	c #292A16",
"3d 	c #5E5D3B",
"4d 	c #202114",
"5d 	c #34351B",
"6d 	c #7F7F4F",
"7d 	c #494A33",
"8d 	c #9A9D57",
"9d 	c #595C2C",
"0d 	c #787947",
"ad 	c #CACC7C",
"bd 	c #BCBD77",
"cd 	c #9F9F69",
"dd 	c #80814C",
"ed 	c #505035",
"fd 	c #3F4021",
"gd 	c #52532F",
"hd 	c #616239",
"id 	c #40441A",
"jd 	c #6E6D4A",
"kd 	c #75754B",
"ld 	c #65663C",
"md 	c #3B3D20",
"nd 	c #AFAF68",
"od 	c #E2E38F",
"pd 	c #F1F394",
"qd 	c #DBDB90",
"rd 	c #808243",
"sd 	c #73734D",
"td 	c #414123",
"ud 	c #4F4F31",
"vd 	c #525233",
"wd 	c #404024",
"xd 	c #545533",
"yd 	c #444621",
"zd 	c #8F8E61",
"Ad 	c #7F8050",
"Bd 	c #4A4E1E",
"Cd 	c #FBFC9E",
"Dd 	c #343427",
"Ed 	c #5B5E36",
"Fd 	c #8F9155",
"Gd 	c #999B59",
"Hd 	c #A6A866",
"Id 	c #66683C",
"Jd 	c #666838",
"Kd 	c #464726",
"Ld 	c #676749",
"Md 	c #4D4E30",
"Nd 	c #717249",
"Od 	c #0B0B04",
"Pd 	c #60603F",
"Qd 	c #646440",
"Rd 	c #48492E",
"Sd 	c #636343",
"Td 	c #505030",
"Ud 	c #C9CC72",
"Vd 	c #2A2B1D",
"Wd 	c #353716",
"Xd 	c #D7D593",
"Yd 	c #393A20",
"Zd 	c #696947",
"`d 	c #7F7E56",
" e 	c #60613E",
".e 	c #343518",
"+e 	c #616238",
"@e 	c #545629",
"#e 	c #5B5C3A",
"$e 	c #94974E",
"%e 	c #666B29",
"&e 	c #C8CA76",
"*e 	c #767767",
"=e 	c #BBBD74",
"-e 	c #555725",
";e 	c #87865D",
">e 	c #17190B",
",e 	c #181810",
"'e 	c #17170C",
")e 	c #383921",
"!e 	c #3F3F24",
"~e 	c #2D2E1B",
"{e 	c #404026",
"]e 	c #62633C",
"^e 	c #6B6C40",
"/e 	c #999A59",
"(e 	c #8D8C64",
"_e 	c #2E2E20",
":e 	c #30311C",
"<e 	c #1F1F11",
"[e 	c #484832",
"}e 	c #242416",
"|e 	c #262618",
"1e 	c #505132",
"2e 	c #46462C",
"3e 	c #404227",
"4e 	c #A0A455",
"5e 	c #B4B95F",
"6e 	c #D3D485",
"7e 	c #D4D486",
"8e 	c #F8F6A8",
"9e 	c #86865B",
"0e 	c #5A5A37",
"ae 	c #242413",
"be 	c #2F3019",
"ce 	c #47462D",
"de 	c #3C3C23",
"ee 	c #454528",
"fe 	c #1C1D0B",
"ge 	c #2B2B17",
"he 	c #3D3D23",
"ie 	c #232317",
"je 	c #393922",
"ke 	c #9A9C5D",
"le 	c #6D722C",
"me 	c #6A6F2D",
"ne 	c #65664A",
"oe 	c #ACAE6A",
"pe 	c #65653B",
"qe 	c #575839",
"re 	c #2C2D18",
"se 	c #222419",
"te 	c #1F1F19",
"ue 	c #343424",
"ve 	c #282910",
"we 	c #303020",
"xe 	c #46472A",
"ye 	c #4E4E2F",
"ze 	c #9EA05B",
"Ae 	c #E5E693",
"Be 	c #999A60",
"Ce 	c #24250E",
"De 	c #43452B",
"Ee 	c #3E3F27",
"Fe 	c #404129",
"Ge 	c #070703",
"He 	c #4F4F34",
"Ie 	c #3C3C27",
"Je 	c #393923",
"Ke 	c #333420",
"Le 	c #272816",
"Me 	c #48482B",
"Ne 	c #4E502D",
"Oe 	c #BDC557",
"Pe 	c #0D0D07",
"Qe 	c #ADAD6E",
"Re 	c #828353",
"Se 	c #949559",
"Te 	c #9B9B6A",
"Ue 	c #5C5C39",
"Ve 	c #232315",
"We 	c #2A2B15",
"Xe 	c #2B2C16",
"Ye 	c #3D3F22",
"Ze 	c #25251A",
"`e 	c #4B4C2E",
" f 	c #434423",
".f 	c #18180C",
"+f 	c #444528",
"@f 	c #040403",
"#f 	c #636639",
"$f 	c #696C43",
"%f 	c #CCCB8C",
"&f 	c #7D7F40",
"*f 	c #141508",
"=f 	c #5E5F3E",
"-f 	c #31311E",
";f 	c #31311F",
">f 	c #2A2C16",
",f 	c #444628",
"'f 	c #292A13",
")f 	c #33331F",
"!f 	c #43452A",
"~f 	c #61623E",
"{f 	c #84854E",
"]f 	c #0E0F08",
"^f 	c #4F5226",
"/f 	c #787B42",
"(f 	c #45462A",
"_f 	c #212110",
":f 	c #12120B",
"<f 	c #3C3C26",
"[f 	c #101009",
"}f 	c #252516",
"|f 	c #262616",
"1f 	c #414224",
"2f 	c #A9AA67",
"3f 	c #B6B673",
"4f 	c #18180B",
"5f 	c #E0E18E",
"6f 	c #95955F",
"7f 	c #737441",
"8f 	c #383A1E",
"9f 	c #1F1F10",
"0f 	c #2D2E1A",
"af 	c #131508",
"bf 	c #49492E",
"cf 	c #3B3B28",
"df 	c #31311C",
"ef 	c #626242",
"ff 	c #88885E",
"gf 	c #2C2D17",
"hf 	c #929268",
"if 	c #727538",
"jf 	c #4A4C1D",
"kf 	c #323515",
"lf 	c #383827",
"mf 	c #4B4C27",
"nf 	c #67683E",
"of 	c #2D3015",
"pf 	c #3D3D2A",
"qf 	c #35361E",
"rf 	c #363724",
"sf 	c #17190C",
"tf 	c #3E3E27",
"uf 	c #44442D",
"vf 	c #4F5036",
"wf 	c #4A4B29",
"xf 	c #7F804E",
"yf 	c #E3E390",
"zf 	c #949757",
"Af 	c #474A22",
"Bf 	c #A2A557",
"Cf 	c #5B5C39",
"Df 	c #7F8052",
"Ef 	c #38382A",
"Ff 	c #25250F",
"Gf 	c #323321",
"Hf 	c #44442C",
"If 	c #414125",
"Jf 	c #3D3E23",
"Kf 	c #262619",
"Lf 	c #0D0D05",
"Mf 	c #222312",
"Nf 	c #404127",
"Of 	c #575830",
"Pf 	c #F5F3A7",
"Qf 	c #8D904B",
"Rf 	c #E8E990",
"Sf 	c #4C4F1E",
"Tf 	c #484A22",
"Uf 	c #13130B",
"Vf 	c #222313",
"Wf 	c #2E2E1C",
"Xf 	c #3D3E25",
"Yf 	c #191A12",
"Zf 	c #2B2C1A",
"`f 	c #282914",
" g 	c #6A6C3D",
".g 	c #16170D",
"+g 	c #444636",
"@g 	c #3B3B22",
"#g 	c #4D501F",
"$g 	c #B7B872",
"%g 	c #D5D49B",
"&g 	c #C9C987",
"*g 	c #14180F",
"=g 	c #171809",
"-g 	c #6A6A49",
";g 	c #C6C682",
">g 	c #050603",
",g 	c #C6C58A",
"'g 	c #2F321F",
")g 	c #30311E",
"!g 	c #383A26",
"~g 	c #2F2F22",
"{g 	c #989769",
"]g 	c #8E9150",
"^g 	c #989767",
"/g 	c #65682C",
"(g 	c #CFCF8B",
"_g 	c #454723",
":g 	c #1A1D11",
"<g 	c #4A4A32",
"[g 	c #81805B",
"}g 	c #818442",
"|g 	c #737930",
"1g 	c #ECECA0",
"2g 	c #7D7D53",
"3g 	c #B4B572",
"4g 	c #92935E",
"5g 	c #0E130D",
"6g 	c #3A3A23",
"7g 	c #8B8B5B",
"8g 	c #E8EC88",
"9g 	c #A7A95F",
"0g 	c #4A4935",
"ag 	c #888A53",
"bg 	c #969957",
"cg 	c #2C2D1C",
"dg 	c #3E4023",
"eg 	c #37381F",
"fg 	c #737544",
"gg 	c #585935",
"hg 	c #B7B776",
"ig 	c #D8D893",
"jg 	c #2E3021",
"kg 	c #050602",
"lg 	c #6E6E48",
"mg 	c #8C8E50",
"ng 	c #76774A",
"og 	c #595A36",
"pg 	c #979762",
"qg 	c #CAC987",
"rg 	c #313424",
"sg 	c #434521",
"tg 	c #B4B477",
"ug 	c #BCC167",
"vg 	c #ADAD6D",
"wg 	c #676A31",
"xg 	c #2C2E18",
"yg 	c #3C3D2A",
"zg 	c #959563",
"Ag 	c #C0C276",
"Bg 	c #B1B07A",
"Cg 	c #70772D",
"Dg 	c #B8B874",
"Eg 	c #BABB78",
"Fg 	c #6D6F3C",
"Gg 	c #505130",
"Hg 	c #D1D087",
"Ig 	c #D7D695",
"Jg 	c #6C6E42",
"Kg 	c #1E2214",
"Lg 	c #4A4931",
"Mg 	c #60603C",
"Ng 	c #878952",
"Og 	c #E2E48C",
"Pg 	c #919358",
"Qg 	c #C1C378",
"Rg 	c #777945",
"Sg 	c #85884B",
"Tg 	c #181A09",
"Ug 	c #4D4D31",
"Vg 	c #5E622C",
"Wg 	c #DDDF8B",
"Xg 	c #C7C978",
"Yg 	c #292C11",
"Zg 	c #B1B16F",
"`g 	c #FEFEAA",
" h 	c #B3B46E",
".h 	c #CDCF7C",
"+h 	c #34361E",
"@h 	c #65673B",
"#h 	c #969761",
"$h 	c #5A5D27",
"%h 	c #57564D",
"&h 	c #F4F2A2",
"*h 	c #8F9151",
"=h 	c #24281A",
"-h 	c #424128",
";h 	c #6B6B47",
">h 	c #D9D799",
",h 	c #707147",
"'h 	c #33341F",
")h 	c #54533C",
"!h 	c #92935B",
"~h 	c #787C38",
"{h 	c #090904",
"]h 	c #D2D385",
"^h 	c #B4B66E",
"/h 	c #3E3E2C",
"(h 	c #5A5B32",
"_h 	c #E4E494",
":h 	c #22220E",
"<h 	c #929A3A",
"[h 	c #26251A",
"}h 	c #DFDE9B",
"|h 	c #23271A",
"1h 	c #5C5D39",
"2h 	c #DADA8E",
"3h 	c #A9A968",
"4h 	c #B9BC6E",
"5h 	c #FFFEAC",
"6h 	c #73753F",
"7h 	c #787852",
"8h 	c #11110B",
"9h 	c #40402D",
"0h 	c #9C9D5E",
"ah 	c #9BA04C",
"bh 	c #A4A950",
"ch 	c #C2C478",
"dh 	c #9A9D59",
"eh 	c #A5A762",
"fh 	c #373821",
"gh 	c #585838",
"hh 	c #545922",
"ih 	c #272811",
"jh 	c #7E823B",
"kh 	c #0F1610",
"lh 	c #616043",
"mh 	c #79794D",
"nh 	c #B4B472",
"oh 	c #858B3B",
"ph 	c #BABB76",
"qh 	c #B0B07F",
"rh 	c #F8F6B2",
"sh 	c #252611",
"th 	c #808248",
"uh 	c #A8A86B",
"vh 	c #898A54",
"wh 	c #2D2E20",
"xh 	c #676840",
"yh 	c #7B8031",
"zh 	c #808245",
"Ah 	c #9B9D58",
"Bh 	c #A2A263",
"Ch 	c #55553A",
"Dh 	c #242615",
"Eh 	c #AEAD79",
"Fh 	c #C9C88C",
"Gh 	c #4E4E35",
"Hh 	c #E8E69F",
"Ih 	c #D9D98B",
"Jh 	c #19190A",
"Kh 	c #7F7F51",
"Lh 	c #6F7334",
"Mh 	c #D2D484",
"Nh 	c #87894D",
"Oh 	c #92964C",
"Ph 	c #85835B",
"Qh 	c #50532C",
"Rh 	c #666446",
"Sh 	c #292A1C",
"Th 	c #75783A",
"Uh 	c #C4C37D",
"Vh 	c #989D44",
"Wh 	c #868949",
"Xh 	c #DAD995",
"Yh 	c #4E502C",
"Zh 	c #B8B977",
"`h 	c #92964F",
" i 	c #B7B680",
".i 	c #767745",
"+i 	c #DEDF8A",
"@i 	c #ADB065",
"#i 	c #0F0E07",
"$i 	c #7F8059",
"%i 	c #898A4F",
"&i 	c #4A4C21",
"*i 	c #404130",
"=i 	c #3F4028",
"-i 	c #30301F",
";i 	c #7F8048",
">i 	c #D9D790",
",i 	c #AAAA73",
"'i 	c #4F513C",
")i 	c #90915F",
"!i 	c #605F42",
"~i 	c #42452B",
"{i 	c #747454",
"]i 	c #090A04",
"^i 	c #111810",
"/i 	c #595841",
"(i 	c #707049",
"_i 	c #FEFEA4",
":i 	c #A9AB5F",
"<i 	c #E7E799",
"[i 	c #A0A15E",
"}i 	c #575833",
"|i 	c #595942",
"1i 	c #35371E",
"2i 	c #27271F",
"3i 	c #4C4C32",
"4i 	c #4F502D",
"5i 	c #5F6428",
"6i 	c #C6C77D",
"7i 	c #B7B777",
"8i 	c #A6A773",
"9i 	c #34351E",
"0i 	c #65653E",
"ai 	c #616342",
"bi 	c #030303",
"ci 	c #C3C282",
"di 	c #E6E59A",
"ei 	c #0F160E",
"fi 	c #595B33",
"gi 	c #9EA060",
"hi 	c #9C9E59",
"ii 	c #D3D67C",
"ji 	c #E8E991",
"ki 	c #F7FB8F",
"li 	c #F1F29D",
"mi 	c #71743F",
"ni 	c #666743",
"oi 	c #A0A162",
"pi 	c #F0F199",
"qi 	c #525434",
"ri 	c #101208",
"si 	c #6B6D47",
"ti 	c #8A8C50",
"ui 	c #8B9140",
"vi 	c #212114",
"wi 	c #999967",
"xi 	c #565732",
"yi 	c #C9CA7E",
"zi 	c #4C5021",
"Ai 	c #B6B67C",
"Bi 	c #535531",
"Ci 	c #25280F",
"Di 	c #C3C381",
"Ei 	c #73744F",
"Fi 	c #BAB98B",
"Gi 	c #343621",
"Hi 	c #D6D884",
"Ii 	c #54572F",
"Ji 	c #47472E",
"Ki 	c #86865A",
"Li 	c #40421C",
"Mi 	c #AFB267",
"Ni 	c #626245",
"Oi 	c #848847",
"Pi 	c #65692F",
"Qi 	c #A6A66A",
"Ri 	c #A6A961",
"Si 	c #21221B",
"Ti 	c #6D6D45",
"Ui 	c #8C8E4E",
"Vi 	c #A9AC5D",
"Wi 	c #121910",
"Xi 	c #797855",
"Yi 	c #5F6136",
"Zi 	c #999B5D",
"`i 	c #CECF81",
" j 	c #D4D77E",
".j 	c #72772F",
"+j 	c #A2A367",
"@j 	c #8A9037",
"#j 	c #9D9E63",
"$j 	c #676943",
"%j 	c #333615",
"&j 	c #888A4E",
"*j 	c #878859",
"=j 	c #B3B767",
"-j 	c #B5B66C",
";j 	c #1C1C0C",
">j 	c #919060",
",j 	c #444527",
"'j 	c #8A8B52",
")j 	c #5C5D33",
"!j 	c #9EA352",
"~j 	c #606528",
"{j 	c #3A3C19",
"]j 	c #7A7C4A",
"^j 	c #BDBD7E",
"/j 	c #6B702B",
"(j 	c #747838",
"_j 	c #D8E35B",
":j 	c #09110D",
"<j 	c #767848",
"[j 	c #8E914E",
"}j 	c #3E3F24",
"|j 	c #9D9D62",
"1j 	c #3C3F19",
"2j 	c #C5C28A",
"3j 	c #47482C",
"4j 	c #727445",
"5j 	c #93935B",
"6j 	c #E3E29C",
"7j 	c #616627",
"8j 	c #C6C77E",
"9j 	c #13190E",
"0j 	c #4E4F2B",
"aj 	c #A4A46B",
"bj 	c #C5C77A",
"cj 	c #ABAE61",
"dj 	c #B4B666",
"ej 	c #080705",
"fj 	c #BABA85",
"gj 	c #808052",
"hj 	c #C9CB78",
"ij 	c #FEFFA0",
"jj 	c #4C4E38",
"kj 	c #8E8F5C",
"lj 	c #AFB266",
"mj 	c #101008",
"nj 	c #161609",
"oj 	c #0F1107",
"pj 	c #353422",
"qj 	c #313217",
"rj 	c #B3B764",
"sj 	c #494C1D",
"tj 	c #D8D894",
"uj 	c #10160C",
"vj 	c #B1B65F",
"wj 	c #090905",
"xj 	c #A4A658",
"yj 	c #BDC165",
"zj 	c #646444",
"Aj 	c #393927",
"Bj 	c #5D5E34",
"Cj 	c #8B8D53",
"Dj 	c #E0E09B",
"Ej 	c #9FA255",
"Fj 	c #393C17",
"Gj 	c #D4D57F",
"Hj 	c #4D4E2A",
"Ij 	c #5C5D3C",
"Jj 	c #636636",
"Kj 	c #FDFEA0",
"Lj 	c #1D1D14",
"Mj 	c #71733E",
"Nj 	c #B9BA76",
"Oj 	c #9C9D58",
"Pj 	c #262915",
"Qj 	c #191F15",
"Rj 	c #6E6E46",
"Sj 	c #525622",
"Tj 	c #A6A66C",
"Uj 	c #8E8F5B",
"Vj 	c #8B8B57",
"Wj 	c #64643C",
"Xj 	c #8C8F4B",
"Yj 	c #626828",
"Zj 	c #9B9E55",
"`j 	c #AFB361",
" k 	c #8B8D52",
".k 	c #7B7C4F",
"+k 	c #A19F72",
"@k 	c #8E9246",
"#k 	c #7B8135",
"$k 	c #9EA063",
"%k 	c #4F5220",
"&k 	c #060907",
"*k 	c #0B140F",
"=k 	c #0D120B",
"-k 	c #6F7044",
";k 	c #8B8C54",
">k 	c #9CA345",
",k 	c #929161",
"'k 	c #F8F7A7",
")k 	c #B8BA6C",
"!k 	c #5F6232",
"~k 	c #5D5D3C",
"{k 	c #464733",
"]k 	c #6B6D3C",
"^k 	c #9EA06E",
"/k 	c #DBDA97",
"(k 	c #86894C",
"_k 	c #DBDE84",
":k 	c #C8C87F",
"<k 	c #6B6D42",
"[k 	c #6E6F45",
"}k 	c #959468",
"|k 	c #A5A85B",
"1k 	c #3C3D23",
"2k 	c #B8BB70",
"3k 	c #9B9C63",
"4k 	c #5E6035",
"5k 	c #707140",
"6k 	c #747653",
"7k 	c #A3A84B",
"8k 	c #B0AF74",
"9k 	c #999C5A",
"0k 	c #DADB8E",
"ak 	c #0D120D",
"bk 	c #555537",
"ck 	c #36371F",
"dk 	c #4B4C2D",
"ek 	c #B7BB68",
"fk 	c #272719",
"gk 	c #93935E",
"hk 	c #F7F6A9",
"ik 	c #C0C271",
"jk 	c #ABAD68",
"kk 	c #EEEE9C",
"lk 	c #707447",
"mk 	c #6A6A45",
"nk 	c #6B6D3E",
"ok 	c #757839",
"pk 	c #DDDD93",
"qk 	c #D4D390",
"rk 	c #C3C380",
"sk 	c #B2B662",
"tk 	c #4D5029",
"uk 	c #55582E",
"vk 	c #676B31",
"wk 	c #71733C",
"xk 	c #686A3C",
"yk 	c #21230D",
"zk 	c #7D7E4B",
"Ak 	c #888C4A",
"Bk 	c #B6BE51",
"Ck 	c #9BA246",
"Dk 	c #737546",
"Ek 	c #6A6B42",
"Fk 	c #5F6135",
"Gk 	c #9FA05E",
"Hk 	c #3A3F1E",
"Ik 	c #68693F",
"Jk 	c #D7D987",
"Kk 	c #B7BA6B",
"Lk 	c #717242",
"Mk 	c #585B27",
"Nk 	c #3E411A",
"Ok 	c #EEEBA6",
"Pk 	c #E4E881",
"Qk 	c #E8E798",
"Rk 	c #ACB05B",
"Sk 	c #DFE674",
"Tk 	c #47492B",
"Uk 	c #ACAD6D",
"Vk 	c #EDECA0",
"Wk 	c #EDED9D",
"Xk 	c #B3B568",
"Yk 	c #8D904E",
"Zk 	c #E3E396",
"`k 	c #44451F",
" l 	c #0D0E06",
".l 	c #8D8F4E",
"+l 	c #F9FA9B",
"@l 	c #878760",
"#l 	c #BBBE65",
"$l 	c #D8DB7D",
"%l 	c #595A34",
"&l 	c #3A3C28",
"*l 	c #464927",
"=l 	c #53572A",
"-l 	c #121409",
";l 	c #2B2E1B",
">l 	c #E1E097",
",l 	c #ADB05F",
"'l 	c #838357",
")l 	c #8F9252",
"!l 	c #A8A86E",
"~l 	c #C5C677",
"{l 	c #9EA34E",
"]l 	c #BCC165",
"^l 	c #999F46",
"/l 	c #90944B",
"(l 	c #E5E980",
"_l 	c #AFB16D",
":l 	c #B9BB73",
"<l 	c #FEFEA7",
"[l 	c #86875B",
"}l 	c #C3C478",
"|l 	c #8D8D58",
"1l 	c #4C4E25",
"2l 	c #353715",
"3l 	c #9FA061",
"4l 	c #303215",
"5l 	c #A3A55E",
"6l 	c #D6D58B",
"7l 	c #7E8240",
"8l 	c #D2D580",
"9l 	c #E0DE97",
"0l 	c #8C8D57",
"al 	c #9A9D5D",
"bl 	c #BEBC7E",
"cl 	c #1B1C0B",
"dl 	c #9C9C65",
"el 	c #989667",
"fl 	c #DFE18D",
"gl 	c #989B50",
"hl 	c #A6A95D",
"il 	c #0B0A05",
"jl 	c #FFFF93",
"kl 	c #27271A",
"ll 	c #3C3D28",
"ml 	c #8F8F61",
"nl 	c #626534",
"ol 	c #5C5F38",
"pl 	c #838450",
"ql 	c #A7A774",
"rl 	c #B3B46B",
"sl 	c #A1A16A",
"tl 	c #81853F",
"ul 	c #D1D281",
"vl 	c #E0E385",
"wl 	c #E9EC8B",
"xl 	c #9B9D69",
"yl 	c #959560",
"zl 	c #7B7E42",
"Al 	c #E1E67D",
"Bl 	c #868948",
"Cl 	c #CCCF7A",
"Dl 	c #EAEC92",
"El 	c #9FA063",
"Fl 	c #A1A458",
"Gl 	c #3A3C17",
"Hl 	c #A9AB65",
"Il 	c #43461F",
"Jl 	c #2F3013",
"Kl 	c #BAB997",
"Ll 	c #505328",
"Ml 	c #A5A569",
"Nl 	c #A9AD59",
"Ol 	c #FFFFD9",
"Pl 	c #999D57",
"Ql 	c #999A5D",
"Rl 	c #909167",
"Sl 	c #565A28",
"Tl 	c #535532",
"Ul 	c #AEAD80",
"Vl 	c #999C57",
"Wl 	c #B8BD69",
"Xl 	c #8E9148",
"Yl 	c #5E613A",
"Zl 	c #AAAC61",
"`l 	c #8A8E48",
" m 	c #9C9D5F",
".m 	c #979764",
"+m 	c #D1D286",
"@m 	c #C2C280",
"#m 	c #E1E0A0",
"$m 	c #CED173",
"%m 	c #A7A866",
"&m 	c #F0F09C",
"*m 	c #CBCC7D",
"=m 	c #E0DF96",
"-m 	c #BABA7A",
";m 	c #BAB987",
">m 	c #85864F",
",m 	c #CFCF8A",
"'m 	c #C3C57B",
")m 	c #494B26",
"!m 	c #90934B",
"~m 	c #D3D67B",
"{m 	c #B8B879",
"]m 	c #0B0B05",
"^m 	c #DADD81",
"/m 	c #D5D783",
"(m 	c #646834",
"_m 	c #868751",
":m 	c #E4E78A",
"<m 	c #373918",
"[m 	c #767B35",
"}m 	c #8A8F40",
"|m 	c #D8DB7E",
"1m 	c #797A4D",
"2m 	c #DAD99A",
"3m 	c #A5A761",
"4m 	c #9A9F4E",
"5m 	c #D0D56C",
"6m 	c #3E3E23",
"7m 	c #B4B56D",
"8m 	c #676C2D",
"9m 	c #95984F",
"0m 	c #C8C97E",
"am 	c #D1D381",
"bm 	c #DFDF8E",
"cm 	c #969A4C",
"dm 	c #9D9F5E",
"em 	c #8C8F55",
"fm 	c #7D7F49",
"gm 	c #333516",
"hm 	c #232416",
"im 	c #D2D673",
"jm 	c #D8DA86",
"km 	c #2D2E13",
"lm 	c #A0A355",
"mm 	c #939564",
"nm 	c #CDCD86",
"om 	c #696F2B",
"pm 	c #A5A863",
"qm 	c #717244",
"rm 	c #B0B364",
"sm 	c #E9E99B",
"tm 	c #B3B56F",
"um 	c #F9F8A4",
"vm 	c #58583A",
"wm 	c #3B3B25",
"xm 	c #CDD072",
"ym 	c #1C1D0C",
"zm 	c #E9EC8E",
"Am 	c #686D2D",
"Bm 	c #4F5126",
"Cm 	c #4F531F",
"Dm 	c #CED179",
"Em 	c #888A5F",
"Fm 	c #F1F0A7",
"Gm 	c #C7C87C",
"Hm 	c #A4A858",
"Im 	c #B9B87D",
"Jm 	c #C8CF6A",
"Km 	c #1A1B0B",
"Lm 	c #7E8054",
"Mm 	c #F6F6A0",
"Nm 	c #D1D66B",
"Om 	c #FDFCA7",
"Pm 	c #AFB261",
"Qm 	c #C6C48B",
"Rm 	c #E4E789",
"Sm 	c #BBBE6A",
"Tm 	c #A8A876",
"Um 	c #6F7430",
"Vm 	c #DADC84",
"Wm 	c #B3B763",
"Xm 	c #C5C875",
"Ym 	c #8C8E57",
"Zm 	c #D5D39A",
"`m 	c #7F843B",
" n 	c #BFC36A",
".n 	c #C8CC6F",
"+n 	c #8B8D58",
"@n 	c #BCBD83",
"#n 	c #A3A65E",
"$n 	c #8D8F53",
"%n 	c #9FA05C",
"&n 	c #E9EC8A",
"*n 	c #3E401E",
"=n 	c #A1A557",
"-n 	c #CDCF7A",
";n 	c #767C30",
">n 	c #A3A26A",
",n 	c #7F8634",
"'n 	c #A4A75B",
")n 	c #D1D185",
"!n 	c #ABB24D",
"~n 	c #46491D",
"{n 	c #F6FB88",
"]n 	c #7C7F46",
"^n 	c #C2C279",
"/n 	c #DADA8C",
"(n 	c #F4F39F",
"_n 	c #8D904F",
":n 	c #C8CD66",
"<n 	c #9BA143",
"[n 	c #949264",
"}n 	c #B2B36B",
"|n 	c #D3D47F",
"1n 	c #83854C",
"2n 	c #EFF098",
"3n 	c #E6E794",
"4n 	c #E5E697",
"5n 	c #D4D586",
"6n 	c #CFD178",
"7n 	c #E0E08E",
"8n 	c #D7DB7E",
"9n 	c #53543F",
"0n 	c #585939",
"an 	c #151709",
"bn 	c #8D9243",
"cn 	c #A0A451",
"dn 	c #9BA149",
"en 	c #373816",
"fn 	c #45452F",
"gn 	c #C6C583",
"hn 	c #E6E88B",
"in 	c #DBDB8F",
"jn 	c #C3C570",
"kn 	c #F7F5AC",
"ln 	c #363918",
"mn 	c #BCBE6F",
"nn 	c #777B3C",
"on 	c #FFFFE0",
"pn 	c #FFFFFA",
"qn 	c #FBFC9C",
"rn 	c #9DA34B",
"sn 	c #C1C17D",
"tn 	c #6D722B",
"un 	c #BEC26D",
"vn 	c #B3B56A",
"wn 	c #5B6025",
"xn 	c #EBEBA1",
"yn 	c #96975F",
"zn 	c #A5A661",
"An 	c #D2D386",
"Bn 	c #9FA164",
"Cn 	c #C7CA76",
"Dn 	c #9FA35C",
"En 	c #848A3B",
"Fn 	c #81863A",
"Gn 	c #E5E690",
"Hn 	c #E6E98B",
"In 	c #D0D086",
"Jn 	c #D1D47E",
"Kn 	c #B0B361",
"Ln 	c #BCC168",
"Mn 	c #D8D984",
"Nn 	c #E7E892",
"On 	c #A7AB5B",
"Pn 	c #9B9D68",
"Qn 	c #EEEBAC",
"Rn 	c #979C4C",
"Sn 	c #7D8332",
"Tn 	c #C4C86D",
"Un 	c #232311",
"Vn 	c #C7C784",
"Wn 	c #EDEE93",
"Xn 	c #585A26",
"Yn 	c #9CA051",
"Zn 	c #ABB150",
"`n 	c #B5B577",
" o 	c #C2C474",
".o 	c #B6B872",
"+o 	c #DBDC8B",
"@o 	c #C1C17A",
"#o 	c #A5A95B",
"$o 	c #535726",
"%o 	c #6F752F",
"&o 	c #575B23",
"*o 	c #A1A45D",
"=o 	c #C5C578",
"-o 	c #CBCE72",
";o 	c #BEC072",
">o 	c #F5F4A4",
",o 	c #555921",
"'o 	c #A1A45E",
")o 	c #979B52",
"!o 	c #C2C475",
"~o 	c #B2B36E",
"{o 	c #B5B571",
"]o 	c #8E9541",
"^o 	c #727736",
"/o 	c #C0C177",
"(o 	c #555649",
"_o 	c #E5E498",
":o 	c #EBED95",
"<o 	c #929358",
"[o 	c #CCD079",
"}o 	c #D1D37E",
"|o 	c #989A6C",
"1o 	c #383A1C",
"2o 	c #8E8D70",
"3o 	c #888B4E",
"4o 	c #95994B",
"5o 	c #B9B87F",
"6o 	c #ACAD6B",
"7o 	c #B5B766",
"8o 	c #B7BA6E",
"9o 	c #D8D88E",
"0o 	c #E9EB90",
"ao 	c #B8BA6F",
"bo 	c #2C2B1C",
"co 	c #949360",
"do 	c #85864D",
"eo 	c #B9BD6A",
"fo 	c #92964D",
"go 	c #7C8034",
"ho 	c #3D411C",
"io 	c #706F5F",
"jo 	c #6A702B",
"ko 	c #DCDA9D",
"lo 	c #202210",
"mo 	c #ABAC65",
"no 	c #B0B26B",
"oo 	c #C9CC74",
"po 	c #AFB169",
"qo 	c #BCC063",
"ro 	c #CBCD78",
"so 	c #AAAD60",
"to 	c #242610",
"uo 	c #FEFFAA",
"vo 	c #676C2C",
"wo 	c #B8B974",
"xo 	c #5B5F24",
"yo 	c #CBCC80",
"zo 	c #D3D679",
"Ao 	c #F5F4B2",
"Bo 	c #121308",
"Co 	c #15160B",
"Do 	c #7D7F4B",
"Eo 	c #C9C88B",
"Fo 	c #F4F2AB",
"Go 	c #959659",
"Ho 	c #999D49",
"Io 	c #686C2C",
"Jo 	c #A7AB5A",
"Ko 	c #777C39",
"Lo 	c #DFE090",
"Mo 	c #A6A955",
"No 	c #9D9F55",
"Oo 	c #B8B97C",
"Po 	c #BEBF73",
"Qo 	c #696B47",
"Ro 	c #878759",
"So 	c #7D8044",
"To 	c #6B6E2F",
"Uo 	c #888D3E",
"Vo 	c #B3B371",
"Wo 	c #AEB15C",
"Xo 	c #A2A461",
"Yo 	c #262617",
"Zo 	c #8C8D61",
"`o 	c #ACAE64",
" p 	c #919156",
".p 	c #C3C47C",
"+p 	c #B4B671",
"@p 	c #CACA7E",
"#p 	c #A8AC5E",
"$p 	c #A0A15F",
"%p 	c #BABB73",
"&p 	c #ACAF6B",
"*p 	c #61623A",
"=p 	c #EAEA95",
"-p 	c #FDFEA2",
";p 	c #BAB995",
">p 	c #A1A654",
",p 	c #7F8049",
"'p 	c #DEDE9B",
")p 	c #646541",
"!p 	c #9B9D59",
"~p 	c #CED27A",
"{p 	c #A1A559",
"]p 	c #BDBF78",
"^p 	c #727634",
"/p 	c #6E7039",
"(p 	c #DCDD8D",
"_p 	c #8C8E58",
":p 	c #767749",
"<p 	c #F9F9A3",
"[p 	c #646539",
"}p 	c #65673C",
"|p 	c #3F4130",
"1p 	c #8C9047",
"2p 	c #8C9140",
"3p 	c #2F3215",
"4p 	c #B1B36D",
"5p 	c #B1B75B",
"6p 	c #8A8B55",
"7p 	c #DFE188",
"8p 	c #8D904D",
"9p 	c #AEB064",
"0p 	c #919355",
"ap 	c #E3E197",
"bp 	c #C8C979",
"cp 	c #858A3E",
"dp 	c #1F210E",
"ep 	c #C5C38D",
"fp 	c #474823",
"gp 	c #D7D792",
"hp 	c #EEF292",
"ip 	c #63663C",
"jp 	c #323123",
"kp 	c #F0EDAA",
"lp 	c #9C9E5F",
"mp 	c #A5A857",
"np 	c #ADB163",
"op 	c #807F55",
"pp 	c #ECEF92",
"qp 	c #BABB72",
"rp 	c #6F7051",
"sp 	c #6D7138",
"tp 	c #EDEF95",
"up 	c #5F6149",
"vp 	c #F2F19F",
"wp 	c #97995B",
"xp 	c #1E200E",
"yp 	c #9FA06E",
"zp 	c #929550",
"Ap 	c #727346",
"Bp 	c #969856",
"Cp 	c #4F4F38",
"Dp 	c #717341",
"Ep 	c #B5B570",
"Fp 	c #2A2D11",
"Gp 	c #929453",
"Hp 	c #CCCC84",
"Ip 	c #56582C",
"Jp 	c #DDDD94",
"Kp 	c #E2E195",
"Lp 	c #B0B174",
"Mp 	c #DDDE8A",
"Np 	c #C9CC76",
"Op 	c #D8D98A",
"Pp 	c #EBEB99",
"Qp 	c #B3B56D",
"Rp 	c #787C30",
"Sp 	c #C1C273",
"Tp 	c #A2A556",
"Up 	c #65653F",
"Vp 	c #898C48",
"Wp 	c #D3D480",
"Xp 	c #FFFF92",
"Yp 	c #EDED99",
"Zp 	c #E1E28F",
"`p 	c #8D904A",
" q 	c #898C4E",
".q 	c #505232",
"+q 	c #797B44",
"@q 	c #8E8D58",
"#q 	c #494D1F",
"$q 	c #747561",
"%q 	c #9E9E66",
"&q 	c #EAEB91",
"*q 	c #18190B",
"=q 	c #FAFAA1",
"-q 	c #101109",
";q 	c #C1C470",
">q 	c #D1D089",
",q 	c #A7A962",
"'q 	c #C7C97E",
")q 	c #C3C76D",
"!q 	c #E1E38B",
"~q 	c #D7D884",
"{q 	c #CBCE77",
"]q 	c #828256",
"^q 	c #BCBB7A",
"/q 	c #E9E997",
"(q 	c #C5C57A",
"_q 	c #CACB7C",
":q 	c #6A6E2A",
"<q 	c #B8BB6B",
"[q 	c #64663B",
"}q 	c #94955A",
"|q 	c #A5AC4B",
"1q 	c #989A54",
"2q 	c #7F833B",
"3q 	c #454820",
"4q 	c #A2A268",
"5q 	c #515131",
"6q 	c #6E6F3E",
"7q 	c #DFDF93",
"8q 	c #EEF18C",
"9q 	c #7F833F",
"0q 	c #F3F2A2",
"aq 	c #939459",
"bq 	c #585A4A",
"cq 	c #D3D581",
"dq 	c #595B38",
"eq 	c #A8AA5F",
"fq 	c #A8AB5B",
"gq 	c #DFE189",
"hq 	c #DCDE88",
"iq 	c #1C1D13",
"jq 	c #B7BB67",
"kq 	c #5B5C37",
"lq 	c #CFD17F",
"mq 	c #979859",
"nq 	c #BDBD78",
"oq 	c #626630",
"pq 	c #5D5E3A",
"qq 	c #2E2E1D",
"rq 	c #BDC072",
"sq 	c #C4C47D",
"tq 	c #A8A977",
"uq 	c #B3B669",
"vq 	c #686D2A",
"wq 	c #AEB065",
"xq 	c #EBEC95",
"yq 	c #B2B568",
"zq 	c #E1E095",
"Aq 	c #888C46",
"Bq 	c #545824",
"Cq 	c #94984C",
"Dq 	c #E5E49C",
"Eq 	c #9A9C57",
"Fq 	c #F1F19D",
"Gq 	c #969854",
"Hq 	c #9EA155",
"Iq 	c #888A48",
"Jq 	c #D9D98D",
"Kq 	c #A4A65A",
"Lq 	c #7D823A",
"Mq 	c #D9D992",
"Nq 	c #BDBE6F",
"Oq 	c #FAF9AD",
"Pq 	c #ECEF93",
"Qq 	c #53544A",
"Rq 	c #18190A",
"Sq 	c #B0B071",
"Tq 	c #CDCB8C",
"Uq 	c #E0E38C",
"Vq 	c #767943",
"Wq 	c #7F7F64",
"Xq 	c #909252",
"Yq 	c #AEB161",
"Zq 	c #DDDC99",
"`q 	c #252710",
" r 	c #EEECA7",
".r 	c #A9AC5B",
"+r 	c #CACA7D",
"@r 	c #E2E684",
"#r 	c #181A0B",
"$r 	c #7C7C55",
"%r 	c #1D1E0C",
"&r 	c #8A903D",
"*r 	c #AFB268",
"=r 	c #919644",
"-r 	c #C2C375",
";r 	c #9BA052",
">r 	c #AEB165",
",r 	c #40421A",
"'r 	c #6F723C",
")r 	c #ECEAA5",
"!r 	c #A7AA60",
"~r 	c #FFFDB3",
"{r 	c #DEE381",
"]r 	c #CCCB99",
"^r 	c #686E2A",
"/r 	c #D0D27D",
"(r 	c #9DA24C",
"_r 	c #F8F5B0",
":r 	c #373917",
"<r 	c #C6C38C",
"[r 	c #373817",
"}r 	c #ABAE68",
"|r 	c #8E9247",
"1r 	c #E1E485",
"2r 	c #F1F296",
"3r 	c #504F36",
"4r 	c #A5A56C",
"5r 	c #B0B26C",
"6r 	c #777A49",
"7r 	c #4D4F35",
"8r 	c #717437",
"9r 	c #FFFFF8",
"0r 	c #8A8B68",
"ar 	c #858B3E",
"br 	c #BABF64",
"cr 	c #505529",
"dr 	c #89895C",
"er 	c #FFFFF7",
"fr 	c #8E8F56",
"gr 	c #484A32",
"hr 	c #8D8D67",
"ir 	c #3E4119",
"jr 	c #7A7B4B",
"kr 	c #D1D18F",
"lr 	c #FAFBA2",
"mr 	c #898B4D",
"nr 	c #ECED94",
"or 	c #CCCD7E",
"pr 	c #E1E488",
"qr 	c #5C6034",
"rr 	c #9E9F60",
"sr 	c #9FA15D",
"tr 	c #D3D487",
"ur 	c #CACB7B",
"vr 	c #BCBB7F",
"wr 	c #63643A",
"xr 	c #575739",
"yr 	c #5A5C37",
"zr 	c #070803",
"Ar 	c #979569",
"Br 	c #7C7D4D",
"Cr 	c #595C2D",
"Dr 	c #A2A270",
"Er 	c #6A6D3C",
"Fr 	c #A5A669",
"Gr 	c #D7D78F",
"Hr 	c #A8A96A",
"Ir 	c #E8E896",
"Jr 	c #C0BF84",
"Kr 	c #40421D",
"Lr 	c #67683C",
"Mr 	c #3A3A28",
"Nr 	c #53562D",
"Or 	c #383823",
"Pr 	c #212215",
"Qr 	c #262710",
"Rr 	c #5D5F33",
"Sr 	c #52542A",
"Tr 	c #4C4D30",
"Ur 	c #797B4F",
"Vr 	c #484930",
"Wr 	c #8E9053",
"Xr 	c #797A4E",
"Yr 	c #B7B973",
"Zr 	c #797E39",
"`r 	c #787847",
" s 	c #777846",
".s 	c #5C5D38",
"+s 	c #3B3D17",
"@s 	c #666934",
"#s 	c #4B4C24",
"$s 	c #2D2E12",
"%s 	c #4F502F",
"&s 	c #5B5D35",
"*s 	c #999B55",
"=s 	c #ACAE69",
"-s 	c #8C8E4F",
";s 	c #B3B279",
">s 	c #E0E090",
",s 	c #B4B479",
"'s 	c #8B8A5B",
")s 	c #5F6133",
"!s 	c #111308",
"~s 	c #61623D",
"{s 	c #2B2C11",
"]s 	c #8F8F60",
"^s 	c #A6A966",
"/s 	c #8B8B5D",
"(s 	c #707532",
"_s 	c #ABAD63",
":s 	c #929355",
"<s 	c #7D7C53",
"[s 	c #53542C",
"}s 	c #4F502E",
"|s 	c #424229",
"1s 	c #353520",
"2s 	c #464727",
"3s 	c #8D8C5F",
"4s 	c #696B3C",
"5s 	c #B1AF7C",
"6s 	c #EFF09C",
"7s 	c #969B4E",
"8s 	c #66663F",
"9s 	c #6B6C42",
"0s 	c #515132",
"as 	c #6B6C46",
"bs 	c #64653A",
"cs 	c #6F6F46",
"ds 	c #767550",
"es 	c #525526",
"fs 	c #72714E",
"gs 	c #88885C",
"hs 	c #85874A",
"is 	c #6A6B4A",
"js 	c #B5B671",
"ks 	c #6C6D3D",
"ls 	c #72724B",
"ms 	c #555538",
"ns 	c #444428",
"os 	c #44432F",
"ps 	c #23231A",
"qs 	c #504F37",
"rs 	c #4B4C30",
"ss 	c #3E3F1F",
"ts 	c #3A3B1F",
"us 	c #313227",
"vs 	c #8C8B61",
"ws 	c #929749",
"xs 	c #A2A16C",
"ys 	c #95994E",
"zs 	c #E3E493",
"As 	c #8C8E53",
"Bs 	c #474730",
"Cs 	c #777949",
"Ds 	c #090908",
"Es 	c #42432D",
"Fs 	c #4B4A33",
"Gs 	c #24241E",
"Hs 	c #353621",
"Is 	c #46472C",
"Js 	c #5C5C37",
"Ks 	c #30301D",
"Ls 	c #ACAB76",
"Ms 	c #626729",
"Ns 	c #B6B67B",
"Os 	c #C9C78C",
"Ps 	c #636645",
"Qs 	c #D3D389",
"Rs 	c #79784F",
"Ss 	c #696B3F",
"Ts 	c #49492C",
"Us 	c #434328",
"Vs 	c #48482D",
"Ws 	c #454529",
"Xs 	c #5F613C",
"Ys 	c #393A27",
"Zs 	c #36371B",
"`s 	c #4B4B30",
" t 	c #4E4F30",
".t 	c #2E2F1C",
"+t 	c #2A2C10",
"@t 	c #777948",
"#t 	c #5D602A",
"$t 	c #898B50",
"%t 	c #686846",
"&t 	c #646633",
"*t 	c #8B8B5C",
"=t 	c #474928",
"-t 	c #424321",
";t 	c #3C3D20",
">t 	c #373919",
",t 	c #393A1E",
"'t 	c #57563D",
")t 	c #686748",
"!t 	c #0F1007",
"~t 	c #57592F",
"{t 	c #898C46",
"]t 	c #B8BB6C",
"^t 	c #2F3113",
"/t 	c #5B5C32",
"(t 	c #3B3F18",
"_t 	c #46482B",
":t 	c #424224",
"<t 	c #535233",
"[t 	c #3F3F27",
"}t 	c #535335",
"|t 	c #46462D",
"1t 	c #58583B",
"2t 	c #44442A",
"3t 	c #363919",
"4t 	c #878951",
"5t 	c #BFC565",
"6t 	c #C2C47E",
"7t 	c #7D813E",
"8t 	c #DDDE88",
"9t 	c #52543F",
"0t 	c #F8F6A7",
"at 	c #4E4D32",
"bt 	c #A6A671",
"ct 	c #383822",
"dt 	c #515136",
"et 	c #414225",
"ft 	c #595939",
"gt 	c #30311B",
"ht 	c #636244",
"it 	c #2D2E1C",
"jt 	c #5D5D45",
"kt 	c #4D4F29",
"lt 	c #83825A",
"mt 	c #CACB7D",
"nt 	c #717436",
"ot 	c #EEEF99",
"pt 	c #767941",
"qt 	c #343716",
"rt 	c #363723",
"st 	c #3E3E25",
"tt 	c #515230",
"ut 	c #28281A",
"vt 	c #252613",
"wt 	c #565834",
"xt 	c #B2B276",
"yt 	c #F2F1A5",
"zt 	c #595D29",
"At 	c #BCBE71",
"Bt 	c #DADB89",
"Ct 	c #D9DB86",
"Dt 	c #CFCE88",
"Et 	c #686940",
"Ft 	c #6A6B41",
"Gt 	c #2D2C1E",
"Ht 	c #13130D",
"It 	c #1D1D13",
"Jt 	c #1D1D11",
"Kt 	c #3B3C21",
"Lt 	c #4C4D2B",
"Mt 	c #616237",
"Nt 	c #CECE83",
"Ot 	c #7B7E44",
"Pt 	c #F5F69D",
"Qt 	c #474930",
"Rt 	c #71734A",
"St 	c #666937",
"Tt 	c #64653B",
"Ut 	c #202110",
"Vt 	c #373722",
"Wt 	c #31321C",
"Xt 	c #2F301D",
"Yt 	c #32341D",
"Zt 	c #6E6E44",
"`t 	c #16170E",
" u 	c #737345",
".u 	c #7A7B4C",
"+u 	c #494931",
"@u 	c #393A23",
"#u 	c #27271D",
"$u 	c #42422B",
"%u 	c #3D3E27",
"&u 	c #4A4A30",
"*u 	c #20220D",
"=u 	c #1E200C",
"-u 	c #1D1F0C",
";u 	c #585937",
">u 	c #D7D986",
",u 	c #9DA154",
"'u 	c #404123",
")u 	c #272814",
"!u 	c #3A3A22",
"~u 	c #2F301C",
"{u 	c #262717",
"]u 	c #46452F",
"^u 	c #4F4F36",
"/u 	c #444424",
"(u 	c #2C2E12",
"_u 	c #8E8F5A",
":u 	c #51522E",
"<u 	c #5C5F27",
"[u 	c #969C3F",
"}u 	c #F0F09B",
"|u 	c #A1A16E",
"1u 	c #616240",
"2u 	c #313120",
"3u 	c #363620",
"4u 	c #383923",
"5u 	c #363720",
"6u 	c #33341E",
"7u 	c #616331",
"8u 	c #D5D588",
"9u 	c #D3D67D",
"0u 	c #DEE184",
"au 	c #B0B26A",
"bu 	c #494B2B",
"cu 	c #A7A76F",
"du 	c #B2B372",
"eu 	c #26291B",
"fu 	c #2D392B",
"gu 	c #2E3A2D",
"hu 	c #2A372A",
"iu 	c #212B21",
"ju 	c #2C2E1F",
"ku 	c #45452E",
"lu 	c #21220D",
"mu 	c #1B1D0D",
"nu 	c #ADAE6E",
"ou 	c #888853",
"pu 	c #6C7030",
"qu 	c #3C3C22",
"ru 	c #333D2C",
"su 	c #283428",
"tu 	c #202C21",
"uu 	c #151E16",
"vu 	c #151A12",
"wu 	c #242315",
"xu 	c #424228",
"yu 	c #A3A368",
"zu 	c #9D9E64",
"Au 	c #2C2C1B",
"Bu 	c #717340",
"Cu 	c #F5FB94",
"Du 	c #606248",
"Eu 	c #595A35",
"Fu 	c #2C3323",
"Gu 	c #222B21",
"Hu 	c #252F24",
"Iu 	c #141B13",
"Ju 	c #393A24",
"Ku 	c #AFAE78",
"Lu 	c #CDCE80",
"Mu 	c #C9CD75",
"Nu 	c #575B27",
"Ou 	c #AFAF77",
"Pu 	c #373B25",
"Qu 	c #2F3C2D",
"Ru 	c #2C382B",
"Su 	c #293629",
"Tu 	c #232F23",
"Uu 	c #272A1A",
"Vu 	c #404220",
"Wu 	c #383918",
"Xu 	c #787B43",
"Yu 	c #DBDB8B",
"Zu 	c #4C4F1F",
"`u 	c #080704",
" v 	c #F6F4AD",
".v 	c #3E3E22",
"+v 	c #252E20",
"@v 	c #212A20",
"#v 	c #1B261C",
"$v 	c #262615",
"%v 	c #2C2D1E",
"&v 	c #B8B67D",
"*v 	c #86875A",
"=v 	c #BEC074",
"-v 	c #1E1E11",
";v 	c #B1B36C",
">v 	c #F0F294",
",v 	c #B9B97C",
"'v 	c #6E6F42",
")v 	c #333A28",
"!v 	c #2B382A",
"~v 	c #2C382A",
"{v 	c #263226",
"]v 	c #151C14",
"^v 	c #3A3B25",
"/v 	c #51513A",
"(v 	c #858458",
"_v 	c #B8B878",
":v 	c #F3F3A0",
"<v 	c #A1A35E",
"[v 	c #454727",
"}v 	c #6B6E3A",
"|v 	c #10120B",
"1v 	c #212C21",
"2v 	c #1F291F",
"3v 	c #0D140F",
"4v 	c #13180F",
"5v 	c #424323",
"6v 	c #D9D894",
"7v 	c #454824",
"8v 	c #9EA15D",
"9v 	c #929746",
"0v 	c #DEDC9E",
"av 	c #898B4F",
"bv 	c #8F9056",
"cv 	c #222C22",
"dv 	c #202A1F",
"ev 	c #242F24",
"fv 	c #1C251C",
"gv 	c #1C261D",
"hv 	c #5F5F3C",
"iv 	c #B7BB65",
"jv 	c #FAFB94",
"kv 	c #3F3E26",
"lv 	c #93935C",
"mv 	c #DEE287",
"nv 	c #737452",
"ov 	c #1E281D",
"pv 	c #0B100C",
"qv 	c #43432C",
"rv 	c #47482A",
"sv 	c #7F7F52",
"tv 	c #7A8033",
"uv 	c #636538",
"vv 	c #76793F",
"wv 	c #0A0D0A",
"xv 	c #2A3729",
"yv 	c #1F2A20",
"zv 	c #1D281F",
"Av 	c #111913",
"Bv 	c #060A08",
"Cv 	c #363626",
"Dv 	c #E6E698",
"Ev 	c #5A5B4D",
"Fv 	c #C2C379",
"Gv 	c #E7E59B",
"Hv 	c #636532",
"Iv 	c #7E8049",
"Jv 	c #1C241C",
"Kv 	c #1F281E",
"Lv 	c #1E281F",
"Mv 	c #19231A",
"Nv 	c #434327",
"Ov 	c #8A8B5C",
"Pv 	c #A2A363",
"Qv 	c #AFB26A",
"Rv 	c #A4A562",
"Sv 	c #85864E",
"Tv 	c #C0C36C",
"Uv 	c #73792E",
"Vv 	c #84864B",
"Wv 	c #1E261D",
"Xv 	c #222C21",
"Yv 	c #243024",
"Zv 	c #202920",
"`v 	c #1A251B",
" w 	c #131C14",
".w 	c #494B2A",
"+w 	c #565731",
"@w 	c #8B8A66",
"#w 	c #58593D",
"$w 	c #151D16",
"%w 	c #162017",
"&w 	c #161F16",
"*w 	c #141C16",
"=w 	c #131B15",
"-w 	c #3E401F",
";w 	c #363715",
">w 	c #4F512A",
",w 	c #A9AD5E",
"'w 	c #47482F",
")w 	c #565829",
"!w 	c #182218",
"~w 	c #161F17",
"{w 	c #171F18",
"]w 	c #131C15",
"^w 	c #101912",
"/w 	c #4E4F2F",
"(w 	c #3B3D24",
"_w 	c #94955C",
":w 	c #D1D37A",
"<w 	c #ECF08C",
"[w 	c #4B4D33",
"}w 	c #B3B66C",
"|w 	c #161E16",
"1w 	c #172119",
"2w 	c #151D15",
"3w 	c #222316",
"4w 	c #43442E",
"5w 	c #696B3E",
"6w 	c #BCBF6B",
"7w 	c #9A9D53",
"8w 	c #E8E897",
"9w 	c #7E7E67",
"0w 	c #161E17",
"aw 	c #131A14",
"bw 	c #6B6B45",
"cw 	c #8A8F42",
"dw 	c #646743",
"ew 	c #98995A",
"fw 	c #A1A168",
"gw 	c #111207",
"hw 	c #8A8B53",
"iw 	c #858B3D",
"jw 	c #8C8B5B",
"kw 	c #A1A461",
"lw 	c #7F843C",
"mw 	c #171F17",
"nw 	c #16180A",
"ow 	c #4A4A3B",
"pw 	c #C6C779",
"qw 	c #B2B461",
"rw 	c #C4C47B",
"sw 	c #0E160F",
"tw 	c #6A6948",
"uw 	c #27271C",
"vw 	c #78794D",
"ww 	c #8A8B4E",
"xw 	c #969A4E",
"yw 	c #C0C17A",
"zw 	c #9EA159",
"Aw 	c #595A37",
"Bw 	c #989873",
"Cw 	c #919255",
"Dw 	c #CED07C",
"Ew 	c #9A9B5C",
"Fw 	c #101712",
"Gw 	c #0F1711",
"Hw 	c #0E1711",
"Iw 	c #252913",
"Jw 	c #525236",
"Kw 	c #E9E995",
"Lw 	c #8A8D44",
"Mw 	c #4E5221",
"Nw 	c #616339",
"Ow 	c #121A14",
"Pw 	c #121B13",
"Qw 	c #101811",
"Rw 	c #807F5B",
"Sw 	c #818342",
"Tw 	c #8C9046",
"Uw 	c #777850",
"Vw 	c #A0A265",
"Ww 	c #737541",
"Xw 	c #484927",
"Yw 	c #A3A36B",
"Zw 	c #D6D87E",
"`w 	c #535527",
" x 	c #6E7234",
".x 	c #2D3020",
"+x 	c #2F3017",
"@x 	c #4C4E2C",
"#x 	c #535336",
"$x 	c #F9FB96",
"%x 	c #B3B56B",
"&x 	c #878852",
"*x 	c #D2D288",
"=x 	c #4C4F25",
"-x 	c #7A7C4C",
";x 	c #6D6E3E",
">x 	c #A6A767",
",x 	c #A6A865",
"'x 	c #C4C674",
")x 	c #C2C187",
"!x 	c #83864E",
"~x 	c #444525",
"{x 	c #202011",
"]x 	c #7B7C4C",
"^x 	c #DEE282",
"/x 	c #F6FA92",
"(x 	c #5F6229",
"_x 	c #5A5B44",
":x 	c #AFB166",
"<x 	c #ABAD66",
"[x 	c #252818",
"}x 	c #ACAD6E",
"|x 	c #9DA155",
"1x 	c #5D5C3E",
"2x 	c #A1A35F",
"3x 	c #61642D",
"4x 	c #4E5220",
"5x 	c #0E1810",
"6x 	c #363821",
"7x 	c #B1B367",
"8x 	c #ACAF63",
"9x 	c #B7B96E",
"0x 	c #787C3A",
"ax 	c #656446",
"bx 	c #B4B862",
"cx 	c #ABA979",
"dx 	c #C5C582",
"ex 	c #95965E",
"fx 	c #777B3B",
"gx 	c #66674C",
"hx 	c #1E2114",
"ix 	c #1B1C14",
"jx 	c #DADC83",
"kx 	c #D3D876",
"lx 	c #28291C",
"mx 	c #575832",
"nx 	c #7C7E4C",
"ox 	c #66673A",
"px 	c #585A31",
"qx 	c #959756",
"rx 	c #696D2C",
"sx 	c #7F804F",
"tx 	c #434525",
"ux 	c #3D3E2D",
"vx 	c #61623B",
"wx 	c #E0E08F",
"xx 	c #E3E783",
"yx 	c #80824B",
"zx 	c #555630",
"Ax 	c #636635",
"Bx 	c #898A50",
"Cx 	c #777947",
"Dx 	c #1C1D0D",
"Ex 	c #E4E594",
"Fx 	c #EBEC9A",
"Gx 	c #A7AA5F",
"Hx 	c #A8AC5B",
"Ix 	c #C2C182",
"Jx 	c #9C9A73",
"Kx 	c #525238",
"Lx 	c #41441E",
"Mx 	c #AAA87A",
"Nx 	c #808735",
"Ox 	c #B0AF73",
"Px 	c #DCDB9C",
"Qx 	c #26260F",
"Rx 	c #191C11",
"Sx 	c #727243",
"Tx 	c #434622",
"Ux 	c #C2C376",
"Vx 	c #707243",
"Wx 	c #DFE287",
"Xx 	c #74744A",
"Yx 	c #73734A",
"Zx 	c #EFF38C",
"`x 	c #565736",
" y 	c #A3A465",
".y 	c #A8AB60",
"+y 	c #4D4F2B",
"@y 	c #080903",
"#y 	c #303120",
"$y 	c #999C53",
"%y 	c #9E9F62",
"&y 	c #D1D47D",
"*y 	c #A4A661",
"=y 	c #0C0F08",
"-y 	c #2A2B10",
";y 	c #4A4C26",
">y 	c #757741",
",y 	c #727446",
"'y 	c #939264",
")y 	c #757B2F",
"!y 	c #8D8F58",
"~y 	c #5D612B",
"{y 	c #31321B",
"]y 	c #9D9F58",
"^y 	c #C8C87E",
"/y 	c #A2A45E",
"(y 	c #8B8C55",
"_y 	c #B2B565",
":y 	c #808063",
"<y 	c #2E2D1E",
"[y 	c #C1C280",
"}y 	c #515426",
"|y 	c #555828",
"1y 	c #96955E",
"2y 	c #30331F",
"3y 	c #4E4E2D",
"4y 	c #797A4A",
"5y 	c #64663D",
"6y 	c #7E8146",
"7y 	c #6F6F4B",
"8y 	c #101107",
"9y 	c #888950",
"0y 	c #FFFFF9",
"ay 	c #262911",
"by 	c #A9AC5C",
"cy 	c #51542A",
"dy 	c #B4B56F",
"ey 	c #ECE9A3",
"fy 	c #ADAE6C",
"gy 	c #8F9157",
"hy 	c #343623",
"iy 	c #555634",
"jy 	c #666738",
"ky 	c #B3B663",
"ly 	c #5E6226",
"my 	c #6D6D47",
"ny 	c #4E5036",
"oy 	c #2C2C1D",
"py 	c #292A11",
"qy 	c #D7D68E",
"ry 	c #9EA355",
"sy 	c #A9AA63",
"ty 	c #B9BC6D",
"uy 	c #818250",
"vy 	c #C9C78D",
"wy 	c #070C08",
"xy 	c #333526",
"yy 	c #BCBD6F",
"zy 	c #7D7D56",
"Ay 	c #A0A06B",
"By 	c #66683B",
"Cy 	c #32341F",
"Dy 	c #656541",
"Ey 	c #6E6E40",
"Fy 	c #818155",
"Gy 	c #C7CA70",
"Hy 	c #42442B",
"Iy 	c #585932",
"Jy 	c #1C2114",
"Ky 	c #161709",
"Ly 	c #656736",
"My 	c #CFD376",
"Ny 	c #898A6A",
"Oy 	c #AEB15E",
"Py 	c #F4F59B",
"Qy 	c #797C48",
"Ry 	c #BABA7C",
"Sy 	c #EFF294",
"Ty 	c #999C4F",
"Uy 	c #717337",
"Vy 	c #3A3A21",
"Wy 	c #91934E",
"Xy 	c #A3AB48",
"Yy 	c #5B5F25",
"Zy 	c #93955B",
"`y 	c #B6BB61",
" z 	c #202519",
".z 	c #818344",
"+z 	c #93974F",
"@z 	c #B6B772",
"#z 	c #C4C576",
"$z 	c #ECEE95",
"%z 	c #9DA059",
"&z 	c #B6B57C",
"*z 	c #929167",
"=z 	c #A9AF50",
"-z 	c #979861",
";z 	c #CCCC83",
">z 	c #2E2E1A",
",z 	c #565636",
"'z 	c #474832",
")z 	c #4E5029",
"!z 	c #B9BD74",
"~z 	c #F9FA9A",
"{z 	c #252614",
"]z 	c #5E5E3B",
"^z 	c #A8AB5F",
"/z 	c #717143",
"(z 	c #838354",
"_z 	c #2C2D12",
":z 	c #B8BA6B",
"<z 	c #D2D19C",
"[z 	c #929163",
"}z 	c #E2E28E",
"|z 	c #D0D379",
"1z 	c #262A18",
"2z 	c #181A0A",
"3z 	c #939267",
"4z 	c #64663E",
"5z 	c #EEF095",
"6z 	c #282B12",
"7z 	c #A4A571",
"8z 	c #86875F",
"9z 	c #DCDC8E",
"0z 	c #272B1F",
"az 	c #606330",
"bz 	c #D4D290",
"cz 	c #D5D979",
"dz 	c #9D9E6A",
"ez 	c #EDF092",
"fz 	c #535438",
"gz 	c #E5E594",
"hz 	c #B8B87C",
"iz 	c #888851",
"jz 	c #28281B",
"kz 	c #6E6D4B",
"lz 	c #878B48",
"mz 	c #8C8E51",
"nz 	c #D5D589",
"oz 	c #C8C884",
"pz 	c #F6F3A7",
"qz 	c #DCDF82",
"rz 	c #191D0E",
"sz 	c #808054",
"tz 	c #888858",
"uz 	c #494B27",
"vz 	c #9B9E65",
"wz 	c #B0B16E",
"xz 	c #FDFBB9",
"yz 	c #A4A36B",
"zz 	c #11150E",
"Az 	c #6D6F42",
"Bz 	c #28291E",
"Cz 	c #94956D",
"Dz 	c #2F301E",
"Ez 	c #E5E68A",
"Fz 	c #6B7033",
"Gz 	c #D8DA82",
"Hz 	c #949753",
"Iz 	c #E1E197",
"Jz 	c #878A47",
"Kz 	c #A09E6F",
"Lz 	c #DCDD8B",
"Mz 	c #8D8F52",
"Nz 	c #8D9340",
"Oz 	c #52542E",
"Pz 	c #7D7E57",
"Qz 	c #555823",
"Rz 	c #AEB162",
"Sz 	c #7E8142",
"Tz 	c #B5B961",
"Uz 	c #C7C97A",
"Vz 	c #3D3D28",
"Wz 	c #3C3C2F",
"Xz 	c #787754",
"Yz 	c #81824B",
"Zz 	c #61633A",
"`z 	c #C5C493",
" A 	c #2E2F14",
".A 	c #DCDE83",
"+A 	c #F7FA96",
"@A 	c #DADA90",
"#A 	c #C5C586",
"$A 	c #828448",
"%A 	c #747445",
"&A 	c #98976A",
"*A 	c #CED27D",
"=A 	c #595A3A",
"-A 	c #969B41",
";A 	c #5D6125",
">A 	c #7A7D41",
",A 	c #989A58",
"'A 	c #575C25",
")A 	c #6E742C",
"!A 	c #404319",
"~A 	c #66673D",
"{A 	c #55563A",
"]A 	c #6A6C39",
"^A 	c #92935A",
"/A 	c #929259",
"(A 	c #94965A",
"_A 	c #2A2B19",
":A 	c #2A2B18",
"<A 	c #838743",
"[A 	c #FAFB9F",
"}A 	c #686944",
"|A 	c #64692E",
"1A 	c #494C1E",
"2A 	c #272819",
"3A 	c #61613C",
"4A 	c #A9A969",
"5A 	c #6C6F36",
"6A 	c #383722",
"7A 	c #787953",
"8A 	c #B2B277",
"9A 	c #656444",
"0A 	c #C5C67D",
"aA 	c #7F8434",
"bA 	c #545826",
"cA 	c #999D51",
"dA 	c #D0D280",
"eA 	c #9CA34B",
"fA 	c #F7F5AA",
"gA 	c #BFBF7B",
"hA 	c #A9AD61",
"iA 	c #F2EFAE",
"jA 	c #B0B16C",
"kA 	c #F5F4AA",
"lA 	c #5D6225",
"mA 	c #B3B375",
"nA 	c #626629",
"oA 	c #93935A",
"pA 	c #F0F0A2",
"qA 	c #FDFF9A",
"rA 	c #DFDD9F",
"sA 	c #8C8A69",
"tA 	c #A0A065",
"uA 	c #8F924F",
"vA 	c #BCBD75",
"wA 	c #787B3E",
"xA 	c #B7BC60",
"yA 	c #46491C",
"zA 	c #BDC268",
"AA 	c #CDCF80",
"BA 	c #727442",
"CA 	c #1C1D0E",
"DA 	c #4B4C2C",
"EA 	c #AFAE7B",
"FA 	c #C3C57D",
"GA 	c #BBBC71",
"HA 	c #DADC80",
"IA 	c #E3E688",
"JA 	c #7E7F5C",
"KA 	c #A7A867",
"LA 	c #AEB066",
"MA 	c #B4B767",
"NA 	c #606527",
"OA 	c #A4A65E",
"PA 	c #F2F491",
"QA 	c #000101",
"RA 	c #979863",
"SA 	c #E3E1A0",
"TA 	c #ECEE94",
"UA 	c #4E4F2E",
"VA 	c #AAAB6B",
"WA 	c #FFFFE5",
"XA 	c #717345",
"YA 	c #5D5D41",
"ZA 	c #8D8D5B",
"`A 	c #6E742D",
" B 	c #AFAE7D",
".B 	c #656642",
"+B 	c #F0F2A1",
"@B 	c #6C712C",
"#B 	c #A0A25E",
"$B 	c #CAD060",
"%B 	c #C3C47B",
"&B 	c #303115",
"*B 	c #EEF18D",
"=B 	c #E4E788",
"-B 	c #D0D46F",
";B 	c #F9FB9B",
">B 	c #5A5D2D",
",B 	c #F9FD94",
"'B 	c #9D9F5F",
")B 	c #A2A45F",
"!B 	c #E4E781",
"~B 	c #989869",
"{B 	c #C1C56D",
"]B 	c #8E9055",
"^B 	c #65663B",
"/B 	c #707142",
"(B 	c #D2D482",
"_B 	c #D1D577",
":B 	c #B1B464",
"<B 	c #B1B465",
"[B 	c #D0D380",
"}B 	c #B9B97D",
"|B 	c #BDBE71",
"1B 	c #989962",
"2B 	c #989B54",
"3B 	c #888A54",
"4B 	c #787B40",
"5B 	c #9EA25C",
"6B 	c #EAEA99",
"7B 	c #616338",
"8B 	c #DCDE86",
"9B 	c #BCBE6B",
"0B 	c #949846",
"aB 	c #45462B",
"bB 	c #9DA05D",
"cB 	c #363824",
"dB 	c #7D7E5B",
"eB 	c #A8A963",
"fB 	c #5F6147",
"gB 	c #E9EB8C",
"hB 	c #A6A764",
"iB 	c #909548",
"jB 	c #F3F49A",
"kB 	c #F2F595",
"lB 	c #F0F28E",
"mB 	c #8F9166",
"nB 	c #B9BA73",
"oB 	c #A4A759",
"pB 	c #D8DA84",
"qB 	c #AEAE6E",
"rB 	c #A1A06E",
"sB 	c #6B6F30",
"tB 	c #E5E88D",
"uB 	c #9D9E77",
"vB 	c #85874F",
"wB 	c #B1B55D",
"xB 	c #E5E599",
"yB 	c #838A36",
"zB 	c #DCDC8B",
"AB 	c #7B7D50",
"BB 	c #D3D483",
"CB 	c #9A9A68",
"DB 	c #898E49",
"EB 	c #808343",
"FB 	c #A2A560",
"GB 	c #A8A86F",
"HB 	c #D8DB82",
"IB 	c #1F200F",
"JB 	c #E8E998",
"KB 	c #4D4F3C",
"LB 	c #F1F0A8",
"MB 	c #DBDC87",
"NB 	c #9C9F58",
"OB 	c #B2BC4C",
"PB 	c #E9EA92",
"QB 	c #D3D492",
"RB 	c #9D9E68",
"SB 	c #747549",
"TB 	c #C9CB80",
"UB 	c #F8F998",
"VB 	c #E1E484",
"WB 	c #BEC171",
"XB 	c #585A2F",
"YB 	c #BBBE6D",
"ZB 	c #F5F794",
"`B 	c #D1D18B",
" C 	c #B1B190",
".C 	c #AEB061",
"+C 	c #6F6F41",
"@C 	c #0F1009",
"#C 	c #535628",
"$C 	c #5E612F",
"%C 	c #B8B876",
"&C 	c #8E8F50",
"*C 	c #94974C",
"=C 	c #ACAF62",
"-C 	c #0A0904",
";C 	c #807F54",
">C 	c #6C6D41",
",C 	c #4E502F",
"'C 	c #5F6043",
")C 	c #696A42",
"!C 	c #909258",
"~C 	c #868755",
"{C 	c #777852",
"]C 	c #4C4B30",
"^C 	c #949460",
"/C 	c #AAAD64",
"(C 	c #C8CC77",
"_C 	c #B3B276",
":C 	c #CBCB85",
"<C 	c #D6DB74",
"[C 	c #32321B",
"}C 	c #868660",
"|C 	c #CACB7F",
"1C 	c #D7DB80",
"2C 	c #F4F2A7",
"3C 	c #CBD16C",
"4C 	c #828363",
"5C 	c #97985C",
"6C 	c #E2E198",
"7C 	c #454735",
"8C 	c #A6AA5D",
"9C 	c #BBBF64",
"0C 	c #F2F495",
"aC 	c #676A4A",
"bC 	c #1E1E13",
"cC 	c #9A9C60",
"dC 	c #C1C178",
"eC 	c #A3A853",
"fC 	c #1F220D",
"gC 	c #6E6F4A",
"hC 	c #DCDB94",
"iC 	c #C3C37A",
"jC 	c #DFDF8F",
"kC 	c #DEDE8A",
"lC 	c #B2B465",
"mC 	c #848741",
"nC 	c #DDDD90",
"oC 	c #E4E49A",
"pC 	c #DEE186",
"qC 	c #8E9063",
"rC 	c #C9CD71",
"sC 	c #434329",
"tC 	c #6B6E38",
"uC 	c #B2B566",
"vC 	c #DBDF83",
"wC 	c #ABAB73",
"xC 	c #787849",
"yC 	c #CBCF77",
"zC 	c #A6A962",
"AC 	c #6A6C37",
"BC 	c #97995E",
"CC 	c #E0E387",
"DC 	c #ADB15E",
"EC 	c #D6D783",
"FC 	c #505239",
"GC 	c #464828",
"HC 	c #41441C",
"IC 	c #131309",
"JC 	c #9FA25C",
"KC 	c #C4C48D",
"LC 	c #CDCF7E",
"MC 	c #B2B562",
"NC 	c #BDC267",
"OC 	c #D8D88B",
"PC 	c #777952",
"QC 	c #D1D572",
"RC 	c #BABC73",
"SC 	c #FCFF97",
"TC 	c #4D4F3D",
"UC 	c #939472",
"VC 	c #343522",
"WC 	c #79794C",
"XC 	c #5C6125",
"YC 	c #A8AB62",
"ZC 	c #C3C37B",
"`C 	c #777946",
" D 	c #C3C285",
".D 	c #7C7E4B",
"+D 	c #E6E892",
"@D 	c #9C9E5D",
"#D 	c #2D2F16",
"$D 	c #575736",
"%D 	c #818157",
"&D 	c #696C32",
"*D 	c #595B2C",
"=D 	c #464825",
"-D 	c #B4B279",
";D 	c #8A8D4F",
">D 	c #BEBC82",
",D 	c #F6F7A1",
"'D 	c #9E9F65",
")D 	c #878A4D",
"!D 	c #EBEA9A",
"~D 	c #ABAB72",
"{D 	c #D5D880",
"]D 	c #8A8D4D",
"^D 	c #B4B56E",
"/D 	c #A5A956",
"(D 	c #F6F89A",
"_D 	c #CCCC82",
":D 	c #E6E5A1",
"<D 	c #666C29",
"[D 	c #72744D",
"}D 	c #70715F",
"|D 	c #818256",
"1D 	c #8A8D4B",
"2D 	c #6D703C",
"3D 	c #D3D67E",
"4D 	c #63653C",
"5D 	c #ADB062",
"6D 	c #9E9F63",
"7D 	c #6B6E47",
"8D 	c #7E843A",
"9D 	c #BFC177",
"0D 	c #A4A855",
"aD 	c #F9FE95",
"bD 	c #ABAC68",
"cD 	c #DBDD87",
"dD 	c #54552F",
"eD 	c #ACAD67",
"fD 	c #D5D689",
"gD 	c #EDECA3",
"hD 	c #E3E29D",
"iD 	c #7D7D6A",
"jD 	c #696A44",
"kD 	c #939654",
"lD 	c #BDBE73",
"mD 	c #C9CC75",
"nD 	c #D7DA81",
"oD 	c #D3D777",
"pD 	c #7B7B4A",
"qD 	c #CBCA84",
"rD 	c #CDD56A",
"sD 	c #DBD998",
"tD 	c #B6B76C",
"uD 	c #9C9E69",
"vD 	c #A9AB63",
"wD 	c #D6D594",
"xD 	c #F4F59D",
"yD 	c #B0B171",
"zD 	c #72724C",
"AD 	c #7A7A4A",
"BD 	c #8D8E56",
"CD 	c #73744C",
"DD 	c #A1A25F",
"ED 	c #BCBF6F",
"FD 	c #080905",
"GD 	c #ACAF60",
"HD 	c #969A50",
"ID 	c #E1E481",
"JD 	c #EEEF91",
"KD 	c #7D813C",
"LD 	c #DDDF82",
"MD 	c #73763B",
"ND 	c #4D4D37",
"OD 	c #8F9065",
"PD 	c #CECF86",
"QD 	c #C0C081",
"RD 	c #B1B078",
"SD 	c #808537",
"TD 	c #CCCD7A",
"UD 	c #F3F49C",
"VD 	c #AEAE77",
"WD 	c #AFB363",
"XD 	c #B7B970",
"YD 	c #BCBF6A",
"ZD 	c #B4B474",
"`D 	c #BABB7B",
" E 	c #8B8D4D",
".E 	c #71762E",
"+E 	c #D2D778",
"@E 	c #E8EB86",
"#E 	c #909254",
"$E 	c #777D30",
"%E 	c #6D6E4F",
"&E 	c #565839",
"*E 	c #6E7047",
"=E 	c #8B904A",
"-E 	c #C5C482",
";E 	c #ECF08F",
">E 	c #5F613B",
",E 	c #808155",
"'E 	c #E4E491",
")E 	c #353819",
"!E 	c #A2A35E",
"~E 	c #92954F",
"{E 	c #42461C",
"]E 	c #BABE69",
"^E 	c #ECEF8F",
"/E 	c #F6F898",
"(E 	c #2A2B12",
"_E 	c #F4F2B0",
":E 	c #A6AB55",
"<E 	c #33341D",
"[E 	c #27290F",
"}E 	c #53542D",
"|E 	c #717148",
"1E 	c #55562E",
"2E 	c #FFFEAE",
"3E 	c #B2B561",
"4E 	c #7E7F55",
"5E 	c #C4C483",
"6E 	c #8F924E",
"7E 	c #E6E699",
"8E 	c #E4E29F",
"9E 	c #D4D685",
"0E 	c #A6A85E",
"aE 	c #DBDC8A",
"bE 	c #D7D882",
"cE 	c #9C9E5E",
"dE 	c #232419",
"eE 	c #6C6D50",
"fE 	c #26261F",
"gE 	c #61633E",
"hE 	c #969762",
"iE 	c #BABF5F",
"jE 	c #A4A756",
"kE 	c #E9EC8F",
"lE 	c #7F8339",
"mE 	c #9FA25A",
"nE 	c #DFE095",
"oE 	c #4B4C28",
"pE 	c #999961",
"qE 	c #5E5E40",
"rE 	c #2A2C15",
"sE 	c #767648",
"tE 	c #EBEE8E",
"uE 	c #E2E685",
"vE 	c #A1A45F",
"wE 	c #828447",
"xE 	c #B2B36A",
"yE 	c #9EA256",
"zE 	c #C4C776",
"AE 	c #767655",
"BE 	c #A9AB61",
"CE 	c #C4C287",
"DE 	c #7A7B60",
"EE 	c #C6C878",
"FE 	c #30331C",
"GE 	c #BCBD72",
"HE 	c #CACE72",
"IE 	c #E2E29B",
"JE 	c #C4C67B",
"KE 	c #D7D88B",
"LE 	c #70733E",
"ME 	c #757659",
"NE 	c #505234",
"OE 	c #060704",
"PE 	c #9CA056",
"QE 	c #DCDC86",
"RE 	c #F5F796",
"SE 	c #686D2B",
"TE 	c #20220E",
"UE 	c #888A49",
"VE 	c #E0DE98",
"WE 	c #3E3F2A",
"XE 	c #31321E",
"YE 	c #494B1D",
"ZE 	c #D8DE73",
"`E 	c #BABD6E",
" F 	c #0A0A05",
".F 	c #818351",
"+F 	c #D8DB87",
"@F 	c #E3E395",
"#F 	c #232313",
"$F 	c #AEAE76",
"%F 	c #93945C",
"&F 	c #C8C691",
"*F 	c #585C23",
"=F 	c #B5B96A",
"-F 	c #C1C083",
";F 	c #6A6D3D",
">F 	c #9E9F5C",
",F 	c #BBBF67",
"'F 	c #BABD70",
")F 	c #48492D",
"!F 	c #26280F",
"~F 	c #595C2B",
"{F 	c #90915B",
"]F 	c #505425",
"^F 	c #92925F",
"/F 	c #73753E",
"(F 	c #757745",
"_F 	c #62662B",
":F 	c #7A7954",
"<F 	c #B1B179",
"[F 	c #999A5B",
"}F 	c #CECC92",
"|F 	c #646447",
"1F 	c #707241",
"2F 	c #222310",
"3F 	c #A9A970",
"4F 	c #B4B95C",
"5F 	c #373828",
"6F 	c #7D7C59",
"7F 	c #B9BA74",
"8F 	c #A9AC65",
"9F 	c #DDE086",
"0F 	c #FBFFA0",
"aF 	c #6D6E39",
"bF 	c #090B05",
"cF 	c #66683A",
"dF 	c #212213",
"eF 	c #6B6F36",
"fF 	c #474833",
"gF 	c #777A45",
"hF 	c #C8C689",
"iF 	c #0A0A04",
"jF 	c #606236",
"kF 	c #525336",
"lF 	c #5B5C33",
"mF 	c #727247",
"nF 	c #5C5E37",
"oF 	c #868853",
"pF 	c #4C4F22",
"qF 	c #B6B773",
"rF 	c #E6E696",
"sF 	c #8D8E5D",
"tF 	c #C0C17C",
"uF 	c #BABC6C",
"vF 	c #727732",
"wF 	c #9EA15A",
"xF 	c #BFC665",
"yF 	c #6D7039",
"zF 	c #80814D",
"AF 	c #666935",
"BF 	c #999964",
"CF 	c #919450",
"DF 	c #838648",
"EF 	c #474829",
"FF 	c #595D27",
"GF 	c #848451",
"HF 	c #82815B",
"IF 	c #7F804D",
"JF 	c #989866",
"KF 	c #797D3E",
"LF 	c #484731",
"MF 	c #59593A",
"NF 	c #AAAB6D",
"OF 	c #797D3B",
"PF 	c #B5B86A",
"QF 	c #77784C",
"RF 	c #9C9C61",
"SF 	c #EDEF8C",
"TF 	c #EFF08F",
"UF 	c #686D2C",
"VF 	c #8B8E48",
"WF 	c #6E6E4D",
"XF 	c #3E3F21",
"YF 	c #22230D",
"ZF 	c #48482C",
"`F 	c #515137",
" G 	c #4C4C2D",
".G 	c #7B7B57",
"+G 	c #646348",
"@G 	c #53552F",
"#G 	c #252417",
"$G 	c #6E7046",
"%G 	c #1B1C13",
"&G 	c #86885F",
"*G 	c #3C3C33",
"=G 	c #6C6D48",
"-G 	c #72734D",
";G 	c #CBCE7B",
">G 	c #6F7045",
",G 	c #2F3022",
"'G 	c #4E4E33",
")G 	c #2F3119",
"!G 	c #46482A",
"~G 	c #30311A",
"{G 	c #383724",
"]G 	c #0F1006",
"^G 	c #4F512F",
"/G 	c #1F2015",
"(G 	c #393A1F",
"_G 	c #4B4A31",
":G 	c #3F4025",
"<G 	c #515133",
"[G 	c #393B1C",
"}G 	c #7C7E40",
"|G 	c #7A7D3F",
"1G 	c #949751",
"2G 	c #7E8236",
"3G 	c #B9BB67",
"4G 	c #D4D682",
"5G 	c #868569",
"6G 	c #5A5D3A",
"7G 	c #DADB8B",
"8G 	c #7C7F48",
"9G 	c #585837",
"0G 	c #393925",
"aG 	c #191B0D",
"bG 	c #2B2C14",
"cG 	c #3B3C23",
"dG 	c #5A5A3B",
"eG 	c #454527",
"fG 	c #2A2B14",
"gG 	c #36361F",
"hG 	c #3C3C24",
"iG 	c #4D4F2C",
"jG 	c #3E3F26",
"kG 	c #0D0E08",
"lG 	c #3E3F29",
"mG 	c #272917",
"nG 	c #5C5D46",
"oG 	c #D6DD6E",
"pG 	c #787B49",
"qG 	c #B8B873",
"rG 	c #DCDE89",
"sG 	c #9EA25A",
"tG 	c #8B8D4E",
"uG 	c #CAC98B",
"vG 	c #C1BF86",
"wG 	c #4D4E2E",
"xG 	c #262812",
"yG 	c #32321E",
"zG 	c #2A2B1A",
"AG 	c #34351F",
"BG 	c #2F301B",
"CG 	c #58583E",
"DG 	c #111307",
"EG 	c #323416",
"FG 	c #A0A361",
"GG 	c #989A56",
"HG 	c #898A55",
"IG 	c #ACAC73",
"JG 	c #6C6C4B",
"KG 	c #97994F",
"LG 	c #FBFF99",
"MG 	c #5C5E3D",
"NG 	c #505423",
"OG 	c #48472B",
"PG 	c #62633F",
"QG 	c #333422",
"RG 	c #2B2C15",
"SG 	c #242417",
"TG 	c #3A3C1B",
"UG 	c #191A11",
"VG 	c #262614",
"WG 	c #292A15",
"XG 	c #5B5B3D",
"YG 	c #444620",
"ZG 	c #92935F",
"`G 	c #7C7D4C",
" H 	c #C2C573",
".H 	c #E4E58E",
"+H 	c #EDEBA4",
"@H 	c #BFC178",
"#H 	c #A1A55B",
"$H 	c #ABAE66",
"%H 	c #9B9E54",
"&H 	c #73773A",
"*H 	c #B8BC6B",
"=H 	c #9B9D64",
"-H 	c #A1A459",
";H 	c #292B18",
">H 	c #2F301A",
",H 	c #44442E",
"'H 	c #2E2E18",
")H 	c #4B4A32",
"!H 	c #404028",
"~H 	c #37361E",
"{H 	c #47472D",
"]H 	c #2F2E1B",
"^H 	c #34341F",
"/H 	c #6A6B45",
"(H 	c #181A0C",
"_H 	c #4D4D36",
":H 	c #71714E",
"<H 	c #191B0F",
"[H 	c #4F4F33",
"}H 	c #57573A",
"|H 	c #414124",
"1H 	c #A1A364",
"2H 	c #FAFAA2",
"3H 	c #787D3F",
"4H 	c #AFB35F",
"5H 	c #ABB549",
"6H 	c #E7E896",
"7H 	c #AEB160",
"8H 	c #4C5020",
"9H 	c #D9DD78",
"0H 	c #767849",
"aH 	c #71734C",
"bH 	c #D6D880",
"cH 	c #C0C176",
"dH 	c #FCFD9F",
"eH 	c #B9BE60",
"fH 	c #8A8A5F",
"gH 	c #292C1C",
"hH 	c #323D2E",
"iH 	c #222A1F",
"jH 	c #2B2D1D",
"kH 	c #2F2F1C",
"lH 	c #919157",
"mH 	c #F0F09D",
"nH 	c #888C49",
"oH 	c #A5A480",
"pH 	c #787A4D",
"qH 	c #ABAF58",
"rH 	c #95955E",
"sH 	c #666A2C",
"tH 	c #595B30",
"uH 	c #7F7F4D",
"vH 	c #898F37",
"wH 	c #D1D477",
"xH 	c #D2D487",
"yH 	c #F1F491",
"zH 	c #606239",
"AH 	c #636437",
"BH 	c #1A1A0C",
"CH 	c #15190F",
"DH 	c #262F22",
"EH 	c #232B21",
"FH 	c #383821",
"GH 	c #B0B170",
"HH 	c #BABD69",
"IH 	c #A0A942",
"JH 	c #D5D87B",
"KH 	c #8E904D",
"LH 	c #868A42",
"MH 	c #1D1D0C",
"NH 	c #343514",
"OH 	c #121208",
"PH 	c #EDF18A",
"QH 	c #C9CC73",
"RH 	c #4E4F36",
"SH 	c #6C6A4A",
"TH 	c #050705",
"UH 	c #171D13",
"VH 	c #192119",
"WH 	c #2C3324",
"XH 	c #383C23",
"YH 	c #414128",
"ZH 	c #454628",
"`H 	c #9E9E67",
" I 	c #FEFCAE",
".I 	c #777C31",
"+I 	c #B1B55F",
"@I 	c #BABE63",
"#I 	c #949946",
"$I 	c #C2C37D",
"%I 	c #CDD079",
"&I 	c #C0BF7F",
"*I 	c #AEB06B",
"=I 	c #C4C770",
"-I 	c #626346",
";I 	c #AAAC6D",
">I 	c #444725",
",I 	c #696945",
"'I 	c #AEAF64",
")I 	c #83855E",
"!I 	c #D3D383",
"~I 	c #BDBF6F",
"{I 	c #363716",
"]I 	c #6C6D40",
"^I 	c #FCFF99",
"/I 	c #373830",
"(I 	c #A4A85C",
"_I 	c #DCE36D",
":I 	c #0C130F",
"<I 	c #242E23",
"[I 	c #3E4233",
"}I 	c #70713F",
"|I 	c #DEDE98",
"1I 	c #797968",
"2I 	c #A4A75F",
"3I 	c #BCBF70",
"4I 	c #CFD180",
"5I 	c #D9DA8F",
"6I 	c #676A34",
"7I 	c #E0DF9C",
"8I 	c #6F6F47",
"9I 	c #F8F5AA",
"0I 	c #A1A35A",
"aI 	c #C9C982",
"bI 	c #6B702D",
"cI 	c #FDFF9D",
"dI 	c #C9CB74",
"eI 	c #20291F",
"fI 	c #73744B",
"gI 	c #252712",
"hI 	c #BABA74",
"iI 	c #CFD17D",
"jI 	c #E1E193",
"kI 	c #A9AC63",
"lI 	c #9C9C63",
"mI 	c #7D7E4A",
"nI 	c #B1B26F",
"oI 	c #666742",
"pI 	c #C9C88E",
"qI 	c #0F1710",
"rI 	c #1D271D",
"sI 	c #7F8150",
"tI 	c #BBBD70",
"uI 	c #6B6E39",
"vI 	c #D1D18A",
"wI 	c #C2C185",
"xI 	c #A7A66E",
"yI 	c #444723",
"zI 	c #9B9F52",
"AI 	c #9DA15A",
"BI 	c #E5E97F",
"CI 	c #767854",
"DI 	c #CBCD7F",
"EI 	c #E5E68B",
"FI 	c #919163",
"GI 	c #161F18",
"HI 	c #182118",
"II 	c #1C251B",
"JI 	c #202B1F",
"KI 	c #908F65",
"LI 	c #B3B280",
"MI 	c #959B44",
"NI 	c #BABC6A",
"OI 	c #C9CA7F",
"PI 	c #BCC163",
"QI 	c #5F622E",
"RI 	c #777A3F",
"SI 	c #191911",
"TI 	c #252514",
"UI 	c #717144",
"VI 	c #676C29",
"WI 	c #ACAC6F",
"XI 	c #B7BA6C",
"YI 	c #A0A64E",
"ZI 	c #7D8331",
"`I 	c #1A1F15",
" J 	c #0F1812",
".J 	c #111811",
"+J 	c #303725",
"@J 	c #959570",
"#J 	c #1D1E0D",
"$J 	c #1B1B0F",
"%J 	c #818446",
"&J 	c #9B9C65",
"*J 	c #86884C",
"=J 	c #81843F",
"-J 	c #787949",
";J 	c #66683D",
">J 	c #292B10",
",J 	c #6E7040",
"'J 	c #B7B86B",
")J 	c #D6D887",
"!J 	c #D4D780",
"~J 	c #D2D777",
"{J 	c #292D1E",
"]J 	c #C6C777",
"^J 	c #A7A868",
"/J 	c #C8C697",
"(J 	c #626044",
"_J 	c #929459",
":J 	c #BBBA82",
"<J 	c #878950",
"[J 	c #A4A765",
"}J 	c #CDCD84",
"|J 	c #7E8244",
"1J 	c #C4CA66",
"2J 	c #FBFE97",
"3J 	c #E3E48C",
"4J 	c #1D2316",
"5J 	c #111A12",
"6J 	c #383B18",
"7J 	c #7C7C50",
"8J 	c #565A26",
"9J 	c #636728",
"0J 	c #727358",
"aJ 	c #9D9E62",
"bJ 	c #56583D",
"cJ 	c #535334",
"dJ 	c #696B3B",
"eJ 	c #6B6D40",
"fJ 	c #EEECA6",
"gJ 	c #97966C",
"hJ 	c #E0DE9C",
"iJ 	c #9FA15B",
"jJ 	c #B6B964",
"kJ 	c #939464",
"lJ 	c #151E17",
"mJ 	c #919351",
"nJ 	c #F1F597",
"oJ 	c #747645",
"pJ 	c #5F5F37",
"qJ 	c #787A44",
"rJ 	c #696B44",
"sJ 	c #9FA15E",
"tJ 	c #ACAD66",
"uJ 	c #CBCB83",
"vJ 	c #AEAF70",
"wJ 	c #444526",
"xJ 	c #9E9C6F",
"yJ 	c #1B1B12",
"zJ 	c #494A36",
"AJ 	c #C3C185",
"BJ 	c #8A8F41",
"CJ 	c #B3B46C",
"DJ 	c #101610",
"EJ 	c #AAAC68",
"FJ 	c #949666",
"GJ 	c #343616",
"HJ 	c #989765",
"IJ 	c #323417",
"JJ 	c #AFB06A",
"KJ 	c #979667",
"LJ 	c #4F5127",
"MJ 	c #797C44",
"NJ 	c #9FA060",
"OJ 	c #878B47",
"PJ 	c #C0BF7E",
"QJ 	c #FAFD94",
"RJ 	c #11110C",
"SJ 	c #A3A55A",
"TJ 	c #575A35",
"UJ 	c #F1EEAA",
"VJ 	c #D0D287",
"WJ 	c #666835",
"XJ 	c #6A6B4D",
"YJ 	c #CDCD89",
"ZJ 	c #77774B",
"`J 	c #D2D38B",
" K 	c #B1B172",
".K 	c #DAD98C",
"+K 	c #535722",
"@K 	c #323518",
"#K 	c #6C6B49",
"$K 	c #9B9A63",
"%K 	c #EDECA1",
"&K 	c #B3B273",
"*K 	c #0C0D06",
"=K 	c #25260F",
"-K 	c #767944",
";K 	c #787A46",
">K 	c #36372B",
",K 	c #6E7236",
"'K 	c #4D4D32",
")K 	c #999B4F",
"!K 	c #DCDD8A",
"~K 	c #777A3E",
"{K 	c #4E4F29",
"]K 	c #AAAA6E",
"^K 	c #484B1D",
"/K 	c #9DA056",
"(K 	c #C2C18E",
"_K 	c #45472A",
":K 	c #545434",
"<K 	c #939165",
"[K 	c #8E8D60",
"}K 	c #676745",
"|K 	c #7C7E43",
"1K 	c #CFCE8A",
"2K 	c #797F32",
"3K 	c #C9CD70",
"4K 	c #999E4D",
"5K 	c #999B64",
"6K 	c #525430",
"7K 	c #4A4B34",
"8K 	c #0A0D07",
"9K 	c #5E612D",
"0K 	c #14160A",
"aK 	c #B0B06F",
"bK 	c #D1D47C",
"cK 	c #7F8155",
"dK 	c #888855",
"eK 	c #5F603B",
"fK 	c #6A6C41",
"gK 	c #767647",
"hK 	c #6B6A47",
"iK 	c #474922",
"jK 	c #F7F99A",
"kK 	c #A4A75A",
"lK 	c #3C4019",
"mK 	c #D0D282",
"nK 	c #CFD27E",
"oK 	c #3D3F2A",
"pK 	c #A9A776",
"qK 	c #979760",
"rK 	c #8D8F5A",
"sK 	c #47492F",
"tK 	c #9B9B6B",
"uK 	c #878854",
"vK 	c #2D2E1F",
"wK 	c #151508",
"xK 	c #3C3D21",
"yK 	c #696B40",
"zK 	c #686840",
"AK 	c #818447",
"BK 	c #F9F7AB",
"CK 	c #606231",
"DK 	c #050402",
"EK 	c #7A7D45",
"FK 	c #C4C771",
"GK 	c #DFDE93",
"HK 	c #C0C374",
"IK 	c #BFBF7C",
"JK 	c #E6E68E",
"KK 	c #656739",
"LK 	c #2E2E1F",
"MK 	c #464631",
"NK 	c #575835",
"OK 	c #858658",
"PK 	c #AAAC62",
"QK 	c #414228",
"RK 	c #BDBF6C",
"SK 	c #1E2111",
"TK 	c #6A6A46",
"UK 	c #44432C",
"VK 	c #BEBE80",
"WK 	c #C2C765",
"XK 	c #8F9345",
"YK 	c #E9EB8F",
"ZK 	c #E2E38B",
"`K 	c #91925D",
" L 	c #AFAF79",
".L 	c #707047",
"+L 	c #646347",
"@L 	c #373820",
"#L 	c #545436",
"$L 	c #A5A372",
"%L 	c #A9AA61",
"&L 	c #8D9148",
"*L 	c #A7AD47",
"=L 	c #505038",
"-L 	c #ADAB75",
";L 	c #A9AA6B",
">L 	c #ECEB9E",
",L 	c #C5C67C",
"'L 	c #C6C96D",
")L 	c #5D5E3B",
"!L 	c #31321D",
"~L 	c #5B5D2D",
"{L 	c #73724C",
"]L 	c #52552D",
"^L 	c #676742",
"/L 	c #565836",
"(L 	c #17180E",
"_L 	c #E7E5A1",
":L 	c #C0C467",
"<L 	c #777E31",
"[L 	c #ABAB77",
"}L 	c #DCDD8E",
"|L 	c #E7E894",
"1L 	c #EDED9B",
"2L 	c #505321",
"3L 	c #A6A675",
"4L 	c #D4D48D",
"5L 	c #888957",
"6L 	c #292C10",
"7L 	c #3A3C1D",
"8L 	c #171711",
"9L 	c #4F4F2F",
"0L 	c #7A7F35",
"aL 	c #E4E49B",
"bL 	c #F0F789",
"cL 	c #7D7F52",
"dL 	c #A8AC5D",
"eL 	c #D2D579",
"fL 	c #565735",
"gL 	c #82854D",
"hL 	c #61643F",
"iL 	c #686C32",
"jL 	c #C8C97F",
"kL 	c #BFC077",
"lL 	c #6A6C49",
"mL 	c #DCDF89",
"nL 	c #9D9F5D",
"oL 	c #AFB16C",
"pL 	c #9E9D6D",
"qL 	c #424328",
"rL 	c #D5D684",
"sL 	c #C8CA79",
"tL 	c #BABC71",
"uL 	c #9EA349",
"vL 	c #68684A",
"wL 	c #EFEDA2",
"xL 	c #4E5027",
"yL 	c #70723D",
"zL 	c #2A2B11",
"AL 	c #B7B86E",
"BL 	c #F8F99F",
"CL 	c #7F8536",
"DL 	c #646542",
"EL 	c #575A2A",
"FL 	c #67683B",
"GL 	c #252714",
"HL 	c #444430",
"IL 	c #35371B",
"JL 	c #565637",
"KL 	c #5B5A3F",
"LL 	c #5C5C3E",
"ML 	c #42451A",
"NL 	c #A4A660",
"OL 	c #45472D",
"PL 	c #444820",
"QL 	c #9A9B70",
"RL 	c #D7D496",
"SL 	c #898B4C",
"TL 	c #A6A66E",
"UL 	c #5F6236",
"VL 	c #A2A558",
"WL 	c #72772E",
"XL 	c #AFAF78",
"YL 	c #7B7E3B",
"ZL 	c #D2D18F",
"`L 	c #B3B570",
" M 	c #242614",
".M 	c #3B3E28",
"+M 	c #4F4E35",
"@M 	c #242518",
"#M 	c #88875F",
"$M 	c #434620",
"%M 	c #9B9E58",
"&M 	c #828643",
"*M 	c #A1A26A",
"=M 	c #81835E",
"-M 	c #EEF091",
";M 	c #EFF28F",
">M 	c #E6E792",
",M 	c #555735",
"'M 	c #82854C",
")M 	c #989B52",
"!M 	c #8E9152",
"~M 	c #959657",
"{M 	c #D7D889",
"]M 	c #828457",
"^M 	c #CDCC8C",
"/M 	c #B5B37F",
"(M 	c #151810",
"_M 	c #0C100C",
":M 	c #46462A",
"<M 	c #555633",
"[M 	c #53543B",
"}M 	c #5C5F31",
"|M 	c #888953",
"1M 	c #9A9B60",
"2M 	c #F9FE93",
"3M 	c #6E713C",
"4M 	c #AAAC67",
"5M 	c #A2A269",
"6M 	c #B1B26B",
"7M 	c #CED083",
"8M 	c #E2E48B",
"9M 	c #E7E897",
"0M 	c #696941",
"aM 	c #5A5A39",
"bM 	c #747546",
"cM 	c #717442",
"dM 	c #9F9F62",
"eM 	c #BEC079",
"fM 	c #CACF6F",
"gM 	c #C8C97B",
"hM 	c #373A26",
"iM 	c #60623C",
"jM 	c #5C6028",
"kM 	c #EDF094",
"lM 	c #808344",
"mM 	c #8C933D",
"nM 	c #4C4D2C",
"oM 	c #717243",
"pM 	c #55563E",
"qM 	c #757838",
"rM 	c #B4B379",
"sM 	c #CBCA8D",
"tM 	c #989863",
"uM 	c #171A13",
"vM 	c #171D11",
"wM 	c #636344",
"xM 	c #474929",
"yM 	c #2E2F1D",
"zM 	c #7C7C54",
"AM 	c #7D7E61",
"BM 	c #C1C17B",
"CM 	c #FFFF96",
"DM 	c #88895F",
"EM 	c #656734",
"FM 	c #8F9153",
"GM 	c #494D1E",
"HM 	c #A9AE52",
"IM 	c #BCBB89",
"JM 	c #353A22",
"KM 	c #2E2F28",
"LM 	c #838551",
"MM 	c #707141",
"NM 	c #999E4F",
"OM 	c #C9CB7B",
"PM 	c #DEDC99",
"QM 	c #1E200D",
"RM 	c #737348",
"SM 	c #161910",
"TM 	c #42432B",
"UM 	c #63633C",
"VM 	c #D8DB85",
"WM 	c #62672A",
"XM 	c #E0E288",
"YM 	c #E6E695",
"ZM 	c #B7BD5D",
"`M 	c #6B6C4F",
" N 	c #43471D",
".N 	c #CDCF78",
"+N 	c #B1B467",
"@N 	c #C2C37C",
"#N 	c #6E6E3F",
"$N 	c #707247",
"%N 	c #6C6E3F",
"&N 	c #272919",
"*N 	c #0D0E05",
"=N 	c #424325",
"-N 	c #565835",
";N 	c #939754",
">N 	c #F2F3A1",
",N 	c #717255",
"'N 	c #949652",
")N 	c #EAEA96",
"!N 	c #929359",
"~N 	c #727359",
"{N 	c #C6C587",
"]N 	c #42441E",
"^N 	c #75764B",
"/N 	c #AEB25C",
"(N 	c #F1F689",
"_N 	c #A6A860",
":N 	c #2A2C14",
"<N 	c #A7A965",
"[N 	c #6F6F45",
"}N 	c #90905A",
"|N 	c #6C6D3E",
"1N 	c #686A3F",
"2N 	c #85855B",
"3N 	c #0C140D",
"4N 	c #171E14",
"5N 	c #3B3A26",
"6N 	c #616142",
"7N 	c #6B6D41",
"8N 	c #343815",
"9N 	c #B1B65A",
"0N 	c #858847",
"aN 	c #E8E894",
"bN 	c #7E8433",
"cN 	c #F0F297",
"dN 	c #2D2D19",
"eN 	c #767850",
"fN 	c #848843",
"gN 	c #36381E",
"hN 	c #E8EA8D",
"iN 	c #9BA051",
"jN 	c #717342",
"kN 	c #B9BC74",
"lN 	c #303222",
"mN 	c #888859",
"nN 	c #1E2113",
"oN 	c #242515",
"pN 	c #8E8F57",
"qN 	c #DDE084",
"rN 	c #727730",
"sN 	c #F1F299",
"tN 	c #A9AA6E",
"uN 	c #EAE99A",
"vN 	c #848748",
"wN 	c #D5D396",
"xN 	c #84864A",
"yN 	c #8F8E64",
"zN 	c #BABE6B",
"AN 	c #D3D77D",
"BN 	c #D1D095",
"CN 	c #E9E999",
"DN 	c #D7D693",
"EN 	c #E0DF97",
"FN 	c #929553",
"GN 	c #939554",
"HN 	c #4C4D3B",
"IN 	c #383927",
"JN 	c #0E1611",
"KN 	c #0F160F",
"LN 	c #616140",
"MN 	c #4A4C31",
"NN 	c #C1C088",
"ON 	c #ACAE66",
"PN 	c #7B8131",
"QN 	c #DDE17F",
"RN 	c #969950",
"SN 	c #A6AA59",
"TN 	c #5A5E2F",
"UN 	c #A9A96F",
"VN 	c #D2D670",
"WN 	c #CCCC8B",
"XN 	c #AEAF68",
"YN 	c #545536",
"ZN 	c #757748",
"`N 	c #848359",
" O 	c #141B12",
".O 	c #0E140F",
"+O 	c #151B13",
"@O 	c #202113",
"#O 	c #43442C",
"$O 	c #676747",
"%O 	c #131308",
"&O 	c #A3A852",
"*O 	c #A4A666",
"=O 	c #848743",
"-O 	c #CACA95",
";O 	c #6C6E4F",
">O 	c #F5F5A2",
",O 	c #2A2A18",
"'O 	c #B6B86C",
")O 	c #45463A",
"!O 	c #D4D584",
"~O 	c #FFFF91",
"{O 	c #212214",
"]O 	c #AFB071",
"^O 	c #1A1C0E",
"/O 	c #060705",
"(O 	c #373A1F",
"_O 	c #3F3F25",
":O 	c #65673E",
"<O 	c #D9DA92",
"[O 	c #44481C",
"}O 	c #6F7336",
"|O 	c #AFAF6E",
"1O 	c #535621",
"2O 	c #686B34",
"3O 	c #74763F",
"4O 	c #6B6F31",
"5O 	c #2D3013",
"6O 	c #BABD6D",
"7O 	c #6C6D59",
"8O 	c #888B52",
"9O 	c #87884C",
"0O 	c #7F8243",
"aO 	c #252916",
"bO 	c #141E16",
"cO 	c #151F16",
"dO 	c #373720",
"eO 	c #56563D",
"fO 	c #B6B47F",
"gO 	c #69693C",
"hO 	c #0A0A07",
"iO 	c #343420",
"jO 	c #737641",
"kO 	c #C7C687",
"lO 	c #61613F",
"mO 	c #E1E289",
"nO 	c #B1B45E",
"oO 	c #5B5F26",
"pO 	c #BEC267",
"qO 	c #919159",
"rO 	c #67673C",
"sO 	c #9A9E53",
"tO 	c #393C18",
"uO 	c #535436",
"vO 	c #585A34",
"wO 	c #21281D",
"xO 	c #18231A",
"yO 	c #0F1611",
"zO 	c #181F15",
"AO 	c #292B15",
"BO 	c #525237",
"CO 	c #585933",
"DO 	c #696B3D",
"EO 	c #9B9D5B",
"FO 	c #56592D",
"GO 	c #5D603E",
"HO 	c #DADA8B",
"IO 	c #979D48",
"JO 	c #797D43",
"KO 	c #80825A",
"LO 	c #97995D",
"MO 	c #F2F29E",
"NO 	c #BBC060",
"OO 	c #101006",
"PO 	c #14140C",
"QO 	c #181B12",
"RO 	c #373622",
"SO 	c #F9F7AE",
"TO 	c #87894F",
"UO 	c #707435",
"VO 	c #91935A",
"WO 	c #606243",
"XO 	c #888B4C",
"YO 	c #F3F2A4",
"ZO 	c #F1F0AB",
"`O 	c #60632B",
" P 	c #35362B",
".P 	c #1C1E0E",
"+P 	c #606043",
"@P 	c #323528",
"#P 	c #151C16",
"$P 	c #253025",
"%P 	c #1E291E",
"&P 	c #5E5D3D",
"*P 	c #5A5A36",
"=P 	c #A7AA5C",
"-P 	c #7D7E50",
";P 	c #93945A",
">P 	c #747935",
",P 	c #B3B38F",
"'P 	c #979A58",
")P 	c #FBFD9A",
"!P 	c #727832",
"~P 	c #545530",
"{P 	c #B9B975",
"]P 	c #4B4B2E",
"^P 	c #DAD993",
"/P 	c #676C2A",
"(P 	c #ACAE68",
"_P 	c #72724F",
":P 	c #585934",
"<P 	c #283124",
"[P 	c #273427",
"}P 	c #212D21",
"|P 	c #232F22",
"1P 	c #263326",
"2P 	c #1C261C",
"3P 	c #182018",
"4P 	c #2B2B19",
"5P 	c #252616",
"6P 	c #B9B87C",
"7P 	c #47462F",
"8P 	c #A9AA6F",
"9P 	c #FFFF97",
"0P 	c #3E4027",
"aP 	c #CBCE79",
"bP 	c #8E9056",
"cP 	c #45491C",
"dP 	c #929261",
"eP 	c #212B20",
"fP 	c #212C22",
"gP 	c #1D281E",
"hP 	c #27291B",
"iP 	c #444622",
"jP 	c #8E8F58",
"kP 	c #92935D",
"lP 	c #D2D57B",
"mP 	c #DDDF84",
"nP 	c #8B8E4A",
"oP 	c #87894C",
"pP 	c #878B4A",
"qP 	c #7D803C",
"rP 	c #9EA160",
"sP 	c #41452A",
"tP 	c #1E271E",
"uP 	c #232F24",
"vP 	c #293427",
"wP 	c #283427",
"xP 	c #3E4024",
"yP 	c #494C26",
"zP 	c #343528",
"AP 	c #4A4C33",
"BP 	c #C1C469",
"CP 	c #9A9C59",
"DP 	c #C7C883",
"EP 	c #B7B677",
"FP 	c #B7B870",
"GP 	c #A4A854",
"HP 	c #14150A",
"IP 	c #979A51",
"JP 	c #A4A469",
"KP 	c #8E8F53",
"LP 	c #63643E",
"MP 	c #9C9D65",
"NP 	c #293424",
"OP 	c #313F2F",
"PP 	c #2A382A",
"QP 	c #2A3629",
"RP 	c #324131",
"SP 	c #202B20",
"TP 	c #19221A",
"UP 	c #111911",
"VP 	c #2B2B1B",
"WP 	c #4C4D2F",
"XP 	c #313313",
"YP 	c #4A4C25",
"ZP 	c #5D6025",
"`P 	c #1F200E",
" Q 	c #E9E99A",
".Q 	c #C3C867",
"+Q 	c #5F622F",
"@Q 	c #A4A561",
"#Q 	c #D0D17F",
"$Q 	c #DFE191",
"%Q 	c #75793C",
"&Q 	c #414325",
"*Q 	c #283528",
"=Q 	c #263024",
"-Q 	c #2B392B",
";Q 	c #293529",
">Q 	c #1D271E",
",Q 	c #202414",
"'Q 	c #565734",
")Q 	c #AEAE71",
"!Q 	c #9FA841",
"~Q 	c #CCCB92",
"{Q 	c #AAAC6E",
"]Q 	c #9A9A60",
"^Q 	c #8C8F50",
"/Q 	c #8B8C58",
"(Q 	c #45482D",
"_Q 	c #263126",
":Q 	c #2B3729",
"<Q 	c #2A3628",
"[Q 	c #324030",
"}Q 	c #283326",
"|Q 	c #2D3A2C",
"1Q 	c #84835B",
"2Q 	c #848458",
"3Q 	c #070603",
"4Q 	c #343529",
"5Q 	c #CECF79",
"6Q 	c #73782E",
"7Q 	c #959B43",
"8Q 	c #F7FB8C",
"9Q 	c #CCCD84",
"0Q 	c #9D9D65",
"aQ 	c #303928",
"bQ 	c #374635",
"cQ 	c #2B3629",
"dQ 	c #324031",
"eQ 	c #2E3A2C",
"fQ 	c #2B382B",
"gQ 	c #344232",
"hQ 	c #2D392C",
"iQ 	c #2C392C",
"jQ 	c #0D110D",
"kQ 	c #2E2E21",
"lQ 	c #37391B",
"mQ 	c #818057",
"nQ 	c #6D712C",
"oQ 	c #C8C980",
"pQ 	c #17180B",
"qQ 	c #A2A37B",
"rQ 	c #878A4E",
"sQ 	c #A7A765",
"tQ 	c #7E8045",
"uQ 	c #979860",
"vQ 	c #9FA160",
"wQ 	c #1E2012",
"xQ 	c #3F4024",
"yQ 	c #273126",
"zQ 	c #2E3B2D",
"AQ 	c #303D2F",
"BQ 	c #273125",
"CQ 	c #202213",
"DQ 	c #212211",
"EQ 	c #5E5E3C",
"FQ 	c #6C6D43",
"GQ 	c #464738",
"HQ 	c #E1E581",
"IQ 	c #CFD085",
"JQ 	c #A4A564",
"KQ 	c #575C24",
"LQ 	c #88894E",
"MQ 	c #707045",
"NQ 	c #B5B47C",
"OQ 	c #9A9B61",
"PQ 	c #373B1C",
"QQ 	c #2B372A",
"RQ 	c #313F30",
"SQ 	c #2F3B2D",
"TQ 	c #2C392B",
"UQ 	c #121812",
"VQ 	c #43451A",
"WQ 	c #706F49",
"XQ 	c #7B7F3E",
"YQ 	c #DADD83",
"ZQ 	c #E6EA84",
"`Q 	c #C2C66A",
" R 	c #C8C880",
".R 	c #44481B",
"+R 	c #A7AC59",
"@R 	c #A7A577",
"#R 	c #71733D",
"$R 	c #B4B476",
"%R 	c #505438",
"&R 	c #334131",
"*R 	c #334231",
"=R 	c #2A3528",
"-R 	c #2D3A2B",
";R 	c #2F3D2E",
">R 	c #131710",
",R 	c #37391D",
"'R 	c #6C6C46",
")R 	c #1E1E17",
"!R 	c #020101",
"~R 	c #696C3E",
"{R 	c #AFB164",
"]R 	c #F0EF9C",
"^R 	c #DFDEA2",
"/R 	c #D3D678",
"(R 	c #81814E",
"_R 	c #787942",
":R 	c #BDBD77",
"<R 	c #434429",
"[R 	c #878756",
"}R 	c #7F7E51",
"|R 	c #6C6E3D",
"1R 	c #232C21",
"2R 	c #334232",
"3R 	c #303D2E",
"4R 	c #303E2F",
"5R 	c #1A1B0E",
"6R 	c #A0A06D",
"7R 	c #B7BA66",
"8R 	c #7E8338",
"9R 	c #9EA15B",
"0R 	c #A8AB65",
"aR 	c #E3E58E",
"bR 	c #515425",
"cR 	c #656839",
"dR 	c #57592E",
"eR 	c #ACAC75",
"fR 	c #9A9966",
"gR 	c #232E22",
"hR 	c #354433",
"iR 	c #2B362A",
"jR 	c #364736",
"kR 	c #212C20",
"lR 	c #4A4C27",
"mR 	c #989A5E",
"nR 	c #A4A567",
"oR 	c #62662D",
"pR 	c #EBEC97",
"qR 	c #FCFCA7",
"rR 	c #BBBA7D",
"sR 	c #D3D585",
"tR 	c #75793A",
"uR 	c #ACAE62",
"vR 	c #83864A",
"wR 	c #DDDC94",
"xR 	c #EAED90",
"yR 	c #2B3A2C",
"zR 	c #2E3C2D",
"AR 	c #2F3C2E",
"BR 	c #394836",
"CR 	c #2E3B2C",
"DR 	c #2C3A2B",
"ER 	c #8C8C62",
"FR 	c #6A6B3F",
"GR 	c #D0D286",
"HR 	c #2C2F12",
"IR 	c #57592B",
"JR 	c #B6B57A",
"KR 	c #9B9E57",
"LR 	c #8F9053",
"MR 	c #B9B976",
"NR 	c #9D9E60",
"OR 	c #5B5C4A",
"PR 	c #7F833C",
"QR 	c #8F905B",
"RR 	c #9B9969",
"SR 	c #9C9C77",
"TR 	c #323F30",
"UR 	c #334132",
"VR 	c #394937",
"WR 	c #293628",
"XR 	c #1B251B",
"YR 	c #262A19",
"ZR 	c #434522",
"`R 	c #87875D",
" S 	c #8A8D4E",
".S 	c #C7CA77",
"+S 	c #EBEAA0",
"@S 	c #C7CA6E",
"#S 	c #868947",
"$S 	c #343715",
"%S 	c #7E8044",
"&S 	c #949560",
"*S 	c #707046",
"=S 	c #ADAC79",
"-S 	c #252A19",
";S 	c #2C372A",
">S 	c #253126",
",S 	c #686939",
"'S 	c #7D7F43",
")S 	c #878B43",
"!S 	c #A2A366",
"~S 	c #8B904C",
"{S 	c #D4D87B",
"]S 	c #C5C678",
"^S 	c #6C6C44",
"/S 	c #CECF80",
"(S 	c #E3E48D",
"_S 	c #2F3621",
":S 	c #2C3A2C",
"<S 	c #252F23",
"[S 	c #253124",
"}S 	c #243124",
"|S 	c #AAAD63",
"1S 	c #0C0C06",
"2S 	c #5F5F3A",
"3S 	c #5A5A3C",
"4S 	c #252810",
"5S 	c #8F8E70",
"6S 	c #C3C190",
"7S 	c #B6B86A",
"8S 	c #BEBF70",
"9S 	c #7B7C46",
"0S 	c #E5E795",
"aS 	c #7E8058",
"bS 	c #858555",
"cS 	c #8B8D50",
"dS 	c #838543",
"eS 	c #D8D988",
"fS 	c #B6B96B",
"gS 	c #86874C",
"hS 	c #7A7A57",
"iS 	c #62633E",
"jS 	c #878953",
"kS 	c #C1C085",
"lS 	c #1F220E",
"mS 	c #F4F2A9",
"nS 	c #CED272",
"oS 	c #5A5F2C",
"pS 	c #363819",
"qS 	c #5B602B",
"rS 	c #162018",
"sS 	c #262F24",
"tS 	c #303E2E",
"uS 	c #44472F",
"vS 	c #5E6130",
"wS 	c #DDDB9A",
"xS 	c #787B3A",
"yS 	c #DEDF8B",
"zS 	c #9D9F62",
"AS 	c #6A6B4F",
"BS 	c #939568",
"CS 	c #BFC170",
"DS 	c #BFC26E",
"ES 	c #727341",
"FS 	c #E1E295",
"GS 	c #17221A",
"HS 	c #E0E189",
"IS 	c #D2D679",
"JS 	c #FCFDA5",
"KS 	c #D2D57A",
"LS 	c #595C3E",
"MS 	c #434820",
"NS 	c #CACC79",
"OS 	c #484A1D",
"PS 	c #B6B971",
"QS 	c #253225",
"RS 	c #2F3D2F",
"SS 	c #283527",
"TS 	c #2B311F",
"US 	c #828642",
"VS 	c #F8FA99",
"WS 	c #E6E790",
"XS 	c #D7DB7A",
"YS 	c #7A7959",
"ZS 	c #8A8A55",
"`S 	c #6A6944",
" T 	c #42451F",
".T 	c #81834A",
"+T 	c #898958",
"@T 	c #FAFAA9",
"#T 	c #BDC25F",
"$T 	c #E5EB84",
"%T 	c #2E3323",
"&T 	c #2C392A",
"*T 	c #141B15",
"=T 	c #383A17",
"-T 	c #6B6F32",
";T 	c #6F7041",
">T 	c #72743C",
",T 	c #D1CF92",
"'T 	c #CFD274",
")T 	c #7F8340",
"!T 	c #C3C579",
"~T 	c #979D43",
"{T 	c #626530",
"]T 	c #838454",
"^T 	c #B9B972",
"/T 	c #212A21",
"(T 	c #111B14",
"_T 	c #919452",
":T 	c #C2C089",
"<T 	c #92944F",
"[T 	c #B4B766",
"}T 	c #CCCF73",
"|T 	c #030201",
"1T 	c #B7BA65",
"2T 	c #CED26F",
"3T 	c #7C7F3C",
"4T 	c #CDD26B",
"5T 	c #8A8E46",
"6T 	c #66673E",
"7T 	c #656B33",
"8T 	c #1F2A1E",
"9T 	c #8E8F59",
"0T 	c #656830",
"aT 	c #C5C779",
"bT 	c #E6E697",
"cT 	c #C8CB74",
"dT 	c #8A8D48",
"eT 	c #414323",
"fT 	c #737540",
"gT 	c #898E3F",
"hT 	c #B3B17D",
"iT 	c #383925",
"jT 	c #B9BD68",
"kT 	c #B2B661",
"lT 	c #B5B767",
"mT 	c #F2F395",
"nT 	c #252B1B",
"oT 	c #090D0A",
"pT 	c #323617",
"qT 	c #ACAC77",
"rT 	c #BAB97F",
"sT 	c #7D8043",
"tT 	c #828737",
"uT 	c #5C602A",
"vT 	c #96965F",
"wT 	c #9C9D59",
"xT 	c #676A4D",
"yT 	c #575741",
"zT 	c #C0C17B",
"AT 	c #9B9D62",
"BT 	c #B3B472",
"CT 	c #181F18",
"DT 	c #1F2C20",
"ET 	c #9C9D5B",
"FT 	c #676A32",
"GT 	c #9EA058",
"HT 	c #D0D084",
"IT 	c #CACA7B",
"JT 	c #939647",
"KT 	c #AFB06F",
"LT 	c #727443",
"MT 	c #EBEB9C",
"NT 	c #AAAF55",
"OT 	c #A8AB70",
"PT 	c #7E8056",
"QT 	c #42452C",
"RT 	c #B9BB6E",
"ST 	c #787D30",
"TT 	c #F3F68E",
"UT 	c #F4F98C",
"VT 	c #5D6132",
"WT 	c #1D281D",
"XT 	c #1D2117",
"YT 	c #8C8C5B",
"ZT 	c #696C37",
"`T 	c #8F963D",
" U 	c #B8B77E",
".U 	c #929354",
"+U 	c #9D9E67",
"@U 	c #9EA061",
"#U 	c #5D612D",
"$U 	c #6C6E4A",
"%U 	c #EDECA6",
"&U 	c #9EA34D",
"*U 	c #B3B662",
"=U 	c #313829",
"-U 	c #9C9F5E",
";U 	c #85874D",
">U 	c #8F9251",
",U 	c #969A53",
"'U 	c #B1B26C",
")U 	c #212310",
"!U 	c #343425",
"~U 	c #C5C67F",
"{U 	c #555731",
"]U 	c #EDF08D",
"^U 	c #474927",
"/U 	c #B4B377",
"(U 	c #919548",
"_U 	c #1C271C",
":U 	c #0F1810",
"<U 	c #A3A857",
"[U 	c #A3A46D",
"}U 	c #82844A",
"|U 	c #AFB35A",
"1U 	c #787A43",
"2U 	c #AFB069",
"3U 	c #838259",
"4U 	c #929364",
"5U 	c #C8C88D",
"6U 	c #DEE183",
"7U 	c #43422C",
"8U 	c #E2E38E",
"9U 	c #858856",
"0U 	c #9CA059",
"aU 	c #FEFF9E",
"bU 	c #60653A",
"cU 	c #162118",
"dU 	c #1B2014",
"eU 	c #757936",
"fU 	c #333421",
"gU 	c #6E732E",
"hU 	c #3C3C20",
"iU 	c #474A1D",
"jU 	c #737639",
"kU 	c #999E4A",
"lU 	c #C9C984",
"mU 	c #C0C277",
"nU 	c #BABA82",
"oU 	c #242C1C",
"pU 	c #141D16",
"qU 	c #525534",
"rU 	c #7F8147",
"sU 	c #A5A46F",
"tU 	c #DDDC97",
"uU 	c #959951",
"vU 	c #B0B072",
"wU 	c #6C722C",
"xU 	c #AAAE63",
"yU 	c #454625",
"zU 	c #8F9443",
"AU 	c #AFB077",
"BU 	c #9B9C62",
"CU 	c #747641",
"DU 	c #4A4A2E",
"EU 	c #9D9E71",
"FU 	c #5F642A",
"GU 	c #A0A35C",
"HU 	c #FDFFA0",
"IU 	c #C3C66E",
"JU 	c #BFBF77",
"KU 	c #ABAD67",
"LU 	c #656747",
"MU 	c #D4D77C",
"NU 	c #C5C57F",
"OU 	c #D9DD87",
"PU 	c #22240F",
"QU 	c #AEAD7B",
"RU 	c #E8E89F",
"SU 	c #A0A25B",
"TU 	c #A6A762",
"UU 	c #9CA057",
"VU 	c #82863B",
"WU 	c #85835E",
"XU 	c #848459",
"YU 	c #242420",
"ZU 	c #656A2C",
"`U 	c #E6ED7D",
" V 	c #E1E486",
".V 	c #595B42",
"+V 	c #848751",
"@V 	c #797E31",
"#V 	c #626640",
"$V 	c #161C12",
"%V 	c #767B3A",
"&V 	c #A4A659",
"*V 	c #A6AA5F",
"=V 	c #8D9055",
"-V 	c #DBDF7D",
";V 	c #5F6132",
">V 	c #B1B36E",
",V 	c #969860",
"'V 	c #939655",
")V 	c #858749",
"!V 	c #1D1F0B",
"~V 	c #9A9B59",
"{V 	c #AAAE5C",
"]V 	c #868B3B",
"^V 	c #B0B16B",
"/V 	c #C2C27E",
"(V 	c #F2F1A8",
"_V 	c #1E2419",
":V 	c #5A5C3B",
"<V 	c #64643D",
"[V 	c #BEBE7E",
"}V 	c #A7AA63",
"|V 	c #84864C",
"1V 	c #A4A46C",
"2V 	c #85874E",
"3V 	c #898A5E",
"4V 	c #878E36",
"5V 	c #303117",
"6V 	c #76764A",
"7V 	c #626246",
"8V 	c #89885D",
"9V 	c #373921",
"0V 	c #313219",
"aV 	c #A6AF44",
"bV 	c #828356",
"cV 	c #A1A362",
"dV 	c #F4F896",
"eV 	c #747347",
"fV 	c #656647",
"gV 	c #979C4D",
"hV 	c #44471D",
"iV 	c #0C160F",
"jV 	c #0D1710",
"kV 	c #A7A76C",
"lV 	c #898A65",
"mV 	c #545725",
"nV 	c #B4B573",
"oV 	c #363915",
"pV 	c #2B2B1A",
"qV 	c #36371D",
"rV 	c #646639",
"sV 	c #636540",
"tV 	c #C1C75D",
"uV 	c #FBFAA6",
"vV 	c #1C1C10",
"wV 	c #63673B",
"xV 	c #1A1F14",
"yV 	c #F5F79C",
"zV 	c #A5A861",
"AV 	c #9DA24E",
"BV 	c #909542",
"CV 	c #303317",
"DV 	c #81824D",
"EV 	c #757746",
"FV 	c #32351A",
"GV 	c #2D2D1B",
"HV 	c #484A29",
"IV 	c #858948",
"JV 	c #DCD99B",
"KV 	c #B4B861",
"LV 	c #D7DA80",
"MV 	c #757A2E",
"NV 	c #161C10",
"OV 	c #464925",
"PV 	c #61633C",
"QV 	c #444426",
"RV 	c #535721",
"SV 	c #686A39",
"TV 	c #92954D",
"UV 	c #BDC167",
"VV 	c #6C6F3A",
"WV 	c #D7DB7C",
"XV 	c #75744C",
"YV 	c #242D22",
"ZV 	c #3D3E26",
"`V 	c #131407",
" W 	c #5A5D2F",
".W 	c #989E46",
"+W 	c #90924E",
"@W 	c #6A6C46",
"#W 	c #B8BB65",
"$W 	c #4A4B36",
"%W 	c #E3E48E",
"&W 	c #B9B780",
"*W 	c #82834E",
"=W 	c #B0AF7B",
"-W 	c #A0A264",
";W 	c #696A3F",
">W 	c #A9A780",
",W 	c #D5D591",
"'W 	c #737731",
")W 	c #72782D",
"!W 	c #93955A",
"~W 	c #414129",
"{W 	c #273124",
"]W 	c #2D2D1A",
"^W 	c #545338",
"/W 	c #D0D281",
"(W 	c #575735",
"_W 	c #8A9038",
":W 	c #15140D",
"<W 	c #A8A675",
"[W 	c #7A8042",
"}W 	c #AFAE75",
"|W 	c #73763F",
"1W 	c #D2D286",
"2W 	c #C0C36B",
"3W 	c #E9E7A1",
"4W 	c #D6DC72",
"5W 	c #656833",
"6W 	c #1B1D15",
"7W 	c #CED36E",
"8W 	c #3C3E1E",
"9W 	c #6B6C44",
"0W 	c #37381B",
"aW 	c #2F3524",
"bW 	c #263025",
"cW 	c #2B3120",
"dW 	c #C8C882",
"eW 	c #D6D883",
"fW 	c #F4F892",
"gW 	c #CACA85",
"hW 	c #8E9157",
"iW 	c #242A1A",
"jW 	c #7B7C4D",
"kW 	c #5C5E50",
"lW 	c #E7E98D",
"mW 	c #FDFE9F",
"nW 	c #E0E381",
"oW 	c #C8CB70",
"pW 	c #B2B469",
"qW 	c #454722",
"rW 	c #5A5C2E",
"sW 	c #6A6A41",
"tW 	c #242E22",
"uW 	c #353B2C",
"vW 	c #35351E",
"wW 	c #4A4A2D",
"xW 	c #73724E",
"yW 	c #8A8E41",
"zW 	c #565A2E",
"AW 	c #E0E28B",
"BW 	c #161B0F",
"CW 	c #87894A",
"DW 	c #E0DF9B",
"EW 	c #D0D17E",
"FW 	c #818543",
"GW 	c #C5C676",
"HW 	c #B2B666",
"IW 	c #767844",
"JW 	c #B9B883",
"KW 	c #54562F",
"LW 	c #27271E",
"MW 	c #3F402A",
"NW 	c #E4E689",
"OW 	c #C1C278",
"PW 	c #C5C96B",
"QW 	c #FFFF8E",
"RW 	c #D3D86C",
"SW 	c #080C07",
"TW 	c #DEDC9A",
"UW 	c #999D4D",
"VW 	c #212117",
"WW 	c #43422F",
"XW 	c #F6F5A1",
"YW 	c #777943",
"ZW 	c #9DA053",
"`W 	c #636727",
" X 	c #BABA79",
".X 	c #4D4F32",
"+X 	c #3A3E25",
"@X 	c #DBDB96",
"#X 	c #797A4C",
"$X 	c #D2D08F",
"%X 	c #5D5F35",
"&X 	c #A5A75C",
"*X 	c #D5D494",
"=X 	c #D8DA80",
"-X 	c #C7CB70",
";X 	c #8D8D5A",
">X 	c #525234",
",X 	c #283327",
"'X 	c #252D1E",
")X 	c #2F3021",
"!X 	c #AAAA89",
"~X 	c #D3D57F",
"{X 	c #BBBE6C",
"]X 	c #5E6134",
"^X 	c #9EA05A",
"/X 	c #D9E176",
"(X 	c #A09F85",
"_X 	c #C5C870",
":X 	c #727731",
"<X 	c #E5E39F",
"[X 	c #8C8D4D",
"}X 	c #515439",
"|X 	c #565831",
"1X 	c #7B7D4B",
"2X 	c #323F31",
"3X 	c #020301",
"4X 	c #7C7E45",
"5X 	c #E7E890",
"6X 	c #999E46",
"7X 	c #828349",
"8X 	c #7C8136",
"9X 	c #B2BA4B",
"0X 	c #C1C860",
"aX 	c #898A62",
"bX 	c #585B2A",
"cX 	c #828835",
"dX 	c #51532B",
"eX 	c #818735",
"fX 	c #F8F99A",
"gX 	c #9FA262",
"hX 	c #6E6E4A",
"iX 	c #8D8E62",
"jX 	c #45452D",
"kX 	c #273225",
"lX 	c #293428",
"mX 	c #222B22",
"nX 	c #333324",
"oX 	c #67673E",
"pX 	c #C4C673",
"qX 	c #FEFFA2",
"rX 	c #B0B176",
"sX 	c #5F623F",
"tX 	c #BFBF79",
"uX 	c #B0B263",
"vX 	c #90934C",
"wX 	c #858653",
"xX 	c #273327",
"yX 	c #323C2A",
"zX 	c #31331C",
"AX 	c #424322",
"BX 	c #B3B378",
"CX 	c #BEC070",
"DX 	c #ECEBA2",
"EX 	c #ADAD74",
"FX 	c #BEBD81",
"GX 	c #BEC369",
"HX 	c #F4F4A0",
"IX 	c #2F2F21",
"JX 	c #2D2E23",
"KX 	c #2E392C",
"LX 	c #7D7D52",
"MX 	c #A3A563",
"NX 	c #6C6E3B",
"OX 	c #EEED9B",
"PX 	c #FBFBA8",
"QX 	c #939557",
"RX 	c #87885F",
"SX 	c #656645",
"TX 	c #DDDD91",
"UX 	c #3B3D23",
"VX 	c #626634",
"WX 	c #4F5030",
"XX 	c #31331E",
"YX 	c #424329",
"ZX 	c #2D2E17",
"`X 	c #A0A06A",
" Y 	c #E2E293",
".Y 	c #B2B567",
"+Y 	c #ACB15C",
"@Y 	c #65673D",
"#Y 	c #80816A",
"$Y 	c #D6D58F",
"%Y 	c #B5B675",
"&Y 	c #83883E",
"*Y 	c #E5E3A6",
"=Y 	c #878A4B",
"-Y 	c #666B2B",
";Y 	c #A3A46A",
">Y 	c #88894D",
",Y 	c #9A986C",
"'Y 	c #6B6C43",
")Y 	c #4D4E31",
"!Y 	c #21281B",
"~Y 	c #3D3E24",
"{Y 	c #7E8439",
"]Y 	c #6A6F2A",
"^Y 	c #E7E694",
"/Y 	c #BBBF6C",
"(Y 	c #B0B360",
"_Y 	c #83826B",
":Y 	c #838643",
"<Y 	c #F6F79D",
"[Y 	c #CCCE75",
"}Y 	c #787A3E",
"|Y 	c #F7F7A5",
"1Y 	c #3E3F25",
"2Y 	c #7F7E5B",
"3Y 	c #303C2E",
"4Y 	c #383920",
"5Y 	c #494A2B",
"6Y 	c #FEFCAF",
"7Y 	c #C5C777",
"8Y 	c #6F742E",
"9Y 	c #909155",
"0Y 	c #42451C",
"aY 	c #8E9345",
"bY 	c #B7BB61",
"cY 	c #C5CB60",
"dY 	c #DFE08A",
"eY 	c #808148",
"fY 	c #C9CB75",
"gY 	c #C2C479",
"hY 	c #B6B86D",
"iY 	c #5F6326",
"jY 	c #F9F99F",
"kY 	c #D4D587",
"lY 	c #A9AB5C",
"mY 	c #A5A668",
"nY 	c #7A7C4B",
"oY 	c #2D382B",
"pY 	c #293327",
"qY 	c #4A4A2F",
"rY 	c #C7C58D",
"sY 	c #585D24",
"tY 	c #6A6E30",
"uY 	c #3F4319",
"vY 	c #EFF192",
"wY 	c #9B9D63",
"xY 	c #4B4E1F",
"yY 	c #6B6E35",
"zY 	c #C1C46F",
"AY 	c #9E9E64",
"BY 	c #CFD087",
"CY 	c #7B7F40",
"DY 	c #7C7D57",
"EY 	c #5A5A38",
"FY 	c #60603B",
"GY 	c #1F201A",
"HY 	c #252E23",
"IY 	c #252A1D",
"JY 	c #CDCE7D",
"KY 	c #F1F0A2",
"LY 	c #D5D784",
"MY 	c #FCFE9C",
"NY 	c #727636",
"OY 	c #494932",
"PY 	c #9EA15C",
"QY 	c #B9BB6C",
"RY 	c #8C8A60",
"SY 	c #777C32",
"TY 	c #B4B768",
"UY 	c #ABAC6B",
"VY 	c #C9CC6F",
"WY 	c #D3D677",
"XY 	c #81835C",
"YY 	c #B3B572",
"ZY 	c #4C4D29",
"`Y 	c #888660",
" Z 	c #232C22",
".Z 	c #283126",
"+Z 	c #CBCD75",
"@Z 	c #E0DFA8",
"#Z 	c #818251",
"$Z 	c #8A8A5C",
"%Z 	c #DCE46D",
"&Z 	c #6D6F39",
"*Z 	c #5C5E30",
"=Z 	c #6F7040",
"-Z 	c #5E6031",
";Z 	c #252E24",
">Z 	c #2D3B2C",
",Z 	c #283426",
"'Z 	c #1D271C",
")Z 	c #2D301E",
"!Z 	c #3B3C24",
"~Z 	c #5E5F3C",
"{Z 	c #7E8147",
"]Z 	c #D5DA74",
"^Z 	c #A5A46C",
"/Z 	c #999A5F",
"(Z 	c #C1C56C",
"_Z 	c #BCBC94",
":Z 	c #BDBF80",
"<Z 	c #636928",
"[Z 	c #E7E69F",
"}Z 	c #E4E58F",
"|Z 	c #878C3E",
"1Z 	c #A1A64F",
"2Z 	c #898A59",
"3Z 	c #828258",
"4Z 	c #38392A",
"5Z 	c #D6D97A",
"6Z 	c #E2E585",
"7Z 	c #C0C17F",
"8Z 	c #686946",
"9Z 	c #C9CA7B",
"0Z 	c #9EA350",
"aZ 	c #CFD278",
"bZ 	c #ABAA77",
"cZ 	c #D7D883",
"dZ 	c #464A20",
"eZ 	c #55562F",
"fZ 	c #4C4E2F",
"gZ 	c #636438",
"hZ 	c #2B2B20",
"iZ 	c #192219",
"jZ 	c #41412A",
"kZ 	c #44442B",
"lZ 	c #6C6D46",
"mZ 	c #989D4D",
"nZ 	c #D4D488",
"oZ 	c #E5E698",
"pZ 	c #C7CC67",
"qZ 	c #A1A462",
"rZ 	c #313515",
"sZ 	c #686B32",
"tZ 	c #F1F29A",
"uZ 	c #B0B26E",
"vZ 	c #82873B",
"wZ 	c #0B0C04",
"xZ 	c #444524",
"yZ 	c #595D2A",
"zZ 	c #878758",
"AZ 	c #EBEA9F",
"BZ 	c #D0D183",
"CZ 	c #9AA041",
"DZ 	c #818355",
"EZ 	c #EBEB95",
"FZ 	c #727639",
"GZ 	c #3A3D17",
"HZ 	c #74744B",
"IZ 	c #6F7142",
"JZ 	c #2D3A2D",
"KZ 	c #2A3428",
"LZ 	c #5E6039",
"MZ 	c #41422A",
"NZ 	c #BABD72",
"OZ 	c #797B4B",
"PZ 	c #8E9243",
"QZ 	c #F6F89F",
"RZ 	c #17170A",
"SZ 	c #DADB85",
"TZ 	c #43471B",
"UZ 	c #ACAF65",
"VZ 	c #CED277",
"WZ 	c #7D813D",
"XZ 	c #5B5D36",
"YZ 	c #2A2F23",
"ZZ 	c #111812",
"`Z 	c #313523",
" ` 	c #535338",
".` 	c #7B7A54",
"+` 	c #7D8146",
"@` 	c #818445",
"#` 	c #B9B87B",
"$` 	c #787943",
"%` 	c #9A9F4B",
"&` 	c #848744",
"*` 	c #46472B",
"=` 	c #353619",
"-` 	c #181809",
";` 	c #4C4D28",
">` 	c #D5D685",
",` 	c #4D4F28",
"'` 	c #646638",
")` 	c #ADB060",
"!` 	c #E0E483",
"~` 	c #D0D37C",
"{` 	c #F3F49D",
"]` 	c #787C39",
"^` 	c #464C2B",
"/` 	c #2E3A2B",
"(` 	c #334233",
"_` 	c #62623E",
":` 	c #242517",
"<` 	c #B2B36C",
"[` 	c #5D5D37",
"}` 	c #626433",
"|` 	c #BDC069",
"1` 	c #5D5E3D",
"2` 	c #898C4A",
"3` 	c #555729",
"4` 	c #696C36",
"5` 	c #7C7F43",
"6` 	c #252617",
"7` 	c #283226",
"8` 	c #1B231B",
"9` 	c #575737",
"0` 	c #3D401D",
"a` 	c #C1C478",
"b` 	c #262719",
"c` 	c #666647",
"d` 	c #717443",
"e` 	c #63644F",
"f` 	c #9D9D6B",
"g` 	c #787A40",
"h` 	c #323B28",
"i` 	c #283227",
"j` 	c #273227",
"k` 	c #A9A96C",
"l` 	c #C0C46B",
"m` 	c #D2D186",
"n` 	c #727734",
"o` 	c #888A4C",
"p` 	c #DFDE98",
"q` 	c #A3A464",
"r` 	c #B1B565",
"s` 	c #90916C",
"t` 	c #D9DA8A",
"u` 	c #CCD075",
"v` 	c #AEB25D",
"w` 	c #56583C",
"x` 	c #F2F592",
"y` 	c #5B603D",
"z` 	c #ADAF65",
"A` 	c #55582B",
"B` 	c #4D4D2E",
"C` 	c #686B35",
"D` 	c #F1F587",
"E` 	c #E1E588",
"F` 	c #B1B083",
"G` 	c #858656",
"H` 	c #7E804A",
"I` 	c #B6B968",
"J` 	c #7F8248",
"K` 	c #71734E",
"L` 	c #BEC16A",
"M` 	c #87884E",
"N` 	c #E4E39D",
"O` 	c #E8E79A",
"P` 	c #DBDC93",
"Q` 	c #2C3325",
"R` 	c #282C1C",
"S` 	c #707433",
"T` 	c #C3C187",
"U` 	c #68693E",
"V` 	c #616332",
"W` 	c #A8AB5E",
"X` 	c #DDE27A",
"Y` 	c #C6C87A",
"Z` 	c #7E8148",
"`` 	c #767747",
"  .	c #818734",
". .	c #DFE088",
"+ .	c #B9BD69",
"@ .	c #A4A566",
"# .	c #D6D885",
"$ .	c #CACC7D",
"% .	c #959752",
"& .	c #C2C283",
"* .	c #6B6A48",
"= .	c #CCCD86",
"- .	c #9C9F54",
"; .	c #737736",
"> .	c #C8C77F",
", .	c #9C9C62",
"' .	c #939556",
") .	c #B4B574",
"! .	c #45481C",
"~ .	c #DFE386",
"{ .	c #838369",
"] .	c #BAB97D",
"^ .	c #ABB445",
"/ .	c #D4E059",
"( .	c #6D6F4F",
"_ .	c #999B63",
": .	c #CECD9B",
"< .	c #696B37",
"[ .	c #646733",
"} .	c #575A24",
"| .	c #CBCB82",
"1 .	c #787B39",
"2 .	c #CACC7B",
"3 .	c #E5EA8A",
"4 .	c #75775B",
"5 .	c #8C9147",
"6 .	c #F8F99E",
"7 .	c #9B9C66",
"8 .	c #777942",
"9 .	c #FFFCB3",
"0 .	c #23250F",
"a .	c #DCDF81",
"b .	c #7C7E46",
"c .	c #E3E298",
"d .	c #E5E595",
"e .	c #AFB06C",
"f .	c #5A5F24",
"g .	c #282B11",
"h .	c #5B5D39",
"i .	c #8B8B6B",
"j .	c #2E3117",
"k .	c #7A7960",
"l .	c #BBBD75",
"m .	c #AAAB69",
"n .	c #9D9F64",
"o .	c #D0D475",
"p .	c #989D4E",
"q .	c #CFD182",
"r .	c #CFCE8C",
"s .	c #7D8333",
"t .	c #979953",
"u .	c #DADC88",
"v .	c #ACAD6C",
"w .	c #B7B770",
"x .	c #95994C",
"y .	c #96994D",
"z .	c #A2A559",
"A .	c #E8EC8D",
"B .	c #D6D78A",
"C .	c #9BA144",
"D .	c #E5E78F",
"E .	c #D9D896",
"F .	c #C1C179",
"G .	c #CDCC8F",
"H .	c #71753F",
"I .	c #E1E389",
"J .	c #EFF292",
"K .	c #ACB060",
"L .	c #BBBB81",
"M .	c #C1C476",
"N .	c #D0D47A",
"O .	c #ACAD6A",
"P .	c #EBEC91",
"Q .	c #37391C",
"R .	c #C3C476",
"S .	c #D6D78B",
"T .	c #B3B956",
"U .	c #7A7D4D",
"V .	c #E7E98B",
"W .	c #7B8039",
"X .	c #7B7F38",
"Y .	c #616527",
"Z .	c #D0D473",
"` .	c #FCFE98",
" ..	c #E6EA85",
"...	c #3B3D19",
"+..	c #555548",
"@..	c #EDEF91",
"#..	c #8A8F3F",
"$..	c #CDD178",
"%..	c #898A51",
"&..	c #AEB262",
"*..	c #8C8E4D",
"=..	c #CCCD82",
"-..	c #F1F1A0",
";..	c #4A4C29",
">..	c #919260",
",..	c #5A5F25",
"'..	c #D8D891",
")..	c #FDFAAF",
"!..	c #B5B771",
"~..	c #C3C57A",
"{..	c #A5AA51",
"]..	c #929651",
"^..	c #92936D",
"/..	c #DBDA94",
"(..	c #979A56",
"_..	c #D3D587",
":..	c #737549",
"<..	c #6D6D42",
"[..	c #767A38",
"}..	c #BFC269",
"|..	c #595A3D",
"1..	c #EDEE98",
"2..	c #404324",
"3..	c #868758",
"4..	c #B0B17B",
"5..	c #737834",
"6..	c #72753F",
"7..	c #DDE083",
"8..	c #F5F69C",
"9..	c #D0CF89",
"0..	c #B4B76C",
"a..	c #BDC265",
"b..	c #AEB35F",
"c..	c #F1F390",
"d..	c #DCDC8C",
"e..	c #242516",
"f..	c #575837",
"g..	c #CFD086",
"h..	c #CFD375",
"i..	c #8B9141",
"j..	c #C9CC7A",
"k..	c #8D8F51",
"l..	c #D6D977",
"m..	c #7E8242",
"n..	c #7B8136",
"o..	c #B7B77A",
"p..	c #B3B66B",
"q..	c #4D502E",
"r..	c #CFD17A",
"s..	c #212112",
"t..	c #7C7A54",
"u..	c #BDBD76",
"v..	c #46481D",
"w..	c #B3B376",
"x..	c #C7C87F",
"y..	c #8F915B",
"z..	c #D4D87A",
"A..	c #848551",
"B..	c #5A5E26",
"C..	c #ABAE62",
"D..	c #95945E",
"E..	c #D3D28A",
"F..	c #77793F",
"G..	c #B8B77B",
"H..	c #6F6F49",
"I..	c #61642C",
"J..	c #959856",
"K..	c #C9CD77",
"L..	c #D3D486",
"M..	c #B3B46F",
"N..	c #919554",
"O..	c #656737",
"P..	c #797853",
"Q..	c #C6CA78",
"R..	c #56584A",
"S..	c #444523",
"T..	c #D3D77E",
"U..	c #7E833B",
"V..	c #CDCD8C",
"W..	c #83844C",
"X..	c #4D4F2D",
"Y..	c #8C8B6A",
"Z..	c #AEB06D",
"`..	c #EBEBA0",
" +.	c #737355",
".+.	c #797D3D",
"++.	c #FDFEA1",
"@+.	c #BABC69",
"#+.	c #E5E789",
"$+.	c #ADB15D",
"%+.	c #696D2B",
"&+.	c #BDC163",
"*+.	c #F6F79F",
"=+.	c #C2C576",
"-+.	c #797A5C",
";+.	c #76786C",
">+.	c #7A7C44",
",+.	c #ACAE6F",
"'+.	c #838452",
")+.	c #82834B",
"!+.	c #F8FA9A",
"~+.	c #818455",
"{+.	c #888A52",
"]+.	c #434420",
"^+.	c #1E200F",
"/+.	c #939652",
"(+.	c #70714A",
"_+.	c #C4C67C",
":+.	c #282911",
"<+.	c #14140A",
"[+.	c #BEBE7C",
"}+.	c #A5A562",
"|+.	c #FCFAAA",
"1+.	c #0F100A",
"2+.	c #636531",
"3+.	c #090804",
"4+.	c #A0A05F",
"5+.	c #BDBF76",
"   .  +  @  #  $  %  &  *  =  -  ;  >  ,  '  )  !  ~  {  ]  ^  /  (  _  :  <  [  }  |  1  2  3  4  ^  5  6  7  8  9  0  a  b  c  d  e  f  g  h  i  j  k  l  m  n  o  p  q  r  s  t  u  v  w  x  y  z  A  B  C  D  E  F  G  H  I  >  J  K  L  M  N  O  P  Q  R  S  T  U  V  W  X  Y  Z  `   . .. +. @. #. $. %. &. *. ;  =. -. ;. >. ,. '. ). !. ~. {. ]. ^. /. (. _. :. <. [. }. |. 1. 2. 3. 4. ",
"5. 6. 5  7. 8. 9. 0. a. b. c. d. e. f. g. h. i. j. k. l. m. n. o. p. q. r. s. t. u. v. w. x. y. z. A. B. C. D. E. F. G. H. I. J. ^  K. L. M. N. O. P. Q. R. S. T. ;  U. V. W. X. Y. Z. `.  + .+ ++ @+ #+ $+ %+ &+ *+ =+ -+ d. ;+ >+ ,+ '+ )+ !+ ~+ {+ ]+ ^+ ;  /+ (+ _+ ;  :+ <+ [+ }+ |+ 1+ 2+ 3+ 4+ 5+ 6+ 7+ 8+ 9+ 0+ a+ b+ c+ d+ e+ f+ g+ h+ i+ j+ k+ l+ m+ n+ o+ p+ q+ r+ s+ t+ u+ v+ w+ x+ ",
"y+ z+ A+ B+ C+ D+ E+ F+ G+ H+ I+ J+ K+ L+ M+ N+ O+ P+ Q+ R+ S+ p+ T+ U+ V+ W+ X+ Y+ Z+ `+  @ .@ +@ @@ #@ $@ %@ &@ *@ =@ -@ ;@ >@ ,@ '@ )@ !@ ~@ {@ ]@ ^@ /@ (@ _@ :@ <@ [@ }@ |@ 1@ 2@ 3@ 4@ 5@ C+ 6@ 7@ 8@ 9@ 0@ a@ b@ c@ d@ e@ f@ g@ h@ i@ 1. j@ ;  k@ l@ m@ n@ o@ p@ q@ r@ s@ t@ u@ v@ w@ x@ y@ z@ A@ B@ C@ D@ E@ F@ G@ H@ I@ J@ K@ L@ M@ N@ O@ P@ Q@ R@ S@ i@ T@ U@ V@ W@ X@ Y@ Z@ `@  # .# ",
"+# @# ## $# %# &# *# =# -# ;# ># ,# '# )# !# ~# {# ]# ^# /# (# _# :# <# [# [+ }# |# 1# 2# 3# 4# 5# 6# 7# 8# 9# 0# a# b# c# d# e# f# g# h# i# j# k# l# m# n# o# p# q# r# s# t# u# v# w# x# y# p+ z# A# B# C# D# E# F# G# H# I# J# K# L# M# N# O# P# Q# R# S# T# U# V# W# X# Y# Z# `#  $ 7. .$ +$ @$ #$ $$ 1. ~@ %$ &$ *$ =$ -$ ;$ >$ ,$ '$ )$ v+ !$ ~$ {$ ]$ ^$ /$ ($ _$ :$ <$ [$ }$ |$ 1$ *  2$ ",
"3$ 4$ 5$ 6$ 7$ 8$ 9$ 0$ a$ b$ c$ d$ ;  e$ f$ g$ h$ i$ j$ k$ l$ a. m$ n$ o$ p$ q$ r$ s$ t$ u$ v$ w$ x$ y$ z$ A$ B$ C$ D$ E$ F$ G$ H$ I$ J$ K$ L$ M$ N$ O$ P$ Q$ R$ S$ T$ U$ V$ W$ X$ Y$ Z$ `$  % .% +% @% 0  #% $% %% o# ;  &% *% =% -% ;% >% ,% '% )% !% ~% {% ]% ^% /% (% _% :% <% [% }% |% 1% 2% 3% 4% 5% 6% 0@ 7% 8% p+ 9% ;  0% a% b% c% d% e% f% g% h% i% j% k% l% m% n% o% p% q% r% s% t% ",
"u% v% w% x% y% z% A% B% C% D% E% F% G% ;  H% I% J% ;  K% L% M% N% O% P% ;  Q% R% S% ;  T% U% V% W% X% Y% Z% `%  & .& +& @& #& $& v+ %& && *& =& -& ;& >& ,& T$ '& )& !& ~& {& ]& ^& /& (& _& :& <& [& ;  }& |& 1& }# 2& 3& 4& 5& 6& 7& 8& 9& 0& !. a& b& c& d& e& f& g& h& i& j& k& l& m& n& o& p& q& ;  /$ r& s& t& ;  u& v& w& x& y& z& A& B& C& D& E& F& G& H& I& }& J& K& L& M& N& O& P& Q& ",
"R& S& T& U& V& W& X& g$ Y& Z& 7& `&  * .* +* @* #* $* %* &* ** =* -* ;* >* ,* '* )* !* ~* {* ]* ^* /* (* _* :* <* [* }* |* 1* 2* 3* 4* a% 5* 6* 7* 8* 9* 0* a* b* c* d* e* f* B& g* h* i* j* k* l* m* n* o* p* q* r* s* t* u* P& v* 8+ w* x* y* z* A* B* C* D* E* U. F* G* H* I* J* K* L* +% M* N* O* P* Q* R* S* T* U* V* W* X* Y* }+ Z* `*  = .= += }@ @= #= h* $= %= &= *= == -= ;= >= ,= '= ",
")= != ~= {= h+ ]= ^= /= (= _= := <= [= }= |= 1= 2= 3= 4= 5= 6= ;  7= 8= 9= 0= 3= a= b= c= d= e= f= g= h= i= j= U# k= l= m= n= o= p= q= r= s= 0@ t= u= v= w= x= y= z= A= B= C= D= E= F= G= '. H= I= J= K= L= M= N= O= P= Q= R= S= T= U= V= W= X= Y= Z= `=  - .- +- >+ @- Q  #- $- '% %- &- *- =- -- ;- >- ,- '- )- !- ~- {- ]- ^- /- (- _- :- <- [- }- |- 1- 2- 3- 4- 5- 6- 7- 8- 9- 0- a- b- c- ",
"d- e- f- ;  g- B% h- ;  i- j- k- l- m- n- o- p- q- r- s- t- u- v- #* w- x- y- z- ;  A- B- C- D- E- F- G- H- I- J- K- L- M- N- O- P- Q- R- S- T- U- `  V- Y+ W- X- Y- Z- `-  ; .; +; @; #; $; %; &; *; =; -; ;; >; ,; '; ); !; ~; {; ]; ^; /; O$ R& Z& (; _; :; <; /# [; }; |; 1; 2; 3; 3% 4; 5; 6; 7; 8; 9; 0; a; b; c; d; e; f; g; h; i; j; k; l; m; n; o; p; q; r; s; t; u; v; w; i% x; r; y; ",
"z; A; .  B; C; D; E; F; G; ;  H; I; J; K; L; M; N; O; P; Q; R; S; T; U; V; W; X; Y; Z; `;  > .> +> H; @> #> $> %> 3# &> !. *> => -> ;> ^% >> ,> '> )> !> ~> {> ]> ^> /> (> _> :> <> [> }> |> 1> 2> 3> 4> 5> 6> 7> ;  8> 9> 0> a> b> c> d> T* e> f> g> h> N= i> d% '# ;  j> k> l> m> n> ;  o> p> q> r> s> i  t> u> '- v> w> 8  x> y> z> A> B> C> D> E> Z; F> G> H> I> J> K> L> M> N> F@ O> P> Q> ",
"~@ R> S> T> U> V> W> X> Y> Z> `>  , ., +, @, ^* #, $, %, &, *, =, -, ;, >, ,, ', ), R* !, ~, {, ], ^, /, (, _, :, <, [, }, |, 1, 2, =& 3, 4, 5, 6, 7, 8, 9, N# 0, a, b, c, d, _> e, f, g, h, i, j, k, l, m, n, ;  o, p, q, r, s, ;  t, u, v, w, x, a@ ;  y, z, A, B, C, D, E, F, G, H, I, J, K, L, g> M, M& N, O, P, Q, R, S, T, U, V, W, X, Y, Z, `,  ' .' +' _> @' #' $' %' &' 8% *' =' -' ;' ",
">' ,' '' )' !' ~' {' ]' ^' /' (' _' :' <' [' }' |' 1' 1' 2' 3' 4' |' 5' 6' 7' 1' 8' 9' 0' a' b' c' d' e' f' g' h' i' j' k' l' m' n' L$ o' p' q' r' s' t' u' v' w' x' y' z' A' B' C' 3' 7' D' [' E' 4' }' F' 4' G' H' I' J' K' '; Z- L' M' N' ^- O' P' Q' R' S' U# w  T' U' j$ V' W' X' Y' Z' `'  ) .) +) @) #) $) |' 2' %) &) 4' *) E' 1' =) G' -) %) ;) >) ,) *- ') )) !) ~) h@ Q' {) ]) ^) /) ",
"() _) :) <) [) }) |) m$ 1) 2) 3) 4) 5) 6) 7) 8) 9) 0) a) 5) b) c) 4) 4) d) 6) 7) 4) c) e) c) f) +# g) h) i) j) k) l) m) n) o) p) q) r) s) t) u) v) p) |  w) x) b- y) #) b) 5) z) A) #) 5) B) A) 6) 0) c) 0) 0) b) C) D) E) F) G) H) I) J) K) L) M) N) k% O) ). P) Q) R) S) T) U) V) W) X) Y) Z) `) b) a) A) 5) 5) 4) b) b) 4) D) 4) 5) 4)  ! a) .! a) .! D) +! @! #! $! %! &! *! =! -! ;! >! ,! ",
"'! )! !! g) ~! {! ]! ^! /! e$ (! C) D) y) 4) 4) .! C) .! _! c) :! b) 5) 4) 5) D) <! .! 5) e) [! }! q' |! 1! 2! 3! 4! j$ 5! 6! 7! 8! 9! 0! a! b! c! N* d! e! f! g! b) b) b) c) .! A) h! 5) z) B) B) A) y) b) 4) i! a) D) 4) e) &, j! k! l! m! n! o! 9# p! q! r! s! 7  t! u! ;  v! w! x! y! z! A! B! C! b)  ! A) <! b) b) 4) b) c) b) a) 8) D! 5) 4) c) C) E! e) F! G! H! I! J! K! L! M! N! d- O! ",
"P! Q! R! S! T! U! V!  % W! X! Y! _! D) D) b) 5) 6) d) i! a) 5) 4) y) y) 4) .! b) 5) Z! b) 5) `!  ~  ) .~ +~ @~ #~ $~ %~ I& &~ *~ =~ @> -~ ;~ >~ ,~ '~ )~ !~ ~~ {~ 5) 4) 5) b) a) D) 6) B) 0) A) ]~ 6) 4) b) 9) <!  ! c) 4) 5) ^~ /~ w> s& (~ _~ :~ <~ [~ }~ S! |~ v+ 1~ 2~ 3~ 4~ 5~ 6~ ;  7~ 8~ 4) a) 4) b) z)  ! A) c) y) 5) 4) c) 5) D! A) B) A) 9~ 0) G' 4) 0~ a~ b~ c~ d~ e~ f~ g~ h~ i~ j~ ",
"v+ v+ k~ (; l~ m~ Q$ -. n~ o~ p~ D) 4) 0) 6) b) b) b) y) b) :! 5) C) 5) 6) E) e) A) b) e) 4) q~ r~ s~ t~ u~ v~ w~ x~ y~ z~ A~ B~ C~ D~ E~ T$ F~ G~ !. H~ I~ J~ K~ 4) D) a) e) _! y) c) 4) i! a) L~ M~ b) 5) 5) F) 5) D! 9) 4) N~ O~ ^+ P~ #~ Q~ R~ S~ T~ U~ V~ k@ W~ X~ Y~ `  Z~ `~  { .{ +{ @{ 5) D) d) b) 5) 6) 6) 9) 6) b)  ! y) 5) 6) 6) 5)  ! c) 4) 0) .! #{ ${ %{ &{ *{ !$ ={ ;  -{ ;{ >{ ",
",{ |  '{ ){ !{ ~{ =. {{ ]{ .& ^{ 9) 6) M~ 9) D) 5) 0) :! 0) c) A) a) 4) D) :! 5) y) D) _! 4) /{ ({ _{ :{ c. <{ /& [{ }{ |{ 1{ 2{ 3{ 4{ 5{ 6{ 7{ 8{ d- 9{ i% 0{ a{  ! b) 4)  ! a) 4) 4) F) 4) b) A) A) y) b) ]~ 9) 0) b{ A) b{ c{ d{ e{ f{ &; ^% g{ h{ i{ ^  j{ k{ l{  $ m{ n{ o{ p{ q{ 4- r{ s{ .! b) .! e) c) 4) 6) D! 5) a) b) a) 4) b) 6) 6) z) C! 4) 4) 4) t{ u{ _> v{ w{ x{ y{ z{ A{ f$ B{ ",
"C{ D{ E{ F{ G{ H{ ># I{ J{ K{ L{ b) D) 6) D! D) b) 5) b) 4) c) <! 9) 4) b) .! e) b) y) 4) _! M{ N{ O{ P{ 9$ Q{ R{ S{ T{ U{ V{ W{ X{ Y{ Z{ `{ k@  ] .] +] @] #] $] D! e) D) E! 5) b) 9~ F) c) C) C)  ! b) 6) <! 6) 5)  ! A) A) %] &] *] =] -] ;] ;  >] ,] '] P, )] !] ~] {] ~~ ]] /  ^] /] (] _] 4) 0) 5) b) a)  ! e) .! <! 4) a) :] 4) 6) D! A) 8) b) c) b) D) <] [] }] |] 1] 2] X* 3] 4] 5] 6] ",
"v* 7] 8] 9] 0] a] 3{ B; b] c] d] 4) A) A) y)  ! .! .! 6) c) a) b) b) 4) b) D) G' 4) b) c) 4) e] f] g] h] i] j] k] l] m] n] o] p] q] r] s] t] V$ u] v] w] x] y] q~ 9) 9~ 4) 0) b) 4) D) :! 4) b{ 4) 0) 4) 4) .! a) 4) D) 5) 5) z] A] B] C] D] E] F] G] H] I] J] K] U. L] ;  M] N] 9* O] P] Q] R] 9) .! 0) 0) 5) D! 6) A)  ! 6) 5) y) 0) b) b) b) 9) 6)  !  ! .! S] T] U] A= V] W] X] Y] Z] b, `] ",
" ^ .^ +^ @^ #^ $^ %^ &^ *^ =^ -^ ;^ y) 9) a) y) c) 4) D) 0) c) 5) b) C) 6) 4) 6) 6) b) >^ D) ,^ '^ )^ !^ G+ ~^ {^ ]^ ^^ /^ (^ _^ :^ <^ [^ }^ |^ N* _~ ^# e# 1^ 2^ ]~ b) 9~ D) .! c) c) 9~ 4) E! b) :] 5) 4) 4) 3^ 5) a) b) 0) 4^ 5^ 6^ 7^ 8^ 9^ 0^ a^ b^ c^ d^ e^ f^ g^ h^ -- i^ j^ k^ l^ k% J= 9~ c) C) D) D) a) <! 9~ .! 5) 5) 4) 4) .! 9) b) b) 6) 6) a) D! m^ n^ o^ ]- p^ e{ q^ r^ s^ t^ u^ ",
"v^ w^ q& x^ y^ z^ A^ B^ o@ C^ D^ b) 5) b) 4) .! c) F) c) D) 5) 5) a) a) 5) 5) b) C) 4) a) D) E^ F^ V~ G^ H^ <* I^ $~ J^ K^ L^ M^ N^ O^ P^ Q^ R^ S^ K^ m! T^ U^ V^ 0) :] c) e) e) W^ b) b) y) :] y)  ! X^ c) C) b) 5) b) 0) H' Y^ Z^ `^  / ./ +/ @/ #/ $/ %/ &/ */ =/ -/ ;/ >/ ,/ '/ )/ !/ ~/ {/ y) e) 9~ y) 6) C! A) 5) ]~ D! 9) c) .! C) ]~ A) b) a) 5) D! z) ]/ ^/ // += (/ `* ~@ _/ :/ </ [/ ",
"}/ |/ 1/ 2/ 3/ 4/ 5/ v& 6/ 7/ 8/ 9/ D) 5) b) C) a) 6) D) 0) 6) <! C) c) 4) b) 4) G' _! C) 4) 9' 0/ a/ b/ c/ d/ e/ f/ e. g/ h/ h; i/ j/ k/ q^ l/ m/ n/ o/ p/ |& q/ 9~ G' 5) c) b) :! 9~ e) 9~ _! D) D! 9) a) b) 4) .! 4) C) 9~ r/ s/ t/ u/ v/ w/ ~~ x/ ~@ y/ z/ `= A/ B/ |= /# C/ D/ E/ L{ F/ G/ 4) 0) G' 4)  ! 9) 9)  ! 7)  ! b) D) 4) F) 9) L~ 9~ b) 5) 5) <! H/ I/ J/ K/ L/ F% M/ N/ w{ O/ P/ ",
"Q/ R/ ^# S/ T/ U/ V/ W/ X/ Y/ Z/ <! 8) c) 0) 0) 4) 4) .! 4) 5) b) 0) 6) b) a) :! y) _! i! `/  ( .( +( @( #( 2! $( %( &( R& *( =( -( ;( >( M) ,( '( `= )( !( ~( {(  ! b) b) 5) 0) 4) b) b) D) 4) 4) 4) 6) .! :] b) 5) F) W^ i! ]( ^( /( (( _( ${ :( <( [( }( |( ;  1( 1+ 2( s) [; 3( 4( 7# T$ 5( C) b{ a) a) b)  ! b) z) A) 6) y) 9) a) a) D) c) e) 4) G' F) 4) 6( 7( 8( 9( .- 0( a( p  b( c( d( ",
"e( f( g( h( i( j( k( l( m( n( o( 6) 5) y) D! 4) 4) _! 6) 4) 5) 5) 4) 5) 9~ :] b) c) p( q( r( s( t( u( F^ v( w( x( y( z( A( B( C( D( E( F( 9& G( H( I( i@ J( K( L( b) 4) M( b) c) N( :] b) .! C) D) y) 9) 4) b) 5) .! O( P( Q( R( S( T( U( V( W( x) X( O# Y( Z( e@ `(  _ ._ +_ @_ #_ $_ '  H= %_ 0) c) 5) b) b) C) b) 5) 9) A) 4) 9/ A) 6) a) C! 9) e) W^ &_ *_ ~- ;  =_ -_ ;_ >_ ,_ '_ )_ !_ ~_ ",
"{_ ]_ ^_ /_ (_ __ :_ <_ [_ }_ |_ a) b) ]~  ! 5) b) a) 9) b) c) 4) .! 9) y)  ! 4) b{ 1_ 2_ 3_ 4_ 5_ 6_ 7_ 8_ 9_ g* H, 0_ a_ b_ c_ d_ e_ p  f_ g_ h_ i_ j_ k_ l_ m_ .! _! n_ C) C) 0) 5) F) 0) a) y) 6) 9) 4) 5) 5) H' o_ p_ q_ r_ s_ t_ u_ v_ w_ x_ y_ 7, z_ A_ B_ C_ ^  D_ E_ F_ ;  G_ H_ I_ J_ D) y) 5) D) D! 6) D!  ! y) #) 5) y) 8) 6) b) 5) 4) y) K_ L_ M_ ;  e^ N_ O_ P_ Q_ R_ u! S_ T_ J~ ",
"U_ V_ W_ X_ i; Y_ Z_ `_ d+  : @* c) B) .! A) 5) b) c) 6) 6) 5) 5) b) b) 8) D) G' .: +: @: #: $: %: &: *: =: >/ -: ;: >: p) ,: ': ): !: ~: {: ]: ^: /: (: p  _: :: b) 4) 9~ 4) 4) _! 0) 0) F) C! a) A) A) A) D! y) i! +: <: [: }: |: 1: t* 2: 3: 4: 5: `  `= 6: 7: 8: k@ 9: Q! 0: a: _* b: %; c: F) 5) 9) A) A) 8) 6) 9) 5) A) 6) <! A) 8) A) 5) #) E) d: e: f: g: h: i: ;: j: k: l: m: 8% n: o: ",
"o& l: p: q: F+ }) r: s: t: u: v: D) D) y) 3^ _! b) b) 5) :] A) a) D) A) A) 8) b{ q( w: x: y: z: A: C+ &= B: C: D: E: F: G: H: I: J: K: L: M: N: O: P: Q: R: S: T: b) 0) E) 4) c) U: a) 4) a) b) 9) 0) 8) .! 6) 4) C) V: W: X: Y: Z: `:  < .< +< @< #< $< %< &< *< =< -< T@ ;< >< ,< '< ;  )< !< G' 9~ 9~ c) y) 4) 6) B) 5) .! b) 6) D! A) 5) y) 4) ~< L_ {< ]< ^< 9$ /< (< _< :< 0. << 5. [< }< ",
"|< *' Q$ 1< 2< 3< 4< E*  . R] 5< y) D) 6< 3^ 9~ b) 4) 4) .! 4) 5) 4) A) 6) .! :] 7< L_ 8< 9< 0< a< b< c< d< )* d. e< f< k& g< h< i< j< k< p= Q  m/ l< m< n< o< p< .! a) 4) 9~ y) 6) b) 4) b{ b) 4) 9/ A) A) B) b{ q< r< s< t< u< ;  I~ v< w< x< y< z< v+ A< B< C< D< E< ;  z@ !. F< G< ;  H< 6* C! 5) .! F) a) :] 4)  ! 5) :! a) b)  ! b) 4) 0) C) &_ I< J< K< L< h* ;  M< N< O< P< Q< R< S< W] ",
"&: T< U< V< y^ W< d/ X< *^ l: Y< _! 4) 3^ 4) b) D) b) 4) D! <! .! c) A) 4) y) :! o_ p_ 8< Z< `<  [ .[ +[ @[ %{ #[ >: $[ 9$ E* %[ ^$ &[ *[ =[ -[ ;[ >[ ,[ '[ )[ ![ 4) 0) c) 5) 5) 5) D) 0) E! c) 4) 3^ 0) ~[ :] 5) {[ ][ ^[ /[ ([ _[ :[ <[ [[ }[ |[ U< 1[ 2[ 3[ 4[ i< 5[ I# M) .% 6[ -! 7[ 8[ 9[ A) 5) 4) D) c) b) :] _! 3^ 4) D) 4) a) 9) 9/ 9~ W^ P( 0[ a[ b[ c[ #* d[ e[ ~) f[ g[ h[ i[ j[ k[ ",
"l[ m[ n[ o[ h' p[ q[ ;[ r[ s[ t[  ! b{ 6< _! u[ y) D) 0) 0) a) b) :] 9) b) 4) _! v[ 2_ w[ ]< x[ y[ z[ A[ B[ C[ D[ E[ F[ G[ H[ I[ J[ K[ L[ M[ N[ `  O[ Q$ P[ ($ Q[ _! a) 5) 5) 5) 6) A) C) b) 4) 4) 5) a) 4) 5) 5) W^ R[ S[ T[ U[ V[ T, q! W[ :[ X[ Y[ p+ Z[ `[  } .} X- +} j: @} #} $} %} &} *} =} d) b) D) 4) 5) A) F) F) 4) :! F) 5) 5) b) 5) _! -} ;} >} ,} '} )} !} ~} {} ]} ^} /} (} _} :} ",
"<} :@ [} }} |} 1} 2} ,% 3} 5! 4} =} C) 4) 4) F) D)  ! 6) b) 8) 5) 5) e) d) 4) 4) 7< 5} 6} 7} 8} I& 9} }/ 0} a} b} 9^ c} (= d} e} f} g} h} i} j} k} l} ._ m} n} 7~ F) 4) 4) y) a) 0) 4) 4) F) 4) D) b) 5) 9) 6) 4) H' o} [: p} q} r} W( s} t} 6{ [{ u} v} w} x} y} z} ^$ A} B} C} D} E} F} G} H} I} 4) M~ b) b) 4) A) a) 4) 0) W^ C)  !  ! 9) y) :! +: <: J} K} L} ;  M} N} O} P} Q} R} S} T} U} ",
"V} o# W} '% X} Y} Z} %' `}  | .| @< +| @| #| $| %| &| *| =| 8' -| ;| >| ,| '| )| !| ~| {| ]| ^| /| (| %! _| :| <| [| }| || 1| 2| 3| 4| o# 5| v+ K,  < 6| E  7| 8| 9| 0| a| b| c| d| e| f| B) g| h| i| j| k| l| m| n| o| p| q| r| s| t| u| v| [+ w| x| y| z| A| B| C| D| E| F| c* G| H| G{ I| J| K| L| M| N| Z! O| P| Q| |' R| S| T| U| V| W| X| Y| Z| `|  1 .1 +1 @1 #1 O/ $1 %1 &1 *1 =1 -1 6$ ",
";1 >1 ,1 '1 )1 !1 p  ~1 {1 ]1 ~@ ^1 /1 %  (1 _1 :1 <1 D@ |  [1 }1 |1 ~@ 11 +@ 21 0- g- {] 31 41 51 61 71 81 91 e. 01 a1 Y* b1 c1 d1 1] 1. e1 n[ f1 g1 h1 i@ U' i1 j1 k1 l1 m1 n1 o1 ^# p1 q1 r1 s1 t1 u1 v1 w1 x1 y1 z1 A1 B1 C1 D1 E1 F1 G1 H1 I1 J1 K1 L1 ;  M1 3  N1 ;  O1 P1 Q1 R1 S1 T1 U1 V1 W1 X1 Y1 Z1 `1 o# f>  2 .2 +2 @2 #2 $2 %2 g$ O: &2 *2 =2 -2 ;2 >2 E  ,2 '2 )2 !2 ~2 {2 q) ]2 ",
"^2 /2 (2 _2 :2 <2 [2 }2 :  |2 12 22 32 S+ 42 52 l# 62 72 82 92 02 a2 x1 b2 c2 d2 e2 U{ m/ f2 g2 h2 i2 j2 k2 l2 m2 n2 p  o2 p2 q2 r2 s2 `  t2 u2 v2 w2 x2 y2 [% z2 |  A2 B2 C2 D2 E2 F2 G2 H2 I2 J2 K2 W# L2 M2 N2 T{ O2 P2 O* ;  Q2 R2 6| S2 T2 U2 V2 }- U# W2 X2 Y2 Z2 `2  3 .3 +3 @3 1$ #3 j2 $3 %3 x1 &3 *3 =3 -3 ;3 >3 &} ;  ,3 '3 )3 8% !3 ~3 {3 ]3 ^3 /3 (3 _3 :3 v+ <3 7  [3 }3 |3 13 23 ",
"33 7  43 53 21 W/ 63 73 83 93 03 >- a3 r2 b3 c3 d3 e3 f3 6: ;  g3 e! h3 i3 C_ j3 k3 l3 m3 o@ n3 o3 T/ p3 q3 r3 s3 t3 u3 v3 w3 e{ !~ 7. x3 y3 z3 A3 B3 a. C3 D3 (( |^ E3 F3 v& G3 H3 I3 J3 K3 L3 M3 r= N3 ;  O3 P3 Q3 R3 P3 S3 T3 U3 V3 W3 X3 Y3 Z3 `3  4 .4 +4 @4 U' #4 $4 %4 &4 *4 =4 -4 ;  ;4 >4 ,4 2| '4 `= %@ ^$ )4 Z2  } !4 H+ ~4 {4 &+ ~@ ;  `; *- ]4 ^4 /4 d$ (4 _4 ;  :4 <4 [4 }4 .. |4 ",
"14 t_ Z+ 24 34 44 54 64 74 84 94 K; 0( 04 a4 b4 c4 d4 e4 f4 g4 h4 i4 j4 k4 A# l4 m4 n$ C} n4 7~ o4 p4 q4 r4 s4 t4 u4 Q< v4 w4 x4 y4 z4 A4 B4 C4 X[ D4 z, E4 G} F4 D[ ^# G4 H4 I4 J4 K4 L4 u4 K- C1 M4 N4 O4 P4 j: Q4 R4 ~@ S4 T4 U4 V4 W4 +4 X4 X4 Y4 b+ Z4 `4 <%  5 ,[ .5 +5 @5 #5 6_ $5 %5 !3 &5 M) *5 ;  t. F. =5 -5 ;5 >5 ,5 92 '5 )5 !5 ~5 {5 ]5 H$ /] i@ ^5 /5 (5 _5 N* ^  :5 <5 [5 }5 |5 ",
"15 25 35 Y$ 45 L+ 55 v+ 65 75 85 95 05 a5 +} b5 ). ~@ c5 c: I! d5 e5 f5 g5 &4 h5 i5 j5 k5 m/ l5 m5 n5 o5 p5 q5 <5 A= r5 r| s5 t5 u5 v5 w5 x5 y5 z5 A5 B5 C5 v. D5 E5 F5 G5 &} T{ H5 I5 &( 5  J5 K5 *5 L5 M5 N5 O5 P5 Q5 R5 S5 ;  p  c' T5 U5 V5 W5 X5 Y5 {_ Z5 `5 u#  6 1$ `= .6 +6 1. L+ @6 #6 $6 %6 &6 *6 =6 -6 *$ ;6 4@ l{ a( >6 73 ,6 '6 &} O  )6 !6 ~6 {6 &+ ]6 `= ;  ^6 /6 (6 _6 :6 A> <6 ",
"[6 }6 |6 16 26 &} K2 36 ;  ]  46 56 66 76 86 j: m# -_ )3 96 06 a6 b6 c6 d6 &} e6 f6 g6 ;  h6 i6 C1 }) j6 k6 l6 u- m6 n6 o6 ;  p6 q6 r6 s6 4| t6 u6 v6 w6 #< Q  x6 S* y6 !> z6 A6 ;  B6 C6 D6 E6 F6 G6 H6 I6 1. J6 K6 ;  L6 M6 F> N6 O6 P6 Q6 R6 E$ S6 T6 B- 5[ U6 V6 W6 X6 Y6 Z6 `6  7 y1 %  [] K{ .7 +7 @7 #7 $7 %7 &7 *7 )  G} f> =7 @> -7 ;7 C, >7 ,7 '7 p  )7 !7 ~7 {7  | ]7 ^7 /7 (7 u^ _7 ",
":7 &= <7 [7 }7 ;  |7 r* 17 27 ;  37 47 57 67 77 87 97 07 a7 b7 c7 3; d7 n@ e7 f7 g7 73 h7 ^# i7 j7 q* k7 J> l7 m7 n7 W~ o7 p7 y@ q7 *  r7 s7 t7 u7 Z^ e. v7 w7 x7 y7 z7 g$ A7 *' d6 o# B7 C7 D7 E7 F7 G7 ;  H7 I7 '  J7 K7 L7 M7 N7 U) o@ !& O7 P7 Q7 R7 S7 T7 U7 S) p& V7  * a( W7 D4 X7 .% Y7 Z7 `7  8 .8 +8 @8 <2 #8 $8 %8 &8 ;  *8 =8 -8 ;% ;8 ;  >8 ,8 '8 )8 |* !8 ~8 {8 ]8 ;  ^8 /8 #% (8 ",
"_8 :8 <8 [8 a@ }8 |8 18 28 38 ;  48 58 68 78 88 98 08 a8 b8 c8 d8 e8 &} f8 P- g8 h8 ;  i8 j8 k8 l8 m8 n8 o8 p8 q8 r8 s8 L: t8 u8 v8 w8 x8 y8 z8 q{ A8 B8 C8 L+ /! D8 E8 F8 G8 H8 Y~ A{ I8 J8 K8 L8 B4 G} M8 C1 N8 c8 O8 o# l: l) P8 Q8 R8 71 S8 T8 U8 V8 W8 X8 Y8 7~ s7 Z{ m7 Z8 `8  9 .9 +9 ~@ @9 #9 $9 Q= %9 &9 *9 =9 t. -9 ;9 >9 ,9 W/ ;  '9 )9 !9 !: ~9 ){ {9 ]9 ^9 /9 +; (9 _9 :9 <9 x- E4 ",
";  [9 s' }9 ;  |9 19 +6 29 39 W# 49 59 69 79 89 99 09 a9 0] Q# x6 X= b9 c9 (, 7~ 0@ d9 e9 =' i1 f9 g9 h9 i9 j9 k9 l9 ;  m9 n9 o9 p9 q9 r9 @% s9 t9 i8 u9 v9 E  w9 x9 y9 14 z9 A9 B9 t3 -  ;  C9 D9 6{ E9 F9 G9 r* H9 I9 J9 T@ K9 ;  L9 M9 N9 O9 X5 /= P9 Q9 R9 S9 T9 U9 .$ V9 W9 X9 Y9 Z9 5[ `9 1.  0 .0 L5 <- !$ a& +0 X. @0 !} #0 $0 -3 D@ %0 &0 *0 =0 -0 ;0 >0 ,0 '0 T/ )0 !0 G| ~0 ~^ {0 ]0 ",
"^0 /0 (0 _0 :0 <0 Z& [0 {$ }0 O# |0 10 20 30 W% 40 50 60 *-  6 70 80 90 r9 00 a0 b0 c0 d0 e0 f0 g0 h0 i0 Y2 o# j0 k0 l0 u5 m0 n0 o0 !( p0 e. H6 q0 r0 s0 <- t0 u0 v0 f> X% ;  w0 x0 |  w; x1 y0 z0 A0 B0 C0 D0 E0 F0 1$ G0 c8 H0 I0 J0 K0 L0 M0 N0 O0 P0 Q0 C1 R0 u# S0 T0 U0 V0 &2 W0 X0 Y0 Z0 `0  a )0 .a +a @a #a $a %a m0 &a *a =a w{ n< -a o# ;a >a ,a 'a )a !a ~a k/ w{ {a ]a ^a /a (a _a ",
":a _| <a [a }a |a 1a 2a 3a 4a 5a 6a 7a 8a 9a 0a aa ba L+ P) G- ca P- da ea fa ga ha ia ja ka la Y6 ma na V+ oa k@ pa p1 a@ qa ra sa ta q! ua I= va wa A& 3= #! K' xa ya za Aa Ba a~ Ca ;  Da Ea Fa {* Ga Ha Y! <* Ia Ja J: .. X+ Ka 7. La Ma 0$ Na 7= Oa Pa Qa Ra Sa Ta Ua Va Wa Xa ^$ Ya E  Za P> `a  b .b +b 89 ;  @b #b 3/ $b %b q$ &b d] *b W# =b 8+ -b ;b >b ,b G( 'b l6 )b G[ !b ~b {b ]b ",
"^b F. Q5 /b d- r! (b _b :b <b [b ;  }b ;  |b _8 1b `: 2b 3b v+ 4b g2 5b =  x- (] 6b 7b 8b +3 m2 s% |] 9b '9 0b ab bb cb db eb o= fb gb hb ib +% jb kb lb !. mb nb ob pb qb 5| ;  ;  rb sb tb ub {- vb 7| 47 wb xb yb C* `_ zb `  Ab Bb R3 Cb C, Db Eb Fb Gb Hb Ib W+ C~ .] Jb )0 Kb Lb Mb l= Nb ,[ Ob Pb Qb N/ Rb Sb Tb Ub U} Vb Wb ;  U< Xb ;  |6 Yb ;  Zb `b  c .c E# +c @c V! #c $c %c E  &c ",
"Q^ #9 *c =c -c ;c >c ,c 'c )c !c =' ~c {c T6 ]c ^c /c (c _c :c <c [c }c |c 1c 2c 6_ Q= 3c t{ 4c .  5c 6c 7c 8c 9c 0c M9 ac bc cc dc ec |{ fc gc hc ;  ic R& jc kc _) r@ R4 lc mc nc oc pc qc ~@ rc sc tc uc vc wc X3 <_ V9 w} z{ xc yc zc A( Ac Bc Cc Dc Ec 5% Fc Gc F8 Hc Ic Jc Kc Lc L: Mc Nc Oc Pc Qc Rc ;  Sc ,  f8 Tc Uc Vc Wc Xc #( Yc Zc `c  d .d +d @d ;  #d *3 ~@ $d D@ ;  e0 %d `~ &d ",
"*d ~/ =d U/ -d ;d >d ,d L: {4 'd )d !d ~d {d ]d ;  ^d /d n] v+ H{ (d _d :d <d ,~ [d }d |d 1d 2d 0, 3d 4d 5d #, 6d 7d `^ u# 8d 9d 0d ad bd cd dd L; ed fd gd hd id jd kd ld    md !_ d> nd od pd qd M} rd id 25 sd td ud L: vd ;  X% wd xd yd zd Ad Bd Cd Dd Ed p9 Fd Gd Hd Id Jd Kd Ld Md Nd Od Pd Qd Rd Sd Td F> (( L, Ud ;  Vd Wd ;  87 Xd w{ J, Yd ;  Zd `d  e .e +e c6 @e #e S( F+ $e %e &e ",
"q! *e l6 =e -e ;e I! >e ,e 'e )e !e ~e Y, k~ {e ]e $, ^e /e ~) 9@ R5 g) 9. D^ (e _e ;  :e <e [e }e a: |e 1e <+ 2e 3e d, 4@ 4e 5e 6e 7e 8e I> 9e 0e ae be ce de ee fe ge he r_ ie je ;  ke le 28 me U= ne oe pe qe re se te ue fe ve we xe w% ye D^ q5 ze N/ =, ,[ Ae @* Be Ce De Ee w% Fe Ge He Ie Je Ke 56 Le Me Ne gd O* )* Oe Pe Qe Re Se Te Ue b~ Ve We Xe P6 Ye Ze P6 `e  f .f +f c6 @f #f ",
";[ $f %f &f *f &: ;- =f -f ;f >f <+ ,f 'f )f !f ~f {f l. o@ ]f I; W3 5b ^f /f hc (f _f :f ~e *{ <f Z^ [f }f |f `e 1f ;  2f 3f 4f ~1 5f 1) 6f 7f ;  8f 9f 0f af {4 bf G> cf df ef ff gf hf if jf 1, kf lf mf nf .[ of pf qf rf sf tf 8f f] uf vf wf xf Y* yf zf Af Bf Cf ;  Df F= Ef Ff Gf Hf If Jf {4 Kf Lf Mf Nf Of u, Pf Qf _. Rf ^# v8 3] Sf Tf ;  :9 Uf Vf Wf Xf Yf Zf `f 1>  g .g +g @g #g ",
"$g %g 4@ %e &g K% *g e) C! 5) b{ W^ 3^ b) {[ =g -g Ad ;g Z{ y@    73 A> >g s_ ,g 'g :! C) b) 4) C) b) 5) A) )g !g ~g {g =c ]g ^g 4: ^# z. /g (g _g 5) 4) 4) c) e) 8) 5) 9) :g <g [g >+ }g 1. c0 |g 1g 2g 3g 4g -; 5g C!  ! .! D) b) 9) c) H' 6g `e 7g `* 8g 9g t] ^  0g l; ag bg :' C! 4) c) b) D! A) 4) b) cg dg eg fg L3 z- gg hg N+ W# ;# ig w^ b) b) 4) _! 4) a) a) 0) jg kg lg mg ng og h} ",
"pg qg c! ;  Va Wb  ! y)  ! C) M( 0) E! 9~ D! rg |d sg tg n< $$ ug [_ vg 4| wg (&  ! a) A) 9) B) .! A) 9) 4) y) xg yg zg B4 Ag Bg Cg Dg ;  Eg B; 0) 5) 4) 9) G' _! 4) 6) a)  ! =g (* Fg ;  P3 H~ Gg n8 Hg Ig Q1 Jg D) y) 4) 4) a) a) y) M( 4) Kg Lg Mg Ng Og Pg Qg z* p9 Rg Sg qb b) a) 4) 4) .! D! ]~ b) a) 5) Tg Ug Vg Wg Xg Yg ;  Zg `g  h .h 9/ a) 4) 4) 4) 4) 0) C) a) b) +h @h |! J0 #h $h ",
"%h ;  W# &h *h =h 4) D! b) 4) D) .! i! 0) 4) 4) -h ;h >h =2 p  S7 u! ,& /' B} ,h A) :! D! 8) A) b) A) c) 5) C) ;  'h )h !h ~h f> {h ]h ^h v& =8 9) 5) 6) y) b) 5) 4) b) 5) 6) /h z. (h _h :h <h [h ve $} H$ }h |h 9~ G' 0) b) :] 5) y) c) b) b) ce 1h C+ 2h 3h 4h 5h _4 6h  [ 7h 4) 6) e) 0) D) 6) 5) 9~ a) 4) 8h 9h )f ]. 0h ah bh ch Z^ dh eh 9~ a) a) 4) a) 0) 4) 9~ 4) y) fh C] I; 03 gh hh ",
"D^ Y} %! ih jh kh 9) 6) 5) d) _! 0) .! i! a) 4) lh mh nh oh ph qh rh sh th uh vh .! C)  ! A) M~ 4)  ! 6) D) 5) wh xh ]- V@ yh {9 l{ 3[ zh Ah Bh b) M( 6) c) c) b) 6) a) b)  ! Ch Dh R8 Eh Fh W) Gh K/ Hh Ih Jh r( b{ _! 4) 5) 0) 4) .! b) a) 4) xe Kh Lh Mh Nh 9a Oh Ph Qh Rh zd 4) .! b) 6) 9~ .! A) 4) e) 9~ Sh S  Th Og Uh Vh u: G/ Wh Xh ga 6) A) D) c) 5) b) y) a) 4) 5) H7 Yh ;. Zh [- `h ",
" i ^# 08 7* ;  D! 5) z)  ! 5) 4) 4) W^ D) 6< y) Ug w- .i +i @i )3 #i $i %i &i *i A) 9) ~[ A) b) b) c) C) 0) 0) =i -i J, z* ;i |c N0 A5 >i ,i 'i 6) 4) 0) ;^ 9) b)  ! D! c) b) af )i !i ~i C+ va 2c {i ;  ^9 ]i ^i b{ 0) D) 4) 4) d) 4) c) y) b) /i (i 4} _i ;  :i O  <i [i }i |i 0) b) D) 5)  !  ! c) y) 9~ a) 1i 2i 3i '> 4i 5i B4 6i .% 7i 8i b) 4) 5) D) 9) ]~ b) 6) c) B) 9i r: 0i ai bi @> ",
"ci di .1 ,! 95 ei 5) <! 6) 5) _! 4) 4) i! _! i! Yh fi gi hi ii ji ki 0@ $c li mi A) B) A) b) 5) y) e) 6) c) c) )e )e ni oi pi qi =! ri si ti ui 6) 0) E! D! a)  ! b) b) 0) 6) Vd vi Td wi xi :f n@ yi zi T@ Ai &_ F) M( _! 9~ 4) y) y) 4) 4) 6) Bi Ci Di Ei f3 Fi R$ R5 Gi Hi Ii .! G' 4) 3^ c) y) b) 4) c) 9~ Ji Ki Ke Li Mi Ni $$ Oi Pi Qi Ri C) _! 4) .! 9~  ! 4) 6) 5) #) Si +f Ti Ui ^e ;  ",
";  ,1 r) Vi @8 Wi  ! 4) A) y) 4) >^ _! F) 0) F) Xi Yi Zi `i  j .j +j @j %2 >0 #j 8) X^ 9) 4) .! 6) a) a) a) .! ^* $j %j &j *j Y$ =j -j ;j (; >j F) b) C) i! z) A) b) 4) 4) b) ,j V! 'j )j ;  G} 0@ %@ L: !j ~j B! b{ 0) e) y) 0) b) b) a) 9~ 5) {j ]j ^j /j n@ ;  (j _j q' |] *# 4) :j a) A) 5) 5) .! 9~ b) D) Me <j 4b [j }j |j P5 Z  66 1j 2j a) A) 5) 4) 4) 4) D) 5) b) a) 3j 4j 5j Da ^$ Y> ",
"k; 6j &0 7j 8j 9j A)  ! z) b) 0) D) 9~ 6< b{ 4) G8 0j aj bj cj dj '# ej fj 5# gj D! A) A) 6) D) D! b) y) 5) b) ye #* 'j hj ij jj kj lj mj nj oj b) A) C) a) 4) 9~ 4) 4) E) 4) pj qj :@ rj F/ sj #9 8% }_ ;  tj uj C) b{ a) 4) 4) 4) a) :! F) b) *f H7 B1 vj wj xj yj &} n8 q- zj y) b) 4) b) 6) D! b) G' .! .! Aj Bj Cj Dj Ej X- Fj v  Gj Hj y- b) 9) 5) 5) b) 5) b) a) .! .! 3j Ij Jj Kj Ra Lj ",
"Mj Nj Q^ Oj 33 Pj b) b) A) b) a) i! :! i! b) Qj Ee Rj L: ;  i5 Sj Tj !. C~ Uj Vj B)  ! 8) z) 6) L~ :! D) 5) 0) J] Wj d] Xj {* {; Yj Zj `j  k C7 C) 4) 4) i! C) 4) c) .! 0) 0) ', .k +k @k ;  G& #k Yc $k %k E= &k D) b{ i! _! *k y) e) C! 4) =k ;  -k ;k >k ;  ,k 'k T{ )k !k ~k y) D) 9~ 4) 4) b) 6) C! #) c) {k ]k c7 g- ^k ]6 /k (k _k :k D4 4) y) 4) 4) 4) 3^ a) .! a) A) <k [k }k |k K| 1k ",
"6= 2k E+ e{ {) ^} ]~ A) y) :! >^ a) 0) b) c) 3k 4k 5k 6k 7k &} x. 8k B. 9k 0k c> z) D! b) A) 6) D) 4) 5) :] ak bk ck &. dk ek fk gk hk ik jk kk lk W^ 4) M( D) D) 4) D) 9~ 4) mk k* nk ok pk qk rk sk tk uk vk wk _! F) _! 5) c) 5) c) 5) 9) xk yk zk Ak Bk e. L0 $g ^  ;  Ck Dk :] 4) y) 5) C) b) 6) y) D) B) g0 Ek U^ W> x1 Fk 6> >! Gk ke 95 Hk .! .! a) 4) c) 4) 4) c) 6) Ik y+ x] Jk Kk Lk ",
"Mk v] Nk Ok Pk Qk Rk Sk Tk H+ J3 Uk Vk Wk Xk Yk Zk `k  l 80 92 v  .l +l @l #l $l %l &l *l =l -l  i ;l >l ,l 'l )l !l x< ~l {l n8 ]l ^l c! /l Ah (l q^ _l :l <l u& 51 ^  [l }l |l 1l #, 2l 3l 4a 4l B4 5l 6l ;  d- 7l 8l ;  9l %j &} 0l }2 79 al bl cl dl el fl gl hl il 92 jl n< kl ll ml nl ol pl ql r@ +{ rl sl ;  tl ul vl wl xl ;  yl G{ zl Al W/ Bl Cl m: 6! -[ Dl El Fl z~ Gl 7+ o4 Hl h@ ",
"V< Il &+ f0 Jl ;  Kl _1 Ll Ml !9 %8 7# -~ Nl E/ Ol Pl Ql x# Rl X_ R& ]i Sl Tl Ul &} P6 Vl ^# !) ,( Wl Xl Yl Zl `l  m .m +m @m 7~ '% #m $m '% %m !. &m *m =m -m ;m d- Vl >m 4j ,m 'm )m !m ~m {m N/ k} U{ ]m |  ^m /m L. (m _m ;  :m <m [m }m }a |m 13 1m 2! 2m 3m u. D8 7j 4m Q  5m 6m da 7m 8m 9m 0m am B@ bm cm dm Ba em fm u2 gm hm yi im I0 `= jm km lm Vk N/ mm h+ nm om 'b pm qm rm sm tm ",
"um vm wm xm ym zm Am O# Bm Cm Dm Em Fm Gm [2 <~ Hm 5> Im Jm p  Km Lm Mm Nm r[ x$ Om Pm y@ I= 7~ z. Qm .  Rm Sm }; Tm =  Um Y9 Vm Wm T{ Nk Xm Ym Zm vh x) 92 s^ `m r4  n *' w3 .n +n @n -. y8 ,' #n $n %n ~@ ;  )3 &n 7m *n #* =n .^ Rm (4 :3 -n ;n ;  >n ,n 'n G$ )n o# !n ~n {n l7 1. ]n ^} Wb ^n -  /n L9 C, (n ]3 -m [; _n :n <n [n }n |n 6# 1n g) yi Y] 2n l& 3n Wg 4n 5n 6n G0 7n 8n /1 9^ ",
"9n 0n ,1 an bn cn dn en fn Z; 9^ gn /. hn 1% in '7 jn /( kn ;  ln ;  mn s^ nn O^ on pn qn x; rn Q9 sn qd tn ^  un vn wn xn yn zn An Bn Cn 7. nb Gm Dn En Fn Gn Hn In Jn Kn 3/ Ln w' Mn Nn On Pn S9 Ec bc Qn Rn Sn Tn E  O> Un ~& Vn Wn @f 9* >: ^# H$ ;  Xn ;  ;  Q  hl @] Yn Zn `n i<  o .o +o @o h/ #o N! m/ $o %o &o *o 9+ =o -o Tl ;o >o 3; ,o 'o )o 5b !o h/ ~o x) '' {o ]o ^o /o _| J> (o ",
"9+ _o :o C} <o [o 7~ }o |o H% 1o 2o 3o h% 4o p* 5o ]_ Nl h5 6o 7o ;  8o 9o 0o Y] ao :d 7~ G} [h bo co do eo fo go ho io l8 (* E  jo ko lo i@ U) u' mo no oo po qo ro so 6= to Jn %@ C_ .+ uo vo Ma wo 69 =n xo yo zo Ao 3~ Bo Co <) Do '  ]0 Eo Fo Go Ho d. Io Jo Ko Lo Hc Mo '  No Oo Po f& Qo Ro So To Ta Uo Vo Q9 6; Wo )c Xo v+ Yo Zo am `o Dk  p .p ba +p @p K@ r8 t# #p &+ a0 $p %p &p *p ",
"d+ @, -8 H  =p n: *a -p (  R, ,{ ;p >p ,p 'p )p 5- .i !p Q  ~p {p ]p ^p /p (p _p U# :p $4 <p &+ 6o ym [p }p 92 |p 1p 2p >+ 3p }/ 4p u; 7. k& 5p Z: 6p %< vc 6, U9 :& 7p ;  8p f! &} ;  &^ ^' 3m C& 9p 0p ap bp ;  cp U^ ]% dp ;  q' ep fp gp hp ip jp @@ )* 8. kp lp ^# @6 mp np pa op 3] R: pp qp rp I^ sp tp up Q9 vp wp xp ;  yp zp Ap >@ !. Bp Cp Dp p[ ;  ;  q$ Ep Fp Bp Gp Hp Ip P3 j> Jp ",
"Kp gc Lp Mp :< Np Op Pp Qp 2l `+ Rp Sp Tp Up C1 Vp ;  Wp Xp Yp Zp `p &0  q .q +q @q #q $q %q &q *q =q 3  #< `3 -q ;q >q E: z* &0 }n k% ,q W# 92 'q )q a5 !q qp [j ~q {q So R* gj ]q ~n Y+ ^q /o /q *9 e0 ;  (q .@ .% }l _q :q ;  1$  2 <q s^ [6 [q ~n }q |q h< g@ 1q 2q _~ ;  3q 4q 5q }0 6q T% 7q 8q 9q 0q aq bq cq dq eq fq ]= gq hq iq jq y} Y- am kq lq mq 6{ nq R& oq pq %2 qq rq Hb sq `_ ",
"tq uq vq wq /l xq yq zq Aq Bq Q{ Cq Dq /} Eq Fq Gq Hq Iq Jq Kq Lq Mq Hp E  Nq !6 w@ Oq Pq Qq Rq Sq Tq Uq ). Vq Wq Xq Yq Zq <( V5 `q  r ,m ,{ .r +r @r #r )k $r m{ %r &r =^ J% *r =r -r ;r >r ,r 'r )r 9b !r ~r Wb {r ]r [% u) ^r /r (r 7~ ~+ _r Kf :r <r _~ [r 9b }r |r 'o 1r 2r M6 /@ 3r *1 !) 4r 5r ^  6r // 7r 8r 9r 0r e0 ar br cr dr Eg er fr v% gr hr ^{ ir jr kr lr mr u; nr or pr qr rr ",
"sr tr ur vr }6 wr 6> xr yr X, zr Ar Br Cr Dr Er ;  ;. Fr t2 Gr Hr Ir Jr hb Kr Lr b~ +@ Mr Nr Or Pr Qr Rr Sr Tr Ur Vr #^ I( Wr Xr Yr 2% Zr `r  s o5 .s *p +s @s #s __ $s )8 Un %s &s _{ <9 *s =s -s ;s >s ,s 's %r %. )s !s ~s ;  {s ]s b} F| ^s Bo ;  /s (s _s nm ;  4: :s H_ B+ <s [s /] }s |s 1s 2s 3s !: $; c[ O* u+ pi 4s 5s 6s j} 7s 8s La 9s 0s as bs cs ds <= !d es fs gs G! hs ;% d- va ",
"is 7# js 8& ks ls t8 ms ns os ps %: qs rs bf ss ts us vs R} ws xs ys zs As Bs Cs 56 Ds Es Fs ye Gs Hs Is Js o^ Ks Is Ls ~@ Ms Ns Os Ps Qs Rs Ss Ts Us Vs Ws Xs Ys Zs `s  t .t +t @t #t $t %t u{ Aa [% [+ &t *t =t -t ;t >t Qr lf ,t 't )t Gg Rq ;  !t ~t }% B@ {t E+ ]t ^t /t j, (t qf _t :t <t [t ck }t |t 1t 2t 3t 4t 5t 6t 7t 8t 9t 0t at bt H7 ct dt et ft gt ht %: bk it jt kt lt o. o  mt ",
"nt ot 68 pt qt d= it rt cl P1 st tt 9$ ut ;  vt _> wt F{ xt yt zt At Bt Ct Dt Et Ft a} xd Gt Ht It Jt w, [. Kt Lt A; Mt Nt Ot ^+ Pt Qt Rt St Tt V~ =i Ut Vt (f A> )d Wt Xt l& Yt Zt 7f Q' `t l&  u T  2| ;  .u A& +u @u |s *4 #u $u %u &u *u =u #9 -u ;u r9 >u ,u T+ _h D[ Ba Ss 'u )u W, !u Wt 5$ ~u {u ]u ^u /u (u _u &} :u <u [u }u /c |u Ap M' 1u !t 2u o6 3u >g 4u 5u 'd 6u >+ 7u 8u 9u 7~ ",
"0u au bu cu du G= eu fu fu gu hu iu ;} 2_ ju ku lu mu ct nu N/ ou pu 7m |* 4[ c/ qu ru 7} X: su y: tu uu vu wu xu Gl L# yu zu Au Bu r$ Cu Du R, Eu Fu T[ Gu Hu T[ w[ 0[ Iu Ju 9| W] Ku Lu ba ;  Mu Nu ]m Ou 4[ d{ Pu fu Qu Ru Su Tu <: r< Uu <@ Vu ]i Wu Xu Yu Zu S1 `u  v I1 o6 .v +v @v Z< Hu a[ #v o} <' $v %v {h &v *v =v -v ;v >v zb ,v +e 'v )v !v ~v b[ {v tu 8< ]v ~d ^v /v (v _v eh  . ",
":v <v [v }v ~] |v [: T[ 7} 1v 2v ^[ L_ 3v C) 4v 5v q& a/ 6v 7v 8v 9v 0v av bv w] /[ cv dv ev fv gv I< 5} u[ _! 0f hv V/ iv jv kv gt lv 2{ mv nv [: 2v S[ ov W: S[ <: r( 3v pv qv rv sv tv 1. (; z. (; uv B= vv wv 9< xv 7} dv yv zv L_ Av 4) Bv ;  Cv <| Dv Ev K9 Fv Gv L$ Hv Iv J} Jv Kv 1v Lv Mv o} &_ C) .! Nv Ov Pv Qv z| Rv Sv Tv ]% Uv Vv Wv f: Xv Yv Zv 2v `v  w 1_ G' .w }# +w dm r4 vb ",
"s$ /h 44 @w #w $w L_ 0[ %w &w *w =w kh .! b) A) -w ;w %j >w v= &4 ,w i@ K. 'w )w !w ~w {w r< d: ]w ^w v[ G' :] /w (w ~; _w :w <w +4 [w G^ Do }w uu |w 1w 2w 2w 5} ][ ^w 4) 0) 3w 4w 5w v& 6w 7w |< cl 8w 9w d6 0w 0w @: uu I< 0[ aw ^w 3v _! _! bw ]_ z. /] cw dw ew -. 84 ;  fw p_ M_ $w o} 2_ P( ^w W^ 4) b) gw 7- hw |2 #j iw jw p   * kw lw uu mw V: 0[ |w uu r< {[ C) 0) nw ow ld r9 Go B$ ",
"pw ;  qw f< rw v[ &) P( K_ sw v[ kh _! 6) A) 6) xd tw uw At vw ww  @ xw yw zw ;v kh +: K_ {[ W^ W^ F) F) 4) b) N, Aw q[ i5 Bw Cw Dw ^$ Ew 3& 4} v[ v[ -} P( Fw Gw Hw C) 6) a) Iw Jw w^ a/ +{ Qr Kw t8 Lw Mw Nw Ow o} Av *_ Pw P( Qw >^ 4) F) W^ ;  Rw ;  R& ;  Sw 1$ Tw Uw Vw Ww kh +: 7< ~< .: E) 9~ y) 5) b) 'w Xw Yw Zw w/ `w y5 T6 *o  x q7 Gw K_ K_ K_ Fw 7< W^ i! e) a) .x +x @x #x ^f w- ",
"$x Vb %x &x *x b) :! i! o_ G' 5) b) 6) 5)  ! A) =x -x ;x Vd >x I# ,x 'x )x j^ !x >^ C) 4) 4) .! b) 4) 9~ a) 5) ~x {x ]x ^x /x (x _x :x .{ <x }6 pv C) C) :! i! i! C) C) e) c) [x ~e }0 }x va N0 |x 1x 2x 3x 4x 5x o_ >^ >^ W^ F) _! C) 0) b) c) :@ 6x ;  $8 7x 8x 9x `  0x {h ~- a) y) 4) 4) 5) 4) 5) 5) 9) b) ax z. v% !. bx k* cx dx ex fx gx G' b) 5) G' 4) 4) b) E) 4) :] hx ix ns Aa ^  jx ",
"kx lx mx g> nx  ! 4) .! u[ 4) c) .! y) A) 8) 9) ., ox $' >_ px |! qx H+ rx &. sx 5) y) b) A) ]~  ! 8) 4) 0) a) tx ux vx wx xx l/ Ud T$ yx 3< |s 4) 4) 9) :! b) y) y) y) y) 4) `! zx Ax 3! Bx Cx ~@ Dx ~: >+ nn 0) b{ G' >^ 4) 0) 9~ 5) 5) 4) z) u/ lh ;  Ex 1$ Fx Gx i% Hx Ix Jx b) b) c) 5) :] D) 4) b) b) a) Kx Lx Mx i% Nx Ox Z^ 4x H/ Px Qx 5) 5) b) y) b) _! #) 5) 6) b) Rx Sx Tx Ux ex Vx ",
"Wx Xx Yx >, Zx 4) c) D) W^ 4) b) 5) 5) 5) A) 9) `x Wj  y E  |  .y N) `7 +y 5. @y  ! D! 4) B) B) 6) 5) 9) 5) a) de F/ #y {a $y %y &y  o au z2 *y b) 5) A) b) M~ 6) 5) b) b) 4) =y -y ;y >y ,y 'y )y !y ~y ma ;  4) 0) b) C) e) 9~ 4) C) 4) a) A) G> {y }0  + i% P% ]y ^y /y @b (y 6) y) b) G' 5) 4) 5) b) D) 5) S3 <[ k* _y :y <y [y }y |y 1y Ww b) 5) 5) b) y) .! 5) e) b) 5) 2y 3y 4y 5y :5 pt ",
"_9 nu 4y 6y U) c) 4) 0) C) M( b) A) 5) b) b) 5) 7y 8y 9y 0y &> ay !  C8 gq by D8 A) :] b) A) 6) b) b) .! b) 4) ;  Qd cy dy ey q= d7  7 fy gy h< B) 7) 4) b) y) b) y) 6) 4) #) hy iy jy V# *[ ky ly my ym ny 73 c) 5)  ! D! d) b) c) C) b) A) b) oy %r py qy va ry ,x sy ty uy vy ]~  ! ]~ b) A) wy b) .! :] 4) C+ rv xy X3 yy zy Ay [_ X- By c6 #) 5) 5) c) 4) b) b) 5) b) #) Cy Dy Ey S1 Fy Gy ",
"Iv Hy Iy ^- <. Jy A) :] D) _!  ! 6) 4) b) b) 5) Ky (h Ly D[ My >s Ny Oy Py p  W8 a) 4) 4) y) y) b) b) b) b) b) my ]. Br '( lq Qy Ry Sy Ty Uy ph _! X^ D! b) b) b) b) b) 4) c) Vy '- 2= Wy Xy Yy qt ;  P6 Zy `y  z 4) b) 4) e) A) G' b) b) D! 6) `u `s -, .z +z Lw @z #z $z %z &z 8) 5) 6) D! B) ]~ 6) :] 4) b) *z ;  Y; =z Xo )3 -z ;. ;z >z D8 b) 5) y) 6) 6) c) 4) b) b) c) ,z 'z )z Ql !z ~z ",
"{z .{ ]z v& ^z V% b) D) .! u[ A) 6) 5) b) b) cd /z (z _z ;  :z Qr <z [z *! }z |z sw G' a) G' y) 6) a) b) 4) 1z 2z 3z 4z 3( t] 5z 6z L7 7z 8z 9z 0z z) 5) y) b) a) 4) y) .! b) az _[ 8* bz cz dz ;  ez fz gz ;  ]9 :] 9) D) E) b) b) 5) b) b) hz iz jz kz lz mz nz bp e} oz pz qz G' D! A) 5) y) 6) c) a)  ! rz sz tz uz V> F3 c_ vz wz xz t/ yz zz .! a) .! b) c) 5) 4) d) e) Az g* Bz }& wa Cz ",
"J; z{ Dz Nu Ez Fz Gz -. ;0 ~o au b% Hz ]j Iz Jz P% ti Kz Lz Mz f< Nz Oz Pz Qz Rz T5 Sz _~ Tz K. a@ Uz Vz Wz Xz Yz 4[ Zz dm x1 8j `z  A ]0 &e .A +A p+ @A #A $A _2 ke o[ )< %A S* Bx E- 4g .y &A *A Q  =A ta -A ;  Bc ;A >A ,A @/ r8 11 'A Rq )A !A ;  ;  ~A W7 ^9 :@ {A ]A (q ^A '# /A 9& La (A Vl Ly _A 1f :A +/ <A _( S# Xp [A n8 }A |A ;q a@ U. 1A ~. 2A 3A 4A 5A }> 'h 6A +, ;~ o2 7A 0{ Br ",
"p+ 8A 9A 0A aA bA dm cA dA h3 bi eA fA gA hA iA jA kA *% _k :c w{ &+ lA .y mA nA oA pA p^ =+ qA rA ,. F^ ,[ 3t sA ^; tA uA L% vA wA xA #% yA '% zA .. AA ;  R& ;  Z{ BA CA ~u DA EA FA GA HA a& lq IA :, yp qx JA KA LA MA NA OA Wk ;  PA QA RA n8 4x SA TA UA VA WA XA B} m0 L{ YA T8 ZA 9g `A j2 S1 Zb `= +h  B .B +B @B #B dA Og $B %B W# &B Xu *B =B /a -B ;B Q  >B ,B O> 'B c! '% )B !B v} ",
"~B {B ]B ^B '# /B Q2 (B _B 16 ^@ (( :B <B r{ [B }B |B 1B 2B 3B 4B x} {_ 5B 6B 7B 8B 9B =9 p= 5{ b0 *q 0B aB bB cB dB eB D} |& ,6 Z& fB gB hB ^# iB jB ]0 ;  ;q kB lB (@ mB nB ;  Do oB S, pB qB rB e@ sB tB uB vB s[ ]t wB xB 5h e. I+ =$ T{ yB ;  zB AB BB /( CB DB EB FB GB Uf HB ]0 5l i% C1 ;6 t] IB JB ;  KB LB ik MB NB Ra 5t Q8 OB PB QB RB SB TB o@ E4 ~m 92 UB VB WB XB YB ZB #> ~@ *q ",
"`B  C .C 8[ +C @C #C $C %C &C >+ *C =C *# -C E] ;C >C ,C 'C )C !C Sa ~C {C U/ ]C ^C /C (C _C :C '{ ~= <C B( ;  [C B- }C H| |C 1C 2C 3C 4C `3 5C %[ 6C Sn 7C ^9 7. 8C 9C 0C aC bC #^ A  hB 1= cC Ft 3q dC eC n8 fC {] gC hC iC jC kC }, J+ lC Bc mC ;  a# 8[ |$ nC oC pC qC rC sC tC uC vC F; ,[ wC xC yC zC 7c AC ]* BC (d w/ d# t2 CC DC ;  EC FC 5b GC HC IC JC KC LC MC NC OC PC @i QC RC *r ",
"/C SC TC UC q: VC WC c6 XC YC w/ W7 ZC `C  D H4 sB .D +D @D Sg 5| #D $D %D &D fi *D =D -D ;D I( >D s9 ,D f> ^  'D bs I# 0h )D z{ h~ !D 7. ~D {D ]D ^D /D (D 1= _D .4 :D zb <D [D }D |D 1D a> ;A 2D 3D 4D p@ 5D 6D ;1 ;  7D 8D :  S$ 5[ k$ 9D Q  A& ;  P3 [_ %{ 0D aD bD x~ cD dD  k ;  eD Vl fD @[ W% gD :3 hD iD U< NA jD kD lD sr Q$ 2. mD ;c nD 7q oD }! pD qD rD sD tD &+ Ux k% uD E  vD ,[ ",
"m6 l1 wD xD yD zD AD c~ 3  Td BD CD DD ED FD GD HD )B i@ ID .9 JD KD LD o@ MD O< _z ND OD W> PD QD += RD SD TD UD VD hd WD Km XD ;  D{ YD ;[ ZD k. `D  E Ga 41 .E 4p .p +E @E #E G} m. $E Xo %E &E ]i *E =E -E Fp x} ;E 63 >n >E ,E 'E )A )E !E ~E {E ]E ^E /E H$ FD K^ }, Y! d. (E ;  _E :E 4p Z[ <E QA Ce [E }E |E Y* gy 1E M) +& 2E X( tn bp e. 3E 4E 6_ x^ uh 5E z3 k$ 6E 7E Q$ 8E J% E: by ",
"9E 2l O8 0E Bc aE bE cE dE eE fE _( gE hE ;  iE jE pk kE lE R& N/ mE nE f0 E7 Q$ oE pE re qE rE x1 lc sE C@ tE uE Q$ C+ Y% 7c ;' vE wE xE yE zE %B AE BE CE z{ DE EE ga ;  -p FE GE '% R' HE m0 IE .l JE 8- KE Hl `4 %e }c X( %_ LE ME NE OE Bc I= PE (% @8 QE RE SE TE ly ,[ r@ UE VE WE XE rt x1 v5 YE 7, ZE `E jl )+ ;  .*  F .F f' +1 /y +F Ms @F p  #F $F %F &F *F vr =F -F %e 5| /$ ;F 5& ",
">F eh ,F 'F Q$ F} C1 +_ DA )F !F s| ~F {F 6= ]F ;  ^F /F (F 6p H[ ~B _F :F <F [F }F ]9 |F 1F _* 2F 3F Zc ]} e. 4F a& w^ -> 5F 6F ~D 7F W/ 3l 8F 9F 0F aF bF +a ~F cF V~ dF L{ eF fF gF ~' 33 {_ hF iF K= jF kF lF mF nF u, oF pF qF CD rF sF tF uF vF T@ C1 A4 wF T$ 9[ 8a ~2 vn 36 xF yF zF ;  }#  [ AF BF pl CF DF ){ c* EF N= FF GF HF Ke H@ IF JF $[ KF g: LF |; gj MF Aa NF OF PF Ik lv QF ",
";  RF W# v& 78 SF TF UF VF WF 2s B% Md XF fk YF ZF `F  G L: ;  ve .G +G ,f /- B_ 3> zr @G #G 2d $G %G B> U' .{ %  &G v+ f1 X5 *G =G 8_ -G vw ;G '  >G x8 `s Q+ 2| ,G 'G Za ;  )G %: 1f !G ~G {G Dc bk ]G ^G /G (G _G :G +@ P, <G [G -; }G c/ |G #< 1G p% y@ 2G 3G 4G 5G 6G yD 7G  g ;  8G 9G 0G 5u aG bG cG ;' qj O/ dG '- eG fG Hs gG V, hG V; iG jG Le 1k kG {4 lG Uc ;y ;  mG nG Y] oG !. pG ",
"qG rG sG =# Z+ tG mz x5 uG XD vG !t Xf wG xG yG zG AG /] BG CG ;  Lf -u YF Kx 4% DG zG km (G EG .s FG GG HG ,! IG JG r8 Bd KG :a /B Bx LG &( PF MG /@ T< B: NG OG PG qv QG RG Kt SG K; TG UG Eb Y* V< Uc VG WG 3# N, <@ Wt XG YG ZG `G  H K^ .H -q +H ;  @H #H #_ {a $H %H G7 &H *H =H $e -H r3 ;H >H k~ ,H 'H ;  )H 't !H ~H {H ]H ^H /H (H _H gt :H <H [H }H |H 1H 2H 3H 4H 5H 6H 7H 8H 9H 0H ",
"aH .% bH ve rv cH t4 dH ;[ eH lq Yy fH >H gH D' D! A) 5) D! A) y) ~< V: W: X: hH iH jH kH |_ >C :u lH mH ^+ nH oH pH @< }o qH rH sH tH [= uH .m vH wH xH yH zH '  AH BH Dh CH E' 9) 9) 5) 0) b) C) Qw 2w Kv Gu DH EH :e FH C+ &x bg GH Gk $b HH IH ^  Bc .$ .% JH KH LH MH du NH OH PH <a nD QH RH SH =i TH UH $) A)  ! 4) A) G' u[  w VH @v 9< WH XH YH .u ZH *{ `H !: 5~  I .I C+ e$ +I @I o@ ",
"#I $I %I &I f! *I =I p+ -I ;I ^# 6i >I uu C) .!  ! 6) 5) b) 9) 5) _! Q( ;} Hu Yv ~v T[ dv {& 7+ Wa ,I 'I .< i< Z^ ;  x1 )I !I ~I *% {I ]I ;  I; ^I /I (I EE _I O/ G2 e: +: :I 5) 9) z) B) A) 4) .! P( L_ S[ @v Yv <I Z< [I }I |I p[ 1I 3/ 2I #} [1 3I `  4I 5I 6I fx 7I 8I 9I 3g 0I aI bI cI Sn dI XE $w Hw C) 6) A) B) y) .! 0) o_ r( 0[ eI 9< Xv hu su fI 54 gI :@ ;  hI iI jI m0  I kI A  ;  ",
"lI j* u. ad mI nI Ka r{ oI (= {* 73 pI qI _! 9) 9/ 6) b) 4) D) C) H' kh M_ VH rI #: rI sI tI .D -^ uI T{ 6h s~ vI Gx Yu uc wI xI v= yI `4 zI AI BI K  CI DI EI )3 ~@ FI 7< 9~ 6) ]~ 6)  ! A) 6) y) F) Av GI HI ;} II JI KI LI i* Pa Z% {m }2 #7 MI NI OI PI QI xG RI SI TI UI VI d5 WI XI 1$ YI ZI Q2 `I O( .!  ! 5) b) 5) y) <! _!  J .J M_ ^[ dv dv +J @J #J $J '% %J &J *J =J cj -. #d K^ {4 ",
"-J ;J >J ,J ;  'J )J ;o LC !J ~J oo '' d. C) b) 5) 4) A) y) a) 4) a) W^ kh o} R[ |w {J :& R' ]J ^J /J (J 0@ _J 5| >x =v ;  :J <J zk nu )- [J #& }J |J 1J 7. 2I 2J 3J X. 4J 4) B) 8) b) a) 6) b) A) b) 3v ^w 5J 0w r< 6J 7J 8J c! =1 9J 0J sz aJ bJ cJ z8 ;  dJ Wt eJ fJ gJ hJ B0 iJ r{ @F jJ -3 R& kJ ;  :! a) b) A) A)  ! A) 9) G' .! W^ Av lJ I< uu mJ nJ oJ 8c pJ qJ rJ sJ tJ uJ 33 vJ Ig ^A ",
"wJ xJ yJ zJ AJ s* S  e. BJ CJ -7 21 Z[ F@ Y+ 5) b) b) 9) a) 4) b) b) C) C) C) sw DJ &= +j EJ '% ]0 FJ GJ HJ IJ b] ~{ JJ nf *{ KJ LJ |! gI MJ NJ OJ V3 }o e2 PJ QJ i< RJ SJ b) A) ]~ A) 5) A) 4) 9) D! d) W^ 3v Qw TJ UJ VJ WJ }4 XJ ]d 4t YJ ZJ `J  K p) kd (( nk ]i Bi /; e. T5 $p .K +K 5+ T{ H$ @K mD #K .! 4) 5) 4) b) 5) y) b) b) y) _! ~< o_ $K p@ %K i< 1j EJ %l &K *K =K tl Rv ]A -K ;K ",
"XG >K w% ,K 'K #E b8 :l )K h3 !K 5! R/ @d ~K {K e) 9) b) D) 4) <! 5) D) 9~ G' _! ]K ^K sr {9 ;  /K (K U{ r2 `8 n6 /| I0 d7 _K :K <K [K }K M< |K 1K @8 2K E4 3K }^ 4K 5K 6K 7K a) c) b) y) A) 4) c) A) b) C) E! 8K 9K 0K aK 8v bK `  cK dK ,[ Ew v( eK yz fK f; gK hK '. iK k^ jK G} F7 kK Bc no lK mK R5 nK <@ 4) D) A) A) 9) b) y) 5) c) 5) B) 4} Ba VA m# (D <a Sj C1 oK pK qK rK sK tK uK vK ",
"wK rv xK Xx 'G yK zK 3# #g zu AK Y2 BK ;  Q) CK ;  4) a) 4) 4) b) c) 4) _! 4) }0 DK EK h/ FK GK HK IK ;  JK p  KK *{ S] LK 3% ~3 MK H% NK @g OK 4@ %r D$ PK 4x bE C^ w{ QK RK R. 5) 4) 9/ B) 0) D! <! B) 8) SK TK UK Ju ^e VK `3 WK ;  XK YK ZK /K `K  L Mt .L +L @L Lt #L $L    %L &L 6B i[ c> K. {{ R^ *L i% nf 0) a) B) B) a) 5) 5) 6) 6) 2D =L -L ;L >L Pc &^ ,L 'L ]d )L !L ~L {L ]L xi ^L ",
"!= %: -, /L (L bw 1n h7 bB `+ ,x _L ym :L <L ub Kq Q5 4) y) 4) C) b) 4) D) ;  ;  [L )B }L ^9 1G |L 1] 1L 2L 3L ;& 4L 5L >J 6L Za 7L u, ls 8L 9L D^ 0L aL bL cL dL R& eL fL gL sr ~: 4) a) b) b{ .! D! A) hL Vf cl iL D& jL kL _# =v lL 9J mL nL I= oL 4& a& pL ]m qL /w YG Fe i, =] rL sL X& tL J+ Q  uL n@ vL wL yh D) b) b) C) 4) M( e) xL 6h yL zL AL BL CL M$ C; i% N- DL ;  ;  <@ EL FL GL ",
"4' HL IL JL KL LL ML z~ ~o h~ gi NL F% OL PL m/ QL H2 RL 5) 6) 5) b) b) SL TL UL h/ VL WL sJ XL w3 zu YL ZL xJ j' Yk `L =3  M A' .M +M k3 @M #M 1s $M 6q %M &M *M =M -M 9$ w@ ;M .E >M A) a) 5) D) c) ,M JB G5 'M !o )M !M ~M 3, {M ]M ;  @^ ^M /M 7l :F 8y (M _M 6u be :M <M [M }M |M ;  so Mh ;  Hc 7* vp ;  1M 99 2M c) 6) e) 0) 4) *# 3M 4M 5M 6M j> T5 7M 1c 0b ~m 8M 9M .< $[ Bm dJ 0M 4) ",
":] a) bF ;  Jf aM Lr /] )8 bM cM dM eM l# fM am {] ;  R6 gM A) 5) hM iM 9& jM kM IL lM ^t mM nM oM pM qM rM sM )p tM 1: uM F) 0) C) vM 9| wM F! xM yM zM AM BM `= CM DM EM FM '  GM HM IM JM 6) 3^ KM LM MM NM OM S$ z( Mj )8 KH PM ^j QM ,% `* Oz h^ RM a) 4) 9~ <! SM TM t8 0e ~u UM N} VM +4 Lu WM mD XM ]0 ;  YM ZM Vj b{ 0) C) ;  J/ ,A e  l( `M !C  N db [/ .N T> +N @N #N $N %N &N b) o_ ",
"_! D) H' re *N =N -N !2 ;N Pg >N <_ ,N 'N )N G} &n P3 !N ~N E9 {N ]N =s ;  ^N /N (N _N :N k$ <N P1 [N }N ;  |N 1N 2N Qj _! O( :! H' 3N 4N 5N 6N c6 7N 8N oM dy I= 9N ;c 0N 4+ aN bN cq d$ R- cN J/ dN Q6 eN fN X( gN hN iN jN kN K; lN r^ yL d> <$ mN G' G' 4) 4) i! a) nN oN rt >; EF r| pN qN rN N0 p! 7$ sN tN ^z uN r0 vN wN xN yN 7/ %x zN n[ AN U= BN CN DN EN FN GN 5c HN >G IN u[ E! i! ",
"JN ^w KN 1_ ~e LN ,_ |! Mj MN xb ~I NN l# Wr ON PN QN !. RN SN TN !/ UN FK VN WN D} XN i% =K Bo Y* YN b/ ZN b, `N  O {[ Gw K_ .O 1_ 7< 3v +O @O #O $O %O YN Ss -8 CN &O *O =O Ob Eg o> -O 'B ;O >O >/ ,O 'O )O !O *q ~O G= {O ;  O} fx ]O Gi ^O z7 ^w sw v[ Hw 7< 1_ qI {[ /O (O _O JL :O cx 1# 73 <O d{ [O }O |O ;k 1O 2> 6D =O 2O 3O 4O e. L/ 5O 6O +4 7O 8O 9O &5 /& 0O /5 B} aO 1_ *_ ^w qI ",
"]w =w V: bO cO dO et $; OH g0 eO fO gO hO iO jO kO lO Q# Ni mO nO oO pO 3A m. qO rO sO f> tO ;  PF uO cl vO {) wO 5} xO ^[ p_ V: @: L_ L_ yO zO aB AO BO CO t~ DO EO m. ;u FO GO HO IO JO rk u2 KO L= LO 'B MO u2 E  NO zL e5 ;  ;  OO PO Le i, |w @: @: mw uu 2w 0[ 0[ 2_  w QO RO 5d DA NK :p SO TO 1e UO ik 0_ VO WO }# XO 7c VA V# ,1 YO p! =p ZO D{ Fl %( `O b.  P .P +P @P uu cO I< #P ~w ",
"$P II f: %P <: V: ;  &P T< *P R, .' r| N/ =P yd -P *N ;P >P ,P 'P )P !P ;  ~P {P ]P ^P dm /P (P _P *f cG :P <P [P }P |P a[ ]< 1P a[ 2P 3P |w 3P s( 4P +, H% 5P )z Rg 6P 7P  F 8P I= 80 mA i@ N/ 9P 0P aP bP n5 -&  } Ol [c Yc Pg rk cP dP 3% Xv S[ }P eP 1v J} J} fP gP VH e: $w hP :A ps iP nf !} jP S! kP lP Sm 18 mP mx nP uC oP pP r= q2 qP YB 'b {9 rP ^+ x< U/ kd vx sP }P tP Tu ev uP }P ",
"vP iu wP T[ W: 2w ~< hG xP yP =t zP AP 'l on BP <( CP DP F% EP FP GP HP m/ Q: IP JP TN  D KP .& /& LP MP NP OP PP b[ QP !v RP X: J} ev SP rI TP R[ UP VP /h WP XP YP ZP G> `P  Q MD zL w8    '% Xk B} .Q #3 +Q @Q #Q 3] $Q %Q v* &Q Ss u, *Q =Q ev T[ -Q ;Q QP {v ;Q cv ev >Q 3P *_ ,Q %r @L 'Q s2 y5 )Q Bc S} !Q z{ ~Q Bo c+ W# q= i@ '; {Q Pa -s m0 cb ]Q DF ^Q /Q F^ (Q _Q *Q QP :Q :Q <Q [Q ",
"}Q Hu |Q ]< rI Mv o_ .: nj Uc 1Q X% 2Q 1j 3Q /% z. =1 4Q H4 q=  y {> 5Q 6Q 7Q 0@ 8Q 9Q oM 0Q {@ wp (t aQ bQ cQ dQ eQ eQ ,} fQ gQ hQ RP iQ !v <: !w ~< jQ +, kQ lQ mQ S! RJ C& nQ WA ;  oQ pQ i% !. _* l( &4 qQ  ; rQ sQ tQ uQ vQ wQ xQ yQ ,} zQ ~v xv AQ eQ QP |Q QP BQ <I a[ TP Pw O( CQ DQ EQ FQ 5_ GQ 5% 8% 50 HQ R& IQ %8 BA JQ :9 a@ KQ fx ^| LQ MQ l) NQ g0 OQ PQ K< |Q QQ RQ SQ |Q TQ Ru ",
"QQ {v QP [P ;} UQ ~< #) _! ,a :> S5 VQ WQ &p XQ YQ ZQ `Q :p Gq `A  R G9 .R +R %C +} l: @R wF #R $R %R xv zQ &R ~v Ru *R QQ =R -R vP ;R QP 2v `v Q( i! a) >R p0 ,R 'R f! )R !R ;  ~R P> {R ]R ^R ^# :. /R (R _R :R <R w- [R ;  }R |R 1R QP :Q b[ |Q *R &R 2R 3R 4R 3R QQ Yv 8< ][ K_ F) C) qL 5R +w :K v| 6R .p 7R 8R 6E 9R :x 0R Yy aR bR 7. ^  C+ 73 cR dR eR ;  fR <I gR =Q &R OP hR zQ cQ iR ",
"fu jR kR rI %w sw .! b) 5) lR mR H= nR 1m 7& oR pR g> ^  qR rR FM W4 sR U7 tR uR vR YQ wR xR ;  '% x: yR zR -R AR BR &R CR Z< :Q RQ DR #: 3P Q( Hw 4) E! 5) Rq ER FR GR HR IR [F EO JR !r KR LR u5 Hm W# MR NR OR PR QR RR SR /_ 4[ VH y: TQ |Q ;Q fu TR RP UR VR ;R WR XR 2w -} _! b) 4) YR ZR `R Up  S ,x .S f7 x1 +S Gk ;v @S #S $S _u %S &S 8% *. Bd ;  *S =S -S }P 9< CR Ru QQ AQ !v RP ;S ",
"b[ >S tP uu +: H' i! 6) y) ,S ;  1j 'S 3/ F9 )S OK !S gm ~S {S kt ]S <[ ^S ~s /S v+ ut @j (S NL 0{ _S #: 4R ~v :S Qu fu |Q <S T[ [S }S HI bO o_ D) 6< 5) G' E@ y= K+ |S 1S 2S GM 2l 3S 4S ~I 5S 6S 7S s;  9 9# T9 i< 8S l[ 9S 0S aS mw 2P b[ 3R Qu AR ;R 3R 4R PP X: rI R[ v[ C) A) 5) D! cy bS mc cS T~ dS eS fS o@ gS hS iS jS fr kS $t lS 8_ ;  mS nS f> oS pS qS rS dv /[ T[ sS QP -R tS Qu ",
"WR 6} XR K_ i! .! 5) b) uS vS wS xS Da %~ yS !. am zS AS BS CS DS ES c* ;# w~ >m xh |{ |  FS Qt e0 _~ M_ f: hu ;Q wP fu ~v Xv wP 9< XR GS ^w C) 5) i! 5) 8o jA CP l# HS Ku OH I^ IS }9 JS 9, R5 #[ T{ SN OO ;G KS o# LS MS NS ;  OS PS uu y: QS QP [Q RS TQ 3R SS rI r< K_ {[ 6) 6) 5) TS ZG #J L& ^+ ;  US /N VS WS XS Sc YS ;  ZS `S  T .T ^  +T H] @T 1. 92 #T $T %T &w tP t< !v QQ 4R &T RP ",
"e: *T kh F) 6) 4) :! /L >- =O =T -T +/ +m R& Pp Hc P: ;T >T i8 ,T 'T .; )T !T ~T {T Uj &j m/ ]T ^T 1c Mz $w fv 9< /T Zv T[ b[ Su TP ]w (T H' 4) b) a) .> _T :T L6 <T .A [T }T sM d; =v |T |@ 1$ 7t 1T 2T #O 3T 2H rL 4T l@ 5T i< 6T ;  7T GI 8T J} >} QP T[ TQ %P V: Gw a) 4) B) ]~ g| k, H7 wr 9T 0T ]s !# aT W# 98 bT cT dT eT fT gT -4 hT  : #9 iT )b jT qa kT lT mT nT mw gv y: QQ BQ cv a[ ",
"0[ {[ 6) A) oT a) pT qT rT sT ^^ tT 8$ *K R}  . )7 P4 3l uT fr vT P3 kf ;  wT xT yT XO @[ zT AT L! 3( BT .S V: CT S[ eI 1v Tu DT lJ -} u[ C) c) D! :9 zx ET FT GT s^ HT IT 7~ JT %O W} KT (( qt LT MT NT OT KP .% K^ PT QT aT RT ST TT UT VT 2w WT <: a[ Tu #: &w P( H' _! B) L~ XT YP Rg ;  08 /] YT ZT `T  U .U +U ^A @U =~ #U $U >q %U $3 &U /# 2b ;  *U 8j QH W# )B .% =U e: f: y: ]< Yv Mv ",
"K_ C) 0) y) :! G: -U ;U >U *0 ,U 'U lr &@ E$ Qp t4 WL G6 10 )U !U (u $M u& ~U )0 8( [j {U _s Ol o@ ]U ^U /U (U Qw 3P _U 2v 3_ *_ :U O( C) 4) y) l& <U ^5 [U z8 }U |U |] 1U 2U G} ^# 3U 4U 5U ;  dk iM V  6U 7U )B 5@ 8U 7, ;  9U 0U aU ;  =6 bU 5} mw L_ 3P cU Pw {[ 5) b) b) dU eU 0b fU eS NL .y gU ;  hU fI 7/ iU c( jU s2 4i Vr ,r tL J( /% kU ;   ; ~^ lU mU !. nU &j 49 oU pU 6} `v TP L_ ",
"p( 4) b) _! qU rU sU tU uU vU KT Nt wU xU yU zU AU C1 BU CU DU b< EU Le FU GU HU IU 98 JU KU T> LU Z{ i1 MU NU %M qI 5J o} 5J H' H' i! 4) C) OU PU ;  QU W3 RU  1 [8 SU vQ TU UU VU y, 4y WU XU YU f] 6> u2 ZU 1U )C `U  V .V +V eS va R& @V >z #V +: -} Gw ^w :! D) 8) a) $V %V u4 2$ &V *V =V G: -V ;V >V ,V 'V )V fr %r !V tf Wf *u O6 ~V ;c ;  {V Gr ]V k. e0 !. -[ ^V /V (V _V K_ DJ qI (T ",
"C) 6) 5) :V <V [V 4b mt }V |V 1V X. 2V K. 3V 4V 5V 6V 7V 8V 9V ]i 0V {H -b )l _% aV bV cV dV K@ eV fV lj gV D$ 5/ hV >^ o_ 3N 4) iV u[ jV kV 8$ lV %  Nh w) mV j: _N 05 L6 K^ nV H$ q$ Vz oV O, pV iq ct G) 8c qV rV |  ]0 sV Jn f$ ~~ tV d< uV vV wV _! H' _! b) 4) M( xV -T U+ yV zV AV ~@ BV jy CV ]n DV Kc @[ xf EV .7 2s Ke FV GV t} HV /N IV r4 E~ Wk JV po KV 7~ LV {D D* MV NV v[ o_ G' ",
"y) 4) OV Ma PV /= QV wr l. RV SV TV UV VV WV hn XV }s :@ k, YV Gu ZV <g >z `V  W ^m .W +W @W #W $W (L QA H$ %W &W ;  OQ b) _! F) G' 0) *W ga T$ =W -W nB Kr ;W >W ,W U< 'W )W !W .L wb Ci ~W -R {W VG ]W ^W ,h /W M} (W .{ El A9 _W :r lK o# '  :W <W [W 5) :! 4) C) xV }W zf |W /j 1W 2W 3W 4W 5W 6W Sj 7W <_ 8W 9W 0W ZH aW bW cW ku @u cG <| k} w] -8 .; U8 dW W  eW p  fW /Q gW hW iW C) 4) ",
"7) jW '* V3 a@ kW L+ lW mW d> nW ;  oW pW 1$ 53 qW rW sW wP T[ tW X: uW <E vW wW Hz xW L+ 25 yW J3 /P Yz ;  8% zW AW .% [1 BW 8) A) CW 2> DW EW FW GW 8% HW zG [b Kc IW u  @o JW KW LW `c 4R fQ Ru T[ <f y5 fL MW NW {> #S S  OW d+ PW Z) ^$ QW Cd *h RW -@ C) A) SW F0 ;  $_ TW UW R* o+ uv F2 )k y} 6* 5@ ~* {)  l 6T bW =Q yQ wP <I VW WW xK [R XW f> >U YW ZW `W  X #} iv (} qN .X @% +X X^ ",
"@X id #X s* ${ 9x $X x1 i% %X &X *X =X -X ;X >C >X e, ;S =R ,X vP =R wP 'X ;j 'h ~, )X !X !t ~X {X ]X ;W W. ^X /X (X <N _X :X ^+ Q{ <X [X rA }X K) %  Dx $+ 27 a6 j' *x 8P <M |X 1X |e QQ RQ 2X wP ;R 4R t[ 3X Vs (i Pc O8 oN G6 4X 5X un F. A( 6X 7X 8X ^  9X 0X F. aX 3+ bX &j cX dX eX NL !+ fX gX 1u hX ', iX jX kX T[ lX ,X lX mX Gu nX $c /- oX pX s+ v5 lU &o qX rX Ku 19 f> {- sX 8c _X ",
"j2 h& vw {P z{ tX uX vX Wr Yq 5& nI x< wX 9s <$ /* ;R &R ,} 7} ~v ,X <Q xX yX zX ck AX W= Rg BX ir ~: Yr *K }{ CX DX K^ l  H$ EX pc 2( Rt FX p  $- '! GX E  HX n8 zC Zd z. IX JX gw }Q zQ ,X eQ KX CR xv fu uf 6g He LX I| MX vV NX l] OX )l f8 7. ,[ PX .9 m/ m/ QX RX SX aE 8F TX ,! Ma UX Ap jn k{ h/ VX WX XX b[ X: Z< 7} Ru |Q {v T[ =Q YX ZX |0 `X  Y .Y $g +Y 3/ g@ @Y #Y ^, $Y r} ft Nf ",
"'7 %Y a5 &Y R^ *Y =Y -Y ;  }& ;Y >Y ,Y 'Y )Y O/ ,} vP zQ ~v Qu ;S ,X =Q b[ b[ !Y ~Y 1k 'u =3 i% [6 t. {Y `= NU ;  !t wp In ]Y ^Y /Y tJ (Y _Y Vi >v :Y <Y [Y `= }Y |Y 9x ;  1Y 2Y QQ BQ <I eQ bW }Q QQ 3Y 3R TQ pf 4Y $u 5Y 6Y 7Y ;  ^F G% 8Y 9Y 0Y PW aY bY cY dY eY fY #r gY hY iY jY kY 3@ lY '  mY qb nY x> vP Hu Z< >} QQ oY T[ pY QQ QP >} ]i )G qY rY sY tY uY vY ;  wY %! aU xY yY zY m/ ",
"Fg AY OH P' BY N/ d- in CY J( DY EY t( FY GY 9< HY HY zQ ;Q lX lX Z< yQ Z< >} 2v IY <E ]m cl C% d& jK ;  Ty _5 7* `A ;  JY KY .{ Hh .c V$ q3 <x KS E~ _z LY MY va NY (( W; 5P <I tW {v ,X ,X <S ,} eQ Ru zR ;Q QS OY )F #D -' PY QY RY P_ .B gb SY TY @8 UY VY WY |z z{ XY yn @@ OI gM x1 qf 5# ;  YY ZY `Y <I  Z 9< kX yQ .Z QP QQ b[ ,X BQ Tu %P cf Od xu zF +Z HE H$ @Z #Z $Z r* `  %Z P: &Z ",
"b@ 7l }# ^X z& Q) G7 ;  Hl /  *Z =Z lu -Z wP ;Z >} YV QQ >Z QP =R ,Z <S <I eP Xv 'Z )Z eg !Z ~Z {Z ]Z ;  ^Z #H /Z (Z _Z 3  :Z Hq <Z [Z 8% }Z .^ <- H# 9] |Z 1Z 2Z jr ]9 3Z TQ 9< /[ lX ,X AR Hu wP hQ Qu Z< /[ W: &w L: sC 4Z 'Y 5Z n{ 6Z 7Z Q  8Z 9Z U) 0Z Q$ J9 aZ ^  5| bZ Cw ;% I, cZ dZ eZ fZ gZ hZ ;S ev eP =Q <I pY 9< xX wP cQ }Q =Q kR iZ o} jZ kZ  G lZ {> ~@ mZ nZ oZ '> A/ pZ qZ GG ",
"]B rZ .c sZ zF tZ uZ '$ LY vZ 5_ O1 &8 p} wP kX }Q =R 4R zQ fu ~v Hu Hu cv Tu S[ cO Gw Vy 9i wZ ]. t5 -n ;  xZ W> QX Q5 yZ d- zZ GT AZ @o MT BZ `= CZ DZ EZ FZ GZ HZ IZ JZ 3R ~v BQ CR bW wP KZ QQ !v yQ 9< [S !w qI 7< `s LZ MZ Ti V@ js NZ !; OZ PZ QZ <x RZ o# SZ TZ ;  $= ;  UZ &e VZ WZ gh XZ  l YZ tS Xv  Z $P ,X wP }Q QP gu Z< <I 2v fv |w ZZ `Z  ` xK x7 .` }4 +` @` #` `l h# `% FM $` ",
"%B {6 7- n[ %` &` kI >9 rt *` BF cV Bx /[ =R 7} vP AR eQ cQ hQ zQ QP 1R a[ f: M_ -} 7< &_ =` He -` ;` >` E_ ,` '` )` !` =& A+ ~` o  ;  %k =6 hi dn {` ]`  g Q4 [= 2V ^` Z< T[ bW /` 4R vP vP QP (` ,X b[ $P S[ d: W^ 4) 'u _` :` ~k J; <` [` }` |` 1` 2` 3` Op CL #Q ~@ 9T &~ `= W( 4` @/ 5` 6` i> ^C Z< Z< QP Z< 7` Z< gu }Q wP wP vP eI 8` R[ Gw W^ 0) 9` 0` ~Y Jf a` 3V ]0 ^# V/ 1# b` ~s @1 ",
"A8 4| D< .V c` d` e` @t f` @* Hl `Q g` FB h` T[ i` [Q ;S QP wP j` wP kR 2P 0[ Av {[ 'g cV k` Bu !: ]@ }v l` m` n` lv o` p` q` lA r` s` 2c t` k0 u` v` y* $t w` I& x` 9x y` T[ 9< !v wP bW bW AR UR *Q a[ HI o} ^w ]v $5 E] z` &* A` B` C` Z{ v* D` E` F` G` H` 1. `= I` J` _{ K` L` M` N` O` ]x ;W P` c_ Q` 7` /[ wP eQ <Q QP TQ ,X J} ;} ~w ][ G' R` S` T` 7r J; U` S& V` O@ W` X` Ge Y` u2 ;  ",
"ao Z` ``   .. .+ .z( 4@ ;  @ .# .$ .=3 oi A0 % .& .;  * .]4 5| &* cS eD = .-u n$ - .m/ LM ; .- .> .Ky , .' .d- -r *J ;  ) .Vg ! .~ .Z. { .2) ] .5| El aN ^ ./ .( ._ .)_ G9 dy |  V@ : .< .DV 5w [ .GC xZ } .z0 3/ | .1 .w{ X/ 2 .3 .4 .~- 5 .6 .7 .;  8 .;  3/ 9 .>o ^# U{ 1n ba l1 0 .PU a .7~ =% j; b .c .w, d .f< 4@ e .f .ka g .h .i .|V j .k .to G0 SC ~@ l .F_ m .n .kP o .p .er *+ {* q .",
"r .#9 W) &5 ;  AZ T$ s .gw B- b+ %8 Z= y, t .u .Y/ |  v .w .$# q$ @t ew x .o` y .z .A .9r (A B .72 Ic g@ Gl C .D .Y< B4 E .&x F .z* G .H .E  V+ Hl >. I .i% J .K .L .M .E   m N .O .`8 Cd m/ }~ P .]f Xe Q .e* R' %< by u{ e{ R .S .T .2q l7 U .1r V .W .79 yL X .f7 ]{ )6 HZ Y .6v Z .` . n  .....+..N* H~ qa W/ `  *q ;G ;  1$ ly u{ I$ J{ |  ]% ;  @..cj #..$..Q8 ){ 08 %..Q$ 8+ I{ &..6; C6 ",
"g< *..=..-..;..>..=K ,..0m '..S/ )..cF P3 Oa !..~..{..W# ]..zn e@ ^..;~ G= MQ /..:r (.._..}% :..<..Lk ;  C1 [..}..yx |..CW u] ^A 1..2..3..4..5..6..;  O` 0{ 'F 7..;o 8..9..0..a..J( )9 Yp b..@] c..d..E  $% e..f..T~ U7 ]0 g..D^ <= &H h..&} i..j..k..l..m..!< n..<N 8w o..$` p..^# q..)k r..Hi Z, s..t..9^ 2x u..[+ v..MC w..x..1. y..h& z..92 A..B..(, V+ Op ^# v5 C..D..m2 Hi V# E..~n zE if ",
"AK F..o5 G..}1 W7 H..I..yx M! ~) J..K..>& L..M..N..9s O..P..Nk _d Q..R..Rw a( >e Uk S.._* }s T..U..V..W..X..Ri Km @U lF Y..v5 L: Z..`..R* l> z{  +.~; ;P /C Zj ^q Vv  . Is .+.}2 ++.jA Gk @+.WS t] #+.$+.%+.&+.*+.;  >/ U7 )_ =+.-+.1. H7 #& qN ;+.>+.)* ,+.Ji '+.$F gi He )+.KQ Z& X( !+.~+.'  Q  {+.]+.^+.vg T, 6$ O .7F /+.(+._+.dA /Z :+.M^ {s <+.O/ QX [+.}+.d= |+.1+.Ww 2+.$+.3+.$~ 4+.5+."};
