/* XPM */
static char * 2_2_xpm[] = {
"128 128 8914 3",
"   	c #8C9080",
".  	c #818270",
"+  	c #878876",
"@  	c #8B8E7B",
"#  	c #808C7D",
"$  	c #6A6E62",
"%  	c #6F7263",
"&  	c #5D6053",
"*  	c #131613",
"=  	c #121011",
"-  	c #121413",
";  	c #141714",
">  	c #161617",
",  	c #161816",
"'  	c #1F231D",
")  	c #37302E",
"!  	c #444536",
"~  	c #5B4E47",
"{  	c #635C4D",
"]  	c #62624C",
"^  	c #6A5E52",
"/  	c #6B5752",
"(  	c #676A53",
"_  	c #5F5349",
":  	c #414D47",
"<  	c #606963",
"[  	c #515E59",
"}  	c #5B645C",
"|  	c #595F54",
"1  	c #798277",
"2  	c #7A8074",
"3  	c #80867A",
"4  	c #8D998D",
"5  	c #666D5E",
"6  	c #8BA09B",
"7  	c #6B766B",
"8  	c #6D7E72",
"9  	c #6E8079",
"0  	c #8A9187",
"a  	c #879185",
"b  	c #727466",
"c  	c #5D675D",
"d  	c #7D877F",
"e  	c #788477",
"f  	c #70827F",
"g  	c #7B847B",
"h  	c #86897C",
"i  	c #849384",
"j  	c #869184",
"k  	c #88938A",
"l  	c #88968C",
"m  	c #81877C",
"n  	c #8A9488",
"o  	c #7E8981",
"p  	c #828880",
"q  	c #767D6E",
"r  	c #737E74",
"s  	c #6E766B",
"t  	c #767A6B",
"u  	c #6D756C",
"v  	c #696B60",
"w  	c #7F8374",
"x  	c #7B8575",
"y  	c #72796C",
"z  	c #85958F",
"A  	c #77867B",
"B  	c #6E776C",
"C  	c #6F7F74",
"D  	c #768073",
"E  	c #717F72",
"F  	c #687060",
"G  	c #868D7C",
"H  	c #6B6D5B",
"I  	c #8D9786",
"J  	c #798A7E",
"K  	c #67746B",
"L  	c #858C81",
"M  	c #828A7F",
"N  	c #859187",
"O  	c #8B9B92",
"P  	c #777F74",
"Q  	c #7B7F72",
"R  	c #7B8477",
"S  	c #7F8476",
"T  	c #798678",
"U  	c #90998B",
"V  	c #909688",
"W  	c #8A978A",
"X  	c #818B7E",
"Y  	c #8C9B89",
"Z  	c #7E8577",
"`  	c #82897D",
" . 	c #777C70",
".. 	c #77847A",
"+. 	c #77837A",
"@. 	c #7A7C6E",
"#. 	c #878573",
"$. 	c #849686",
"%. 	c #828D81",
"&. 	c #85918B",
"*. 	c #7F8C80",
"=. 	c #757B72",
"-. 	c #676E67",
";. 	c #686E64",
">. 	c #171818",
",. 	c #151616",
"'. 	c #171817",
"). 	c #171617",
"!. 	c #181B1A",
"~. 	c #171717",
"{. 	c #232020",
"]. 	c #3A3B31",
"^. 	c #4A3D3B",
"/. 	c #625F4F",
"(. 	c #625F4C",
"_. 	c #5A5045",
":. 	c #63544C",
"<. 	c #655B4F",
"[. 	c #5C5446",
"}. 	c #6B5D54",
"|. 	c #545349",
"1. 	c #646A62",
"2. 	c #535A50",
"3. 	c #616E67",
"4. 	c #5E6459",
"5. 	c #798478",
"6. 	c #7F8075",
"7. 	c #80897B",
"8. 	c #777E70",
"9. 	c #8D9787",
"0. 	c #8E8F7D",
"a. 	c #979C8D",
"b. 	c #6E7060",
"c. 	c #697062",
"d. 	c #677065",
"e. 	c #5C645A",
"f. 	c #151A17",
"g. 	c #111011",
"h. 	c #131614",
"i. 	c #131714",
"j. 	c #171516",
"k. 	c #201C1C",
"l. 	c #362F2D",
"m. 	c #49403A",
"n. 	c #5A5247",
"o. 	c #63664F",
"p. 	c #685C51",
"q. 	c #675D50",
"r. 	c #6A6E55",
"s. 	c #63584D",
"t. 	c #5F5649",
"u. 	c #474E45",
"v. 	c #656A61",
"w. 	c #5B625B",
"x. 	c #5F6660",
"y. 	c #717E76",
"z. 	c #7A877E",
"A. 	c #939588",
"B. 	c #647065",
"C. 	c #878F7E",
"D. 	c #8B9482",
"E. 	c #687465",
"F. 	c #718174",
"G. 	c #657164",
"H. 	c #6A7569",
"I. 	c #5F695C",
"J. 	c #5E5F53",
"K. 	c #697469",
"L. 	c #758177",
"M. 	c #616D65",
"N. 	c #707A6F",
"O. 	c #71776C",
"P. 	c #6F7A70",
"Q. 	c #7D8173",
"R. 	c #777B72",
"S. 	c #7A867D",
"T. 	c #7D897F",
"U. 	c #75837B",
"V. 	c #768076",
"W. 	c #7A8075",
"X. 	c #778075",
"Y. 	c #767B71",
"Z. 	c #6A7268",
"`. 	c #868A7D",
" + 	c #6D7367",
".+ 	c #767E75",
"++ 	c #6F766A",
"@+ 	c #6C7569",
"#+ 	c #858E82",
"$+ 	c #8D9083",
"%+ 	c #828774",
"&+ 	c #758377",
"*+ 	c #6A7165",
"=+ 	c #656D64",
"-+ 	c #6E766C",
";+ 	c #636A60",
">+ 	c #6E7E75",
",+ 	c #616B5F",
"'+ 	c #686E60",
")+ 	c #5A6155",
"!+ 	c #6C7766",
"~+ 	c #697565",
"{+ 	c #646758",
"]+ 	c #74796E",
"^+ 	c #687167",
"/+ 	c #6D7469",
"(+ 	c #6C7468",
"_+ 	c #838F85",
":+ 	c #72766B",
"<+ 	c #6B7368",
"[+ 	c #747E73",
"}+ 	c #6D7B72",
"|+ 	c #6F7464",
"1+ 	c #808374",
"2+ 	c #687066",
"3+ 	c #778478",
"4+ 	c #787A6A",
"5+ 	c #848E81",
"6+ 	c #888D82",
"7+ 	c #7B8078",
"8+ 	c #838E82",
"9+ 	c #747A6E",
"0+ 	c #788074",
"a+ 	c #888772",
"b+ 	c #9B9E82",
"c+ 	c #86927D",
"d+ 	c #8F9D8B",
"e+ 	c #7F9185",
"f+ 	c #64706A",
"g+ 	c #5E6359",
"h+ 	c #151816",
"i+ 	c #131213",
"j+ 	c #161817",
"k+ 	c #151516",
"l+ 	c #1B1E1B",
"m+ 	c #211E1F",
"n+ 	c #322A29",
"o+ 	c #474038",
"p+ 	c #5C4947",
"q+ 	c #5D5048",
"r+ 	c #63564D",
"s+ 	c #63594C",
"t+ 	c #665D4F",
"u+ 	c #63504B",
"v+ 	c #594E44",
"w+ 	c #474B42",
"x+ 	c #4D5145",
"y+ 	c #64695F",
"z+ 	c #70766A",
"A+ 	c #788177",
"B+ 	c #84897E",
"C+ 	c #7C8175",
"D+ 	c #7F8979",
"E+ 	c #6C6F60",
"F+ 	c #6A6D60",
"G+ 	c #818376",
"H+ 	c #6C7062",
"I+ 	c #697266",
"J+ 	c #757F74",
"K+ 	c #5E6356",
"L+ 	c #131414",
"M+ 	c #121212",
"N+ 	c #141514",
"O+ 	c #131312",
"P+ 	c #131313",
"Q+ 	c #161B17",
"R+ 	c #21241F",
"S+ 	c #312A2A",
"T+ 	c #463B39",
"U+ 	c #5D4F49",
"V+ 	c #666050",
"W+ 	c #6B6954",
"X+ 	c #656750",
"Y+ 	c #5A4F44",
"Z+ 	c #5F5E4A",
"`+ 	c #544A3F",
" @ 	c #434842",
".@ 	c #60645B",
"+@ 	c #555C53",
"@@ 	c #6F766C",
"#@ 	c #79867C",
"$@ 	c #818A7F",
"%@ 	c #7C877C",
"&@ 	c #768276",
"*@ 	c #727C70",
"=@ 	c #85887A",
"-@ 	c #8E9785",
";@ 	c #858879",
">@ 	c #8D9081",
",@ 	c #6A7366",
"'@ 	c #5B685E",
")@ 	c #596258",
"!@ 	c #757B6D",
"~@ 	c #5F655C",
"{@ 	c #6C766D",
"]@ 	c #6E786E",
"^@ 	c #5D695F",
"/@ 	c #6A6E63",
"(@ 	c #6E7970",
"_@ 	c #79857B",
":@ 	c #757B70",
"<@ 	c #777D74",
"[@ 	c #737C70",
"}@ 	c #70776E",
"|@ 	c #676A60",
"1@ 	c #61675D",
"2@ 	c #63675C",
"3@ 	c #626B60",
"4@ 	c #70786F",
"5@ 	c #61685E",
"6@ 	c #626C65",
"7@ 	c #758076",
"8@ 	c #71796E",
"9@ 	c #6D796F",
"0@ 	c #767E6D",
"a@ 	c #808779",
"b@ 	c #788378",
"c@ 	c #747C71",
"d@ 	c #5F655A",
"e@ 	c #575B51",
"f@ 	c #58635B",
"g@ 	c #5C6A65",
"h@ 	c #50574D",
"i@ 	c #5A645A",
"j@ 	c #575B4D",
"k@ 	c #5A6458",
"l@ 	c #78796B",
"m@ 	c #6D786F",
"n@ 	c #7C8277",
"o@ 	c #5D635A",
"p@ 	c #5F6961",
"q@ 	c #727A71",
"r@ 	c #686D62",
"s@ 	c #6E7061",
"t@ 	c #667166",
"u@ 	c #63685E",
"v@ 	c #6B6B5D",
"w@ 	c #697067",
"x@ 	c #697166",
"y@ 	c #6A7066",
"z@ 	c #6E7261",
"A@ 	c #777569",
"B@ 	c #7C8379",
"C@ 	c #777B6F",
"D@ 	c #727A70",
"E@ 	c #778073",
"F@ 	c #83897B",
"G@ 	c #848B7C",
"H@ 	c #8A8878",
"I@ 	c #959888",
"J@ 	c #8B9283",
"K@ 	c #89988E",
"L@ 	c #747C72",
"M@ 	c #6E7367",
"N@ 	c #181A19",
"O@ 	c #161A17",
"P@ 	c #151315",
"Q@ 	c #181918",
"R@ 	c #22211E",
"S@ 	c #322928",
"T@ 	c #493F3A",
"U@ 	c #5A5646",
"V@ 	c #5E4F49",
"W@ 	c #695751",
"X@ 	c #706258",
"Y@ 	c #6F6056",
"Z@ 	c #6D5955",
"`@ 	c #6D5D55",
" # 	c #4A4B40",
".# 	c #595B53",
"+# 	c #707368",
"@# 	c #667066",
"## 	c #7C887F",
"$# 	c #868C80",
"%# 	c #888F83",
"&# 	c #869087",
"*# 	c #6E7365",
"=# 	c #808375",
"-# 	c #757A6C",
";# 	c #747766",
"># 	c #7E8B7F",
",# 	c #888E80",
"'# 	c #687166",
")# 	c #121213",
"!# 	c #141315",
"~# 	c #1C1B19",
"{# 	c #312C2A",
"]# 	c #47453B",
"^# 	c #515341",
"/# 	c #575544",
"(# 	c #63584E",
"_# 	c #60524B",
":# 	c #655E4F",
"<# 	c #626751",
"[# 	c #64604F",
"}# 	c #4A4F46",
"|# 	c #5B6056",
"1# 	c #5D6A62",
"2# 	c #677066",
"3# 	c #78837A",
"4# 	c #808D85",
"5# 	c #7E8477",
"6# 	c #7E7E70",
"7# 	c #73796B",
"8# 	c #6B786B",
"9# 	c #6E7467",
"0# 	c #5C6359",
"a# 	c #6A6F61",
"b# 	c #5D6A61",
"c# 	c #697368",
"d# 	c #646D65",
"e# 	c #626C64",
"f# 	c #6D736B",
"g# 	c #49514A",
"h# 	c #5E6660",
"i# 	c #646A60",
"j# 	c #656C61",
"k# 	c #616557",
"l# 	c #63685D",
"m# 	c #686F67",
"n# 	c #6F786F",
"o# 	c #6F776D",
"p# 	c #717B6F",
"q# 	c #737D71",
"r# 	c #546057",
"s# 	c #667169",
"t# 	c #5A665E",
"u# 	c #586359",
"v# 	c #6A706A",
"w# 	c #7A857D",
"x# 	c #868778",
"y# 	c #818476",
"z# 	c #90A195",
"A# 	c #788176",
"B# 	c #868E7F",
"C# 	c #60685F",
"D# 	c #676E62",
"E# 	c #52584E",
"F# 	c #4B4D43",
"G# 	c #545D53",
"H# 	c #4C4E44",
"I# 	c #525144",
"J# 	c #545748",
"K# 	c #545948",
"L# 	c #525E57",
"M# 	c #576159",
"N# 	c #6A6E65",
"O# 	c #6E746D",
"P# 	c #6C746A",
"Q# 	c #6C7268",
"R# 	c #666E64",
"S# 	c #606D65",
"T# 	c #65736B",
"U# 	c #686D63",
"V# 	c #61665E",
"W# 	c #616456",
"X# 	c #606054",
"Y# 	c #69695E",
"Z# 	c #78806C",
"`# 	c #7A877D",
" $ 	c #7B837B",
".$ 	c #828B82",
"+$ 	c #879383",
"@$ 	c #878C79",
"#$ 	c #8A8E76",
"$$ 	c #80897D",
"%$ 	c #8E8F81",
"&$ 	c #929586",
"*$ 	c #7F8579",
"=$ 	c #7E8578",
"-$ 	c #727B71",
";$ 	c #171C18",
">$ 	c #161818",
",$ 	c #181919",
"'$ 	c #151817",
")$ 	c #161515",
"!$ 	c #201B1D",
"~$ 	c #35362E",
"{$ 	c #4A423C",
"]$ 	c #585545",
"^$ 	c #685851",
"/$ 	c #63524B",
"($ 	c #6A6153",
"_$ 	c #65584E",
":$ 	c #6F6457",
"<$ 	c #6F6157",
"[$ 	c #54574E",
"}$ 	c #60645A",
"|$ 	c #6F7369",
"1$ 	c #7A827A",
"2$ 	c #8A8D7F",
"3$ 	c #76796C",
"4$ 	c #696B5E",
"5$ 	c #888575",
"6$ 	c #818A7C",
"7$ 	c #6F7466",
"8$ 	c #808476",
"9$ 	c #6B766C",
"0$ 	c #666B5E",
"a$ 	c #141815",
"b$ 	c #121514",
"c$ 	c #151815",
"d$ 	c #1B1E1A",
"e$ 	c #292525",
"f$ 	c #32352A",
"g$ 	c #473F3A",
"h$ 	c #504840",
"i$ 	c #565845",
"j$ 	c #575A48",
"k$ 	c #4E483D",
"l$ 	c #49483A",
"m$ 	c #4D483D",
"n$ 	c #4E544B",
"o$ 	c #515850",
"p$ 	c #73786E",
"q$ 	c #77847C",
"r$ 	c #808A81",
"s$ 	c #7E867D",
"t$ 	c #83877A",
"u$ 	c #808B7E",
"v$ 	c #868D7F",
"w$ 	c #899990",
"x$ 	c #616B61",
"y$ 	c #7D867B",
"z$ 	c #697269",
"A$ 	c #6A6C62",
"B$ 	c #60675C",
"C$ 	c #656859",
"D$ 	c #565A4E",
"E$ 	c #535749",
"F$ 	c #616457",
"G$ 	c #61675E",
"H$ 	c #565A55",
"I$ 	c #515A51",
"J$ 	c #5A5C52",
"K$ 	c #595E54",
"L$ 	c #5A6056",
"M$ 	c #55564D",
"N$ 	c #646C63",
"O$ 	c #58625A",
"P$ 	c #687266",
"Q$ 	c #5E6B64",
"R$ 	c #666C62",
"S$ 	c #656C64",
"T$ 	c #596460",
"U$ 	c #60685E",
"V$ 	c #6C7166",
"W$ 	c #666C63",
"X$ 	c #78857B",
"Y$ 	c #777F73",
"Z$ 	c #878B78",
"`$ 	c #929784",
" % 	c #889889",
".% 	c #8D9587",
"+% 	c #6C796D",
"@% 	c #505246",
"#% 	c #4B5047",
"$% 	c #424A42",
"%% 	c #454A42",
"&% 	c #43453A",
"*% 	c #474B40",
"=% 	c #5E6055",
"-% 	c #676C61",
";% 	c #4F5751",
">% 	c #4C4E45",
",% 	c #595E57",
"'% 	c #55584E",
")% 	c #5D6257",
"!% 	c #51584E",
"~% 	c #535C53",
"{% 	c #575E55",
"]% 	c #5A5D53",
"^% 	c #5E6962",
"/% 	c #5C675F",
"(% 	c #595F56",
"_% 	c #60675D",
":% 	c #6E6E5F",
"<% 	c #7A7965",
"[% 	c #6B7068",
"}% 	c #74786D",
"|% 	c #77796B",
"1% 	c #8F9B89",
"2% 	c #8A9484",
"3% 	c #8F947B",
"4% 	c #89836D",
"5% 	c #899288",
"6% 	c #767F71",
"7% 	c #8D9487",
"8% 	c #7C887E",
"9% 	c #78857D",
"0% 	c #181C1A",
"a% 	c #151515",
"b% 	c #191B19",
"c% 	c #1A191A",
"d% 	c #22241F",
"e% 	c #3A3831",
"f% 	c #463A37",
"g% 	c #595346",
"h% 	c #695852",
"i% 	c #6C5C54",
"j% 	c #695A51",
"k% 	c #67554F",
"l% 	c #6C5653",
"m% 	c #565C53",
"n% 	c #666961",
"o% 	c #6C7067",
"p% 	c #6A6E64",
"q% 	c #80877D",
"r% 	c #7F887E",
"s% 	c #767B6D",
"t% 	c #767A6C",
"u% 	c #707769",
"v% 	c #707567",
"w% 	c #82897A",
"x% 	c #727A6E",
"y% 	c #7E8880",
"z% 	c #6D7065",
"A% 	c #151716",
"B% 	c #111112",
"C% 	c #111111",
"D% 	c #121513",
"E% 	c #151814",
"F% 	c #222120",
"G% 	c #22211D",
"H% 	c #35352E",
"I% 	c #38322E",
"J% 	c #3C3532",
"K% 	c #3F3F34",
"L% 	c #363E31",
"M% 	c #3F4336",
"N% 	c #373C30",
"O% 	c #525A56",
"P% 	c #606960",
"Q% 	c #6C7169",
"R% 	c #6A736A",
"S% 	c #747D75",
"T% 	c #71766A",
"U% 	c #717E71",
"V% 	c #84918A",
"W% 	c #858C7F",
"X% 	c #818D7D",
"Y% 	c #879488",
"Z% 	c #798779",
"`% 	c #7C8475",
" & 	c #7A837E",
".& 	c #49544C",
"+& 	c #43463D",
"@& 	c #56564E",
"#& 	c #4E4D3F",
"$& 	c #3E4038",
"%& 	c #55564E",
"&& 	c #3E4743",
"*& 	c #3D433B",
"=& 	c #474A42",
"-& 	c #4D5149",
";& 	c #515249",
">& 	c #4F4D42",
",& 	c #51544F",
"'& 	c #53574F",
")& 	c #4C514C",
"!& 	c #4D564D",
"~& 	c #44493E",
"{& 	c #4F5549",
"]& 	c #5C675D",
"^& 	c #53584E",
"/& 	c #67726C",
"(& 	c #64685E",
"_& 	c #677166",
":& 	c #888E82",
"<& 	c #87968D",
"[& 	c #7E8779",
"}& 	c #98A595",
"|& 	c #97A696",
"1& 	c #989D8B",
"2& 	c #7C897D",
"3& 	c #5C6D64",
"4& 	c #51554D",
"5& 	c #454B43",
"6& 	c #454D45",
"7& 	c #434B43",
"8& 	c #3F453E",
"9& 	c #474D44",
"0& 	c #484B41",
"a& 	c #41453C",
"b& 	c #4E5049",
"c& 	c #575D53",
"d& 	c #4F534C",
"e& 	c #4C554F",
"f& 	c #4D5750",
"g& 	c #50554F",
"h& 	c #53554C",
"i& 	c #515954",
"j& 	c #585E56",
"k& 	c #676B5E",
"l& 	c #5D6158",
"m& 	c #6E6D64",
"n& 	c #7F8E84",
"o& 	c #676D61",
"p& 	c #7C7B6F",
"q& 	c #848475",
"r& 	c #8E8D7A",
"s& 	c #89897C",
"t& 	c #73786B",
"u& 	c #8B9A8C",
"v& 	c #747D73",
"w& 	c #858D85",
"x& 	c #171A18",
"y& 	c #151614",
"z& 	c #221F1F",
"A& 	c #332F2B",
"B& 	c #474238",
"C& 	c #63604E",
"D& 	c #6B5F54",
"E& 	c #706257",
"F& 	c #6D6556",
"G& 	c #634D4B",
"H& 	c #55574D",
"I& 	c #6D7369",
"J& 	c #75776B",
"K& 	c #747D74",
"L& 	c #80857B",
"M& 	c #89978C",
"N& 	c #909283",
"O& 	c #6B6C5F",
"P& 	c #74786A",
"Q& 	c #737361",
"R& 	c #7E8576",
"S& 	c #849180",
"T& 	c #81867C",
"U& 	c #818779",
"V& 	c #707B70",
"W& 	c #141814",
"X& 	c #141715",
"Y& 	c #191C1A",
"Z& 	c #20201F",
"`& 	c #252623",
" * 	c #262322",
".* 	c #2A2B26",
"+* 	c #2A2C26",
"@* 	c #293028",
"#* 	c #292725",
"$* 	c #2B2A26",
"%* 	c #55574E",
"&* 	c #61675F",
"** 	c #656B62",
"=* 	c #75837D",
"-* 	c #707970",
";* 	c #727A6D",
">* 	c #848F82",
",* 	c #879083",
"'* 	c #838B7F",
")* 	c #808E82",
"!* 	c #869082",
"~* 	c #7A8B84",
"{* 	c #656B63",
"]* 	c #3E4740",
"^* 	c #464B41",
"/* 	c #494C43",
"(* 	c #464A41",
"_* 	c #3E4543",
":* 	c #464E48",
"<* 	c #474E47",
"[* 	c #494F49",
"}* 	c #4B4E49",
"|* 	c #3B3F3A",
"1* 	c #46443C",
"2* 	c #4A4940",
"3* 	c #4C4B41",
"4* 	c #525347",
"5* 	c #4D534A",
"6* 	c #5C5F54",
"7* 	c #626C61",
"8* 	c #585E54",
"9* 	c #4E554F",
"0* 	c #6F7266",
"a* 	c #757667",
"b* 	c #898F7F",
"c* 	c #728071",
"d* 	c #868679",
"e* 	c #849283",
"f* 	c #929B8C",
"g* 	c #9AA48C",
"h* 	c #888C7A",
"i* 	c #6C705F",
"j* 	c #727B6C",
"k* 	c #61685B",
"l* 	c #4B544B",
"m* 	c #3D4038",
"n* 	c #383D37",
"o* 	c #4E5651",
"p* 	c #3F423B",
"q* 	c #3E423B",
"r* 	c #424640",
"s* 	c #404842",
"t* 	c #42453E",
"u* 	c #434840",
"v* 	c #444944",
"w* 	c #40453E",
"x* 	c #43453F",
"y* 	c #494B44",
"z* 	c #40443D",
"A* 	c #48504C",
"B* 	c #4A4E45",
"C* 	c #525C54",
"D* 	c #64675E",
"E* 	c #68746B",
"F* 	c #737E73",
"G* 	c #7F877E",
"H* 	c #828C80",
"I* 	c #858D82",
"J* 	c #828C81",
"K* 	c #858572",
"L* 	c #8F9183",
"M* 	c #808474",
"N* 	c #838F81",
"O* 	c #707A6D",
"P* 	c #626659",
"Q* 	c #585E53",
"R* 	c #141414",
"S* 	c #161717",
"T* 	c #191818",
"U* 	c #242220",
"V* 	c #362E2D",
"W* 	c #4C433C",
"X* 	c #52423F",
"Y* 	c #61544B",
"Z* 	c #6F6156",
"`* 	c #705B57",
" = 	c #746A5B",
".= 	c #6B5E54",
"+= 	c #6A5952",
"@= 	c #55564B",
"#= 	c #626359",
"$= 	c #6F796F",
"%= 	c #74786B",
"&= 	c #737A72",
"*= 	c #757F73",
"== 	c #868F83",
"-= 	c #787B6F",
";= 	c #757C6F",
">= 	c #767D71",
",= 	c #85897A",
"'= 	c #8A9481",
")= 	c #6A7161",
"!= 	c #81897C",
"~= 	c #5B5C4E",
"{= 	c #141915",
"]= 	c #101011",
"^= 	c #111012",
"/= 	c #161718",
"(= 	c #121512",
"_= 	c #181818",
":= 	c #1C211D",
"<= 	c #1A1919",
"[= 	c #191819",
"}= 	c #1D1D1C",
"|= 	c #1C1D1C",
"1= 	c #1C241E",
"2= 	c #525953",
"3= 	c #656F68",
"4= 	c #637169",
"5= 	c #6A766A",
"6= 	c #747D72",
"7= 	c #818D82",
"8= 	c #7E877A",
"9= 	c #7C857A",
"0= 	c #7A877C",
"a= 	c #7A8375",
"b= 	c #809083",
"c= 	c #818C80",
"d= 	c #849489",
"e= 	c #767F74",
"f= 	c #4E5753",
"g= 	c #383E39",
"h= 	c #343834",
"i= 	c #2B2E2B",
"j= 	c #262824",
"k= 	c #2A2E2A",
"l= 	c #2C302B",
"m= 	c #313531",
"n= 	c #2F302B",
"o= 	c #2F302D",
"p= 	c #2A2F2B",
"q= 	c #2D302D",
"r= 	c #2E2F29",
"s= 	c #30332E",
"t= 	c #3C413D",
"u= 	c #4B4B43",
"v= 	c #4F5248",
"w= 	c #535E53",
"x= 	c #5F6256",
"y= 	c #7A8475",
"z= 	c #7D8376",
"A= 	c #838878",
"B= 	c #8B8E7D",
"C= 	c #838B7A",
"D= 	c #8C9482",
"E= 	c #8B9683",
"F= 	c #666C61",
"G= 	c #7B8272",
"H= 	c #5F6D63",
"I= 	c #343934",
"J= 	c #2B2D29",
"K= 	c #272C2A",
"L= 	c #292C28",
"M= 	c #2B2D28",
"N= 	c #252B26",
"O= 	c #2C2F2A",
"P= 	c #2A2C28",
"Q= 	c #2F312E",
"R= 	c #2F332F",
"S= 	c #2E332D",
"T= 	c #2F3531",
"U= 	c #323732",
"V= 	c #3E453D",
"W= 	c #4C544D",
"X= 	c #5D6259",
"Y= 	c #5E635B",
"Z= 	c #696F66",
"`= 	c #68736A",
" - 	c #7B827A",
".- 	c #616658",
"+- 	c #818577",
"@- 	c #787D70",
"#- 	c #8D9B91",
"$- 	c #8C9085",
"%- 	c #71786A",
"&- 	c #696A59",
"*- 	c #717567",
"=- 	c #545A4F",
"-- 	c #151615",
";- 	c #111211",
">- 	c #121713",
",- 	c #151417",
"'- 	c #171917",
")- 	c #221E1E",
"!- 	c #342C2B",
"~- 	c #534442",
"{- 	c #5E5449",
"]- 	c #5E5049",
"^- 	c #6B6354",
"/- 	c #6E5E55",
"(- 	c #675B50",
"_- 	c #6D6755",
":- 	c #6B5B53",
"<- 	c #54564B",
"[- 	c #657066",
"}- 	c #6F7365",
"|- 	c #818A7E",
"1- 	c #696E5F",
"2- 	c #70796F",
"3- 	c #6D6F61",
"4- 	c #858B7F",
"5- 	c #747D6F",
"6- 	c #7D8068",
"7- 	c #7E8D81",
"8- 	c #7B8981",
"9- 	c #121312",
"0- 	c #131513",
"a- 	c #111212",
"b- 	c #121211",
"c- 	c #121412",
"d- 	c #181D1A",
"e- 	c #191D1A",
"f- 	c #191E1A",
"g- 	c #4D544E",
"h- 	c #626B61",
"i- 	c #626962",
"j- 	c #5F645B",
"k- 	c #748076",
"l- 	c #7D877B",
"m- 	c #808A80",
"n- 	c #7C8273",
"o- 	c #839286",
"p- 	c #91A399",
"q- 	c #969F90",
"r- 	c #7C867A",
"s- 	c #87988E",
"t- 	c #869188",
"u- 	c #5F6E64",
"v- 	c #333530",
"w- 	c #191E1B",
"x- 	c #171A17",
"y- 	c #171918",
"z- 	c #151517",
"A- 	c #171C19",
"B- 	c #161516",
"C- 	c #171919",
"D- 	c #3A3F3A",
"E- 	c #50544E",
"F- 	c #545E59",
"G- 	c #525951",
"H- 	c #646B60",
"I- 	c #787A66",
"J- 	c #768478",
"K- 	c #86897A",
"L- 	c #858976",
"M- 	c #848F7E",
"N- 	c #707166",
"O- 	c #8D9186",
"P- 	c #8E8B80",
"Q- 	c #8F8C78",
"R- 	c #767D6D",
"S- 	c #5C6356",
"T- 	c #706F5D",
"U- 	c #292B26",
"V- 	c #131514",
"W- 	c #181817",
"X- 	c #22221F",
"Y- 	c #35302C",
"Z- 	c #454337",
"`- 	c #5C4F47",
" ; 	c #6D6055",
".; 	c #695951",
"+; 	c #63574D",
"@; 	c #43433D",
"#; 	c #525A52",
"$; 	c #5F675F",
"%; 	c #62655E",
"&; 	c #616960",
"*; 	c #6D766C",
"=; 	c #7F8172",
"-; 	c #7F8678",
";; 	c #70786D",
">; 	c #737B6E",
",; 	c #646454",
"'; 	c #8F9B8C",
"); 	c #849284",
"!; 	c #8C998B",
"~; 	c #717767",
"{; 	c #767E71",
"]; 	c #5C6357",
"^; 	c #141615",
"/; 	c #37322F",
"(; 	c #494A3B",
"_; 	c #554241",
":; 	c #5B4B46",
"<; 	c #62554B",
"[; 	c #6E5A56",
"}; 	c #6E5D56",
"|; 	c #706558",
"1; 	c #695B51",
"2; 	c #52574E",
"3; 	c #6F7062",
"4; 	c #787F75",
"5; 	c #888B7E",
"6; 	c #808B81",
"7; 	c #8D9285",
"8; 	c #92978B",
"9; 	c #6B7062",
"0; 	c #656A5A",
"a; 	c #62685D",
"b; 	c #6A7062",
"c; 	c #77816E",
"d; 	c #767B70",
"e; 	c #758476",
"f; 	c #100F11",
"g; 	c #101010",
"h; 	c #121112",
"i; 	c #141515",
"j; 	c #111312",
"k; 	c #171B19",
"l; 	c #151415",
"m; 	c #171718",
"n; 	c #181B19",
"o; 	c #181E1A",
"p; 	c #4C5148",
"q; 	c #66736E",
"r; 	c #626A63",
"s; 	c #6B6F66",
"t; 	c #778579",
"u; 	c #75857A",
"v; 	c #72796D",
"w; 	c #859184",
"x; 	c #808E80",
"y; 	c #788276",
"z; 	c #8F988A",
"A; 	c #7B8375",
"B; 	c #8A958A",
"C; 	c #76877E",
"D; 	c #828E84",
"E; 	c #161B18",
"F; 	c #181C19",
"G; 	c #1A1F1C",
"H; 	c #4C5852",
"I; 	c #5A6461",
"J; 	c #4B5045",
"K; 	c #6B776D",
"L; 	c #6F7160",
"M; 	c #686B5D",
"N; 	c #747667",
"O; 	c #747A6A",
"P; 	c #767C70",
"Q; 	c #75786D",
"R; 	c #6C7264",
"S; 	c #7E8476",
"T; 	c #828779",
"U; 	c #978F7E",
"V; 	c #7C8471",
"W; 	c #5F6552",
"X; 	c #121313",
"Y; 	c #121612",
"Z; 	c #242321",
"`; 	c #34332C",
" > 	c #433E36",
".> 	c #605C4C",
"+> 	c #6F6D57",
"@> 	c #717159",
"#> 	c #62594C",
"$> 	c #565245",
"%> 	c #49524C",
"&> 	c #5A5E55",
"*> 	c #656E65",
"=> 	c #828678",
"-> 	c #83887A",
";> 	c #81897E",
">> 	c #828576",
",> 	c #868C81",
"'> 	c #616B63",
")> 	c #5C6459",
"!> 	c #69756A",
"~> 	c #858A7C",
"{> 	c #65695B",
"]> 	c #131413",
"^> 	c #121613",
"/> 	c #131615",
"(> 	c #161716",
"_> 	c #22231E",
":> 	c #38302F",
"<> 	c #4D433D",
"[> 	c #5C5348",
"}> 	c #6F6257",
"|> 	c #67564F",
"1> 	c #6E6156",
"2> 	c #6E6056",
"3> 	c #706657",
"4> 	c #6D5B54",
"5> 	c #545850",
"6> 	c #63655B",
"7> 	c #6F6D61",
"8> 	c #767C6D",
"9> 	c #7B8176",
"0> 	c #80887F",
"a> 	c #818479",
"b> 	c #717A6E",
"c> 	c #7E8B81",
"d> 	c #6C7367",
"e> 	c #686C5D",
"f> 	c #788174",
"g> 	c #636958",
"h> 	c #8A8C7B",
"i> 	c #768272",
"j> 	c #7B776A",
"k> 	c #141916",
"l> 	c #101212",
"m> 	c #171618",
"n> 	c #18191A",
"o> 	c #535D54",
"p> 	c #545D54",
"q> 	c #5E6961",
"r> 	c #6B7972",
"s> 	c #6C7267",
"t> 	c #737F76",
"u> 	c #888E83",
"v> 	c #819081",
"w> 	c #768175",
"x> 	c #7B8376",
"y> 	c #93A295",
"z> 	c #969B8C",
"A> 	c #8B9588",
"B> 	c #878E81",
"C> 	c #728178",
"D> 	c #777F77",
"E> 	c #181819",
"F> 	c #181C18",
"G> 	c #181D19",
"H> 	c #161918",
"I> 	c #171B18",
"J> 	c #151A16",
"K> 	c #141415",
"L> 	c #181B18",
"M> 	c #161916",
"N> 	c #475049",
"O> 	c #545B56",
"P> 	c #696F65",
"Q> 	c #6A7267",
"R> 	c #6F7973",
"S> 	c #7D8C82",
"T> 	c #768278",
"U> 	c #7D8A7F",
"V> 	c #767F73",
"W> 	c #727B6E",
"X> 	c #838C7F",
"Y> 	c #7D8678",
"Z> 	c #6D7971",
"`> 	c #151A18",
" , 	c #121714",
"., 	c #121814",
"+, 	c #20231D",
"@, 	c #32352B",
"#, 	c #48423A",
"$, 	c #5F5C4C",
"%, 	c #60524A",
"&, 	c #574541",
"*, 	c #676B53",
"=, 	c #64534D",
"-, 	c #614A4A",
";, 	c #53584D",
">, 	c #646C62",
",, 	c #6C7066",
"', 	c #757D72",
"), 	c #7D8272",
"!, 	c #717A6B",
"~, 	c #8E9788",
"{, 	c #738276",
"], 	c #74776C",
"^, 	c #899586",
"/, 	c #6A7063",
"(, 	c #657367",
"_, 	c #778274",
":, 	c #6F715F",
"<, 	c #767D6F",
"[, 	c #151916",
"}, 	c #151414",
"|, 	c #22211F",
"1, 	c #38352F",
"2, 	c #4C4B3E",
"3, 	c #5B4F47",
"4, 	c #655A4F",
"5, 	c #67534E",
"6, 	c #695450",
"7, 	c #726C59",
"8, 	c #726058",
"9, 	c #696452",
"0, 	c #51544D",
"a, 	c #5E6057",
"b, 	c #686E65",
"c, 	c #767768",
"d, 	c #7F8E82",
"e, 	c #81847C",
"f, 	c #8E9587",
"g, 	c #839186",
"h, 	c #646E66",
"i, 	c #7E857C",
"j, 	c #798477",
"k, 	c #6F7668",
"l, 	c #7A8071",
"m, 	c #62695B",
"n, 	c #666654",
"o, 	c #626250",
"p, 	c #171A19",
"q, 	c #505852",
"r, 	c #5B6259",
"s, 	c #686C60",
"t, 	c #647268",
"u, 	c #687268",
"v, 	c #738077",
"w, 	c #878D81",
"x, 	c #72776B",
"y, 	c #89938A",
"z, 	c #8E978A",
"A, 	c #8C9A8F",
"B, 	c #848D86",
"C, 	c #808C80",
"D, 	c #81887C",
"E, 	c #747B73",
"F, 	c #171D1A",
"G, 	c #151B18",
"H, 	c #141616",
"I, 	c #4A5349",
"J, 	c #5A6159",
"K, 	c #787E6F",
"L, 	c #5F665B",
"M, 	c #73827C",
"N, 	c #7C8779",
"O, 	c #7F897C",
"P, 	c #6F7568",
"Q, 	c #949D90",
"R, 	c #7F8274",
"S, 	c #7D8478",
"T, 	c #696D60",
"U, 	c #6C7668",
"V, 	c #616A5E",
"W, 	c #151617",
"X, 	c #110F10",
"Y, 	c #201E1D",
"Z, 	c #35332D",
"`, 	c #434838",
" ' 	c #60534B",
".' 	c #5E5749",
"+' 	c #6F6557",
"@' 	c #6E6256",
"#' 	c #685F51",
"$' 	c #615F4B",
"%' 	c #64534C",
"&' 	c #4F554B",
"*' 	c #64675C",
"=' 	c #6E746A",
"-' 	c #6F756A",
";' 	c #848E82",
">' 	c #929383",
",' 	c #7C8377",
"'' 	c #8A9384",
")' 	c #74766C",
"!' 	c #6E7161",
"~' 	c #6E7364",
"{' 	c #6C7965",
"]' 	c #7A7D68",
"^' 	c #7A8471",
"/' 	c #727C6E",
"(' 	c #272824",
"_' 	c #35322D",
":' 	c #544E45",
"<' 	c #614F4C",
"[' 	c #60544A",
"}' 	c #685B51",
"|' 	c #61534A",
"1' 	c #62534B",
"2' 	c #6D5C55",
"3' 	c #6A6553",
"4' 	c #50534B",
"5' 	c #606157",
"6' 	c #6D6D61",
"7' 	c #787769",
"8' 	c #808778",
"9' 	c #889085",
"0' 	c #8B9282",
"a' 	c #839187",
"b' 	c #6A726A",
"c' 	c #86958F",
"d' 	c #727465",
"e' 	c #89978A",
"f' 	c #70776A",
"g' 	c #7E877D",
"h' 	c #5D6054",
"i' 	c #697263",
"j' 	c #111513",
"k' 	c #161517",
"l' 	c #161917",
"m' 	c #4E534B",
"n' 	c #575F56",
"o' 	c #585D53",
"p' 	c #677267",
"q' 	c #768682",
"r' 	c #71796D",
"s' 	c #6E7E73",
"t' 	c #818B80",
"u' 	c #76847A",
"v' 	c #738076",
"w' 	c #929585",
"x' 	c #75847C",
"y' 	c #909788",
"z' 	c #7F9084",
"A' 	c #787E78",
"B' 	c #151715",
"C' 	c #41433A",
"D' 	c #5B655D",
"E' 	c #606861",
"F' 	c #636B62",
"G' 	c #6F7366",
"H' 	c #7F8F87",
"I' 	c #747D71",
"J' 	c #768177",
"K' 	c #7F9287",
"L' 	c #767D70",
"M' 	c #7F8B7E",
"N' 	c #869886",
"O' 	c #7A887B",
"P' 	c #68746A",
"Q' 	c #666E61",
"R' 	c #6B7569",
"S' 	c #151717",
"T' 	c #111613",
"U' 	c #1A1B1A",
"V' 	c #1F1C1C",
"W' 	c #373A2F",
"X' 	c #484E3D",
"Y' 	c #63594E",
"Z' 	c #65574E",
"`' 	c #5E4B46",
" ) 	c #6E5F55",
".) 	c #696253",
"+) 	c #6C5954",
"@) 	c #695C51",
"#) 	c #4E524A",
"$) 	c #626256",
"%) 	c #61635A",
"&) 	c #767B6A",
"*) 	c #7A7D69",
"=) 	c #727666",
"-) 	c #94927E",
";) 	c #8A8C79",
">) 	c #697060",
",) 	c #8B9085",
"') 	c #8A8C7E",
")) 	c #6A796C",
"!) 	c #848578",
"~) 	c #797B6B",
"{) 	c #535E56",
"]) 	c #131314",
"^) 	c #1B191A",
"/) 	c #201F1D",
"() 	c #3A3331",
"_) 	c #4F493F",
":) 	c #665E51",
"<) 	c #645B4E",
"[) 	c #6E5C55",
"}) 	c #6A5A52",
"|) 	c #706157",
"1) 	c #575952",
"2) 	c #5F6057",
"3) 	c #69726A",
"4) 	c #70756A",
"5) 	c #7E8377",
"6) 	c #86978D",
"7) 	c #7D867A",
"8) 	c #6B7265",
"9) 	c #656B5C",
"0) 	c #676B5D",
"a) 	c #61665A",
"b) 	c #111412",
"c) 	c #4A4F47",
"d) 	c #5A5D50",
"e) 	c #686957",
"f) 	c #768372",
"g) 	c #7D857B",
"h) 	c #90937D",
"i) 	c #74837A",
"j) 	c #8D978D",
"k) 	c #96A295",
"l) 	c #788476",
"m) 	c #89988A",
"n) 	c #808C7F",
"o) 	c #161A18",
"p) 	c #4F5650",
"q) 	c #515B54",
"r) 	c #5D625A",
"s) 	c #667067",
"t) 	c #737B70",
"u) 	c #6D7F76",
"v) 	c #767C71",
"w) 	c #747B72",
"x) 	c #808679",
"y) 	c #7B8071",
"z) 	c #909B8F",
"A) 	c #898E80",
"B) 	c #70796D",
"C) 	c #111010",
"D) 	c #342E2B",
"E) 	c #4D3C3C",
"F) 	c #625A4D",
"G) 	c #6C6554",
"H) 	c #6C5E55",
"I) 	c #6D6054",
"J) 	c #5A4C44",
"K) 	c #706958",
"L) 	c #4B5049",
"M) 	c #4D4D45",
"N) 	c #6D6D64",
"O) 	c #7E8173",
"P) 	c #7C7C6C",
"Q) 	c #818277",
"R) 	c #777868",
"S) 	c #6E7568",
"T) 	c #8F9687",
"U) 	c #6D766F",
"V) 	c #6D756B",
"W) 	c #6D7670",
"X) 	c #161715",
"Y) 	c #272323",
"Z) 	c #3B3532",
"`) 	c #504841",
" ! 	c #645B4F",
".! 	c #6C5652",
"+! 	c #746D5B",
"@! 	c #736F5B",
"#! 	c #706358",
"$! 	c #726459",
"%! 	c #525751",
"&! 	c #66685F",
"*! 	c #636457",
"=! 	c #767F77",
"-! 	c #818679",
";! 	c #7F8677",
">! 	c #676858",
",! 	c #6E7F71",
"'! 	c #676D60",
")! 	c #656D61",
"!! 	c #64695B",
"~! 	c #5E6457",
"{! 	c #586459",
"]! 	c #101110",
"^! 	c #151416",
"/! 	c #474D48",
"(! 	c #59574D",
"_! 	c #767263",
":! 	c #666E60",
"<! 	c #6A776B",
"[! 	c #7C897A",
"}! 	c #687367",
"|! 	c #748276",
"1! 	c #8CA096",
"2! 	c #85998A",
"3! 	c #737F74",
"4! 	c #90988D",
"5! 	c #8E978C",
"6! 	c #888D7D",
"7! 	c #76877D",
"8! 	c #171E1B",
"9! 	c #4F554F",
"0! 	c #5C665E",
"a! 	c #50564D",
"b! 	c #666D62",
"c! 	c #6C7265",
"d! 	c #6F776C",
"e! 	c #647167",
"f! 	c #6C7469",
"g! 	c #7A8A7F",
"h! 	c #7D8B80",
"i! 	c #838B7D",
"j! 	c #7D8779",
"k! 	c #757F72",
"l! 	c #74796B",
"m! 	c #727D72",
"n! 	c #161616",
"o! 	c #131212",
"p! 	c #1F1C1B",
"q! 	c #393630",
"r! 	c #544743",
"s! 	c #5F584B",
"t! 	c #63504C",
"u! 	c #6A5D53",
"v! 	c #6E6856",
"w! 	c #6E6555",
"x! 	c #716D59",
"y! 	c #4F524A",
"z! 	c #5B6760",
"A! 	c #626A61",
"B! 	c #737469",
"C! 	c #676756",
"D! 	c #828172",
"E! 	c #6D7064",
"F! 	c #869788",
"G! 	c #787C6B",
"H! 	c #6B6F61",
"I! 	c #7F8A7E",
"J! 	c #767B6E",
"K! 	c #68756A",
"L! 	c #161615",
"M! 	c #252322",
"N! 	c #302928",
"O! 	c #565246",
"P! 	c #615D4D",
"Q! 	c #6A5E54",
"R! 	c #6E5855",
"S! 	c #716258",
"T! 	c #73725B",
"U! 	c #6C6C54",
"V! 	c #695651",
"W! 	c #5A5F55",
"X! 	c #5B635B",
"Y! 	c #64665D",
"Z! 	c #686B60",
"`! 	c #73776C",
" ~ 	c #636659",
".~ 	c #898A7A",
"+~ 	c #96998A",
"@~ 	c #656959",
"#~ 	c #6C796B",
"$~ 	c #7E8A7D",
"%~ 	c #666E63",
"&~ 	c #72786A",
"*~ 	c #616C60",
"=~ 	c #575E54",
"-~ 	c #100F10",
";~ 	c #161D19",
">~ 	c #4B554F",
",~ 	c #585C53",
"'~ 	c #5C655E",
")~ 	c #595C51",
"!~ 	c #797968",
"~~ 	c #7B806B",
"{~ 	c #767F6D",
"]~ 	c #858C7E",
"^~ 	c #8B9789",
"/~ 	c #8E9383",
"(~ 	c #959688",
"_~ 	c #8E9A90",
":~ 	c #889489",
"<~ 	c #858B7D",
"[~ 	c #53584F",
"}~ 	c #60655E",
"|~ 	c #686D61",
"1~ 	c #717A6F",
"2~ 	c #7E887C",
"3~ 	c #848D82",
"4~ 	c #777E74",
"5~ 	c #717569",
"6~ 	c #757869",
"7~ 	c #848E86",
"8~ 	c #898C7C",
"9~ 	c #6A7162",
"0~ 	c #656D67",
"a~ 	c #1C1C1D",
"b~ 	c #262623",
"c~ 	c #3C3A33",
"d~ 	c #514F41",
"e~ 	c #545342",
"f~ 	c #685950",
"g~ 	c #6F6757",
"h~ 	c #685850",
"i~ 	c #705F57",
"j~ 	c #5A4543",
"k~ 	c #4C514A",
"l~ 	c #64665C",
"m~ 	c #5E6157",
"n~ 	c #62665C",
"o~ 	c #70796E",
"p~ 	c #8D8D7A",
"q~ 	c #82887B",
"r~ 	c #737467",
"s~ 	c #757D6C",
"t~ 	c #80877C",
"u~ 	c #7C8477",
"v~ 	c #6B7165",
"w~ 	c #788576",
"x~ 	c #5E6A5E",
"y~ 	c #575849",
"z~ 	c #141214",
"A~ 	c #1D1919",
"B~ 	c #352F2D",
"C~ 	c #48453A",
"D~ 	c #675E52",
"E~ 	c #64504D",
"F~ 	c #6E5A55",
"G~ 	c #6C5E53",
"H~ 	c #6B5853",
"I~ 	c #6F6D58",
"J~ 	c #58574C",
"K~ 	c #68685C",
"L~ 	c #777E77",
"M~ 	c #798077",
"N~ 	c #939585",
"O~ 	c #667264",
"P~ 	c #697265",
"Q~ 	c #818B78",
"R~ 	c #747666",
"S~ 	c #636F63",
"T~ 	c #6A7266",
"U~ 	c #525C52",
"V~ 	c #161C18",
"W~ 	c #4B524B",
"X~ 	c #596158",
"Y~ 	c #616459",
"Z~ 	c #5D655D",
"`~ 	c #68736D",
" { 	c #777A6E",
".{ 	c #74766A",
"+{ 	c #727567",
"@{ 	c #707668",
"#{ 	c #707669",
"${ 	c #868C7E",
"%{ 	c #7F8574",
"&{ 	c #7A8174",
"*{ 	c #787E72",
"={ 	c #869386",
"-{ 	c #181D1B",
";{ 	c #181E19",
">{ 	c #53574E",
",{ 	c #60655A",
"'{ 	c #6A7065",
"){ 	c #6B756A",
"!{ 	c #768174",
"~{ 	c #898B7C",
"{{ 	c #7F8779",
"]{ 	c #757D71",
"^{ 	c #818B79",
"/{ 	c #7C8778",
"({ 	c #959E8F",
"_{ 	c #83968A",
":{ 	c #798274",
"<{ 	c #71786D",
"[{ 	c #747B6F",
"}{ 	c #1C1D1D",
"|{ 	c #1F201D",
"1{ 	c #3C3332",
"2{ 	c #554E44",
"3{ 	c #60594C",
"4{ 	c #60584A",
"5{ 	c #726B5A",
"6{ 	c #6D6455",
"7{ 	c #6A5B52",
"8{ 	c #6D6056",
"9{ 	c #66564F",
"0{ 	c #5D6258",
"a{ 	c #545A50",
"b{ 	c #737C73",
"c{ 	c #6C7164",
"d{ 	c #81806D",
"e{ 	c #7B7B6C",
"f{ 	c #8A9387",
"g{ 	c #878D7D",
"h{ 	c #798073",
"i{ 	c #6B7365",
"j{ 	c #646B5E",
"k{ 	c #6E786C",
"l{ 	c #646E63",
"m{ 	c #121214",
"n{ 	c #111213",
"o{ 	c #131512",
"p{ 	c #171716",
"q{ 	c #262122",
"r{ 	c #3A3231",
"s{ 	c #4F433F",
"t{ 	c #614E4B",
"u{ 	c #6D5F55",
"v{ 	c #6F5E56",
"w{ 	c #6A5751",
"x{ 	c #75735C",
"y{ 	c #6D5854",
"z{ 	c #525249",
"A{ 	c #606658",
"B{ 	c #676D62",
"C{ 	c #75796E",
"D{ 	c #7A857B",
"E{ 	c #8C9A92",
"F{ 	c #7D887D",
"G{ 	c #676856",
"H{ 	c #8F9181",
"I{ 	c #6B7564",
"J{ 	c #818474",
"K{ 	c #737D70",
"L{ 	c #747A6F",
"M{ 	c #7E8172",
"N{ 	c #5F6354",
"O{ 	c #545E55",
"P{ 	c #111311",
"Q{ 	c #4F5852",
"R{ 	c #636F66",
"S{ 	c #737C71",
"T{ 	c #777D6F",
"U{ 	c #79857A",
"V{ 	c #768074",
"W{ 	c #8D968A",
"X{ 	c #798D82",
"Y{ 	c #7E8E84",
"Z{ 	c #818E82",
"`{ 	c #80857A",
" ] 	c #171819",
".] 	c #4F5049",
"+] 	c #656B61",
"@] 	c #696F62",
"#] 	c #747D6E",
"$] 	c #797B6D",
"%] 	c #7E8B7D",
"&] 	c #7B7D6F",
"*] 	c #848979",
"=] 	c #818578",
"-] 	c #7D8276",
";] 	c #949481",
">] 	c #737564",
",] 	c #7A8374",
"'] 	c #707366",
")] 	c #5F695E",
"!] 	c #161915",
"~] 	c #1C1818",
"{] 	c #2F2F28",
"]] 	c #534643",
"^] 	c #63564E",
"/] 	c #695351",
"(] 	c #6D6655",
"_] 	c #63534C",
":] 	c #695E53",
"<] 	c #6E6A57",
"[] 	c #706B58",
"}] 	c #494D45",
"|] 	c #5E6159",
"1] 	c #5E6258",
"2] 	c #6F7B74",
"3] 	c #7E877B",
"4] 	c #676B60",
"5] 	c #828174",
"6] 	c #7E8170",
"7] 	c #76796D",
"8] 	c #7F8373",
"9] 	c #747C75",
"0] 	c #707A6E",
"a] 	c #666D61",
"b] 	c #6A7263",
"c] 	c #677163",
"d] 	c #242221",
"e] 	c #35352C",
"f] 	c #514542",
"g] 	c #5E544A",
"h] 	c #6F6B58",
"i] 	c #736E5A",
"j] 	c #6F6A58",
"k] 	c #6E6656",
"l] 	c #72735A",
"m] 	c #515248",
"n] 	c #646960",
"o] 	c #666A60",
"p] 	c #717467",
"q] 	c #748483",
"r] 	c #8D998F",
"s] 	c #878B7B",
"t] 	c #696F64",
"u] 	c #949788",
"v] 	c #83897D",
"w] 	c #767869",
"x] 	c #63665A",
"y] 	c #707061",
"z] 	c #647367",
"A] 	c #575F53",
"B] 	c #444B47",
"C] 	c #61655D",
"D] 	c #6C7A6F",
"E] 	c #687068",
"F] 	c #889081",
"G] 	c #8D9A8C",
"H] 	c #889388",
"I] 	c #777C6F",
"J] 	c #6F7367",
"K] 	c #6C6F62",
"L] 	c #141B17",
"M] 	c #141816",
"N] 	c #141614",
"O] 	c #4D544C",
"P] 	c #5B5D54",
"Q] 	c #54574D",
"R] 	c #6F7465",
"S] 	c #7C8574",
"T] 	c #848C7A",
"U] 	c #848A79",
"V] 	c #7C8E7E",
"W] 	c #777D69",
"X] 	c #8E998C",
"Y] 	c #7B867B",
"Z] 	c #8D9484",
"`] 	c #8D9689",
" ^ 	c #687064",
".^ 	c #1C1C1C",
"+^ 	c #1C1A18",
"@^ 	c #382F2F",
"#^ 	c #534943",
"$^ 	c #61524B",
"%^ 	c #65534E",
"&^ 	c #675650",
"*^ 	c #554540",
"=^ 	c #5B4C45",
"-^ 	c #614F4A",
";^ 	c #50534C",
">^ 	c #4F5349",
",^ 	c #4F5146",
"'^ 	c #70736A",
")^ 	c #78786C",
"!^ 	c #74796D",
"~^ 	c #7A7E6C",
"{^ 	c #7D7F72",
"]^ 	c #8B9181",
"^^ 	c #787B72",
"/^ 	c #737A6E",
"(^ 	c #758077",
"_^ 	c #616454",
":^ 	c #636B5F",
"<^ 	c #181917",
"[^ 	c #1D1B1A",
"}^ 	c #38312F",
"|^ 	c #413C34",
"1^ 	c #666051",
"2^ 	c #68534F",
"3^ 	c #6C5A54",
"4^ 	c #6A5452",
"5^ 	c #65655C",
"6^ 	c #73766C",
"7^ 	c #7B8A82",
"8^ 	c #8D9184",
"9^ 	c #6C7063",
"0^ 	c #97A190",
"a^ 	c #778072",
"b^ 	c #777D6C",
"c^ 	c #7C8476",
"d^ 	c #99A99F",
"e^ 	c #7C7F70",
"f^ 	c #626B5D",
"g^ 	c #787B6D",
"h^ 	c #141713",
"i^ 	c #141A15",
"j^ 	c #1B1F1A",
"k^ 	c #161D18",
"l^ 	c #1F221F",
"m^ 	c #191E19",
"n^ 	c #1E231D",
"o^ 	c #1C1C1B",
"p^ 	c #535B52",
"q^ 	c #595E55",
"r^ 	c #606C64",
"s^ 	c #565E55",
"t^ 	c #6C7369",
"u^ 	c #5F685F",
"v^ 	c #7A877B",
"w^ 	c #747F71",
"x^ 	c #8C9286",
"y^ 	c #728075",
"z^ 	c #86968F",
"A^ 	c #707C70",
"B^ 	c #757C72",
"C^ 	c #80887E",
"D^ 	c #6E7062",
"E^ 	c #161D1A",
"F^ 	c #191918",
"G^ 	c #1C1E1A",
"H^ 	c #1B1B19",
"I^ 	c #1C1D1A",
"J^ 	c #1E211D",
"K^ 	c #4D5550",
"L^ 	c #50544C",
"M^ 	c #595D54",
"N^ 	c #717163",
"O^ 	c #787A6E",
"P^ 	c #7F8271",
"Q^ 	c #797963",
"R^ 	c #81816D",
"S^ 	c #898E7D",
"T^ 	c #868D7B",
"U^ 	c #818876",
"V^ 	c #7F8470",
"W^ 	c #6D7462",
"X^ 	c #899084",
"Y^ 	c #80887D",
"Z^ 	c #272524",
"`^ 	c #382E2E",
" / 	c #4E413E",
"./ 	c #64594F",
"+/ 	c #6A6053",
"@/ 	c #6C5855",
"#/ 	c #665A50",
"$/ 	c #6B6C54",
"%/ 	c #44483F",
"&/ 	c #5C5C51",
"*/ 	c #69756C",
"=/ 	c #71756A",
"-/ 	c #7E7F72",
";/ 	c #808277",
">/ 	c #7C867B",
",/ 	c #7E847B",
"'/ 	c #677169",
")/ 	c #7D8177",
"!/ 	c #898C7D",
"~/ 	c #637066",
"{/ 	c #7A7A6F",
"]/ 	c #75796F",
"^/ 	c #676555",
"// 	c #5E6155",
"(/ 	c #131113",
"_/ 	c #1F1D1D",
":/ 	c #38342F",
"</ 	c #4D5140",
"[/ 	c #60564B",
"}/ 	c #6C5E54",
"|/ 	c #685550",
"1/ 	c #6F5D56",
"2/ 	c #6D5F54",
"3/ 	c #6F6456",
"4/ 	c #6A5651",
"5/ 	c #525148",
"6/ 	c #676D63",
"7/ 	c #6B6F64",
"8/ 	c #575A4E",
"9/ 	c #7F887F",
"0/ 	c #858E86",
"a/ 	c #8C9283",
"b/ 	c #89958A",
"c/ 	c #919B8E",
"d/ 	c #757A6A",
"e/ 	c #899489",
"f/ 	c #7F8D82",
"g/ 	c #777C6E",
"h/ 	c #6D7567",
"i/ 	c #787A6B",
"j/ 	c #141A16",
"k/ 	c #22201F",
"l/ 	c #2A2D26",
"m/ 	c #2C2926",
"n/ 	c #2A2525",
"o/ 	c #292924",
"p/ 	c #292D25",
"q/ 	c #2A3027",
"r/ 	c #515950",
"s/ 	c #586056",
"t/ 	c #666E66",
"u/ 	c #74786E",
"v/ 	c #616455",
"w/ 	c #6B766A",
"x/ 	c #6D766B",
"y/ 	c #66766B",
"z/ 	c #829085",
"A/ 	c #79867B",
"B/ 	c #727F74",
"C/ 	c #788781",
"D/ 	c #757D6F",
"E/ 	c #171C17",
"F/ 	c #1C1A1A",
"G/ 	c #21211E",
"H/ 	c #272422",
"I/ 	c #272522",
"J/ 	c #2D2928",
"K/ 	c #2D2F28",
"L/ 	c #292824",
"M/ 	c #30302B",
"N/ 	c #4E534C",
"O/ 	c #62695E",
"P/ 	c #707B6F",
"Q/ 	c #797A6F",
"R/ 	c #767C6F",
"S/ 	c #868676",
"T/ 	c #7E7F71",
"U/ 	c #8C8875",
"V/ 	c #8B8C7A",
"W/ 	c #8B9582",
"X/ 	c #828973",
"Y/ 	c #6F7769",
"Z/ 	c #191A1A",
"`/ 	c #3C3733",
" ( 	c #514642",
".( 	c #64554F",
"+( 	c #6A5753",
"@( 	c #6E6355",
"#( 	c #6C6055",
"$( 	c #6F5F56",
"%( 	c #4F3C3A",
"&( 	c #6B5E53",
"*( 	c #5C5F51",
"=( 	c #656E64",
"-( 	c #707B73",
";( 	c #7D847A",
">( 	c #8B9184",
",( 	c #838475",
"'( 	c #777A6D",
")( 	c #76796B",
"!( 	c #7D8679",
"~( 	c #778278",
"{( 	c #616358",
"]( 	c #737D73",
"^( 	c #20221D",
"/( 	c #2F2B27",
"(( 	c #4B453C",
"_( 	c #5D4E49",
":( 	c #61524A",
"<( 	c #6F6857",
"[( 	c #675950",
"}( 	c #6C5B54",
"|( 	c #6E6557",
"1( 	c #706E58",
"2( 	c #444A42",
"3( 	c #52584B",
"4( 	c #717769",
"5( 	c #727568",
"6( 	c #838E81",
"7( 	c #8A988D",
"8( 	c #899284",
"9( 	c #919A8E",
"0( 	c #7A8C7F",
"a( 	c #797C6E",
"b( 	c #828A7C",
"c( 	c #787F73",
"d( 	c #75786C",
"e( 	c #222720",
"f( 	c #23201E",
"g( 	c #37342E",
"h( 	c #313328",
"i( 	c #3D3933",
"j( 	c #3B3A30",
"k( 	c #404336",
"l( 	c #3B3A31",
"m( 	c #3A3B30",
"n( 	c #51594F",
"o( 	c #5F685E",
"p( 	c #606C60",
"q( 	c #798276",
"r( 	c #788377",
"s( 	c #707D73",
"t( 	c #636F65",
"u( 	c #7E857A",
"v( 	c #6F786B",
"w( 	c #7D908C",
"x( 	c #6D776D",
"y( 	c #90A89D",
"z( 	c #7B8373",
"A( 	c #181E1B",
"B( 	c #1C1B1A",
"C( 	c #241F1F",
"D( 	c #302B27",
"E( 	c #36342D",
"F( 	c #3B3930",
"G( 	c #3E3D33",
"H( 	c #3D3432",
"I( 	c #433936",
"J( 	c #4C524B",
"K( 	c #606258",
"L( 	c #5F6358",
"M( 	c #71756B",
"N( 	c #7A8172",
"O( 	c #7A7E72",
"P( 	c #78867A",
"Q( 	c #787D6F",
"R( 	c #778276",
"S( 	c #81877B",
"T( 	c #7E8174",
"U( 	c #848374",
"V( 	c #908E79",
"W( 	c #787C6C",
"X( 	c #81826C",
"Y( 	c #171517",
"Z( 	c #1D1B1C",
"`( 	c #262423",
" _ 	c #3A3330",
"._ 	c #504240",
"+_ 	c #61504B",
"@_ 	c #6F7158",
"#_ 	c #706857",
"$_ 	c #716B59",
"%_ 	c #6A5A53",
"&_ 	c #4D4E44",
"*_ 	c #4F5346",
"=_ 	c #52584C",
"-_ 	c #707D72",
";_ 	c #626559",
">_ 	c #868D81",
",_ 	c #868A7B",
"'_ 	c #757E71",
")_ 	c #7C7F71",
"!_ 	c #828675",
"~_ 	c #828674",
"{_ 	c #7C8070",
"]_ 	c #60655B",
"^_ 	c #6C766E",
"/_ 	c #6E7263",
"(_ 	c #141314",
"__ 	c #181618",
":_ 	c #21201E",
"<_ 	c #36392E",
"[_ 	c #4D483F",
"}_ 	c #63624E",
"|_ 	c #635D4E",
"1_ 	c #695D52",
"2_ 	c #6F5D57",
"3_ 	c #5A4945",
"4_ 	c #5F4D48",
"5_ 	c #555F59",
"6_ 	c #4D5347",
"7_ 	c #6E7264",
"8_ 	c #737562",
"9_ 	c #71776A",
"0_ 	c #81897D",
"a_ 	c #8C958A",
"b_ 	c #737E71",
"c_ 	c #909786",
"d_ 	c #889286",
"e_ 	c #7D8476",
"f_ 	c #7B8174",
"g_ 	c #7E8B82",
"h_ 	c #7E867B",
"i_ 	c #7C857B",
"j_ 	c #1A1B19",
"k_ 	c #262B22",
"l_ 	c #373D31",
"m_ 	c #4A433C",
"n_ 	c #3F3831",
"o_ 	c #595548",
"p_ 	c #554643",
"q_ 	c #535241",
"r_ 	c #4F463E",
"s_ 	c #4B4A3F",
"t_ 	c #606757",
"u_ 	c #777A6B",
"v_ 	c #707B6B",
"w_ 	c #7C8071",
"x_ 	c #6B6F62",
"y_ 	c #6C7566",
"z_ 	c #869388",
"A_ 	c #6C786B",
"B_ 	c #6F7E73",
"C_ 	c #76776B",
"D_ 	c #6E7B6D",
"E_ 	c #757C6B",
"F_ 	c #727766",
"G_ 	c #616458",
"H_ 	c #23221F",
"I_ 	c #34312A",
"J_ 	c #3F3631",
"K_ 	c #4D4B3D",
"L_ 	c #514640",
"M_ 	c #4D433C",
"N_ 	c #554C43",
"O_ 	c #595847",
"P_ 	c #575045",
"Q_ 	c #4A4B42",
"R_ 	c #525B57",
"S_ 	c #565B52",
"T_ 	c #5D655A",
"U_ 	c #767B6B",
"V_ 	c #777A68",
"W_ 	c #7D7F70",
"X_ 	c #818576",
"Y_ 	c #878E80",
"Z_ 	c #6E786F",
"`_ 	c #7F8577",
" : 	c #7A8579",
".: 	c #7F8175",
"+: 	c #76796E",
"@: 	c #151917",
"#: 	c #1B1A1B",
"$: 	c #282A26",
"%: 	c #3A3230",
"&: 	c #524A43",
"*: 	c #62504C",
"=: 	c #716A59",
"-: 	c #6D6156",
";: 	c #584842",
">: 	c #503C3A",
",: 	c #474940",
"': 	c #46493E",
"): 	c #5E5F52",
"!: 	c #5D685C",
"~: 	c #878C80",
"{: 	c #6F7569",
"]: 	c #93978A",
"^: 	c #7D877C",
"/: 	c #8D8B84",
"(: 	c #696D5D",
"_: 	c #787F6E",
":: 	c #696D5F",
"<: 	c #312C29",
"[: 	c #4A483B",
"}: 	c #50403C",
"|: 	c #6F5B56",
"1: 	c #696052",
"2: 	c #6A5F52",
"3: 	c #585048",
"4: 	c #494A40",
"5: 	c #55594E",
"6: 	c #596055",
"7: 	c #575950",
"8: 	c #7A867F",
"9: 	c #6F7A6F",
"0: 	c #888878",
"a: 	c #929987",
"b: 	c #899A8E",
"c: 	c #7B8677",
"d: 	c #898F83",
"e: 	c #758376",
"f: 	c #8B9081",
"g: 	c #919C90",
"h: 	c #6D7771",
"i: 	c #1E231F",
"j: 	c #21231F",
"k: 	c #2E2D27",
"l: 	c #423F36",
"m: 	c #484D3B",
"n: 	c #575B47",
"o: 	c #555B46",
"p: 	c #5F5F4A",
"q: 	c #62594D",
"r: 	c #5B604E",
"s: 	c #6F766B",
"t: 	c #636C61",
"u: 	c #5C635E",
"v: 	c #63665B",
"w: 	c #666D5D",
"x: 	c #6E7667",
"y: 	c #677165",
"z: 	c #808677",
"A: 	c #788073",
"B: 	c #84928E",
"C: 	c #6C7E76",
"D: 	c #717465",
"E: 	c #6D776B",
"F: 	c #777D6D",
"G: 	c #747564",
"H: 	c #707667",
"I: 	c #62685B",
"J: 	c #1C1F1B",
"K: 	c #32382D",
"L: 	c #3E3733",
"M: 	c #4E5441",
"N: 	c #5C5148",
"O: 	c #61584B",
"P: 	c #5F5F4B",
"Q: 	c #695A52",
"R: 	c #5B5146",
"S: 	c #5C4D46",
"T: 	c #505851",
"U: 	c #535B55",
"V: 	c #5C5F59",
"W: 	c #676C62",
"X: 	c #6E7466",
"Y: 	c #7F847A",
"Z: 	c #828578",
"`: 	c #888F7E",
" < 	c #858D80",
".< 	c #869486",
"+< 	c #838F82",
"@< 	c #7F867A",
"#< 	c #777B70",
"$< 	c #171518",
"%< 	c #252222",
"&< 	c #645A4F",
"*< 	c #6C6254",
"=< 	c #62564B",
"-< 	c #64524C",
";< 	c #706957",
">< 	c #564240",
",< 	c #45473D",
"'< 	c #4E5044",
")< 	c #56584D",
"!< 	c #596056",
"~< 	c #6D7166",
"{< 	c #697064",
"]< 	c #757D70",
"^< 	c #828B7C",
"/< 	c #878F84",
"(< 	c #73766B",
"_< 	c #8F8E7B",
":< 	c #6A7469",
"<< 	c #899286",
"[< 	c #5D655B",
"}< 	c #202120",
"|< 	c #181717",
"1< 	c #21221F",
"2< 	c #34362B",
"3< 	c #463F39",
"4< 	c #554B42",
"5< 	c #695750",
"6< 	c #6F6358",
"7< 	c #6F6357",
"8< 	c #5D5B4F",
"9< 	c #70766D",
"0< 	c #66675E",
"a< 	c #6D6D60",
"b< 	c #5E655D",
"c< 	c #656F64",
"d< 	c #868A7C",
"e< 	c #7E7767",
"f< 	c #808672",
"g< 	c #939785",
"h< 	c #878E7E",
"i< 	c #7A7E71",
"j< 	c #828E83",
"k< 	c #909381",
"l< 	c #9CA190",
"m< 	c #98A393",
"n< 	c #898D7C",
"o< 	c #7D8C83",
"p< 	c #818F7F",
"q< 	c #828574",
"r< 	c #858E7A",
"s< 	c #88988A",
"t< 	c #828573",
"u< 	c #908F77",
"v< 	c #9DAB97",
"w< 	c #82907E",
"x< 	c #9AA596",
"y< 	c #899A90",
"z< 	c #85897B",
"A< 	c #768379",
"B< 	c #7A8275",
"C< 	c #6F776A",
"D< 	c #667167",
"E< 	c #666B61",
"F< 	c #6E6E59",
"G< 	c #818373",
"H< 	c #696C5C",
"I< 	c #757A6F",
"J< 	c #73725E",
"K< 	c #787D63",
"L< 	c #747E6B",
"M< 	c #73796C",
"N< 	c #656757",
"O< 	c #141413",
"P< 	c #2C2D26",
"Q< 	c #413A34",
"R< 	c #545542",
"S< 	c #5C5B48",
"T< 	c #5D5448",
"U< 	c #6A6B53",
"V< 	c #64624E",
"W< 	c #60504A",
"X< 	c #675F51",
"Y< 	c #52554C",
"Z< 	c #545E58",
"`< 	c #5C645E",
" [ 	c #777E73",
".[ 	c #7A877A",
"+[ 	c #879288",
"@[ 	c #81867B",
"#[ 	c #828A80",
"$[ 	c #829084",
"%[ 	c #8A978C",
"&[ 	c #7A887F",
"*[ 	c #7A8076",
"=[ 	c #1C1E1C",
"-[ 	c #262222",
";[ 	c #3C3833",
">[ 	c #534B43",
",[ 	c #62524E",
"'[ 	c #6C6456",
")[ 	c #695851",
"![ 	c #66574F",
"~[ 	c #4A3736",
"{[ 	c #454339",
"][ 	c #4F514A",
"^[ 	c #4E5246",
"/[ 	c #656A5E",
"([ 	c #7A7D71",
"_[ 	c #757769",
":[ 	c #787B6C",
"<[ 	c #989D8F",
"[[ 	c #848779",
"}[ 	c #63695C",
"|[ 	c #999783",
"1[ 	c #7E9084",
"2[ 	c #95957C",
"3[ 	c #91988D",
"4[ 	c #838E80",
"5[ 	c #919487",
"6[ 	c #7E8475",
"7[ 	c #8E9586",
"8[ 	c #888D7C",
"9[ 	c #969A8A",
"0[ 	c #90A69D",
"a[ 	c #828E81",
"b[ 	c #A2AB9D",
"c[ 	c #939C8F",
"d[ 	c #808980",
"e[ 	c #818980",
"f[ 	c #7D7B6C",
"g[ 	c #707267",
"h[ 	c #666F64",
"i[ 	c #8A9083",
"j[ 	c #6F7E72",
"k[ 	c #878E85",
"l[ 	c #7F887A",
"m[ 	c #808473",
"n[ 	c #859281",
"o[ 	c #8C9386",
"p[ 	c #81877A",
"q[ 	c #888E7F",
"r[ 	c #8E9B8E",
"s[ 	c #8E9E92",
"t[ 	c #8C9E95",
"u[ 	c #87978C",
"v[ 	c #7D8575",
"w[ 	c #839082",
"x[ 	c #7C8981",
"y[ 	c #788277",
"z[ 	c #959586",
"A[ 	c #869384",
"B[ 	c #9D9B8A",
"C[ 	c #94A48F",
"D[ 	c #928E78",
"E[ 	c #98A99A",
"F[ 	c #9FA89A",
"G[ 	c #909A8D",
"H[ 	c #8A988A",
"I[ 	c #8D9B8D",
"J[ 	c #777B73",
"K[ 	c #6C736C",
"L[ 	c #717C73",
"M[ 	c #6D6A5E",
"N[ 	c #787F74",
"O[ 	c #747969",
"P[ 	c #717362",
"Q[ 	c #707767",
"R[ 	c #6B7163",
"S[ 	c #646B5D",
"T[ 	c #5E6557",
"U[ 	c #232520",
"V[ 	c #302C29",
"W[ 	c #4A453C",
"X[ 	c #5A4946",
"Y[ 	c #605B4A",
"Z[ 	c #6D6956",
"`[ 	c #5C5046",
" } 	c #676250",
".} 	c #4B534B",
"+} 	c #5A645C",
"@} 	c #6A6F65",
"#} 	c #6A6F69",
"$} 	c #72766D",
"%} 	c #7F9184",
"&} 	c #858E83",
"*} 	c #7A7A6C",
"=} 	c #808377",
"-} 	c #879084",
";} 	c #868C7F",
">} 	c #8E9487",
",} 	c #7B8073",
"'} 	c #75796D",
")} 	c #161618",
"!} 	c #1C1B1C",
"~} 	c #262523",
"{} 	c #382E2F",
"]} 	c #4B3D3C",
"^} 	c #676752",
"/} 	c #4E403A",
"(} 	c #6D5A53",
"_} 	c #503E3B",
":} 	c #44473F",
"<} 	c #4B5245",
"[} 	c #6B6B63",
"}} 	c #5F6459",
"|} 	c #69685B",
"1} 	c #808475",
"2} 	c #737768",
"3} 	c #868B7C",
"4} 	c #869088",
"5} 	c #676C5C",
"6} 	c #717365",
"7} 	c #788272",
"8} 	c #898D76",
"9} 	c #8C8D7A",
"0} 	c #899688",
"a} 	c #939788",
"b} 	c #878D7E",
"c} 	c #8E9284",
"d} 	c #8F9B92",
"e} 	c #9AA191",
"f} 	c #88938C",
"g} 	c #919C8E",
"h} 	c #989F92",
"i} 	c #8C9186",
"j} 	c #879A8F",
"k} 	c #959F93",
"l} 	c #909789",
"m} 	c #848C80",
"n} 	c #868779",
"o} 	c #868572",
"p} 	c #6F7269",
"q} 	c #7E8A7F",
"r} 	c #868B80",
"s} 	c #808579",
"t} 	c #868D7E",
"u} 	c #919D91",
"v} 	c #8F9B8B",
"w} 	c #8A948A",
"x} 	c #838A7B",
"y} 	c #7F8679",
"z} 	c #7E8F86",
"A} 	c #889A95",
"B} 	c #7E897D",
"C} 	c #879487",
"D} 	c #7E847A",
"E} 	c #8B8C7C",
"F} 	c #889689",
"G} 	c #8F927C",
"H} 	c #8F9788",
"I} 	c #989B85",
"J} 	c #9A9F92",
"K} 	c #A0B5A5",
"L} 	c #9DA594",
"M} 	c #858F83",
"N} 	c #899387",
"O} 	c #676A5D",
"P} 	c #848D7F",
"Q} 	c #69746A",
"R} 	c #667268",
"S} 	c #6A796E",
"T} 	c #6D7A71",
"U} 	c #5A5E54",
"V} 	c #1F1D1B",
"W} 	c #302D28",
"X} 	c #413F33",
"Y} 	c #5B5848",
"Z} 	c #595B46",
"`} 	c #5F5148",
" | 	c #5E5B49",
".| 	c #6A6253",
"+| 	c #50524B",
"@| 	c #565C56",
"#| 	c #5F6158",
"$| 	c #6D7669",
"%| 	c #6C7970",
"&| 	c #788376",
"*| 	c #76837A",
"=| 	c #89958D",
"-| 	c #8F9D8F",
";| 	c #8A8F82",
">| 	c #8B8877",
",| 	c #8B958A",
"'| 	c #899183",
")| 	c #7E8980",
"!| 	c #7A8176",
"~| 	c #252422",
"{| 	c #393330",
"]| 	c #524942",
"^| 	c #6B6154",
"/| 	c #6D5A55",
"(| 	c #53413F",
"_| 	c #685D51",
":| 	c #50433C",
"<| 	c #40433A",
"[| 	c #4A4D43",
"}| 	c #737565",
"|| 	c #555A50",
"1| 	c #5B6156",
"2| 	c #727669",
"3| 	c #777968",
"4| 	c #676C5F",
"5| 	c #747A6B",
"6| 	c #848C7E",
"7| 	c #6E7465",
"8| 	c #838575",
"9| 	c #979F8E",
"0| 	c #7D7F6C",
"a| 	c #7B7E6C",
"b| 	c #9A9E81",
"c| 	c #9A9F89",
"d| 	c #90998E",
"e| 	c #959C90",
"f| 	c #969B8D",
"g| 	c #838678",
"h| 	c #878E7F",
"i| 	c #7E8678",
"j| 	c #808479",
"k| 	c #859285",
"l| 	c #91968C",
"m| 	c #929B8E",
"n| 	c #999B8B",
"o| 	c #919686",
"p| 	c #929282",
"q| 	c #82897C",
"r| 	c #6E7266",
"s| 	c #757C6E",
"t| 	c #868B7F",
"u| 	c #798175",
"v| 	c #889289",
"w| 	c #7D897D",
"x| 	c #889083",
"y| 	c #7F8376",
"z| 	c #959B86",
"A| 	c #939A87",
"B| 	c #96A095",
"C| 	c #96AB9E",
"D| 	c #878B7A",
"E| 	c #8B978A",
"F| 	c #7D8274",
"G| 	c #7B8175",
"H| 	c #888D7F",
"I| 	c #7F8A7C",
"J| 	c #828879",
"K| 	c #8E9687",
"L| 	c #929A90",
"M| 	c #8E9184",
"N| 	c #989B8A",
"O| 	c #859084",
"P| 	c #9FAD9E",
"Q| 	c #97A595",
"R| 	c #979B86",
"S| 	c #8C9383",
"T| 	c #A3AB98",
"U| 	c #8C9584",
"V| 	c #96A192",
"W| 	c #7C7E73",
"X| 	c #767F75",
"Y| 	c #697369",
"Z| 	c #6A7365",
"`| 	c #697264",
" 1 	c #6D7366",
".1 	c #71796C",
"+1 	c #889488",
"@1 	c #6D7468",
"#1 	c #6B776A",
"$1 	c #636C60",
"%1 	c #636A5E",
"&1 	c #121113",
"*1 	c #1E1B1A",
"=1 	c #332B2B",
"-1 	c #453C36",
";1 	c #554D42",
">1 	c #5A4743",
",1 	c #61564B",
"'1 	c #6D5B55",
")1 	c #4D5650",
"!1 	c #5A5F59",
"~1 	c #62675F",
"{1 	c #7F8475",
"]1 	c #858D7A",
"^1 	c #868F84",
"/1 	c #7D8076",
"(1 	c #94998A",
"_1 	c #8B9281",
":1 	c #899386",
"<1 	c #7F8C7D",
"[1 	c #1A1819",
"}1 	c #3A3B32",
"|1 	c #4A403C",
"11 	c #604C4A",
"21 	c #564040",
"31 	c #5D5146",
"41 	c #6D5855",
"51 	c #5B4A44",
"61 	c #5C4544",
"71 	c #40433B",
"81 	c #53564D",
"91 	c #4D544A",
"01 	c #63695B",
"a1 	c #646457",
"b1 	c #838778",
"c1 	c #737E6F",
"d1 	c #686B5B",
"e1 	c #697468",
"f1 	c #808577",
"g1 	c #737969",
"h1 	c #858678",
"i1 	c #777A6A",
"j1 	c #918D7F",
"k1 	c #A1A48D",
"l1 	c #9FA998",
"m1 	c #949F93",
"n1 	c #969D92",
"o1 	c #8C9183",
"p1 	c #8D9385",
"q1 	c #7C7E6F",
"r1 	c #8A9182",
"s1 	c #93998D",
"t1 	c #A5AD9F",
"u1 	c #959A8B",
"v1 	c #9C9F91",
"w1 	c #8F9989",
"x1 	c #7F8173",
"y1 	c #84897A",
"z1 	c #7B897D",
"A1 	c #7E8375",
"B1 	c #8A9286",
"C1 	c #77887F",
"D1 	c #8A9285",
"E1 	c #778074",
"F1 	c #8D9D96",
"G1 	c #878677",
"H1 	c #929984",
"I1 	c #91A292",
"J1 	c #92A79F",
"K1 	c #7F877A",
"L1 	c #879184",
"M1 	c #7E887B",
"N1 	c #8D9583",
"O1 	c #8E988A",
"P1 	c #8D9E94",
"Q1 	c #848C7D",
"R1 	c #879385",
"S1 	c #989486",
"T1 	c #A5A492",
"U1 	c #9FA892",
"V1 	c #919282",
"W1 	c #888E7E",
"X1 	c #88907F",
"Y1 	c #7F8070",
"Z1 	c #9AA397",
"`1 	c #8C9893",
" 2 	c #808378",
".2 	c #708076",
"+2 	c #6D796D",
"@2 	c #667468",
"#2 	c #69786D",
"$2 	c #738177",
"%2 	c #151316",
"&2 	c #161A16",
"*2 	c #21201F",
"=2 	c #423B34",
"-2 	c #5A4B46",
";2 	c #5B5F4A",
">2 	c #5D5848",
",2 	c #614E4A",
"'2 	c #727159",
")2 	c #64664F",
"!2 	c #454B44",
"~2 	c #65665D",
"{2 	c #666A61",
"]2 	c #757F75",
"^2 	c #868C7B",
"/2 	c #888676",
"(2 	c #879587",
"_2 	c #97A395",
":2 	c #7C847A",
"<2 	c #8E9A8C",
"[2 	c #818F84",
"}2 	c #878B7E",
"|2 	c #7A857A",
"12 	c #171619",
"22 	c #1B1C1B",
"32 	c #211C1D",
"42 	c #393530",
"52 	c #4D433E",
"62 	c #5F4F4A",
"72 	c #65544E",
"82 	c #5F4947",
"92 	c #696153",
"02 	c #584A42",
"a2 	c #65624F",
"b2 	c #5E5048",
"c2 	c #52544B",
"d2 	c #4F554C",
"e2 	c #595B51",
"f2 	c #73746A",
"g2 	c #757D6D",
"h2 	c #747C6F",
"i2 	c #65695A",
"j2 	c #6D7B71",
"k2 	c #6B786C",
"l2 	c #6E7567",
"m2 	c #828B7F",
"n2 	c #636D61",
"o2 	c #878C7F",
"p2 	c #848E7C",
"q2 	c #A0AB9B",
"r2 	c #959E90",
"s2 	c #9C9D8E",
"t2 	c #968F7D",
"u2 	c #949487",
"v2 	c #949686",
"w2 	c #9B9E8E",
"x2 	c #99A094",
"y2 	c #9AA497",
"z2 	c #95998B",
"A2 	c #9EA99D",
"B2 	c #8A9588",
"C2 	c #98A89D",
"D2 	c #959483",
"E2 	c #9A9D8C",
"F2 	c #909D93",
"G2 	c #879289",
"H2 	c #889184",
"I2 	c #787B6E",
"J2 	c #8E9386",
"K2 	c #80897F",
"L2 	c #75796A",
"M2 	c #757E73",
"N2 	c #949A8F",
"O2 	c #93947C",
"P2 	c #8C9E8E",
"Q2 	c #919B8B",
"R2 	c #8F927D",
"S2 	c #8A9688",
"T2 	c #8DA296",
"U2 	c #859485",
"V2 	c #7E8374",
"W2 	c #859A90",
"X2 	c #889B8E",
"Y2 	c #818678",
"Z2 	c #8C9D93",
"`2 	c #868E80",
" 3 	c #96A092",
".3 	c #86968B",
"+3 	c #939C90",
"@3 	c #88968A",
"#3 	c #88998D",
"$3 	c #8C9583",
"%3 	c #939682",
"&3 	c #A0A48C",
"*3 	c #7F887C",
"=3 	c #848371",
"-3 	c #9AA292",
";3 	c #7A897E",
">3 	c #71786E",
",3 	c #737B72",
"'3 	c #757E75",
")3 	c #80887C",
"!3 	c #849186",
"~3 	c #64685D",
"{3 	c #6D7268",
"]3 	c #1F1D1C",
"^3 	c #313329",
"/3 	c #454138",
"(3 	c #4F423B",
"_3 	c #5C4E46",
":3 	c #63614D",
"<3 	c #6C5B53",
"[3 	c #4F544F",
"}3 	c #595F57",
"|3 	c #70746A",
"13 	c #6A756D",
"23 	c #7B7D71",
"33 	c #838B7E",
"43 	c #92917F",
"53 	c #899484",
"63 	c #A2A692",
"73 	c #828A7E",
"83 	c #879892",
"93 	c #8F9D95",
"03 	c #83877B",
"a3 	c #1B1B1B",
"b3 	c #36302D",
"c3 	c #493E39",
"d3 	c #6B5C54",
"e3 	c #5A4644",
"f3 	c #67534F",
"g3 	c #5E4847",
"h3 	c #6B6454",
"i3 	c #5E4C48",
"j3 	c #505348",
"k3 	c #6C7068",
"l3 	c #77796E",
"m3 	c #6B7266",
"n3 	c #727160",
"o3 	c #737466",
"p3 	c #6B7161",
"q3 	c #69766E",
"r3 	c #6F7364",
"s3 	c #888373",
"t3 	c #82877A",
"u3 	c #969B88",
"v3 	c #7F8C83",
"w3 	c #97A597",
"x3 	c #8D968B",
"y3 	c #989E8C",
"z3 	c #8C9C8C",
"A3 	c #959D93",
"B3 	c #A0A8A1",
"C3 	c #96A398",
"D3 	c #8D988C",
"E3 	c #8D9489",
"F3 	c #8D9589",
"G3 	c #889188",
"H3 	c #989B89",
"I3 	c #999F8F",
"J3 	c #89988D",
"K3 	c #8F9587",
"L3 	c #899488",
"M3 	c #7D887E",
"N3 	c #888A7A",
"O3 	c #8E9E95",
"P3 	c #777E6D",
"Q3 	c #7B887B",
"R3 	c #838C7C",
"S3 	c #89917E",
"T3 	c #87907F",
"U3 	c #808676",
"V3 	c #7F8F84",
"W3 	c #7C8A86",
"X3 	c #8B9389",
"Y3 	c #7E8A81",
"Z3 	c #889A8E",
"`3 	c #848A7E",
" 4 	c #8B988B",
".4 	c #909C91",
"+4 	c #8B9688",
"@4 	c #82918C",
"#4 	c #7F7D6D",
"$4 	c #85816D",
"%4 	c #919680",
"&4 	c #899584",
"*4 	c #808F88",
"=4 	c #6C756B",
"-4 	c #758379",
";4 	c #808376",
">4 	c #889084",
",4 	c #838D85",
"'4 	c #6E776D",
")4 	c #777D70",
"!4 	c #7E897E",
"~4 	c #82877B",
"{4 	c #72786B",
"]4 	c #211F1E",
"^4 	c #332A29",
"/4 	c #454636",
"(4 	c #554741",
"_4 	c #595C46",
":4 	c #61574C",
"<4 	c #5D5648",
"[4 	c #6A5451",
"}4 	c #4E5953",
"|4 	c #646962",
"14 	c #666D65",
"24 	c #70746C",
"34 	c #848577",
"44 	c #979580",
"54 	c #969A84",
"64 	c #91A498",
"74 	c #899087",
"84 	c #858D81",
"94 	c #767A6E",
"04 	c #84887A",
"a4 	c #84897C",
"b4 	c #1A181A",
"c4 	c #4E463E",
"d4 	c #584A44",
"e4 	c #62574B",
"f4 	c #726359",
"g4 	c #6E5755",
"h4 	c #5D4A47",
"i4 	c #62544A",
"j4 	c #4A504A",
"k4 	c #5F6156",
"l4 	c #666A5C",
"m4 	c #727C71",
"n4 	c #5F6456",
"o4 	c #81887B",
"p4 	c #6A6E60",
"q4 	c #60665B",
"r4 	c #8B8C7D",
"s4 	c #818375",
"t4 	c #828473",
"u4 	c #8B8E80",
"v4 	c #8C9084",
"w4 	c #9BA08A",
"x4 	c #949E89",
"y4 	c #9BA28A",
"z4 	c #909986",
"A4 	c #9EA48E",
"B4 	c #7F8D7C",
"C4 	c #97A89D",
"D4 	c #8D988B",
"E4 	c #879388",
"F4 	c #8B9286",
"G4 	c #87918A",
"H4 	c #8F8F7D",
"I4 	c #8D9B8B",
"J4 	c #899181",
"K4 	c #8B9A8D",
"L4 	c #7F8C82",
"M4 	c #7B8278",
"N4 	c #828470",
"O4 	c #778076",
"P4 	c #859083",
"Q4 	c #757E74",
"R4 	c #858970",
"S4 	c #848D7E",
"T4 	c #777E6F",
"U4 	c #828A78",
"V4 	c #8D937E",
"W4 	c #8F9681",
"X4 	c #8C9484",
"Y4 	c #889185",
"Z4 	c #8D998E",
"`4 	c #898E82",
" 5 	c #7C897E",
".5 	c #797E72",
"+5 	c #8B8371",
"@5 	c #8F8776",
"#5 	c #8F8E76",
"$5 	c #6E7A73",
"%5 	c #8C9B8E",
"&5 	c #929D90",
"*5 	c #949C92",
"=5 	c #8A9284",
"-5 	c #7A8175",
";5 	c #858A7E",
">5 	c #7B877A",
",5 	c #131815",
"'5 	c #191A19",
")5 	c #241F20",
"!5 	c #322D2A",
"~5 	c #4C423C",
"{5 	c #584744",
"]5 	c #5E4947",
"^5 	c #6C6954",
"/5 	c #515852",
"(5 	c #63675D",
"_5 	c #696E62",
":5 	c #696E63",
"<5 	c #72776E",
"[5 	c #6E7971",
"}5 	c #8C8D7D",
"|5 	c #898C7F",
"15 	c #85887C",
"25 	c #9B9D8F",
"35 	c #8F9C96",
"45 	c #848D80",
"55 	c #1A1818",
"65 	c #242121",
"75 	c #372F2D",
"85 	c #4F443F",
"95 	c #5E504A",
"05 	c #665650",
"a5 	c #655D4F",
"b5 	c #6E5655",
"c5 	c #6B5452",
"d5 	c #6D5755",
"e5 	c #685650",
"f5 	c #474841",
"g5 	c #555A53",
"h5 	c #6D7168",
"i5 	c #7C8176",
"j5 	c #6B6E61",
"k5 	c #767460",
"l5 	c #8C8E7D",
"m5 	c #72796A",
"n5 	c #8C9081",
"o5 	c #838A7F",
"p5 	c #74786C",
"q5 	c #73796E",
"r5 	c #6E7165",
"s5 	c #7B7F73",
"t5 	c #878878",
"u5 	c #828979",
"v5 	c #838675",
"w5 	c #848777",
"x5 	c #938B76",
"y5 	c #999B86",
"z5 	c #93998C",
"A5 	c #8D9B92",
"B5 	c #909588",
"C5 	c #8A9084",
"D5 	c #797E6F",
"E5 	c #8E9283",
"F5 	c #8E8D7D",
"G5 	c #929684",
"H5 	c #85958B",
"I5 	c #889287",
"J5 	c #838B80",
"K5 	c #7F8F85",
"L5 	c #727768",
"M5 	c #6C7971",
"N5 	c #697168",
"O5 	c #7A8178",
"P5 	c #71796B",
"Q5 	c #7B867A",
"R5 	c #687368",
"S5 	c #848C7B",
"T5 	c #7F7D6B",
"U5 	c #7E7F6E",
"V5 	c #777E71",
"W5 	c #7A796A",
"X5 	c #939887",
"Y5 	c #8D978B",
"Z5 	c #829286",
"`5 	c #8C988C",
" 6 	c #848B80",
".6 	c #7F8A80",
"+6 	c #959785",
"@6 	c #899383",
"#6 	c #868E7E",
"$6 	c #6B7568",
"%6 	c #7E8A7C",
"&6 	c #8E9082",
"*6 	c #868976",
"=6 	c #989784",
"-6 	c #8E9688",
";6 	c #8A9385",
">6 	c #6D7267",
",6 	c #33322B",
"'6 	c #4E423E",
")6 	c #544941",
"!6 	c #65654F",
"~6 	c #62584C",
"{6 	c #645A4D",
"]6 	c #5E4F47",
"^6 	c #6C5853",
"/6 	c #505650",
"(6 	c #5B655E",
"_6 	c #727970",
":6 	c #737C74",
"<6 	c #909E93",
"[6 	c #828679",
"}6 	c #8B8D7B",
"|6 	c #909382",
"16 	c #98A094",
"26 	c #878A82",
"36 	c #8A9485",
"46 	c #1A171A",
"56 	c #211D1E",
"66 	c #372E2D",
"76 	c #604B4B",
"86 	c #5C4846",
"96 	c #695550",
"06 	c #6D6355",
"a6 	c #6C5A53",
"b6 	c #414239",
"c6 	c #585A51",
"d6 	c #787D73",
"e6 	c #8A8B7C",
"f6 	c #94907D",
"g6 	c #909B8B",
"h6 	c #A2A593",
"i6 	c #5D6559",
"j6 	c #61695E",
"k6 	c #69766C",
"l6 	c #888C7E",
"m6 	c #909487",
"n6 	c #808371",
"o6 	c #7E8071",
"p6 	c #849584",
"q6 	c #828778",
"r6 	c #616254",
"s6 	c #8B9182",
"t6 	c #8B9285",
"u6 	c #909C8F",
"v6 	c #8E9385",
"w6 	c #757968",
"x6 	c #8C8F7F",
"y6 	c #8C998F",
"z6 	c #6E796C",
"A6 	c #85958D",
"B6 	c #6A766B",
"C6 	c #767E73",
"D6 	c #5F6659",
"E6 	c #646C5F",
"F6 	c #5E6D64",
"G6 	c #606558",
"H6 	c #6E776A",
"I6 	c #6A7265",
"J6 	c #758175",
"K6 	c #726E5F",
"L6 	c #6E7369",
"M6 	c #858F80",
"N6 	c #819084",
"O6 	c #7C867C",
"P6 	c #838B81",
"Q6 	c #7A8379",
"R6 	c #8B9990",
"S6 	c #7F8378",
"T6 	c #748177",
"U6 	c #838D81",
"V6 	c #80897E",
"W6 	c #7B8475",
"X6 	c #899086",
"Y6 	c #8C9689",
"Z6 	c #8A9483",
"`6 	c #959784",
" 7 	c #8D978C",
".7 	c #758176",
"+7 	c #787D72",
"@7 	c #131814",
"#7 	c #1A1F1A",
"$7 	c #252421",
"%7 	c #36362E",
"&7 	c #4A4D3D",
"*7 	c #61604D",
"=7 	c #655F4F",
"-7 	c #676451",
";7 	c #5F4A48",
">7 	c #6B5652",
",7 	c #4E544D",
"'7 	c #59655D",
")7 	c #62655B",
"!7 	c #767567",
"~7 	c #7A847B",
"{7 	c #94998E",
"]7 	c #959B8F",
"^7 	c #898C7B",
"/7 	c #949C8A",
"(7 	c #99A290",
"_7 	c #97A191",
":7 	c #8B8E85",
"<7 	c #888A7B",
"[7 	c #242521",
"}7 	c #37312E",
"|7 	c #4D453D",
"17 	c #64554E",
"27 	c #6F5956",
"37 	c #726A59",
"47 	c #706058",
"57 	c #58584F",
"67 	c #696D61",
"77 	c #616256",
"87 	c #63695E",
"97 	c #7B7F74",
"07 	c #828477",
"a7 	c #8A998D",
"b7 	c #6E796E",
"c7 	c #8A947E",
"d7 	c #78806E",
"e7 	c #7F8377",
"f7 	c #6D6F64",
"g7 	c #687165",
"h7 	c #6D756A",
"i7 	c #7D7C70",
"j7 	c #73746C",
"k7 	c #6D746C",
"l7 	c #7A7A6D",
"m7 	c #818273",
"n7 	c #777B6E",
"o7 	c #838774",
"p7 	c #869084",
"q7 	c #888F81",
"r7 	c #808477",
"s7 	c #676A5A",
"t7 	c #7B8074",
"u7 	c #6D766A",
"v7 	c #738278",
"w7 	c #7A867C",
"x7 	c #797B6E",
"y7 	c #768075",
"z7 	c #515B50",
"A7 	c #626654",
"B7 	c #656B5D",
"C7 	c #6F7E6E",
"D7 	c #65746F",
"E7 	c #606D62",
"F7 	c #5F665C",
"G7 	c #656C62",
"H7 	c #646C60",
"I7 	c #656B60",
"J7 	c #626A60",
"K7 	c #666F66",
"L7 	c #7C8073",
"M7 	c #6C736B",
"N7 	c #6C756D",
"O7 	c #7B7E72",
"P7 	c #6E736A",
"Q7 	c #777D71",
"R7 	c #79847A",
"S7 	c #73776B",
"T7 	c #7D847B",
"U7 	c #78887D",
"V7 	c #76827B",
"W7 	c #8D8F7C",
"X7 	c #898B79",
"Y7 	c #908A79",
"Z7 	c #898F7A",
"`7 	c #899180",
" 8 	c #7C8375",
".8 	c #7D867C",
"+8 	c #6D7266",
"@8 	c #232220",
"#8 	c #342F2B",
"$8 	c #4C483D",
"%8 	c #5A5546",
"&8 	c #5C4F46",
"*8 	c #5E5548",
"=8 	c #6C6355",
"-8 	c #605A4A",
";8 	c #474A41",
">8 	c #5F665D",
",8 	c #6B6E66",
"'8 	c #81897F",
")8 	c #869287",
"!8 	c #869085",
"~8 	c #8A8F81",
"{8 	c #9EA08C",
"]8 	c #919483",
"^8 	c #9BA090",
"/8 	c #828E80",
"(8 	c #7D857A",
"_8 	c #161416",
":8 	c #121111",
"<8 	c #1A1A1B",
"[8 	c #352E2D",
"}8 	c #3F3432",
"|8 	c #5E574A",
"18 	c #51443D",
"28 	c #6F6458",
"38 	c #6C5C55",
"48 	c #706859",
"58 	c #5E5248",
"68 	c #6A5C52",
"78 	c #48463A",
"88 	c #5D5F53",
"98 	c #6E7063",
"08 	c #83897A",
"a8 	c #8C8B76",
"b8 	c #7C7A6A",
"c8 	c #7E7F73",
"d8 	c #817A6D",
"e8 	c #707367",
"f8 	c #6D736A",
"g8 	c #62665B",
"h8 	c #5C6157",
"i8 	c #636A61",
"j8 	c #636862",
"k8 	c #595D51",
"l8 	c #6D7066",
"m8 	c #6D7365",
"n8 	c #676E65",
"o8 	c #61685D",
"p8 	c #787E71",
"q8 	c #7B857B",
"r8 	c #737A6F",
"s8 	c #5F6458",
"t8 	c #595B4E",
"u8 	c #5C6156",
"v8 	c #5B6153",
"w8 	c #535A54",
"x8 	c #4A5046",
"y8 	c #51554A",
"z8 	c #54544A",
"A8 	c #54574A",
"B8 	c #4C4E43",
"C8 	c #4F5953",
"D8 	c #545B51",
"E8 	c #53574C",
"F8 	c #5E675F",
"G8 	c #606458",
"H8 	c #525A50",
"I8 	c #5E645C",
"J8 	c #686F65",
"K8 	c #5C6056",
"L8 	c #6A6D61",
"M8 	c #626E63",
"N8 	c #5E6C66",
"O8 	c #5C625A",
"P8 	c #646A61",
"Q8 	c #6C7065",
"R8 	c #636C65",
"S8 	c #6A7570",
"T8 	c #81887E",
"U8 	c #819186",
"V8 	c #787E75",
"W8 	c #838376",
"X8 	c #797F75",
"Y8 	c #171B17",
"Z8 	c #181A18",
"`8 	c #232521",
" 9 	c #37392E",
".9 	c #4C453D",
"+9 	c #64534F",
"@9 	c #5C5647",
"#9 	c #666150",
"$9 	c #5E5849",
"%9 	c #645B4D",
"&9 	c #6E6556",
"*9 	c #545851",
"=9 	c #697167",
"-9 	c #676B61",
";9 	c #838577",
">9 	c #7B8478",
",9 	c #8E9488",
"'9 	c #8A8B79",
")9 	c #949785",
"!9 	c #838473",
"~9 	c #7D8377",
"{9 	c #171719",
"]9 	c #1A1A1A",
"^9 	c #211F1F",
"/9 	c #282222",
"(9 	c #473D39",
"_9 	c #514840",
":9 	c #635F4F",
"<9 	c #62544D",
"[9 	c #64534E",
"}9 	c #65514F",
"|9 	c #5C4B47",
"19 	c #696454",
"29 	c #58594F",
"39 	c #595E50",
"49 	c #7C847C",
"59 	c #61696A",
"69 	c #777C71",
"79 	c #868571",
"89 	c #7F8076",
"99 	c #686F68",
"09 	c #71766E",
"a9 	c #676A5F",
"b9 	c #626960",
"c9 	c #676D64",
"d9 	c #5D6056",
"e9 	c #62645A",
"f9 	c #5A6157",
"g9 	c #5F675E",
"h9 	c #555A52",
"i9 	c #68736B",
"j9 	c #5B5D51",
"k9 	c #4B4E42",
"l9 	c #6A7168",
"m9 	c #65675A",
"n9 	c #62695D",
"o9 	c #707468",
"p9 	c #5D6157",
"q9 	c #56594C",
"r9 	c #586158",
"s9 	c #515B53",
"t9 	c #555950",
"u9 	c #505750",
"v9 	c #515449",
"w9 	c #4C534C",
"x9 	c #494A42",
"y9 	c #505144",
"z9 	c #454C43",
"A9 	c #505951",
"B9 	c #4C534B",
"C9 	c #4A544C",
"D9 	c #5F655D",
"E9 	c #525B53",
"F9 	c #535951",
"G9 	c #545C54",
"H9 	c #545E54",
"I9 	c #555F58",
"J9 	c #57615C",
"K9 	c #555B53",
"L9 	c #5E6761",
"M9 	c #5A635D",
"N9 	c #535D56",
"O9 	c #606355",
"P9 	c #66695C",
"Q9 	c #656E66",
"R9 	c #666D63",
"S9 	c #757A6D",
"T9 	c #77877F",
"U9 	c #78877B",
"V9 	c #838E83",
"W9 	c #8B9183",
"X9 	c #7A8376",
"Y9 	c #7F877B",
"Z9 	c #7D7E72",
"`9 	c #81897B",
" 0 	c #7B877E",
".0 	c #79897E",
"+0 	c #232320",
"@0 	c #3A3F33",
"#0 	c #575144",
"$0 	c #656550",
"%0 	c #65564E",
"&0 	c #6A6353",
"*0 	c #5D5948",
"=0 	c #5C645F",
"-0 	c #697169",
";0 	c #7E806E",
">0 	c #838574",
",0 	c #8C968D",
"'0 	c #808984",
")0 	c #868E83",
"!0 	c #888C81",
"~0 	c #8C9586",
"{0 	c #828072",
"]0 	c #848A7C",
"^0 	c #808072",
"/0 	c #161518",
"(0 	c #1C1D1B",
"_0 	c #23201F",
":0 	c #36312D",
"<0 	c #433736",
"[0 	c #554745",
"}0 	c #50413F",
"|0 	c #4D3D3C",
"10 	c #4F423F",
"20 	c #524341",
"30 	c #444439",
"40 	c #5E5E4F",
"50 	c #5E6354",
"60 	c #738079",
"70 	c #7E8171",
"80 	c #8B9186",
"90 	c #73796A",
"00 	c #7B7D72",
"a0 	c #797B71",
"b0 	c #727B6F",
"c0 	c #747264",
"d0 	c #65685F",
"e0 	c #595E56",
"f0 	c #5D6058",
"g0 	c #575B53",
"h0 	c #545A52",
"i0 	c #606660",
"j0 	c #42453C",
"k0 	c #55574F",
"l0 	c #4A4E44",
"m0 	c #5D645C",
"n0 	c #5A5D54",
"o0 	c #636B60",
"p0 	c #65675E",
"q0 	c #67695F",
"r0 	c #4E5349",
"s0 	c #4B5551",
"t0 	c #494F46",
"u0 	c #4A5146",
"v0 	c #414B44",
"w0 	c #40433E",
"x0 	c #47483C",
"y0 	c #41443B",
"z0 	c #464E46",
"A0 	c #565D54",
"B0 	c #515951",
"C0 	c #4B524C",
"D0 	c #575951",
"E0 	c #4F5752",
"F0 	c #565A52",
"G0 	c #52564D",
"H0 	c #565850",
"I0 	c #4D504B",
"J0 	c #505449",
"K0 	c #595C50",
"L0 	c #5B5E52",
"M0 	c #575448",
"N0 	c #656A60",
"O0 	c #727E73",
"P0 	c #859085",
"Q0 	c #808F84",
"R0 	c #819086",
"S0 	c #8C9C8F",
"T0 	c #87897B",
"U0 	c #7E887A",
"V0 	c #7B8277",
"W0 	c #757768",
"X0 	c #8B9284",
"Y0 	c #262424",
"Z0 	c #37322E",
"`0 	c #4D473E",
" a 	c #5D4D49",
".a 	c #6A6753",
"+a 	c #6A5852",
"@a 	c #525850",
"#a 	c #5C5F58",
"$a 	c #647169",
"%a 	c #6D776C",
"&a 	c #7C7E6D",
"*a 	c #868879",
"=a 	c #8D9585",
"-a 	c #85958C",
";a 	c #87938C",
">a 	c #8A8C7D",
",a 	c #858576",
"'a 	c #8A8E7C",
")a 	c #8D8B7F",
"!a 	c #7C8274",
"~a 	c #120F10",
"{a 	c #1B1919",
"]a 	c #241E1F",
"^a 	c #2B2824",
"/a 	c #302927",
"(a 	c #403734",
"_a 	c #372E2C",
":a 	c #3E3233",
"<a 	c #3C3431",
"[a 	c #545149",
"}a 	c #525046",
"|a 	c #777362",
"1a 	c #6D7161",
"2a 	c #878A7D",
"3a 	c #7D7E6E",
"4a 	c #838E85",
"5a 	c #797B6C",
"6a 	c #6E6D60",
"7a 	c #5B6058",
"8a 	c #4A4B43",
"9a 	c #55544B",
"0a 	c #585C50",
"aa 	c #4E5047",
"ba 	c #4F554D",
"ca 	c #515751",
"da 	c #3F443D",
"ea 	c #52544D",
"fa 	c #515651",
"ga 	c #3F433A",
"ha 	c #4C4F45",
"ia 	c #4B4E45",
"ja 	c #5A5C53",
"ka 	c #54564D",
"la 	c #575A53",
"ma 	c #5B5C53",
"na 	c #45483F",
"oa 	c #444C44",
"pa 	c #454A43",
"qa 	c #414740",
"ra 	c #3E433A",
"sa 	c #35362F",
"ta 	c #3D3F37",
"ua 	c #3A3D34",
"va 	c #3D453E",
"wa 	c #3E443E",
"xa 	c #383E37",
"ya 	c #484D46",
"za 	c #3F4842",
"Aa 	c #434841",
"Ba 	c #3D453F",
"Ca 	c #464C45",
"Da 	c #494E45",
"Ea 	c #484B42",
"Fa 	c #444840",
"Ga 	c #444C48",
"Ha 	c #484E47",
"Ia 	c #48514B",
"Ja 	c #43453D",
"Ka 	c #4D5147",
"La 	c #484841",
"Ma 	c #515346",
"Na 	c #5C645B",
"Oa 	c #758277",
"Pa 	c #7A8479",
"Qa 	c #7A8378",
"Ra 	c #848B7E",
"Sa 	c #88958B",
"Ta 	c #93A296",
"Ua 	c #93A092",
"Va 	c #809082",
"Wa 	c #767E72",
"Xa 	c #18181A",
"Ya 	c #181A1A",
"Za 	c #1D201D",
"`a 	c #272624",
" b 	c #3B3A32",
".b 	c #4C443D",
"+b 	c #665751",
"@b 	c #6F6B57",
"#b 	c #6B5953",
"$b 	c #62524B",
"%b 	c #6D5E54",
"&b 	c #4C4E47",
"*b 	c #686D66",
"=b 	c #788578",
"-b 	c #939888",
";b 	c #838A83",
">b 	c #8C8E80",
",b 	c #828983",
"'b 	c #7D7E71",
")b 	c #7A8078",
"!b 	c #191718",
"~b 	c #1E1A1B",
"{b 	c #21211D",
"]b 	c #221F1E",
"^b 	c #2B3028",
"/b 	c #2A2826",
"(b 	c #4B4C46",
"_b 	c #5C635B",
":b 	c #565A51",
"<b 	c #6A6759",
"[b 	c #737666",
"}b 	c #8C9585",
"|b 	c #829284",
"1b 	c #7B7A69",
"2b 	c #808576",
"3b 	c #797C70",
"4b 	c #555B54",
"5b 	c #4A4A43",
"6b 	c #4C4C42",
"7b 	c #4F534B",
"8b 	c #515750",
"9b 	c #4A4E47",
"0b 	c #393C35",
"ab 	c #40433D",
"bb 	c #434741",
"cb 	c #353934",
"db 	c #434942",
"eb 	c #3C403B",
"fb 	c #434B45",
"gb 	c #3A423D",
"hb 	c #454842",
"ib 	c #40453F",
"jb 	c #424740",
"kb 	c #494E48",
"lb 	c #373831",
"mb 	c #363D36",
"nb 	c #393B35",
"ob 	c #3D423D",
"pb 	c #363E38",
"qb 	c #262825",
"rb 	c #252825",
"sb 	c #252823",
"tb 	c #232522",
"ub 	c #2B312D",
"vb 	c #2F322F",
"wb 	c #2B312C",
"xb 	c #2A2A26",
"yb 	c #313530",
"zb 	c #292C27",
"Ab 	c #30332D",
"Bb 	c #2E312C",
"Cb 	c #333732",
"Db 	c #343530",
"Eb 	c #333430",
"Fb 	c #2D3533",
"Gb 	c #303533",
"Hb 	c #2A2C27",
"Ib 	c #2F3330",
"Jb 	c #3E413B",
"Kb 	c #494C45",
"Lb 	c #5B615A",
"Mb 	c #5B615E",
"Nb 	c #5E645B",
"Ob 	c #69726B",
"Pb 	c #7C8A83",
"Qb 	c #818272",
"Rb 	c #7D867F",
"Sb 	c #97A093",
"Tb 	c #909E8F",
"Ub 	c #83948B",
"Vb 	c #879085",
"Wb 	c #262A23",
"Xb 	c #534E43",
"Yb 	c #706A58",
"Zb 	c #5F4B48",
"`b 	c #535A53",
" c 	c #595B52",
".c 	c #6F756C",
"+c 	c #7E8074",
"@c 	c #8D8B7B",
"#c 	c #96937F",
"$c 	c #8C887A",
"%c 	c #969B8A",
"&c 	c #8A8978",
"*c 	c #888979",
"=c 	c #7D837A",
"-c 	c #1B1819",
";c 	c #1C1E1D",
">c 	c #494F4A",
",c 	c #54584F",
"'c 	c #5D675F",
")c 	c #5D6558",
"!c 	c #8E9182",
"~c 	c #808C7C",
"{c 	c #7E8376",
"]c 	c #83897C",
"^c 	c #798071",
"/c 	c #7F8273",
"(c 	c #808578",
"_c 	c #7F8578",
":c 	c #5C6258",
"<c 	c #353731",
"[c 	c #30322C",
"}c 	c #3A3C36",
"|c 	c #31322D",
"1c 	c #373B35",
"2c 	c #292D28",
"3c 	c #30332F",
"4c 	c #2E302C",
"5c 	c #2A2D28",
"6c 	c #33332E",
"7c 	c #2C2E29",
"8c 	c #34352F",
"9c 	c #292A25",
"0c 	c #343531",
"ac 	c #2B2F2A",
"bc 	c #313632",
"cc 	c #303531",
"dc 	c #272D29",
"ec 	c #303330",
"fc 	c #222421",
"gc 	c #232723",
"hc 	c #151C18",
"ic 	c #1C1F1C",
"jc 	c #393F33",
"kc 	c #473C37",
"lc 	c #50433D",
"mc 	c #675A50",
"nc 	c #656A53",
"oc 	c #6E6756",
"pc 	c #676051",
"qc 	c #3E3F37",
"rc 	c #505752",
"sc 	c #5A605A",
"tc 	c #5A5A50",
"uc 	c #70746B",
"vc 	c #72766E",
"wc 	c #818F85",
"xc 	c #848F83",
"yc 	c #889384",
"zc 	c #889E93",
"Ac 	c #969C8D",
"Bc 	c #929C8F",
"Cc 	c #949A90",
"Dc 	c #8A958B",
"Ec 	c #818E87",
"Fc 	c #17181A",
"Gc 	c #191B1A",
"Hc 	c #282825",
"Ic 	c #3B3432",
"Jc 	c #534842",
"Kc 	c #61544C",
"Lc 	c #6D6155",
"Mc 	c #726D5A",
"Nc 	c #72695A",
"Oc 	c #6A6F57",
"Pc 	c #51534D",
"Qc 	c #5A615B",
"Rc 	c #6C6E64",
"Sc 	c #767C73",
"Tc 	c #8E9484",
"Uc 	c #9C9F8E",
"Vc 	c #8B8A7C",
"Wc 	c #8B8E7C",
"Xc 	c #52554E",
"Yc 	c #555851",
"Zc 	c #66675D",
"`c 	c #606051",
" d 	c #7D8072",
".d 	c #8E8D7E",
"+d 	c #7E8274",
"@d 	c #8B9686",
"#d 	c #7A8477",
"$d 	c #879284",
"%d 	c #7C7D6D",
"&d 	c #757A6E",
"*d 	c #6D796E",
"=d 	c #31322E",
"-d 	c #161A19",
";d 	c #141613",
">d 	c #1B1D1B",
",d 	c #1F1E1B",
"'d 	c #2F2A27",
")d 	c #4D4A3F",
"!d 	c #544D41",
"~d 	c #696752",
"{d 	c #62544B",
"]d 	c #6B6B54",
"^d 	c #697158",
"/d 	c #696852",
"(d 	c #5A5749",
"_d 	c #474944",
":d 	c #5E665E",
"<d 	c #696A5F",
"[d 	c #6E756A",
"}d 	c #919B8F",
"|d 	c #8A8E7D",
"1d 	c #919789",
"2d 	c #94A397",
"3d 	c #8B9487",
"4d 	c #798075",
"5d 	c #1C1F1D",
"6d 	c #272724",
"7d 	c #322B29",
"8d 	c #534C44",
"9d 	c #5F5C4B",
"0d 	c #5E4E48",
"ad 	c #66584F",
"bd 	c #65584F",
"cd 	c #695C52",
"dd 	c #4C5149",
"ed 	c #646D67",
"fd 	c #737E76",
"gd 	c #7B867F",
"hd 	c #8D9588",
"id 	c #8B9084",
"jd 	c #89998E",
"kd 	c #939587",
"ld 	c #8E9888",
"md 	c #91998B",
"nd 	c #8E998E",
"od 	c #181718",
"pd 	c #181518",
"qd 	c #4E524C",
"rd 	c #5E655F",
"sd 	c #5F625A",
"td 	c #70756B",
"ud 	c #757361",
"vd 	c #838572",
"wd 	c #808573",
"xd 	c #7B8377",
"yd 	c #7A7F73",
"zd 	c #838977",
"Ad 	c #838779",
"Bd 	c #6D6F62",
"Cd 	c #131713",
"Dd 	c #121815",
"Ed 	c #1C201B",
"Fd 	c #242620",
"Gd 	c #343D30",
"Hd 	c #48433A",
"Id 	c #575143",
"Jd 	c #64564C",
"Kd 	c #61534B",
"Ld 	c #615D4B",
"Md 	c #6D6656",
"Nd 	c #4E534A",
"Od 	c #575B4E",
"Pd 	c #606152",
"Qd 	c #6F7368",
"Rd 	c #737E75",
"Sd 	c #7F8478",
"Td 	c #798278",
"Ud 	c #848E7F",
"Vd 	c #848E80",
"Wd 	c #899287",
"Xd 	c #71786C",
"Yd 	c #282D26",
"Zd 	c #463C37",
"`d 	c #676252",
" e 	c #6C6E57",
".e 	c #5B4845",
"+e 	c #6D6D56",
"@e 	c #6A5D52",
"#e 	c #70735A",
"$e 	c #454A40",
"%e 	c #656658",
"&e 	c #6B7065",
"*e 	c #6E7169",
"=e 	c #869185",
"-e 	c #8B8F82",
";e 	c #869489",
">e 	c #8F9688",
",e 	c #939B8D",
"'e 	c #9A9E8D",
")e 	c #909486",
"!e 	c #838E84",
"~e 	c #57594E",
"{e 	c #575F59",
"]e 	c #6A6F66",
"^e 	c #7E7B6C",
"/e 	c #888574",
"(e 	c #929884",
"_e 	c #858B7B",
":e 	c #848271",
"<e 	c #889284",
"[e 	c #798879",
"}e 	c #839185",
"|e 	c #78847A",
"1e 	c #6F7B6F",
"2e 	c #201E1C",
"3e 	c #383C31",
"4e 	c #484839",
"5e 	c #5E5A4B",
"6e 	c #6A6154",
"7e 	c #61594B",
"8e 	c #61634C",
"9e 	c #676050",
"0e 	c #444740",
"ae 	c #5D5C53",
"be 	c #5C6057",
"ce 	c #596057",
"de 	c #7B897F",
"ee 	c #898C7E",
"fe 	c #79847B",
"ge 	c #75796B",
"he 	c #7D8578",
"ie 	c #8C9180",
"je 	c #919E8F",
"ke 	c #7E857B",
"le 	c #778479",
"me 	c #332C2A",
"ne 	c #514B42",
"oe 	c #655A50",
"pe 	c #706B59",
"qe 	c #5B4E45",
"re 	c #5D4E48",
"se 	c #5D4B47",
"te 	c #61514A",
"ue 	c #5D5047",
"ve 	c #43463E",
"we 	c #635F50",
"xe 	c #646756",
"ye 	c #8E9185",
"ze 	c #83887C",
"Ae 	c #868D83",
"Be 	c #818A80",
"Ce 	c #6A6D5E",
"De 	c #747F76",
"Ee 	c #161316",
"Fe 	c #141716",
"Ge 	c #56584E",
"He 	c #5E635F",
"Ie 	c #807C71",
"Je 	c #747A71",
"Ke 	c #717669",
"Le 	c #7A7F71",
"Me 	c #808E85",
"Ne 	c #848570",
"Oe 	c #7D816F",
"Pe 	c #818E81",
"Qe 	c #121314",
"Re 	c #171D19",
"Se 	c #161C17",
"Te 	c #1F1B1B",
"Ue 	c #514E41",
"Ve 	c #5A5447",
"We 	c #63634E",
"Xe 	c #6C6A55",
"Ye 	c #666550",
"Ze 	c #60594A",
"`e 	c #665D4E",
" f 	c #46453D",
".f 	c #49524B",
"+f 	c #596257",
"@f 	c #656C5F",
"#f 	c #7D8170",
"$f 	c #939E8E",
"%f 	c #8F9487",
"&f 	c #8F9A8F",
"*f 	c #6B6C61",
"=f 	c #1C201D",
"-f 	c #242821",
";f 	c #3B3C33",
">f 	c #443B36",
",f 	c #585044",
"'f 	c #65594F",
")f 	c #5C4945",
"!f 	c #5E5348",
"~f 	c #5E5347",
"{f 	c #5A4844",
"]f 	c #494941",
"^f 	c #696A5D",
"/f 	c #8E9384",
"(f 	c #8E9285",
"_f 	c #849083",
":f 	c #929786",
"<f 	c #868E82",
"[f 	c #747C73",
"}f 	c #141516",
"|f 	c #6B6F65",
"1f 	c #6F7167",
"2f 	c #77786D",
"3f 	c #8B8E83",
"4f 	c #8A958D",
"5f 	c #78847E",
"6f 	c #8C8776",
"7f 	c #7F8771",
"8f 	c #181719",
"9f 	c #191D19",
"0f 	c #151D19",
"af 	c #36362D",
"bf 	c #454939",
"cf 	c #65564F",
"df 	c #6E6B56",
"ef 	c #65634E",
"ff 	c #5E4E47",
"gf 	c #63604D",
"hf 	c #5D5248",
"if 	c #4B4A40",
"jf 	c #52584F",
"kf 	c #555A51",
"lf 	c #5F6257",
"mf 	c #8F8D7F",
"nf 	c #858E7D",
"of 	c #889993",
"pf 	c #7E8782",
"qf 	c #93988D",
"rf 	c #808A7E",
"sf 	c #95A18B",
"tf 	c #858C7D",
"uf 	c #83897F",
"vf 	c #1B1C1C",
"wf 	c #35362C",
"xf 	c #545745",
"yf 	c #524640",
"zf 	c #584743",
"Af 	c #6B5D53",
"Bf 	c #5D4F47",
"Cf 	c #4B4E46",
"Df 	c #494B43",
"Ef 	c #5E5F55",
"Ff 	c #777A6C",
"Gf 	c #848B7F",
"Hf 	c #868B7D",
"If 	c #8E9483",
"Jf 	c #859489",
"Kf 	c #90907F",
"Lf 	c #7A7B68",
"Mf 	c #949B89",
"Nf 	c #6C6F5E",
"Of 	c #707067",
"Pf 	c #131013",
"Qf 	c #515953",
"Rf 	c #677069",
"Sf 	c #6D766E",
"Tf 	c #7B7B6F",
"Uf 	c #919A8B",
"Vf 	c #7D887B",
"Wf 	c #7F887B",
"Xf 	c #7C8172",
"Yf 	c #131412",
"Zf 	c #22231F",
"`f 	c #3B3F33",
" g 	c #4A433B",
".g 	c #63544E",
"+g 	c #696353",
"@g 	c #5D4F46",
"#g 	c #5C4E47",
"$g 	c #706C58",
"%g 	c #42463E",
"&g 	c #5D645B",
"*g 	c #656156",
"=g 	c #79705F",
"-g 	c #777467",
";g 	c #717568",
">g 	c #80836E",
",g 	c #778378",
"'g 	c #8B9385",
")g 	c #869281",
"!g 	c #8D8B75",
"~g 	c #828976",
"{g 	c #7F8479",
"]g 	c #201C1D",
"^g 	c #37372F",
"/g 	c #443A35",
"(g 	c #534540",
"_g 	c #605049",
":g 	c #63564C",
"<g 	c #62564C",
"[g 	c #5F5549",
"}g 	c #51524A",
"|g 	c #97998B",
"1g 	c #8C9487",
"2g 	c #90907E",
"3g 	c #919381",
"4g 	c #798376",
"5g 	c #7D8479",
"6g 	c #4A514A",
"7g 	c #596058",
"8g 	c #6B7269",
"9g 	c #67685C",
"0g 	c #717564",
"ag 	c #696A5A",
"bg 	c #929581",
"cg 	c #838D83",
"dg 	c #767C6E",
"eg 	c #788479",
"fg 	c #788075",
"gg 	c #191C19",
"hg 	c #151915",
"ig 	c #1F241E",
"jg 	c #383931",
"kg 	c #48503F",
"lg 	c #554941",
"mg 	c #5B5E49",
"ng 	c #6A6052",
"og 	c #6B6A53",
"pg 	c #635A4C",
"qg 	c #40443C",
"rg 	c #50554B",
"sg 	c #646155",
"tg 	c #676F64",
"ug 	c #837D6A",
"vg 	c #7B867E",
"wg 	c #868D80",
"xg 	c #898B7D",
"yg 	c #838374",
"zg 	c #95917E",
"Ag 	c #7E8575",
"Bg 	c #797868",
"Cg 	c #141215",
"Dg 	c #201D1C",
"Eg 	c #312A28",
"Fg 	c #484039",
"Gg 	c #63614E",
"Hg 	c #5D5148",
"Ig 	c #5E5047",
"Jg 	c #615C4C",
"Kg 	c #66594F",
"Lg 	c #465049",
"Mg 	c #5A6058",
"Ng 	c #727369",
"Og 	c #7C887B",
"Pg 	c #969989",
"Qg 	c #88948A",
"Rg 	c #89887B",
"Sg 	c #7F8275",
"Tg 	c #7F8A7D",
"Ug 	c #161417",
"Vg 	c #4F534A",
"Wg 	c #676C63",
"Xg 	c #697063",
"Yg 	c #747365",
"Zg 	c #768277",
"`g 	c #706F61",
" h 	c #808274",
".h 	c #7B7E6F",
"+h 	c #737C72",
"@h 	c #6E7C75",
"#h 	c #84897B",
"$h 	c #6E766A",
"%h 	c #121311",
"&h 	c #393930",
"*h 	c #505140",
"=h 	c #62604D",
"-h 	c #685A51",
";h 	c #5F4D47",
">h 	c #64654E",
",h 	c #605E4A",
"'h 	c #676450",
")h 	c #454C46",
"!h 	c #4B544D",
"~h 	c #5C675C",
"{h 	c #737F75",
"]h 	c #8D9B90",
"^h 	c #7C8A80",
"/h 	c #788173",
"(h 	c #8D917B",
"_h 	c #808C7A",
":h 	c #3A3D32",
"<h 	c #443735",
"[h 	c #584F45",
"}h 	c #67584F",
"|h 	c #4D524C",
"1h 	c #525A53",
"2h 	c #66695F",
"3h 	c #6E7064",
"4h 	c #818477",
"5h 	c #919888",
"6h 	c #92988A",
"7h 	c #879081",
"8h 	c #848B7D",
"9h 	c #8D9788",
"0h 	c #818F82",
"ah 	c #858A7A",
"bh 	c #626454",
"ch 	c #535B53",
"dh 	c #696E65",
"eh 	c #5C5D51",
"fh 	c #757767",
"gh 	c #70766B",
"hh 	c #8B988D",
"ih 	c #717668",
"jh 	c #131917",
"kh 	c #131612",
"lh 	c #1E211B",
"mh 	c #353D31",
"nh 	c #4F4C3F",
"oh 	c #6C7158",
"ph 	c #64584C",
"qh 	c #72745B",
"rh 	c #655C4E",
"sh 	c #60604B",
"th 	c #494F48",
"uh 	c #5F6A61",
"vh 	c #777F79",
"wh 	c #8F9B8E",
"xh 	c #85887D",
"yh 	c #8B907F",
"zh 	c #81816E",
"Ah 	c #74796C",
"Bh 	c #332E2B",
"Ch 	c #453F38",
"Dh 	c #544140",
"Eh 	c #65554E",
"Fh 	c #60624C",
"Gh 	c #63554C",
"Hh 	c #6D5E55",
"Ih 	c #635D4C",
"Jh 	c #6B6E64",
"Kh 	c #6C7269",
"Lh 	c #7F8174",
"Mh 	c #8F9584",
"Nh 	c #888A7D",
"Oh 	c #8C8F81",
"Ph 	c #888D7E",
"Qh 	c #666F5E",
"Rh 	c #6D6C5C",
"Sh 	c #151215",
"Th 	c #62675E",
"Uh 	c #6E756D",
"Vh 	c #6E756F",
"Wh 	c #6C7266",
"Xh 	c #6D6E63",
"Yh 	c #6B6E62",
"Zh 	c #7E846E",
"`h 	c #838677",
" i 	c #868E7B",
".i 	c #777B6D",
"+i 	c #101111",
"@i 	c #111713",
"#i 	c #1A1C1B",
"$i 	c #222821",
"%i 	c #4E483F",
"&i 	c #5F534B",
"*i 	c #6E6B57",
"=i 	c #5C5D47",
"-i 	c #62534C",
";i 	c #625B4C",
">i 	c #604D49",
",i 	c #424D48",
"'i 	c #50584F",
")i 	c #555E54",
"!i 	c #636A5F",
"~i 	c #767867",
"{i 	c #8B948A",
"]i 	c #748278",
"^i 	c #8D958E",
"/i 	c #7E8C80",
"(i 	c #7F897D",
"_i 	c #6A6F63",
":i 	c #717B71",
"<i 	c #34352C",
"[i 	c #443736",
"}i 	c #5D594A",
"|i 	c #64604E",
"1i 	c #66534E",
"2i 	c #6B6054",
"3i 	c #62635A",
"4i 	c #7A7E73",
"5i 	c #878D82",
"6i 	c #7B7B6D",
"7i 	c #8B8A7B",
"8i 	c #868B7B",
"9i 	c #7E7F70",
"0i 	c #6E6E61",
"ai 	c #19191A",
"bi 	c #52564F",
"ci 	c #717464",
"di 	c #7E846F",
"ei 	c #848B7B",
"fi 	c #77796A",
"gi 	c #797F72",
"hi 	c #737669",
"ii 	c #828E78",
"ji 	c #98A089",
"ki 	c #838A78",
"li 	c #899384",
"mi 	c #7A7D6E",
"ni 	c #191919",
"oi 	c #1A1E1B",
"pi 	c #1A201C",
"qi 	c #1A1D1B",
"ri 	c #191B1B",
"si 	c #181F1C",
"ti 	c #151514",
"ui 	c #262A24",
"vi 	c #393731",
"wi 	c #504B41",
"xi 	c #62574D",
"yi 	c #6F6E57",
"zi 	c #665E4F",
"Ai 	c #464F4A",
"Bi 	c #777869",
"Ci 	c #89978B",
"Di 	c #666C5E",
"Ei 	c #879387",
"Fi 	c #7C8376",
"Gi 	c #222320",
"Hi 	c #332D2B",
"Ii 	c #4A423B",
"Ji 	c #5C5048",
"Ki 	c #5D5147",
"Li 	c #63634D",
"Mi 	c #6C6053",
"Ni 	c #684F4F",
"Oi 	c #6B736A",
"Pi 	c #797E73",
"Qi 	c #83887B",
"Ri 	c #828A7A",
"Si 	c #7E8579",
"Ti 	c #68695C",
"Ui 	c #171616",
"Vi 	c #1A1A19",
"Wi 	c #1A1D1A",
"Xi 	c #1C1B1B",
"Yi 	c #1D1B1B",
"Zi 	c #212420",
"`i 	c #545B54",
" j 	c #4D5049",
".j 	c #656A62",
"+j 	c #7E8A7E",
"@j 	c #707161",
"#j 	c #6D6F5F",
"$j 	c #7D8174",
"%j 	c #838877",
"&j 	c #878A7C",
"*j 	c #7D8175",
"=j 	c #1D211C",
"-j 	c #1F1E1D",
";j 	c #20231F",
">j 	c #1D1C1C",
",j 	c #1E1F1D",
"'j 	c #1E1C1D",
")j 	c #1F1F1D",
"!j 	c #1F221E",
"~j 	c #1F1F1E",
"{j 	c #1F201E",
"]j 	c #21211F",
"^j 	c #202621",
"/j 	c #1F1E1E",
"(j 	c #20241F",
"_j 	c #1E231E",
":j 	c #1D1F1D",
"<j 	c #1A1E1A",
"[j 	c #141B16",
"}j 	c #312B28",
"|j 	c #505342",
"1j 	c #675850",
"2j 	c #6B5C53",
"3j 	c #726759",
"4j 	c #64574D",
"5j 	c #62644D",
"6j 	c #49534E",
"7j 	c #5D685F",
"8j 	c #676E64",
"9j 	c #7C7D73",
"0j 	c #7C8577",
"aj 	c #797D71",
"bj 	c #899182",
"cj 	c #849288",
"dj 	c #626A5E",
"ej 	c #7D8277",
"fj 	c #858F7E",
"gj 	c #2F2C27",
"hj 	c #4B443C",
"ij 	c #584C44",
"jj 	c #63584C",
"kj 	c #5F514A",
"lj 	c #5D4A46",
"mj 	c #6D6A56",
"nj 	c #55554C",
"oj 	c #61655C",
"pj 	c #6B7166",
"qj 	c #677269",
"rj 	c #75776C",
"sj 	c #76786A",
"tj 	c #7A7E6F",
"uj 	c #7E8675",
"vj 	c #7A8177",
"wj 	c #808175",
"xj 	c #767A6D",
"yj 	c #707163",
"zj 	c #131214",
"Aj 	c #1D1D1B",
"Bj 	c #24221F",
"Cj 	c #251E20",
"Dj 	c #2B2825",
"Ej 	c #292724",
"Fj 	c #2A2423",
"Gj 	c #2A2925",
"Hj 	c #5D5F59",
"Ij 	c #6A6C61",
"Jj 	c #67695D",
"Kj 	c #676B64",
"Lj 	c #6F7265",
"Mj 	c #7A8271",
"Nj 	c #798172",
"Oj 	c #7B8273",
"Pj 	c #818173",
"Qj 	c #7B7F71",
"Rj 	c #7B877B",
"Sj 	c #2C2D27",
"Tj 	c #302B2A",
"Uj 	c #302D2B",
"Vj 	c #2D2D28",
"Wj 	c #2E2B28",
"Xj 	c #2E2C29",
"Yj 	c #2C3027",
"Zj 	c #2F3029",
"`j 	c #30332A",
" k 	c #2E2F2A",
".k 	c #2F2D28",
"+k 	c #2D2B28",
"@k 	c #2C2726",
"#k 	c #31332B",
"$k 	c #2F322A",
"%k 	c #2E332A",
"&k 	c #2C3229",
"*k 	c #2E3228",
"=k 	c #272723",
"-k 	c #242522",
";k 	c #1A1718",
">k 	c #161D17",
",k 	c #1B201C",
"'k 	c #3B3831",
")k 	c #697159",
"!k 	c #665C50",
"~k 	c #6B6653",
"{k 	c #5C5848",
"]k 	c #555E57",
"^k 	c #5F6B60",
"/k 	c #788076",
"(k 	c #7D8C7F",
"_k 	c #747266",
":k 	c #76786D",
"<k 	c #9EA794",
"[k 	c #7E8B80",
"}k 	c #7B8B7F",
"|k 	c #847F6F",
"1k 	c #787D6D",
"2k 	c #35372D",
"3k 	c #4E4F3E",
"4k 	c #656250",
"5k 	c #64584D",
"6k 	c #63574C",
"7k 	c #545B53",
"8k 	c #565C59",
"9k 	c #677268",
"0k 	c #818879",
"ak 	c #7F7C6C",
"bk 	c #8A8D7A",
"ck 	c #7B8579",
"dk 	c #7B8076",
"ek 	c #7F8073",
"fk 	c #6A6D62",
"gk 	c #757A72",
"hk 	c #181617",
"ik 	c #21251F",
"jk 	c #2A2625",
"kk 	c #2F2627",
"lk 	c #342B29",
"mk 	c #444739",
"nk 	c #413D35",
"ok 	c #3B312F",
"pk 	c #3F3B34",
"qk 	c #63675E",
"rk 	c #65695E",
"sk 	c #686C64",
"tk 	c #717162",
"uk 	c #808272",
"vk 	c #7E8676",
"wk 	c #818A7B",
"xk 	c #6F796C",
"yk 	c #808878",
"zk 	c #6F796B",
"Ak 	c #453E39",
"Bk 	c #443F38",
"Ck 	c #414336",
"Dk 	c #434238",
"Ek 	c #47463B",
"Fk 	c #47493A",
"Gk 	c #434537",
"Hk 	c #444138",
"Ik 	c #45433A",
"Jk 	c #453D39",
"Kk 	c #444538",
"Lk 	c #46493B",
"Mk 	c #444638",
"Nk 	c #464C3C",
"Ok 	c #3A352E",
"Pk 	c #413835",
"Qk 	c #413E35",
"Rk 	c #413935",
"Sk 	c #403C34",
"Tk 	c #444238",
"Uk 	c #33332A",
"Vk 	c #282A23",
"Wk 	c #211F1D",
"Xk 	c #131715",
"Yk 	c #242322",
"Zk 	c #36322D",
"`k 	c #454137",
" l 	c #5C5D48",
".l 	c #6F6E58",
"+l 	c #665C4F",
"@l 	c #707259",
"#l 	c #6B6854",
"$l 	c #555044",
"%l 	c #5A655B",
"&l 	c #60665C",
"*l 	c #657166",
"=l 	c #677067",
"-l 	c #6F756B",
";l 	c #888E84",
">l 	c #8A8C82",
",l 	c #7A8474",
"'l 	c #9AA285",
")l 	c #7F9089",
"!l 	c #252722",
"~l 	c #4C463E",
"{l 	c #63554D",
"]l 	c #635E4D",
"^l 	c #696152",
"/l 	c #66594E",
"(l 	c #58574A",
"_l 	c #5C6159",
":l 	c #61655E",
"<l 	c #6D726A",
"[l 	c #717B74",
"}l 	c #76796F",
"|l 	c #7B7D6C",
"1l 	c #939D8F",
"2l 	c #78786A",
"3l 	c #6B7466",
"4l 	c #282624",
"5l 	c #433F36",
"6l 	c #4A3F3B",
"7l 	c #505240",
"8l 	c #534D42",
"9l 	c #524F41",
"0l 	c #4E4540",
"al 	c #4D554E",
"bl 	c #575D52",
"cl 	c #747A70",
"dl 	c #6E7469",
"el 	c #798272",
"fl 	c #61695F",
"gl 	c #838884",
"hl 	c #818D81",
"il 	c #7D8981",
"jl 	c #6F7E71",
"kl 	c #7B8C8B",
"ll 	c #79887F",
"ml 	c #554C44",
"nl 	c #595547",
"ol 	c #5D5A4A",
"pl 	c #574B45",
"ql 	c #575B48",
"rl 	c #594C46",
"sl 	c #5B5A49",
"tl 	c #585846",
"ul 	c #584F46",
"vl 	c #5C5249",
"wl 	c #594A46",
"xl 	c #5B5548",
"yl 	c #595347",
"zl 	c #5B4E48",
"Al 	c #554A43",
"Bl 	c #5B634E",
"Cl 	c #544E43",
"Dl 	c #4F523F",
"El 	c #545D49",
"Fl 	c #544B42",
"Gl 	c #4A5543",
"Hl 	c #444537",
"Il 	c #30342A",
"Jl 	c #2B2C27",
"Kl 	c #1B1A19",
"Ll 	c #1E221C",
"Ml 	c #2F2E28",
"Nl 	c #3C372F",
"Ol 	c #666151",
"Pl 	c #61554C",
"Ql 	c #6C6555",
"Rl 	c #676750",
"Sl 	c #5A5A4D",
"Tl 	c #66736B",
"Ul 	c #616B60",
"Vl 	c #686A5F",
"Wl 	c #60695E",
"Xl 	c #595D52",
"Yl 	c #849084",
"Zl 	c #8C8C7A",
"`l 	c #696758",
" m 	c #89958B",
".m 	c #697D73",
"+m 	c #606A64",
"@m 	c #667162",
"#m 	c #565C52",
"$m 	c #222220",
"%m 	c #1B1D1C",
"&m 	c #33312C",
"*m 	c #453836",
"=m 	c #5B4B47",
"-m 	c #5D4C47",
";m 	c #5F4C48",
">m 	c #5E524D",
",m 	c #7B857D",
"'m 	c #63675F",
")m 	c #6B746E",
"!m 	c #6C7167",
"~m 	c #778176",
"{m 	c #787C6F",
"]m 	c #7F8477",
"^m 	c #929B8D",
"/m 	c #939A8B",
"(m 	c #8B9386",
"_m 	c #7E7D6E",
":m 	c #20211F",
"<m 	c #2D2826",
"[m 	c #403533",
"}m 	c #4F453E",
"|m 	c #5A5448",
"1m 	c #5C5047",
"2m 	c #584944",
"3m 	c #5D554D",
"4m 	c #626458",
"5m 	c #6C796F",
"6m 	c #585A4D",
"7m 	c #6D7163",
"8m 	c #747B6B",
"9m 	c #7E8A80",
"0m 	c #797A6D",
"am 	c #828D82",
"bm 	c #818D80",
"cm 	c #93998B",
"dm 	c #7E7E71",
"em 	c #606351",
"fm 	c #656050",
"gm 	c #686052",
"hm 	c #64564D",
"im 	c #696553",
"jm 	c #635B4E",
"km 	c #656E57",
"lm 	c #6B6754",
"mm 	c #5B5247",
"nm 	c #4B443A",
"om 	c #595546",
"pm 	c #4E4A3E",
"qm 	c #372F2B",
"rm 	c #878E7D",
"sm 	c #7A826C",
"tm 	c #8E9C94",
"um 	c #879086",
"vm 	c #7A897D",
"wm 	c #7B8573",
"xm 	c #727561",
"ym 	c #758474",
"zm 	c #818675",
"Am 	c #95A596",
"Bm 	c #6D7A6E",
"Cm 	c #7B8275",
"Dm 	c #89988C",
"Em 	c #959D8E",
"Fm 	c #98A89B",
"Gm 	c #929887",
"Hm 	c #899283",
"Im 	c #6E796F",
"Jm 	c #6F7468",
"Km 	c #717F73",
"Lm 	c #727B70",
"Mm 	c #768479",
"Nm 	c #868B7E",
"Om 	c #949B8D",
"Pm 	c #74796A",
"Qm 	c #70786B",
"Rm 	c #878F82",
"Sm 	c #919484",
"Tm 	c #6B6F63",
"Um 	c #8B9486",
"Vm 	c #888C7F",
"Wm 	c #82887A",
"Xm 	c #86897D",
"Ym 	c #7C8373",
"Zm 	c #888C76",
"`m 	c #8F9887",
" n 	c #838D82",
".n 	c #76776A",
"+n 	c #686B5F",
"@n 	c #828B7E",
"#n 	c #81887D",
"$n 	c #939A8E",
"%n 	c #9EA597",
"&n 	c #95A89A",
"*n 	c #989D88",
"=n 	c #898D7A",
"-n 	c #919787",
";n 	c #8F988C",
">n 	c #898D7D",
",n 	c #7E897F",
"'n 	c #7D877A",
")n 	c #747E72",
"!n 	c #7C7E70",
"~n 	c #575F54",
"{n 	c #6D7B6F",
"]n 	c #8B9083",
"^n 	c #929587",
"/n 	c #8B968B",
"(n 	c #8B9387",
"_n 	c #80877B",
":n 	c #7F8C7E",
"<n 	c #93A596",
"[n 	c #96A498",
"}n 	c #96A495",
"|n 	c #98A293",
"1n 	c #909A8C",
"2n 	c #9FA593",
"3n 	c #9CA799",
"4n 	c #8D988D",
"5n 	c #9AA69B",
"6n 	c #95A599",
"7n 	c #909E94",
"8n 	c #878C7A",
"9n 	c #656F63",
"0n 	c #717466",
"an 	c #839084",
"bn 	c #A0AA9E",
"cn 	c #697164",
"dn 	c #879588",
"en 	c #969A8B",
"fn 	c #747664",
"gn 	c #929C8C",
"hn 	c #75806A",
"in 	c #96AB9B",
"jn 	c #91A090",
"kn 	c #72796B",
"ln 	c #818C7A",
"mn 	c #858B78",
"nn 	c #727B6A",
"on 	c #848E7E",
"pn 	c #768070",
"qn 	c #737F70",
"rn 	c #6F7768",
"sn 	c #8F998C",
"tn 	c #9EA696",
"un 	c #9DAFA2",
"vn 	c #939B8B",
"wn 	c #8C9589",
"xn 	c #7F8D80",
"yn 	c #7E897B",
"zn 	c #606863",
"An 	c #78827A",
"Bn 	c #8F9D90",
"Cn 	c #95A296",
"Dn 	c #6D7162",
"En 	c #8E9E90",
"Fn 	c #85897D",
"Gn 	c #899184",
"Hn 	c #8F9B8F",
"In 	c #7D8477",
"Jn 	c #888B7A",
"Kn 	c #7C8174",
"Ln 	c #857E70",
"Mn 	c #94937A",
"Nn 	c #918F76",
"On 	c #A0A58F",
"Pn 	c #949F8F",
"Qn 	c #9AA28F",
"Rn 	c #879281",
"Sn 	c #868B79",
"Tn 	c #737568",
"Un 	c #7B897A",
"Vn 	c #788478",
"Wn 	c #7F887D",
"Xn 	c #839083",
"Yn 	c #848F81",
"Zn 	c #A0A594",
"`n 	c #969A89",
" o 	c #9FAC9E",
".o 	c #A4AFA1",
"+o 	c #949B8A",
"@o 	c #98A08E",
"#o 	c #8C988A",
"$o 	c #91A69E",
"%o 	c #8D8E7E",
"&o 	c #969E8B",
"*o 	c #879484",
"=o 	c #8B988A",
"-o 	c #878F83",
";o 	c #829086",
">o 	c #8E9C90",
",o 	c #868E81",
"'o 	c #858D7F",
")o 	c #97A08B",
"!o 	c #9BA592",
"~o 	c #98A797",
"{o 	c #8F9184",
"]o 	c #6B6D5F",
"^o 	c #6B7061",
"/o 	c #5F6D61",
"(o 	c #808A7F",
"_o 	c #6C7165",
":o 	c #939688",
"<o 	c #8D9388",
"[o 	c #8C9184",
"}o 	c #9CA897",
"|o 	c #8E9B8B",
"1o 	c #94A295",
"2o 	c #97A599",
"3o 	c #878C7D",
"4o 	c #919E90",
"5o 	c #8F9484",
"6o 	c #8F9483",
"7o 	c #97A092",
"8o 	c #919C91",
"9o 	c #949A8D",
"0o 	c #93A095",
"ao 	c #8D9B8F",
"bo 	c #7A806D",
"co 	c #9AA393",
"do 	c #707A6B",
"eo 	c #67716A",
"fo 	c #8C9A8E",
"go 	c #89978D",
"ho 	c #85948B",
"io 	c #87988C",
"jo 	c #7D8C80",
"ko 	c #888F80",
"lo 	c #8A9283",
"mo 	c #929789",
"no 	c #8A998E",
"oo 	c #788A83",
"po 	c #748377",
"qo 	c #878A7A",
"ro 	c #76786B",
"so 	c #8D9A7F",
"to 	c #7E8674",
"uo 	c #7A8777",
"vo 	c #808976",
"wo 	c #6B7063",
"xo 	c #869183",
"yo 	c #757A6B",
"zo 	c #8F998E",
"Ao 	c #687468",
"Bo 	c #939A8C",
"Co 	c #697366",
"Do 	c #8D917E",
"Eo 	c #797D6E",
"Fo 	c #697267",
"Go 	c #686F63",
"Ho 	c #6B7A6F",
"Io 	c #696E61",
"Jo 	c #97A397",
"Ko 	c #909D91",
"Lo 	c #99A28F",
"Mo 	c #8E988B",
"No 	c #829184",
"Oo 	c #8C9588",
"Po 	c #848A7F",
"Qo 	c #98A397",
"Ro 	c #7D8172",
"So 	c #9CA597",
"To 	c #858476",
"Uo 	c #969783",
"Vo 	c #949883",
"Wo 	c #969C89",
"Xo 	c #A19E8A",
"Yo 	c #959680",
"Zo 	c #8B9080",
"`o 	c #898C7A",
" p 	c #8B8977",
".p 	c #838C83",
"+p 	c #8A9081",
"@p 	c #8F9280",
"#p 	c #879087",
"$p 	c #889588",
"%p 	c #8C9384",
"&p 	c #9DA396",
"*p 	c #929989",
"=p 	c #929F91",
"-p 	c #A0A698",
";p 	c #98A193",
">p 	c #9AA398",
",p 	c #9CA999",
"'p 	c #9BA190",
")p 	c #949B8E",
"!p 	c #959782",
"~p 	c #A7A790",
"{p 	c #8B9A89",
"]p 	c #8EA499",
"^p 	c #909997",
"/p 	c #8D9384",
"(p 	c #959687",
"_p 	c #8C978B",
":p 	c #808C7E",
"<p 	c #92998A",
"[p 	c #858F7F",
"}p 	c #869485",
"|p 	c #636455",
"1p 	c #9A9E93",
"2p 	c #7E8574",
"3p 	c #9B9B8E",
"4p 	c #969F91",
"5p 	c #8E9F8C",
"6p 	c #98A497",
"7p 	c #788072",
"8p 	c #A2AA9D",
"9p 	c #919F92",
"0p 	c #899689",
"ap 	c #97A090",
"bp 	c #9CAC9E",
"cp 	c #9CAEA3",
"dp 	c #A0B3AC",
"ep 	c #848C7F",
"fp 	c #939F8F",
"gp 	c #9CA294",
"hp 	c #A4A38F",
"ip 	c #7D8978",
"jp 	c #717663",
"kp 	c #6C7C70",
"lp 	c #6A776F",
"mp 	c #727A6B",
"np 	c #92A094",
"op 	c #899486",
"pp 	c #727C6C",
"qp 	c #839284",
"rp 	c #87968B",
"sp 	c #828F80",
"tp 	c #8E9C92",
"up 	c #869688",
"vp 	c #778780",
"wp 	c #7F928A",
"xp 	c #6F786C",
"yp 	c #858B7C",
"zp 	c #7A7B63",
"Ap 	c #828D80",
"Bp 	c #7A8A7D",
"Cp 	c #737F71",
"Dp 	c #767F6E",
"Ep 	c #9AA093",
"Fp 	c #A0AD9D",
"Gp 	c #949E8F",
"Hp 	c #91A093",
"Ip 	c #879386",
"Jp 	c #818471",
"Kp 	c #89907D",
"Lp 	c #808A7D",
"Mp 	c #6A7364",
"Np 	c #788475",
"Op 	c #888C7D",
"Pp 	c #939787",
"Qp 	c #99A599",
"Rp 	c #909685",
"Sp 	c #9CA595",
"Tp 	c #8D9C92",
"Up 	c #93A297",
"Vp 	c #8F9084",
"Wp 	c #969380",
"Xp 	c #929A87",
"Yp 	c #888673",
"Zp 	c #989587",
"`p 	c #9F9C82",
" q 	c #8B8E7F",
".q 	c #86897B",
"+q 	c #969481",
"@q 	c #8C8E78",
"#q 	c #828570",
"$q 	c #8C9480",
"%q 	c #898D7B",
"&q 	c #8B8171",
"*q 	c #8F9376",
"=q 	c #8D9989",
"-q 	c #A0A495",
";q 	c #AAAC99",
">q 	c #98A89C",
",q 	c #909889",
"'q 	c #99AA9C",
")q 	c #8F978A",
"!q 	c #9C9C8A",
"~q 	c #979A8A",
"{q 	c #8F9A8C",
"]q 	c #959987",
"^q 	c #909383",
"/q 	c #999B8A",
"(q 	c #9AAE9F",
"_q 	c #9DAB9F",
":q 	c #969D90",
"<q 	c #687364",
"[q 	c #8B9383",
"}q 	c #A0A695",
"|q 	c #9D9F8A",
"1q 	c #838A7C",
"2q 	c #62685C",
"3q 	c #676F61",
"4q 	c #8B9388",
"5q 	c #6D7262",
"6q 	c #969F92",
"7q 	c #A3A993",
"8q 	c #A5B49C",
"9q 	c #A1AC9D",
"0q 	c #8D9986",
"aq 	c #859284",
"bq 	c #83978C",
"cq 	c #9BA597",
"dq 	c #869487",
"eq 	c #99A897",
"fq 	c #95A196",
"gq 	c #9BA390",
"hq 	c #979C89",
"iq 	c #929B8A",
"jq 	c #9AAEA5",
"kq 	c #939C8E",
"lq 	c #859286",
"mq 	c #6C7061",
"nq 	c #A0AA94",
"oq 	c #97A28D",
"pq 	c #818F7D",
"qq 	c #6B7C73",
"rq 	c #819285",
"sq 	c #6F8177",
"tq 	c #8B9488",
"uq 	c #879080",
"vq 	c #899083",
"wq 	c #889387",
"xq 	c #8B9E95",
"yq 	c #89988B",
"zq 	c #7B9186",
"Aq 	c #889B90",
"Bq 	c #738175",
"Cq 	c #828C7F",
"Dq 	c #737665",
"Eq 	c #778477",
"Fq 	c #A1AF9E",
"Gq 	c #90A192",
"Hq 	c #8F9E94",
"Iq 	c #949B96",
"Jq 	c #707F76",
"Kq 	c #9BA192",
"Lq 	c #8E9083",
"Mq 	c #919889",
"Nq 	c #8D9686",
"Oq 	c #768473",
"Pq 	c #7B938A",
"Qq 	c #94988B",
"Rq 	c #939E90",
"Sq 	c #9CA493",
"Tq 	c #8E9D90",
"Uq 	c #9EA496",
"Vq 	c #929483",
"Wq 	c #9A9C89",
"Xq 	c #A0AB9D",
"Yq 	c #919D8E",
"Zq 	c #8E9684",
"`q 	c #8E9080",
" r 	c #999F92",
".r 	c #7A7C6B",
"+r 	c #859388",
"@r 	c #858D7D",
"#r 	c #808A7C",
"$r 	c #8F8E81",
"%r 	c #7D8275",
"&r 	c #989480",
"*r 	c #7C8275",
"=r 	c #8A8576",
"-r 	c #877F6E",
";r 	c #8F8577",
">r 	c #857D6D",
",r 	c #8B917A",
"'r 	c #86907E",
")r 	c #9DA591",
"!r 	c #979682",
"~r 	c #8D9486",
"{r 	c #949B8C",
"]r 	c #9EA697",
"^r 	c #7F877C",
"/r 	c #939E93",
"(r 	c #8F978E",
"_r 	c #9A9786",
":r 	c #848D79",
"<r 	c #9BA594",
"[r 	c #94A18A",
"}r 	c #88978F",
"|r 	c #879389",
"1r 	c #8E968A",
"2r 	c #90968A",
"3r 	c #98A191",
"4r 	c #697362",
"5r 	c #858B80",
"6r 	c #969F93",
"7r 	c #A39D8E",
"8r 	c #97917E",
"9r 	c #888D7B",
"0r 	c #969B8B",
"ar 	c #819488",
"br 	c #9FA799",
"cr 	c #788178",
"dr 	c #8A9B91",
"er 	c #A2B4AC",
"fr 	c #929889",
"gr 	c #9AA18F",
"hr 	c #8B9B90",
"ir 	c #9CAFA1",
"jr 	c #919F94",
"kr 	c #6D786B",
"lr 	c #8D988A",
"mr 	c #848C82",
"nr 	c #75836D",
"or 	c #899788",
"pr 	c #738273",
"qr 	c #6F8076",
"rr 	c #7D8F85",
"sr 	c #6D8179",
"tr 	c #7C8579",
"ur 	c #808674",
"vr 	c #8A9F92",
"wr 	c #959685",
"xr 	c #7C8478",
"yr 	c #86988C",
"zr 	c #73827A",
"Ar 	c #7D918A",
"Br 	c #808678",
"Cr 	c #758173",
"Dr 	c #7A8678",
"Er 	c #6A7468",
"Fr 	c #79836F",
"Gr 	c #676D5E",
"Hr 	c #728274",
"Ir 	c #777765",
"Jr 	c #979986",
"Kr 	c #99A294",
"Lr 	c #76837B",
"Mr 	c #8D9182",
"Nr 	c #898E81",
"Or 	c #8B9180",
"Pr 	c #8B9586",
"Qr 	c #868E7C",
"Rr 	c #8E998D",
"Sr 	c #869488",
"Tr 	c #89968C",
"Ur 	c #878E82",
"Vr 	c #939581",
"Wr 	c #9BA08F",
"Xr 	c #9DA796",
"Yr 	c #90A091",
"Zr 	c #8B978C",
"`r 	c #82867F",
" s 	c #747567",
".s 	c #7C8173",
"+s 	c #858779",
"@s 	c #949583",
"#s 	c #92A393",
"$s 	c #85877B",
"%s 	c #919988",
"&s 	c #89968A",
"*s 	c #8E9A8D",
"=s 	c #888E7D",
"-s 	c #8E9D91",
";s 	c #888B7D",
">s 	c #8D9286",
",s 	c #9B9987",
"'s 	c #8D8E7D",
")s 	c #9D9B8B",
"!s 	c #96A595",
"~s 	c #879088",
"{s 	c #848F86",
"]s 	c #8C8D80",
"^s 	c #939786",
"/s 	c #939987",
"(s 	c #939789",
"_s 	c #859181",
":s 	c #8D9082",
"<s 	c #8A9183",
"[s 	c #838F84",
"}s 	c #8F9488",
"|s 	c #8F9689",
"1s 	c #909C8E",
"2s 	c #949C8F",
"3s 	c #909689",
"4s 	c #858273",
"5s 	c #707263",
"6s 	c #868C7C",
"7s 	c #8A9E93",
"8s 	c #94A396",
"9s 	c #90998D",
"0s 	c #8A9082",
"as 	c #899588",
"bs 	c #7E8275",
"cs 	c #676F60",
"ds 	c #6F7563",
"es 	c #727460",
"fs 	c #737863",
"gs 	c #778574",
"hs 	c #82948B",
"is 	c #69776E",
"js 	c #6E7C70",
"ks 	c #788274",
"ls 	c #818C81",
"ms 	c #777D72",
"ns 	c #758581",
"os 	c #77847B",
"ps 	c #89948A",
"qs 	c #73806F",
"rs 	c #747D6C",
"ss 	c #6C7967",
"ts 	c #7C7E6C",
"us 	c #6F7164",
"vs 	c #8F9077",
"ws 	c #6F7D6F",
"xs 	c #88937D",
"ys 	c #6A7870",
"zs 	c #8A978E",
"As 	c #848C81",
"Bs 	c #878A77",
"Cs 	c #8D8E78",
"Ds 	c #8B8F7C",
"Es 	c #95988B",
"Fs 	c #7F8E81",
"Gs 	c #778174",
"Hs 	c #828E82",
"Is 	c #81867A",
"Js 	c #878A7B",
"Ks 	c #909C8B",
"Ls 	c #919685",
"Ms 	c #828878",
"Ns 	c #797C6D",
"Os 	c #808F85",
"Ps 	c #8C9285",
"Qs 	c #8E8E7F",
"Rs 	c #718178",
"Ss 	c #77867F",
"Ts 	c #777E72",
"Us 	c #7C7F75",
"Vs 	c #949D8D",
"Ws 	c #8A8D7D",
"Xs 	c #929486",
"Ys 	c #8F9486",
"Zs 	c #87978D",
"`s 	c #98A79A",
" t 	c #87948A",
".t 	c #888F85",
"+t 	c #909887",
"@t 	c #9AA28C",
"#t 	c #898F7D",
"$t 	c #8A8E81",
"%t 	c #8A8A7C",
"&t 	c #979E90",
"*t 	c #899587",
"=t 	c #8D9A90",
"-t 	c #828476",
";t 	c #849085",
">t 	c #908F7C",
",t 	c #869285",
"'t 	c #899789",
")t 	c #819089",
"!t 	c #888B81",
"~t 	c #909587",
"{t 	c #859588",
"]t 	c #747565",
"^t 	c #848675",
"/t 	c #788679",
"(t 	c #929688",
"_t 	c #819085",
":t 	c #828F85",
"<t 	c #808F83",
"[t 	c #6F7E74",
"}t 	c #5D665F",
"|t 	c #767666",
"1t 	c #66695A",
"2t 	c #707D6F",
"3t 	c #68776D",
"4t 	c #5E685E",
"5t 	c #6D7568",
"6t 	c #647064",
"7t 	c #828775",
"8t 	c #707A70",
"9t 	c #7E897A",
"0t 	c #8F9B8A",
"at 	c #6C7567",
"bt 	c #69766A",
"ct 	c #6F776B",
"dt 	c #727E75",
"et 	c #707F6D",
"ft 	c #70796C",
"gt 	c #676E60",
"ht 	c #727869",
"it 	c #7B7A6B",
"jt 	c #6D715F",
"kt 	c #878476",
"lt 	c #7B7D69",
"mt 	c #868F82",
"nt 	c #8C9387",
"ot 	c #808C81",
"pt 	c #838479",
"qt 	c #808979",
"rt 	c #7E8B88",
"st 	c #8B9889",
"tt 	c #788673",
"ut 	c #78877C",
"vt 	c #7A887A",
"wt 	c #838C81",
"xt 	c #878B7D",
"yt 	c #80806F",
"zt 	c #848576",
"At 	c #959A88",
"Bt 	c #8E8E7C",
"Ct 	c #909482",
"Dt 	c #879287",
"Et 	c #6E7366",
"Ft 	c #7F897B",
"Gt 	c #848D81",
"Ht 	c #80887A",
"It 	c #7E867A",
"Jt 	c #73766A",
"Kt 	c #828276",
"Lt 	c #7A8277",
"Mt 	c #878A78",
"Nt 	c #90988A",
"Ot 	c #949687",
"Pt 	c #959A90",
"Qt 	c #91998F",
"Rt 	c #858978",
"St 	c #8C9581",
"Tt 	c #8D8A73",
"Ut 	c #889385",
"Vt 	c #8B8F7E",
"Wt 	c #8C9385",
"Xt 	c #88978E",
"Yt 	c #8A8E7E",
"Zt 	c #7C7B6D",
"`t 	c #8B8F7D",
" u 	c #7B7C6F",
".u 	c #8B8A78",
"+u 	c #8D9180",
"@u 	c #888E81",
"#u 	c #747B69",
"$u 	c #889285",
"%u 	c #89968B",
"&u 	c #7E8379",
"*u 	c #5B5E50",
"=u 	c #6B705F",
"-u 	c #7A8578",
";u 	c #717F71",
">u 	c #65685A",
",u 	c #63685A",
"'u 	c #7B8577",
")u 	c #646D5E",
"!u 	c #7D8579",
"~u 	c #6E7D75",
"{u 	c #5F6356",
"]u 	c #5F6C65",
"^u 	c #6A7669",
"/u 	c #5D6357",
"(u 	c #6E7B71",
"_u 	c #5E6B63",
":u 	c #677669",
"<u 	c #7D8474",
"[u 	c #747F73",
"}u 	c #7A7C69",
"|u 	c #7B8675",
"1u 	c #7B8473",
"2u 	c #8A9989",
"3u 	c #979C86",
"4u 	c #91A092",
"5u 	c #70786E",
"6u 	c #676E61",
"7u 	c #727E76",
"8u 	c #7D8270",
"9u 	c #5A665D",
"0u 	c #757868",
"au 	c #707568",
"bu 	c #717D6D",
"cu 	c #657468",
"du 	c #7F8E87",
"eu 	c #919382",
"fu 	c #7E837D",
"gu 	c #818880",
"hu 	c #869083",
"iu 	c #898F82",
"ju 	c #7A837B",
"ku 	c #838275",
"lu 	c #919482",
"mu 	c #898F80",
"nu 	c #8B8F81",
"ou 	c #879182",
"pu 	c #84958A",
"qu 	c #8B9689",
"ru 	c #929489",
"su 	c #879489",
"tu 	c #6B796F",
"uu 	c #6B7669",
"vu 	c #837D6F",
"wu 	c #7C8278",
"xu 	c #7C8479",
"yu 	c #859587",
"zu 	c #919481",
"Au 	c #97A08F",
"Bu 	c #89978F",
"Cu 	c #939B8C",
"Du 	c #888A7C",
"Eu 	c #8A8E82",
"Fu 	c #878B80",
"Gu 	c #939E92",
"Hu 	c #888B7C",
"Iu 	c #939886",
"Ju 	c #828374",
"Ku 	c #93907F",
"Lu 	c #797F6D",
"Mu 	c #919990",
"Nu 	c #91998E",
"Ou 	c #8E9286",
"Pu 	c #7C7F6E",
"Qu 	c #858573",
"Ru 	c #8D9485",
"Su 	c #819588",
"Tu 	c #73827B",
"Uu 	c #8A9689",
"Vu 	c #5F675C",
"Wu 	c #7D8D83",
"Xu 	c #6B7264",
"Yu 	c #727566",
"Zu 	c #808B82",
"`u 	c #666F63",
" v 	c #7F8778",
".v 	c #8B9384",
"+v 	c #7C847B",
"@v 	c #778882",
"#v 	c #676F63",
"$v 	c #667065",
"%v 	c #5E665B",
"&v 	c #6E7973",
"*v 	c #5E685F",
"=v 	c #6A746B",
"-v 	c #788275",
";v 	c #7B877F",
">v 	c #6C6B5E",
",v 	c #8D8D7C",
"'v 	c #797E70",
")v 	c #828D79",
"!v 	c #727C77",
"~v 	c #7F8E85",
"{v 	c #6E766E",
"]v 	c #838879",
"^v 	c #6D7063",
"/v 	c #697065",
"(v 	c #657063",
"_v 	c #69786B",
":v 	c #7F857B",
"<v 	c #7D8378",
"[v 	c #868C7D",
"}v 	c #738078",
"|v 	c #798074",
"1v 	c #7D887F",
"2v 	c #7E8D84",
"3v 	c #838578",
"4v 	c #797E71",
"5v 	c #878978",
"6v 	c #848A7B",
"7v 	c #7F8276",
"8v 	c #72766A",
"9v 	c #72776D",
"0v 	c #8B948B",
"av 	c #788A82",
"bv 	c #6F7C72",
"cv 	c #626C62",
"dv 	c #636E62",
"ev 	c #7A7E74",
"fv 	c #787F70",
"gv 	c #787B6B",
"hv 	c #82887C",
"iv 	c #6A6C60",
"jv 	c #858D7B",
"kv 	c #87887B",
"lv 	c #86978F",
"mv 	c #8B958C",
"nv 	c #7E8A7B",
"ov 	c #798679",
"pv 	c #737B73",
"qv 	c #727363",
"rv 	c #818D7E",
"sv 	c #808E81",
"tv 	c #717A70",
"uv 	c #71786F",
"vv 	c #75796C",
"wv 	c #767668",
"xv 	c #6B7468",
"yv 	c #5C6051",
"zv 	c #63685B",
"Av 	c #5E6658",
"Bv 	c #7D8576",
"Cv 	c #67776E",
"Dv 	c #718176",
"Ev 	c #606A5F",
"Fv 	c #646C61",
"Gv 	c #636B5D",
"Hv 	c #606C63",
"Iv 	c #5F6C62",
"Jv 	c #5D6A60",
"Kv 	c #5E6A5F",
"Lv 	c #62695A",
"Mv 	c #5F675B",
"Nv 	c #5D695E",
"Ov 	c #6A7269",
"Pv 	c #7A7D74",
"Qv 	c #666C64",
"Rv 	c #575C53",
"Sv 	c #6F7770",
"Tv 	c #5E6559",
"Uv 	c #6A776E",
"Vv 	c #6B756B",
"Wv 	c #616A5F",
"Xv 	c #5F695F",
"Yv 	c #616357",
"Zv 	c #797B70",
"`v 	c #63716B",
" w 	c #71776E",
".w 	c #829083",
"+w 	c #888778",
"@w 	c #5F6054",
"#w 	c #677068",
"$w 	c #73817C",
"%w 	c #6C6F64",
"&w 	c #717C71",
"*w 	c #6E7269",
"=w 	c #717468",
"-w 	c #747A6D",
";w 	c #636A63",
">w 	c #5D5F56",
",w 	c #5B5C51",
"'w 	c #5A6259",
")w 	c #5D6459",
"!w 	c #63665D",
"~w 	c #656D63",
"{w 	c #657167",
"]w 	c #6A6D5F",
"^w 	c #6F6E61",
"/w 	c #797F71",
"(w 	c #828273",
"_w 	c #81857A",
":w 	c #677671",
"<w 	c #7D8880",
"[w 	c #7A8A87",
"}w 	c #6F776E",
"|w 	c #757B71",
"1w 	c #7A8278",
"2w 	c #7F8171",
"3w 	c #828D7C",
"4w 	c #7F8B7F",
"5w 	c #6F7A71",
"6w 	c #51574D",
"7w 	c #585A4C",
"8w 	c #5D5C4A",
"9w 	c #585C51",
"0w 	c #575E53",
"aw 	c #595E52",
"bw 	c #6F7A72",
"cw 	c #5A5F54",
"dw 	c #565D53",
"ew 	c #5B675E",
"fw 	c #58655C",
"gw 	c #58645D",
"hw 	c #5A6357",
"iw 	c #6F786E",
"jw 	c #59675C",
"kw 	c #58665E",
"lw 	c #6F7D77",
"mw 	c #696F61",
"nw 	c #636F67",
"ow 	c #636A65",
"pw 	c #716B5E",
"qw 	c #575F57",
"rw 	c #555A4F",
"sw 	c #5A6355",
"tw 	c #576155",
"uw 	c #5A5E50",
"vw 	c #576054",
"ww 	c #585F55",
"xw 	c #585B51",
"yw 	c #565B51",
"zw 	c #838D7F",
"Aw 	c #939381",
"Bw 	c #898A78",
"Cw 	c #878979",
"Dw 	c #7D8374",
"Ew 	c #8D9382",
"Fw 	c #797B6F",
"Gw 	c #666F68",
"Hw 	c #545A51",
"Iw 	c #65716A",
"Jw 	c #66685E",
"Kw 	c #646B61",
"Lw 	c #65695F",
"Mw 	c #696B62",
"Nw 	c #5F6258",
"Ow 	c #69716A",
"Pw 	c #65685C",
"Qw 	c #55554A",
"Rw 	c #484C43",
"Sw 	c #5F6B64",
"Tw 	c #5F6C64",
"Uw 	c #6F6F60",
"Vw 	c #747A68",
"Ww 	c #6F7E76",
"Xw 	c #636B61",
"Yw 	c #676A5B",
"Zw 	c #6A736C",
"`w 	c #686E66",
" x 	c #6C7568",
".x 	c #6B756E",
"+x 	c #575C52",
"@x 	c #5C665C",
"#x 	c #697068",
"$x 	c #63655A",
"%x 	c #697165",
"&x 	c #646D68",
"*x 	c #69766B",
"=x 	c #6C776D",
"-x 	c #788A7F",
";x 	c #7B8679",
">x 	c #7B8372",
",x 	c #69736A",
"'x 	c #5C6256",
")x 	c #47493F",
"!x 	c #4D4F45",
"~x 	c #566057",
"{x 	c #626C63",
"]x 	c #505B55",
"^x 	c #4C5850",
"/x 	c #556058",
"(x 	c #4F5A50",
"_x 	c #576258",
":x 	c #57645D",
"<x 	c #585F54",
"[x 	c #5B6057",
"}x 	c #57635D",
"|x 	c #51564B",
"1x 	c #4F5B53",
"2x 	c #5E6355",
"3x 	c #52594E",
"4x 	c #4C554E",
"5x 	c #66726C",
"6x 	c #55615D",
"7x 	c #5F6860",
"8x 	c #555F56",
"9x 	c #5C5F56",
"0x 	c #5B5D55",
"ax 	c #67625A",
"bx 	c #555C56",
"cx 	c #51564D",
"dx 	c #545E56",
"ex 	c #525B55",
"fx 	c #4E574E",
"gx 	c #4D544B",
"hx 	c #53534A",
"ix 	c #4C4F46",
"jx 	c #525349",
"kx 	c #51574A",
"lx 	c #525950",
"mx 	c #6B6E63",
"nx 	c #696D62",
"ox 	c #8A9382",
"px 	c #848778",
"qx 	c #888E7A",
"rx 	c #6C6D5E",
"sx 	c #8F9D86",
"tx 	c #767F70",
"ux 	c #646B5F",
"vx 	c #5C635A",
"wx 	c #596059",
"xx 	c #4B5048",
"yx 	c #525954",
"zx 	c #5E665D",
"Ax 	c #62685E",
"Bx 	c #585B53",
"Cx 	c #565A50",
"Dx 	c #5C655D",
"Ex 	c #595C53",
"Fx 	c #646559",
"Gx 	c #61665D",
"Hx 	c #484E45",
"Ix 	c #5A5E56",
"Jx 	c #41473F",
"Kx 	c #5A615A",
"Lx 	c #6B7369",
"Mx 	c #71776B",
"Nx 	c #758070",
"Ox 	c #869288",
"Px 	c #566158",
"Qx 	c #60665E",
"Rx 	c #626861",
"Sx 	c #5F6761",
"Tx 	c #5A5F56",
"Ux 	c #5E635C",
"Vx 	c #595A52",
"Wx 	c #4C524A",
"Xx 	c #666657",
"Yx 	c #5E6358",
"Zx 	c #5A635C",
"`x 	c #545B52",
" y 	c #636961",
".y 	c #687065",
"+y 	c #758278",
"@y 	c #7D897C",
"#y 	c #606454",
"$y 	c #797D6F",
"%y 	c #58635D",
"&y 	c #484B40",
"*y 	c #474C42",
"=y 	c #3F433C",
"-y 	c #4E5149",
";y 	c #484F46",
">y 	c #49544D",
",y 	c #59635B",
"'y 	c #4D5248",
")y 	c #485148",
"!y 	c #4D554C",
"~y 	c #4B5148",
"{y 	c #4A5148",
"]y 	c #505A54",
"^y 	c #465047",
"/y 	c #5A5B53",
"(y 	c #495248",
"_y 	c #616A62",
":y 	c #636C64",
"<y 	c #59635E",
"[y 	c #5A6057",
"}y 	c #545D58",
"|y 	c #4F554E",
"1y 	c #4D524B",
"2y 	c #4C5956",
"3y 	c #4B4E44",
"4y 	c #555951",
"5y 	c #4B4E48",
"6y 	c #56544D",
"7y 	c #4C4F49",
"8y 	c #525B54",
"9y 	c #4F544B",
"0y 	c #4B5149",
"ay 	c #434944",
"by 	c #454D49",
"cy 	c #41443C",
"dy 	c #454C45",
"ey 	c #464C46",
"fy 	c #3B3F38",
"gy 	c #4C524D",
"hy 	c #4D534C",
"iy 	c #5A655F",
"jy 	c #494D46",
"ky 	c #707469",
"ly 	c #868878",
"my 	c #67695A",
"ny 	c #758064",
"oy 	c #757961",
"py 	c #6B7A69",
"qy 	c #6B7267",
"ry 	c #4C5049",
"sy 	c #4D4F47",
"ty 	c #565951",
"uy 	c #4F4E45",
"vy 	c #4E4E46",
"wy 	c #4F5048",
"xy 	c #4A4C46",
"yy 	c #4A5049",
"zy 	c #57564A",
"Ay 	c #515347",
"By 	c #4F574C",
"Cy 	c #4F4F43",
"Dy 	c #494D43",
"Ey 	c #4E564D",
"Fy 	c #646E64",
"Gy 	c #6E7A6D",
"Hy 	c #72786D",
"Iy 	c #8A8E7F",
"Jy 	c #82846F",
"Ky 	c #829188",
"Ly 	c #808B83",
"My 	c #5B6258",
"Ny 	c #4F564F",
"Oy 	c #545E57",
"Py 	c #5D5F58",
"Qy 	c #535851",
"Ry 	c #525750",
"Sy 	c #51534C",
"Ty 	c #555C55",
"Uy 	c #51574E",
"Vy 	c #474D45",
"Wy 	c #59605A",
"Xy 	c #474F49",
"Yy 	c #555852",
"Zy 	c #525955",
"`y 	c #535950",
" z 	c #5F6963",
".z 	c #727569",
"+z 	c #787C71",
"@z 	c #758073",
"#z 	c #52574F",
"$z 	c #5D635B",
"%z 	c #47483E",
"&z 	c #4E554C",
"*z 	c #3F4942",
"=z 	c #3F4840",
"-z 	c #4C5147",
";z 	c #44493F",
">z 	c #404741",
",z 	c #3E4843",
"'z 	c #424841",
")z 	c #434D49",
"!z 	c #464B43",
"~z 	c #434C46",
"{z 	c #4C5249",
"]z 	c #49534B",
"^z 	c #404942",
"/z 	c #4F5851",
"(z 	c #4E544C",
"_z 	c #4D534D",
":z 	c #4F5955",
"<z 	c #545C56",
"[z 	c #484E48",
"}z 	c #434A44",
"|z 	c #414944",
"1z 	c #484C45",
"2z 	c #464943",
"3z 	c #444742",
"4z 	c #3F4740",
"5z 	c #454B45",
"6z 	c #48504A",
"7z 	c #434640",
"8z 	c #3A423E",
"9z 	c #3A423F",
"0z 	c #393F3A",
"az 	c #393F3B",
"bz 	c #3D4239",
"cz 	c #494C42",
"dz 	c #4B544A",
"ez 	c #454F46",
"fz 	c #606762",
"gz 	c #686A5D",
"hz 	c #7C8378",
"iz 	c #757062",
"jz 	c #6A7566",
"kz 	c #908B76",
"lz 	c #7F7868",
"mz 	c #5B5D50",
"nz 	c #575D54",
"oz 	c #494D47",
"pz 	c #41423C",
"qz 	c #474D47",
"rz 	c #45473E",
"sz 	c #474C43",
"tz 	c #4C4D43",
"uz 	c #464841",
"vz 	c #474B43",
"wz 	c #464B45",
"xz 	c #38372D",
"yz 	c #42443B",
"zz 	c #4F5249",
"Az 	c #566157",
"Bz 	c #70776C",
"Cz 	c #6E7265",
"Dz 	c #909B8C",
"Ez 	c #81958C",
"Fz 	c #7D8B82",
"Gz 	c #646E65",
"Hz 	c #4A5147",
"Iz 	c #51544B",
"Jz 	c #4A524E",
"Kz 	c #454741",
"Lz 	c #464A42",
"Mz 	c #474C47",
"Nz 	c #4A4E46",
"Oz 	c #454942",
"Pz 	c #454843",
"Qz 	c #424541",
"Rz 	c #484A42",
"Sz 	c #494B42",
"Tz 	c #4B4C42",
"Uz 	c #565A54",
"Vz 	c #545951",
"Wz 	c #6A746A",
"Xz 	c #747E75",
"Yz 	c #7C877D",
"Zz 	c #7E887F",
"`z 	c #859387",
" A 	c #70786C",
".A 	c #838D80",
"+A 	c #879183",
"@A 	c #53554B",
"#A 	c #4B524A",
"$A 	c #424842",
"%A 	c #3B3D36",
"&A 	c #44473E",
"*A 	c #383F39",
"=A 	c #333833",
"-A 	c #3F463E",
";A 	c #3F4641",
">A 	c #3A3D38",
",A 	c #393E38",
"'A 	c #363A34",
")A 	c #393D36",
"!A 	c #343833",
"~A 	c #3D4039",
"{A 	c #3E4641",
"]A 	c #444C47",
"^A 	c #393E39",
"/A 	c #343B37",
"(A 	c #333B37",
"_A 	c #454A45",
":A 	c #434945",
"<A 	c #444641",
"[A 	c #474B45",
"}A 	c #32342E",
"|A 	c #343733",
"1A 	c #2C322E",
"2A 	c #353B38",
"3A 	c #2C302A",
"4A 	c #31312D",
"5A 	c #2D302C",
"6A 	c #303431",
"7A 	c #30342E",
"8A 	c #2D3331",
"9A 	c #323531",
"0A 	c #2C2E2B",
"aA 	c #282925",
"bA 	c #292E29",
"cA 	c #2B2C25",
"dA 	c #343832",
"eA 	c #393F38",
"fA 	c #4B4F48",
"gA 	c #4F5B54",
"hA 	c #5B625A",
"iA 	c #56584C",
"jA 	c #868F81",
"kA 	c #6B7366",
"lA 	c #748275",
"mA 	c #747F72",
"nA 	c #4E564F",
"oA 	c #32322E",
"pA 	c #2E2D26",
"qA 	c #31322C",
"rA 	c #32342D",
"sA 	c #32352D",
"tA 	c #2B2B28",
"uA 	c #2C2B26",
"vA 	c #2D2E29",
"wA 	c #3B3D35",
"xA 	c #3E4035",
"yA 	c #636559",
"zA 	c #78857C",
"AA 	c #6B7367",
"BA 	c #8E9486",
"CA 	c #95998C",
"DA 	c #8D9483",
"EA 	c #757E6E",
"FA 	c #819183",
"GA 	c #55584F",
"HA 	c #3F463F",
"IA 	c #3E403B",
"JA 	c #313430",
"KA 	c #31332F",
"LA 	c #2D2F2C",
"MA 	c #343933",
"NA 	c #313532",
"OA 	c #2B302E",
"PA 	c #2D3330",
"QA 	c #2F322E",
"RA 	c #313833",
"SA 	c #42473E",
"TA 	c #505C53",
"UA 	c #717A71",
"VA 	c #6F7B71",
"WA 	c #838981",
"XA 	c #727769",
"YA 	c #898F84",
"ZA 	c #677164",
"`A 	c #5E6B60",
" B 	c #444D46",
".B 	c #323832",
"+B 	c #2E312D",
"@B 	c #2B2F2C",
"#B 	c #242926",
"$B 	c #2C312A",
"%B 	c #282B26",
"&B 	c #252927",
"*B 	c #242A27",
"=B 	c #262A27",
"-B 	c #262A25",
";B 	c #272B26",
">B 	c #272A25",
",B 	c #2E332F",
"'B 	c #252A26",
")B 	c #2E3230",
"!B 	c #262A26",
"~B 	c #2D312D",
"{B 	c #303532",
"]B 	c #191C1B",
"^B 	c #161E1A",
"/B 	c #2D322E",
"(B 	c #40463E",
"_B 	c #546058",
":B 	c #666B5F",
"<B 	c #6B7064",
"[B 	c #6B746D",
"}B 	c #818B7C",
"|B 	c #7F8375",
"1B 	c #6F786D",
"2B 	c #363833",
"3B 	c #33302A",
"4B 	c #4C4B42",
"5B 	c #495049",
"6B 	c #5E6A61",
"7B 	c #858B7E",
"8B 	c #8F9387",
"9B 	c #6C7064",
"0B 	c #939B8F",
"aB 	c #888A7F",
"bB 	c #7C8A7B",
"cB 	c #8A8B7B",
"dB 	c #363A35",
"eB 	c #171E1A",
"fB 	c #4F544C",
"gB 	c #5E655C",
"hB 	c #616C65",
"iB 	c #6D7A72",
"jB 	c #6F7970",
"kB 	c #798981",
"lB 	c #8E958D",
"mB 	c #838A7E",
"nB 	c #7F8676",
"oB 	c #6C7366",
"pB 	c #56594D",
"qB 	c #2F342F",
"rB 	c #161614",
"sB 	c #414237",
"tB 	c #4B5249",
"uB 	c #4D5348",
"vB 	c #606C65",
"wB 	c #848673",
"xB 	c #6B7164",
"yB 	c #8B9288",
"zB 	c #656D5F",
"AB 	c #8E927C",
"BB 	c #7C8674",
"CB 	c #4A5047",
"DB 	c #5B5C52",
"EB 	c #787C70",
"FB 	c #6C7466",
"GB 	c #838D7D",
"HB 	c #696F63",
"IB 	c #6F7B70",
"JB 	c #7F867E",
"KB 	c #667163",
"LB 	c #838A79",
"MB 	c #656B65",
"NB 	c #8A9A8F",
"OB 	c #727E71",
"PB 	c #8CA093",
"QB 	c #69746F",
"RB 	c #5F6B61",
"SB 	c #616E65",
"TB 	c #626A5C",
"UB 	c #171B1A",
"VB 	c #131A16",
"WB 	c #161C19",
"XB 	c #3D463F",
"YB 	c #4E5145",
"ZB 	c #606353",
"`B 	c #6C7362",
" C 	c #606B5F",
".C 	c #6E7569",
"+C 	c #809285",
"@C 	c #818B81",
"#C 	c #827E6D",
"$C 	c #141313",
"%C 	c #47473F",
"&C 	c #4E5148",
"*C 	c #667269",
"=C 	c #8F968D",
"-C 	c #8FA196",
";C 	c #737A6D",
">C 	c #8C9486",
",C 	c #83918C",
"'C 	c #828B7D",
")C 	c #5E6860",
"!C 	c #727C72",
"~C 	c #787A67",
"{C 	c #75806E",
"]C 	c #727969",
"^C 	c #60685C",
"/C 	c #606F68",
"(C 	c #131915",
"_C 	c #535952",
":C 	c #464C44",
"<C 	c #54574B",
"[C 	c #5E6558",
"}C 	c #6B7162",
"|C 	c #838679",
"1C 	c #8F9A8D",
"2C 	c #898E83",
"3C 	c #7C8374",
"4C 	c #4B4D44",
"5C 	c #54584E",
"6C 	c #616A61",
"7C 	c #7A8073",
"8C 	c #8E9D8D",
"9C 	c #8C9A93",
"0C 	c #848D83",
"aC 	c #909A92",
"bC 	c #8C9284",
"cC 	c #888D80",
"dC 	c #92A196",
"eC 	c #838A7A",
"fC 	c #586157",
"gC 	c #6B776E",
"hC 	c #6D7A6F",
"iC 	c #878F7F",
"jC 	c #838C7B",
"kC 	c #8C917D",
"lC 	c #7E8271",
"mC 	c #7E8C7B",
"nC 	c #717B68",
"oC 	c #697661",
"pC 	c #151D18",
"qC 	c #3B403A",
"rC 	c #464D47",
"sC 	c #595E53",
"tC 	c #6F7C6E",
"uC 	c #8F9586",
"vC 	c #8C9280",
"wC 	c #8D9B87",
"xC 	c #83897E",
"yC 	c #757A70",
"zC 	c #43453C",
"AC 	c #717367",
"BC 	c #5D665C",
"CC 	c #979480",
"DC 	c #818E83",
"EC 	c #8F988D",
"FC 	c #8F998D",
"GC 	c #879286",
"HC 	c #768176",
"IC 	c #64685C",
"JC 	c #6F7467",
"KC 	c #95917F",
"LC 	c #8A9487",
"MC 	c #768577",
"NC 	c #87897D",
"OC 	c #828577",
"PC 	c #707463",
"QC 	c #6F7064",
"RC 	c #4A544F",
"SC 	c #545650",
"TC 	c #606358",
"UC 	c #5B5F55",
"VC 	c #797F6F",
"WC 	c #828981",
"XC 	c #959582",
"YC 	c #989989",
"ZC 	c #787D74",
"`C 	c #151B17",
" D 	c #49514B",
".D 	c #616861",
"+D 	c #5B645E",
"@D 	c #717265",
"#D 	c #969987",
"$D 	c #88907B",
"%D 	c #909B8D",
"&D 	c #949C89",
"*D 	c #849187",
"=D 	c #81918B",
"-D 	c #161F1B",
";D 	c #151C19",
">D 	c #171E19",
",D 	c #525A54",
"'D 	c #656C63",
")D 	c #606659",
"!D 	c #707A71",
"~D 	c #787E70",
"{D 	c #828B84",
"]D 	c #819088",
"^D 	c #646A5B",
"/D 	c #111714",
"(D 	c #141A17",
"_D 	c #394039",
":D 	c #555850",
"<D 	c #5E655B",
"[D 	c #7A7E70",
"}D 	c #787F71",
"|D 	c #7B8379",
"1D 	c #7D847C",
"2D 	c #889991",
"3D 	c #8D9383",
"4D 	c #889587",
"5D 	c #7F857A",
"6D 	c #767F72",
"7D 	c #454F4A",
"8D 	c #545D56",
"9D 	c #757567",
"0D 	c #898A7C",
"aD 	c #908E7C",
"bD 	c #8B9483",
"cD 	c #95A28E",
"dD 	c #99A092",
"eD 	c #87948B",
"fD 	c #62675D",
"gD 	c #6A7369",
"hD 	c #6D7167",
"iD 	c #757C6D",
"jD 	c #6F7A6E",
"kD 	c #7B8A81",
"lD 	c #767E74",
"mD 	c #788881",
"nD 	c #131916",
"oD 	c #5E6960",
"pD 	c #70766C",
"qD 	c #7A8A7E",
"rD 	c #868D85",
"sD 	c #83887F",
"tD 	c #80918A",
"uD 	c #828C86",
"vD 	c #828375",
"wD 	c #818778",
"xD 	c #696E60",
"yD 	c #4A5651",
"zD 	c #656F65",
"AD 	c #697268",
"BD 	c #888B7F",
"CD 	c #8F8E7D",
"DD 	c #919B92",
"ED 	c #919E91",
"FD 	c #929C8D",
"GD 	c #576059",
"HD 	c #60645C",
"ID 	c #636E66",
"JD 	c #65736E",
"KD 	c #6F766D",
"LD 	c #7E8073",
"MD 	c #66746B",
"ND 	c #8E978B",
"OD 	c #809186",
"PD 	c #7E8B86",
"QD 	c #65756C",
"RD 	c #5C6B63",
"SD 	c #121915",
"TD 	c #474C46",
"UD 	c #565F55",
"VD 	c #636F64",
"WD 	c #889380",
"XD 	c #848981",
"YD 	c #848E83",
"ZD 	c #7E867C",
"`D 	c #737C6F",
" E 	c #535F59",
".E 	c #5A635A",
"+E 	c #6F7267",
"@E 	c #828B81",
"#E 	c #859080",
"$E 	c #97A28A",
"%E 	c #8A9686",
"&E 	c #161B19",
"*E 	c #646F67",
"=E 	c #748072",
"-E 	c #79928C",
";E 	c #889189",
">E 	c #5A6761",
",E 	c #697464",
"'E 	c #70776B",
")E 	c #737A6C",
"!E 	c #849488",
"~E 	c #8E9786",
"{E 	c #808B80",
"]E 	c #777C6D",
"^E 	c #494E46",
"/E 	c #555952",
"(E 	c #71766D",
"_E 	c #767F76",
":E 	c #7B8378",
"<E 	c #7C877A",
"[E 	c #99A591",
"}E 	c #919380",
"|E 	c #778377",
"1E 	c #51534A",
"2E 	c #616C63",
"3E 	c #657169",
"4E 	c #76857B",
"5E 	c #7D8879",
"6E 	c #808073",
"7E 	c #8D998C",
"8E 	c #909687",
"9E 	c #7F9183",
"0E 	c #73786C",
"aE 	c #5A675E",
"bE 	c #121614",
"cE 	c #111814",
"dE 	c #4C534E",
"eE 	c #5E635A",
"fE 	c #63695F",
"gE 	c #66665F",
"hE 	c #727061",
"iE 	c #7A7B70",
"jE 	c #8B9C90",
"kE 	c #868D7D",
"lE 	c #86968E",
"mE 	c #7E8679",
"nE 	c #585E55",
"oE 	c #75827F",
"pE 	c #7B8476",
"qE 	c #191F1B",
"rE 	c #585E57",
"sE 	c #6E746B",
"tE 	c #6E7167",
"uE 	c #6F7268",
"vE 	c #718075",
"wE 	c #6D746A",
"xE 	c #81816F",
"yE 	c #84877A",
"zE 	c #737D6F",
"AE 	c #919F8C",
"BE 	c #808273",
"CE 	c #6D7D72",
"DE 	c #6C7A70",
"EE 	c #141914",
"FE 	c #131813",
"GE 	c #191F1A",
"HE 	c #1B1B1A",
"IE 	c #1D221D",
"JE 	c #1E221D",
"KE 	c #1E1E1D",
"LE 	c #1E1C1C",
"ME 	c #626459",
"NE 	c #67746D",
"OE 	c #717D74",
"PE 	c #7A8273",
"QE 	c #7C8072",
"RE 	c #828C7E",
"SE 	c #85988D",
"TE 	c #7C8D84",
"UE 	c #171816",
"VE 	c #1C211B",
"WE 	c #1A1C1A",
"XE 	c #1E1D1C",
"YE 	c #1F211D",
"ZE 	c #1D1C1B",
"`E 	c #60635A",
" F 	c #666D64",
".F 	c #7D8379",
"+F 	c #798579",
"@F 	c #828C7D",
"#F 	c #7D8577",
"$F 	c #888F7F",
"%F 	c #8D8F7E",
"&F 	c #869182",
"*F 	c #8A9788",
"=F 	c #8F9282",
"-F 	c #1E201D",
";F 	c #1E1F1E",
">F 	c #1E211E",
",F 	c #1F2620",
"'F 	c #212721",
")F 	c #535C56",
"!F 	c #71776F",
"~F 	c #808D82",
"{F 	c #949D87",
"]F 	c #7C887C",
"^F 	c #7C8279",
"/F 	c #7E8479",
"(F 	c #1D231E",
"_F 	c #171815",
":F 	c #1A1D19",
"<F 	c #191B18",
"[F 	c #1B1D19",
"}F 	c #1A221C",
"|F 	c #1D201B",
"1F 	c #19201A",
"2F 	c #1A1E19",
"3F 	c #171A16",
"4F 	c #151714",
"5F 	c #101211",
"6F 	c #1D211D",
"7F 	c #262923",
"8F 	c #292825",
"9F 	c #2B3027",
"0F 	c #2D3028",
"aF 	c #2C2B27",
"bF 	c #2B2826",
"cF 	c #849286",
"dF 	c #7C8A7D",
"eF 	c #888E7C",
"fF 	c #808574",
"gF 	c #808E7F",
"hF 	c #808370",
"iF 	c #84877B",
"jF 	c #191A18",
"kF 	c #1B221B",
"lF 	c #252121",
"mF 	c #272B23",
"nF 	c #2E3128",
"oF 	c #2C2927",
"pF 	c #2E3129",
"qF 	c #2C3028",
"rF 	c #2D2B27",
"sF 	c #676B5F",
"tF 	c #6C7B73",
"uF 	c #758078",
"vF 	c #818E84",
"wF 	c #7E7F6F",
"xF 	c #849086",
"yF 	c #86887A",
"zF 	c #848876",
"AF 	c #222121",
"BF 	c #2A2D27",
"CF 	c #282724",
"DF 	c #2B2B26",
"EF 	c #2B2F27",
"FF 	c #4F574F",
"GF 	c #576158",
"HF 	c #5F6960",
"IF 	c #7D8074",
"JF 	c #798178",
"KF 	c #868978",
"LF 	c #23221E",
"MF 	c #24271F",
"NF 	c #2C2E27",
"OF 	c #23251F",
"PF 	c #242320",
"QF 	c #262C23",
"RF 	c #252920",
"SF 	c #272B22",
"TF 	c #272A23",
"UF 	c #282522",
"VF 	c #221F1C",
"WF 	c #292C24",
"XF 	c #262A21",
"YF 	c #242C23",
"ZF 	c #282B22",
"`F 	c #282822",
" G 	c #2B2E25",
".G 	c #252921",
"+G 	c #22251E",
"@G 	c #1A1C18",
"#G 	c #2C2827",
"$G 	c #3D3F33",
"%G 	c #413B35",
"&G 	c #39392E",
"*G 	c #424037",
"=G 	c #423C36",
"-G 	c #808B7F",
";G 	c #758074",
">G 	c #93947D",
",G 	c #838571",
"'G 	c #8D9176",
")G 	c #8F9B82",
"!G 	c #8A8977",
"~G 	c #828671",
"{G 	c #252320",
"]G 	c #303228",
"^G 	c #3C3231",
"/G 	c #3D3532",
"(G 	c #403735",
"_G 	c #444139",
":G 	c #423C37",
"<G 	c #3F3C34",
"[G 	c #47504A",
"}G 	c #5A5F57",
"|G 	c #69746E",
"1G 	c #80877A",
"2G 	c #87887D",
"3G 	c #1A201B",
"4G 	c #2F2C29",
"5G 	c #383330",
"6G 	c #404638",
"7G 	c #423F37",
"8G 	c #403733",
"9G 	c #3F3634",
"0G 	c #47473B",
"aG 	c #3B3430",
"bG 	c #4B534D",
"cG 	c #585F57",
"dG 	c #61675C",
"eG 	c #839085",
"fG 	c #858376",
"gG 	c #7B8B8B",
"hG 	c #949382",
"iG 	c #818B7F",
"jG 	c #878C7C",
"kG 	c #444338",
"lG 	c #434839",
"mG 	c #404537",
"nG 	c #3F3A34",
"oG 	c #37322C",
"pG 	c #47413B",
"qG 	c #36392D",
"rG 	c #3D3C33",
"sG 	c #3B3D31",
"tG 	c #424336",
"uG 	c #35362B",
"vG 	c #3C3E31",
"wG 	c #383E30",
"xG 	c #36332C",
"yG 	c #3B3931",
"zG 	c #3C3A31",
"AG 	c #3A372F",
"BG 	c #38382E",
"CG 	c #333C2E",
"DG 	c #383A2D",
"EG 	c #393C30",
"FG 	c #39392F",
"GG 	c #30362C",
"HG 	c #252621",
"IG 	c #21251E",
"JG 	c #4A4A3C",
"KG 	c #554F44",
"LG 	c #544E42",
"MG 	c #4C423B",
"NG 	c #4B473B",
"OG 	c #67675C",
"PG 	c #757B6C",
"QG 	c #79867A",
"RG 	c #807F6F",
"SG 	c #828876",
"TG 	c #747B6E",
"UG 	c #282924",
"VG 	c #34362A",
"WG 	c #474839",
"XG 	c #524B41",
"YG 	c #554543",
"ZG 	c #574844",
"`G 	c #595D49",
" H 	c #4F413D",
".H 	c #585546",
"+H 	c #4F5957",
"@H 	c #566059",
"#H 	c #687269",
"$H 	c #757D74",
"%H 	c #838776",
"&H 	c #7F867B",
"*H 	c #2A2E26",
"=H 	c #37302D",
"-H 	c #4F4C41",
";H 	c #524A41",
">H 	c #5D5F4B",
",H 	c #5B5349",
"'H 	c #5A5A47",
")H 	c #595248",
"!H 	c #524D41",
"~H 	c #788077",
"{H 	c #7C897F",
"]H 	c #889288",
"^H 	c #72857F",
"/H 	c #878F86",
"(H 	c #969C88",
"_H 	c #82897B",
":H 	c #585C49",
"<H 	c #5C5C49",
"[H 	c #545C48",
"}H 	c #525844",
"|H 	c #535846",
"1H 	c #454938",
"2H 	c #514B40",
"3H 	c #505643",
"4H 	c #4D523F",
"5H 	c #4E4D3D",
"6H 	c #4C4D3C",
"7H 	c #4B5441",
"8H 	c #514D40",
"9H 	c #4A523F",
"0H 	c #4C4A3C",
"aH 	c #535442",
"bH 	c #4F513F",
"cH 	c #4D3E3B",
"dH 	c #4A4F3D",
"eH 	c #464438",
"fH 	c #3C3F31",
"gH 	c #22201D",
"hH 	c #181916",
"iH 	c #222420",
"jH 	c #33302C",
"kH 	c #433A36",
"lH 	c #544C42",
"mH 	c #625E4D",
"nH 	c #50463F",
"oH 	c #6F786A",
"pH 	c #64695C",
"qH 	c #85958A",
"rH 	c #8E9588",
"sH 	c #8A988E",
"tH 	c #848574",
"uH 	c #747669",
"vH 	c #5A5F49",
"wH 	c #554440",
"xH 	c #564A42",
"yH 	c #4E554D",
"zH 	c #85968E",
"AH 	c #82928A",
"BH 	c #7D887C",
"CH 	c #8C8D7F",
"DH 	c #3F3733",
"EH 	c #51443F",
"FH 	c #61604C",
"GH 	c #6B6555",
"HH 	c #615A4C",
"IH 	c #63644E",
"JH 	c #656650",
"KH 	c #62655A",
"LH 	c #5E695F",
"MH 	c #667369",
"NH 	c #707770",
"OH 	c #686C63",
"PH 	c #6A736B",
"QH 	c #7B837C",
"RH 	c #69746D",
"SH 	c #8E9789",
"TH 	c #8E9A8E",
"UH 	c #8C9A90",
"VH 	c #94A193",
"WH 	c #5F5C4E",
"XH 	c #676551",
"YH 	c #564C42",
"ZH 	c #5D5748",
"`H 	c #554841",
" I 	c #585644",
".I 	c #4C453A",
"+I 	c #696D55",
"@I 	c #565642",
"#I 	c #595345",
"$I 	c #575844",
"%I 	c #4D453A",
"&I 	c #5A5246",
"*I 	c #60574B",
"=I 	c #555B45",
"-I 	c #5C5948",
";I 	c #5B624C",
">I 	c #485240",
",I 	c #A2A793",
"'I 	c #78836F",
")I 	c #717D6F",
"!I 	c #758577",
"~I 	c #7F8570",
"{I 	c #7E8876",
"]I 	c #818775",
"^I 	c #8F9680",
"/I 	c #7D8470",
"(I 	c #889282",
"_I 	c #9AA491",
":I 	c #8A9D96",
"<I 	c #8E988C",
"[I 	c #90A296",
"}I 	c #8D9D8F",
"|I 	c #7B8274",
"1I 	c #899080",
"2I 	c #626456",
"3I 	c #7A7C6D",
"4I 	c #888D81",
"5I 	c #84948C",
"6I 	c #7F897E",
"7I 	c #7A7C6A",
"8I 	c #20231E",
"9I 	c #2E3329",
"0I 	c #4B473D",
"aI 	c #51463F",
"bI 	c #6A6554",
"cI 	c #706758",
"dI 	c #5F4E49",
"eI 	c #6E6E57",
"fI 	c #4D514A",
"gI 	c #51544A",
"hI 	c #66716B",
"iI 	c #646F68",
"jI 	c #828F84",
"kI 	c #858579",
"lI 	c #868F80",
"mI 	c #8E968B",
"nI 	c #7A857C",
"oI 	c #778376",
"pI 	c #232821",
"qI 	c #383430",
"rI 	c #483F3A",
"sI 	c #60604D",
"tI 	c #675B51",
"uI 	c #63624D",
"vI 	c #635A4D",
"wI 	c #696952",
"xI 	c #494F47",
"yI 	c #798174",
"zI 	c #797D69",
"AI 	c #959C86",
"BI 	c #909C88",
"CI 	c #85897C",
"DI 	c #929A8C",
"EI 	c #9BA294",
"FI 	c #A3AC9C",
"GI 	c #959C8F",
"HI 	c #7B8D85",
"II 	c #858877",
"JI 	c #77887D",
"KI 	c #7F8C7C",
"LI 	c #6A786C",
"MI 	c #7B887F",
"NI 	c #A0B0A5",
"OI 	c #728379",
"PI 	c #879A90",
"QI 	c #8B978B",
"RI 	c #91A194",
"SI 	c #7E9088",
"TI 	c #7F8F83",
"UI 	c #9FA699",
"VI 	c #7A8B7E",
"WI 	c #707363",
"XI 	c #9FA492",
"YI 	c #A2AA97",
"ZI 	c #939586",
"`I 	c #A3B1A1",
" J 	c #77897D",
".J 	c #819286",
"+J 	c #6F7A6D",
"@J 	c #A2A799",
"#J 	c #999481",
"$J 	c #8F9D91",
"%J 	c #9AA598",
"&J 	c #849890",
"*J 	c #929787",
"=J 	c #8D9284",
"-J 	c #8C9485",
";J 	c #868975",
">J 	c #929E8D",
",J 	c #76867B",
"'J 	c #77867A",
")J 	c #6B6F60",
"!J 	c #7C8075",
"~J 	c #7E8478",
"{J 	c #32302B",
"]J 	c #4C3E3C",
"^J 	c #61644F",
"/J 	c #6F7159",
"(J 	c #6D7158",
"_J 	c #6F6F57",
":J 	c #515851",
"<J 	c #515A50",
"[J 	c #575A50",
"}J 	c #65716B",
"|J 	c #5C6053",
"1J 	c #848D84",
"2J 	c #808F87",
"3J 	c #8E9F8D",
"4J 	c #909A8F",
"5J 	c #3A3731",
"6J 	c #49473C",
"7J 	c #6B6253",
"8J 	c #5B665E",
"9J 	c #5B6561",
"0J 	c #6C7973",
"aJ 	c #74766B",
"bJ 	c #7B8A7E",
"cJ 	c #79837A",
"dJ 	c #787A6F",
"eJ 	c #797765",
"fJ 	c #879A93",
"gJ 	c #9EAB9B",
"hJ 	c #969F94",
"iJ 	c #96A596",
"jJ 	c #92A298",
"kJ 	c #8E9F93",
"lJ 	c #838775",
"mJ 	c #919185",
"nJ 	c #7D8E86",
"oJ 	c #8B998D",
"pJ 	c #879689",
"qJ 	c #7E9187",
"rJ 	c #6C7769",
"sJ 	c #839389",
"tJ 	c #758375",
"uJ 	c #84968D",
"vJ 	c #8C9182",
"wJ 	c #8A9992",
"xJ 	c #9DA28F",
"yJ 	c #9DA292",
"zJ 	c #798372",
"AJ 	c #A2A492",
"BJ 	c #8C9C96",
"CJ 	c #99A99B",
"DJ 	c #9EADA4",
"EJ 	c #87998C",
"FJ 	c #9EB4A9",
"GJ 	c #92A59B",
"HJ 	c #96AAA0",
"IJ 	c #A1AA9D",
"JJ 	c #94A494",
"KJ 	c #93A399",
"LJ 	c #979F99",
"MJ 	c #8F9B8D",
"NJ 	c #8C9687",
"OJ 	c #798070",
"PJ 	c #768578",
"QJ 	c #7E897C",
"RJ 	c #6A756A",
"SJ 	c #849287",
"TJ 	c #798378",
"UJ 	c #808C86",
"VJ 	c #737B71",
"WJ 	c #242621",
"XJ 	c #393831",
"YJ 	c #484239",
"ZJ 	c #64524F",
"`J 	c #686A53",
" K 	c #666E55",
".K 	c #6A6953",
"+K 	c #6C6054",
"@K 	c #6E6F57",
"#K 	c #4D5046",
"$K 	c #575A4F",
"%K 	c #6B6E5E",
"&K 	c #8F9485",
"*K 	c #989E8F",
"=K 	c #848C85",
"-K 	c #7F8B80",
";K 	c #1B211C",
">K 	c #33372C",
",K 	c #4B473C",
"'K 	c #554F42",
")K 	c #666951",
"!K 	c #685951",
"~K 	c #655B4E",
"{K 	c #5E685D",
"]K 	c #6A7B72",
"^K 	c #6A7776",
"/K 	c #707D74",
"(K 	c #707768",
"_K 	c #6F7C74",
":K 	c #828975",
"<K 	c #99A697",
"[K 	c #9CAEA0",
"}K 	c #A0B1A1",
"|K 	c #92A396",
"1K 	c #87978F",
"2K 	c #8B9C93",
"3K 	c #98A495",
"4K 	c #99A38E",
"5K 	c #768279",
"6K 	c #829388",
"7K 	c #768378",
"8K 	c #8A9383",
"9K 	c #859791",
"0K 	c #717A6C",
"aK 	c #9AA799",
"bK 	c #73847E",
"cK 	c #7A8C7B",
"dK 	c #8E9D8F",
"eK 	c #9CA898",
"fK 	c #A6B5A5",
"gK 	c #96A79D",
"hK 	c #A0B3A9",
"iK 	c #8F9C8F",
"jK 	c #9FA08E",
"kK 	c #9CA591",
"lK 	c #9BAEA8",
"mK 	c #8C9D92",
"nK 	c #9EAE9E",
"oK 	c #9AAA9E",
"pK 	c #93A59C",
"qK 	c #95A298",
"rK 	c #929F90",
"sK 	c #A1B1A4",
"tK 	c #9CAA9D",
"uK 	c #9BAB9C",
"vK 	c #8C9F91",
"wK 	c #8B968E",
"xK 	c #93A091",
"yK 	c #8F9285",
"zK 	c #95A598",
"AK 	c #91998C",
"BK 	c #8F9889",
"CK 	c #909384",
"DK 	c #797F74",
"EK 	c #8A988B",
"FK 	c #859289",
"GK 	c #7F877F",
"HK 	c #758178",
"IK 	c #77857C",
"JK 	c #6D7269",
"KK 	c #383530",
"LK 	c #534942",
"MK 	c #675E51",
"NK 	c #705E57",
"OK 	c #6C6955",
"PK 	c #41463D",
"QK 	c #818E7F",
"RK 	c #8E9C8C",
"SK 	c #84988E",
"TK 	c #353B30",
"UK 	c #484F3E",
"VK 	c #5F544A",
"WK 	c #685B50",
"XK 	c #5C5D52",
"YK 	c #6A7C73",
"ZK 	c #768078",
"`K 	c #989889",
" L 	c #A2AD9A",
".L 	c #9DA499",
"+L 	c #93A79B",
"@L 	c #96A79A",
"#L 	c #8D998B",
"$L 	c #959C8D",
"%L 	c #7A8679",
"&L 	c #98A79E",
"*L 	c #99A89B",
"=L 	c #7E8976",
"-L 	c #849587",
";L 	c #859389",
">L 	c #9CB1A3",
",L 	c #99A89D",
"'L 	c #9BAA9D",
")L 	c #8A9587",
"!L 	c #92A194",
"~L 	c #8E9E94",
"{L 	c #9CA79A",
"]L 	c #9CAA9F",
"^L 	c #A0AFA6",
"/L 	c #9A9E8F",
"(L 	c #98A899",
"_L 	c #9CA395",
":L 	c #9DA592",
"<L 	c #9EAB97",
"[L 	c #8D9C91",
"}L 	c #ABB6A6",
"|L 	c #899A93",
"1L 	c #8C9C91",
"2L 	c #6C776C",
"3L 	c #727F73",
"4L 	c #9FAB9F",
"5L 	c #8A9C91",
"6L 	c #97A59B",
"7L 	c #9AA498",
"8L 	c #97A99D",
"9L 	c #8F9585",
"0L 	c #767B72",
"aL 	c #8D9D94",
"bL 	c #758275",
"cL 	c #919688",
"dL 	c #79877C",
"eL 	c #8C8D7E",
"fL 	c #7B8479",
"gL 	c #8C968A",
"hL 	c #85968C",
"iL 	c #7F8E88",
"jL 	c #8D9A91",
"kL 	c #77796C",
"lL 	c #636657",
"mL 	c #6B7870",
"nL 	c #4D463E",
"oL 	c #616751",
"pL 	c #594D44",
"qL 	c #74705C",
"rL 	c #695B52",
"sL 	c #4D534F",
"tL 	c #5B6158",
"uL 	c #575C51",
"vL 	c #676D5F",
"wL 	c #919585",
"xL 	c #929785",
"yL 	c #8B9A8B",
"zL 	c #798479",
"AL 	c #1B211D",
"BL 	c #37362F",
"CL 	c #484B3A",
"DL 	c #615B4B",
"EL 	c #61654E",
"FL 	c #736B5B",
"GL 	c #6E6956",
"HL 	c #4E5048",
"IL 	c #5E6357",
"JL 	c #6A7166",
"KL 	c #6D7467",
"LL 	c #8B998E",
"ML 	c #717D71",
"NL 	c #8F8D7C",
"OL 	c #838F7F",
"PL 	c #859382",
"QL 	c #9EA798",
"RL 	c #8E9589",
"SL 	c #788171",
"TL 	c #95A090",
"UL 	c #98A99B",
"VL 	c #829186",
"WL 	c #7E8E83",
"XL 	c #929D91",
"YL 	c #9D9F8C",
"ZL 	c #A2B1A2",
"`L 	c #949E91",
" M 	c #849185",
".M 	c #96A191",
"+M 	c #98ACA6",
"@M 	c #9AA79B",
"#M 	c #9EB1A4",
"$M 	c #98A296",
"%M 	c #94A095",
"&M 	c #99A59B",
"*M 	c #8D9387",
"=M 	c #99A89C",
"-M 	c #94A499",
";M 	c #93A196",
">M 	c #A3B4AA",
",M 	c #808E84",
"'M 	c #92A89E",
")M 	c #909E98",
"!M 	c #90A097",
"~M 	c #8E9F92",
"{M 	c #919D8B",
"]M 	c #7D8573",
"^M 	c #919D92",
"/M 	c #787A6D",
"(M 	c #72786E",
"_M 	c #81877D",
":M 	c #7B867C",
"<M 	c #939D92",
"[M 	c #6D7062",
"}M 	c #6C6F61",
"|M 	c #646859",
"1M 	c #242B23",
"2M 	c #37362E",
"3M 	c #514E42",
"4M 	c #61554B",
"5M 	c #70765C",
"6M 	c #4F5853",
"7M 	c #535C55",
"8M 	c #5D665D",
"9M 	c #859287",
"0M 	c #707C72",
"aM 	c #1B1A1A",
"bM 	c #272623",
"cM 	c #362F2E",
"dM 	c #736B5C",
"eM 	c #6C6255",
"fM 	c #696652",
"gM 	c #686051",
"hM 	c #695F52",
"iM 	c #51564E",
"jM 	c #55594F",
"kM 	c #5F6B65",
"lM 	c #707C6E",
"mM 	c #737D72",
"nM 	c #858A7B",
"oM 	c #78837B",
"pM 	c #808777",
"qM 	c #8C9582",
"rM 	c #8E9183",
"sM 	c #99A295",
"tM 	c #92A19A",
"uM 	c #839087",
"vM 	c #788273",
"wM 	c #99A99A",
"xM 	c #9BADA0",
"yM 	c #90998A",
"zM 	c #6E7665",
"AM 	c #738379",
"BM 	c #969F8D",
"CM 	c #7A8C82",
"DM 	c #979B8B",
"EM 	c #92A092",
"FM 	c #9AA99B",
"GM 	c #A1A99C",
"HM 	c #9EA99B",
"IM 	c #8C9D94",
"JM 	c #97A79A",
"KM 	c #7F8A7F",
"LM 	c #808E83",
"MM 	c #839182",
"NM 	c #95A392",
"OM 	c #6A786B",
"PM 	c #7F8C81",
"QM 	c #858A80",
"RM 	c #849589",
"SM 	c #87968F",
"TM 	c #80897C",
"UM 	c #858679",
"VM 	c #7E8273",
"WM 	c #7A846E",
"XM 	c #738270",
"YM 	c #94A18E",
"ZM 	c #899485",
"`M 	c #829082",
" N 	c #737E72",
".N 	c #5C5E52",
"+N 	c #3A3931",
"@N 	c #555445",
"#N 	c #6F6758",
"$N 	c #706858",
"%N 	c #716D5A",
"&N 	c #686851",
"*N 	c #77755E",
"=N 	c #474B44",
"-N 	c #656A5F",
";N 	c #616C67",
">N 	c #6E786D",
",N 	c #839184",
"'N 	c #8E9B8D",
")N 	c #72837C",
"!N 	c #707A72",
"~N 	c #252B24",
"{N 	c #3E3B34",
"]N 	c #4C463C",
"^N 	c #585745",
"/N 	c #6D6F56",
"(N 	c #63544D",
"_N 	c #5A5245",
":N 	c #464B44",
"<N 	c #626D64",
"[N 	c #5F6B62",
"}N 	c #666A5E",
"|N 	c #626E64",
"1N 	c #8F9682",
"2N 	c #878B7C",
"3N 	c #828877",
"4N 	c #768480",
"5N 	c #707264",
"6N 	c #8B9484",
"7N 	c #727668",
"8N 	c #8C9289",
"9N 	c #88978C",
"0N 	c #8C9E91",
"aN 	c #89938C",
"bN 	c #79877D",
"cN 	c #788375",
"dN 	c #919B8C",
"eN 	c #83958B",
"fN 	c #92A59C",
"gN 	c #86968D",
"hN 	c #8E998A",
"iN 	c #919E99",
"jN 	c #94A096",
"kN 	c #90A093",
"lN 	c #90988B",
"mN 	c #889A90",
"nN 	c #818F86",
"oN 	c #8D9688",
"pN 	c #7A8877",
"qN 	c #747C70",
"rN 	c #7A8377",
"sN 	c #828B7B",
"tN 	c #849281",
"uN 	c #90958D",
"vN 	c #8B9587",
"wN 	c #818A7A",
"xN 	c #6E7B6F",
"yN 	c #383E32",
"zN 	c #554B44",
"AN 	c #666752",
"BN 	c #6F6558",
"CN 	c #62665A",
"DN 	c #697569",
"EN 	c #64695A",
"FN 	c #718077",
"GN 	c #5E6C63",
"HN 	c #1B201B",
"IN 	c #3B3431",
"JN 	c #4F4940",
"KN 	c #534D41",
"LN 	c #6B7058",
"MN 	c #60564A",
"NN 	c #5F5249",
"ON 	c #574942",
"PN 	c #464F48",
"QN 	c #696D63",
"RN 	c #636C62",
"SN 	c #738178",
"TN 	c #8C927D",
"UN 	c #7C7C6E",
"VN 	c #767E6C",
"WN 	c #747F75",
"XN 	c #67695C",
"YN 	c #7C877B",
"ZN 	c #889789",
"`N 	c #919F8D",
" O 	c #8B9B91",
".O 	c #839289",
"+O 	c #919D8A",
"@O 	c #9DA794",
"#O 	c #8C9F94",
"$O 	c #8FA09A",
"%O 	c #919A90",
"&O 	c #879486",
"*O 	c #90A297",
"=O 	c #7D9187",
"-O 	c #879592",
";O 	c #89917D",
">O 	c #768270",
",O 	c #929888",
"'O 	c #8A968A",
")O 	c #909489",
"!O 	c #7B8574",
"~O 	c #838A7D",
"{O 	c #878D7F",
"]O 	c #8B9380",
"^O 	c #879985",
"/O 	c #839787",
"(O 	c #7B8578",
"_O 	c #7B7C6E",
":O 	c #7D8677",
"<O 	c #747D70",
"[O 	c #809182",
"}O 	c #84978C",
"|O 	c #8D9990",
"1O 	c #7E887D",
"2O 	c #7F8D85",
"3O 	c #3B3E32",
"4O 	c #665850",
"5O 	c #6F775D",
"6O 	c #6D5D54",
"7O 	c #4D514B",
"8O 	c #676961",
"9O 	c #697A6E",
"0O 	c #777F72",
"aO 	c #859186",
"bO 	c #7D7E70",
"cO 	c #839282",
"dO 	c #262524",
"eO 	c #312928",
"fO 	c #645C50",
"gO 	c #6E6857",
"hO 	c #65634F",
"iO 	c #746D5C",
"jO 	c #5C634C",
"kO 	c #454E4A",
"lO 	c #7E8C82",
"mO 	c #737E70",
"nO 	c #6F7C70",
"oO 	c #848376",
"pO 	c #7A8274",
"qO 	c #8A8F7D",
"rO 	c #818F80",
"sO 	c #919A8C",
"tO 	c #919D90",
"uO 	c #7F8780",
"vO 	c #919F95",
"wO 	c #929A8A",
"xO 	c #8A998F",
"yO 	c #8A978D",
"zO 	c #8B9D95",
"AO 	c #868B7A",
"BO 	c #919C8C",
"CO 	c #92A093",
"DO 	c #8A9D93",
"EO 	c #859893",
"FO 	c #757D6E",
"GO 	c #78877D",
"HO 	c #88988C",
"IO 	c #626D65",
"JO 	c #747B6A",
"KO 	c #747761",
"LO 	c #6E7766",
"MO 	c #747F6F",
"NO 	c #757B6F",
"OO 	c #81948D",
"PO 	c #7C8074",
"QO 	c #6D7164",
"RO 	c #808E86",
"SO 	c #8D9C8E",
"TO 	c #989A88",
"UO 	c #959F90",
"VO 	c #919488",
"WO 	c #4F5342",
"XO 	c #6B6E56",
"YO 	c #75755C",
"ZO 	c #717158",
"`O 	c #4D524A",
" P 	c #5C6259",
".P 	c #505147",
"+P 	c #77887E",
"@P 	c #5E6A60",
"#P 	c #5D6A5F",
"$P 	c #8E9482",
"%P 	c #6C6E61",
"&P 	c #262624",
"*P 	c #4C443C",
"=P 	c #63574E",
"-P 	c #60574A",
";P 	c #65594E",
">P 	c #64624D",
",P 	c #5A615C",
"'P 	c #778177",
")P 	c #7C8177",
"!P 	c #7D8475",
"~P 	c #6C766A",
"{P 	c #828D7E",
"]P 	c #7A847A",
"^P 	c #868E7D",
"/P 	c #849386",
"(P 	c #70837B",
"_P 	c #7F8D84",
":P 	c #7E8D83",
"<P 	c #7B897E",
"[P 	c #889386",
"}P 	c #8A978B",
"|P 	c #818E85",
"1P 	c #7F8C84",
"2P 	c #7E8276",
"3P 	c #859082",
"4P 	c #6E7D76",
"5P 	c #66726E",
"6P 	c #646A5F",
"7P 	c #5A645B",
"8P 	c #676A58",
"9P 	c #747261",
"0P 	c #5F6559",
"aP 	c #5A6154",
"bP 	c #7A8070",
"cP 	c #758075",
"dP 	c #727D75",
"eP 	c #595C52",
"fP 	c #6D7770",
"gP 	c #707971",
"hP 	c #6E7C71",
"iP 	c #707C71",
"jP 	c #818878",
"kP 	c #7B887A",
"lP 	c #8D9482",
"mP 	c #999F89",
"nP 	c #7D8A81",
"oP 	c #171C1A",
"pP 	c #3B3C32",
"qP 	c #4B423C",
"rP 	c #73715B",
"sP 	c #6A5552",
"tP 	c #665A4F",
"uP 	c #73795F",
"vP 	c #585D52",
"wP 	c #626A5D",
"xP 	c #6B796C",
"yP 	c #5A5F52",
"zP 	c #60695F",
"AP 	c #7B8C81",
"BP 	c #7D8375",
"CP 	c #252923",
"DP 	c #363F33",
"EP 	c #4B423D",
"FP 	c #61564D",
"GP 	c #707058",
"HP 	c #5E5149",
"IP 	c #5A5046",
"JP 	c #62544C",
"KP 	c #5D5548",
"LP 	c #4E4E45",
"MP 	c #606256",
"NP 	c #73756A",
"OP 	c #7D897E",
"PP 	c #5D685E",
"QP 	c #5F6051",
"RP 	c #646A5C",
"SP 	c #646B5C",
"TP 	c #5C5A50",
"UP 	c #70756D",
"VP 	c #7B8776",
"WP 	c #6A7470",
"XP 	c #76837D",
"YP 	c #7C8679",
"ZP 	c #76857A",
"`P 	c #7B8B7E",
" Q 	c #626D63",
".Q 	c #606C62",
"+Q 	c #596159",
"@Q 	c #58645B",
"#Q 	c #505448",
"$Q 	c #576055",
"%Q 	c #585C4F",
"&Q 	c #606759",
"*Q 	c #68705F",
"=Q 	c #757965",
"-Q 	c #5B6357",
";Q 	c #60655C",
">Q 	c #52564A",
",Q 	c #63685C",
"'Q 	c #7B8276",
")Q 	c #7B8983",
"!Q 	c #939484",
"~Q 	c #929B8F",
"{Q 	c #989D8D",
"]Q 	c #8E9686",
"^Q 	c #222721",
"/Q 	c #4D5745",
"(Q 	c #5F604B",
"_Q 	c #665D50",
":Q 	c #73655A",
"<Q 	c #5B6256",
"[Q 	c #747F78",
"}Q 	c #717E74",
"|Q 	c #717C6F",
"1Q 	c #636D62",
"2Q 	c #667267",
"3Q 	c #7D867D",
"4Q 	c #5D6860",
"5Q 	c #34332D",
"6Q 	c #382D2B",
"7Q 	c #60534C",
"8Q 	c #524B3F",
"9Q 	c #5C4F48",
"0Q 	c #545844",
"aQ 	c #4C4E4A",
"bQ 	c #6B6D61",
"cQ 	c #6C776B",
"dQ 	c #797C71",
"eQ 	c #83928B",
"fQ 	c #646B63",
"gQ 	c #4D554D",
"hQ 	c #5B5E56",
"iQ 	c #565B53",
"jQ 	c #697571",
"kQ 	c #717B70",
"lQ 	c #626B62",
"mQ 	c #636D63",
"nQ 	c #687067",
"oQ 	c #646E67",
"pQ 	c #6D786C",
"qQ 	c #6D7569",
"rQ 	c #6D796C",
"sQ 	c #7E8E8B",
"tQ 	c #677468",
"uQ 	c #798475",
"vQ 	c #616F65",
"wQ 	c #4D564F",
"xQ 	c #4D534B",
"yQ 	c #4F574D",
"zQ 	c #595B50",
"AQ 	c #66645A",
"BQ 	c #63675A",
"CQ 	c #5E6254",
"DQ 	c #5E6A65",
"EQ 	c #484D44",
"FQ 	c #616A60",
"GQ 	c #686F66",
"HQ 	c #676E63",
"IQ 	c #77877E",
"JQ 	c #757B6E",
"KQ 	c #858D83",
"LQ 	c #85928B",
"MQ 	c #7E8373",
"NQ 	c #98A295",
"OQ 	c #757E72",
"PQ 	c #232621",
"QQ 	c #36372E",
"RQ 	c #4E4E40",
"SQ 	c #676852",
"TQ 	c #665950",
"UQ 	c #6D755C",
"VQ 	c #686252",
"WQ 	c #635D4D",
"XQ 	c #6C6D55",
"YQ 	c #6D6756",
"ZQ 	c #50564E",
"`Q 	c #666859",
" R 	c #677363",
".R 	c #657168",
"+R 	c #627169",
"@R 	c #757E70",
"#R 	c #2B2A27",
"$R 	c #3A3631",
"%R 	c #3B352F",
"&R 	c #453E37",
"*R 	c #4A4E3D",
"=R 	c #565D4A",
"-R 	c #4B4D3C",
";R 	c #574E45",
">R 	c #464C3E",
",R 	c #5F635A",
"'R 	c #647166",
")R 	c #7E8C83",
"!R 	c #676F67",
"~R 	c #636E68",
"{R 	c #515C54",
"]R 	c #5A6059",
"^R 	c #59554B",
"/R 	c #5D655F",
"(R 	c #5C605A",
"_R 	c #61655A",
":R 	c #60665A",
"<R 	c #68726A",
"[R 	c #5F6760",
"}R 	c #676C60",
"|R 	c #677167",
"1R 	c #8D9889",
"2R 	c #7D8E82",
"3R 	c #838978",
"4R 	c #707E6E",
"5R 	c #6D7E73",
"6R 	c #4E564E",
"7R 	c #475149",
"8R 	c #465048",
"9R 	c #40453D",
"0R 	c #44463E",
"aR 	c #41453E",
"bR 	c #414741",
"cR 	c #565D52",
"dR 	c #575E57",
"eR 	c #585D55",
"fR 	c #6C6F66",
"gR 	c #778079",
"hR 	c #8B988C",
"iR 	c #8F9789",
"jR 	c #89968D",
"kR 	c #1A221E",
"lR 	c #38392F",
"mR 	c #565D48",
"nR 	c #6B7158",
"oR 	c #696A53",
"pR 	c #6E6957",
"qR 	c #675F50",
"rR 	c #515247",
"sR 	c #5B655B",
"tR 	c #60675A",
"uR 	c #7C8781",
"vR 	c #5F6253",
"wR 	c #6A6F5F",
"xR 	c #666A5D",
"yR 	c #222621",
"zR 	c #36382F",
"AR 	c #3F4235",
"BR 	c #2F2825",
"CR 	c #3C3932",
"DR 	c #444539",
"ER 	c #34352B",
"FR 	c #352D2B",
"GR 	c #5C5E4F",
"HR 	c #5D5A50",
"IR 	c #696C65",
"JR 	c #77786B",
"KR 	c #8D9A8E",
"LR 	c #7A867B",
"MR 	c #869284",
"NR 	c #404945",
"OR 	c #555C57",
"PR 	c #50534E",
"QR 	c #4F544E",
"RR 	c #515046",
"SR 	c #565C54",
"TR 	c #697163",
"UR 	c #6D786E",
"VR 	c #6F7B6E",
"WR 	c #939889",
"XR 	c #80907F",
"YR 	c #7F8877",
"ZR 	c #6E776B",
"`R 	c #7C8B7F",
" S 	c #75857D",
".S 	c #434A43",
"+S 	c #40443E",
"@S 	c #3E433D",
"#S 	c #3A3F37",
"$S 	c #383E38",
"%S 	c #434740",
"&S 	c #464A44",
"*S 	c #373A33",
"=S 	c #3F453F",
"-S 	c #424941",
";S 	c #45473F",
">S 	c #424C47",
",S 	c #505952",
"'S 	c #495148",
")S 	c #576056",
"!S 	c #6F7469",
"~S 	c #85867A",
"{S 	c #899388",
"]S 	c #909B8E",
"^S 	c #8F9E91",
"/S 	c #7E8D82",
"(S 	c #4E473F",
"_S 	c #5B5949",
":S 	c #645C4E",
"<S 	c #656A52",
"[S 	c #69745B",
"}S 	c #68564F",
"|S 	c #59635A",
"1S 	c #5F6A5F",
"2S 	c #6B7263",
"3S 	c #636D60",
"4S 	c #677364",
"5S 	c #6E705F",
"6S 	c #808276",
"7S 	c #707A6C",
"8S 	c #6E7D72",
"9S 	c #6C756A",
"0S 	c #232221",
"aS 	c #21221D",
"bS 	c #22241E",
"cS 	c #252521",
"dS 	c #262B23",
"eS 	c #5F6359",
"fS 	c #939683",
"gS 	c #83887D",
"hS 	c #929D92",
"iS 	c #434943",
"jS 	c #3E423C",
"kS 	c #484C44",
"lS 	c #464942",
"mS 	c #48504D",
"nS 	c #3F4642",
"oS 	c #4A4D45",
"pS 	c #4C5551",
"qS 	c #58615C",
"rS 	c #5B655C",
"sS 	c #616B64",
"tS 	c #676E5E",
"uS 	c #7A7D6D",
"vS 	c #6F7362",
"wS 	c #706C5B",
"xS 	c #696F5F",
"yS 	c #6F7B69",
"zS 	c #929F93",
"AS 	c #747F70",
"BS 	c #798677",
"CS 	c #5B6359",
"DS 	c #464D46",
"ES 	c #3A403D",
"FS 	c #262925",
"GS 	c #323631",
"HS 	c #3C3E38",
"IS 	c #3B3F39",
"JS 	c #535A52",
"KS 	c #626860",
"LS 	c #606A63",
"MS 	c #74827A",
"NS 	c #707E73",
"OS 	c #839588",
"PS 	c #82877C",
"QS 	c #8B9082",
"RS 	c #91A49B",
"SS 	c #798379",
"TS 	c #22251F",
"US 	c #49443A",
"VS 	c #584D43",
"WS 	c #727259",
"XS 	c #6C6755",
"YS 	c #666C54",
"ZS 	c #5A4E44",
"`S 	c #565E56",
" T 	c #6D7A74",
".T 	c #5F6D64",
"+T 	c #6B6D5E",
"@T 	c #707566",
"#T 	c #6A7064",
"$T 	c #748576",
"%T 	c #5D645A",
"&T 	c #6C7A6B",
"*T 	c #889080",
"=T 	c #677264",
"-T 	c #5B6159",
";T 	c #64695D",
">T 	c #6D7265",
",T 	c #8E8E7E",
"'T 	c #8C8F7D",
")T 	c #878F80",
"!T 	c #626A5F",
"~T 	c #3A3934",
"{T 	c #262B27",
"]T 	c #272A26",
"^T 	c #292F2A",
"/T 	c #323733",
"(T 	c #2E302A",
"_T 	c #2F3331",
":T 	c #2E322F",
"<T 	c #2E3330",
"[T 	c #393F39",
"}T 	c #3B403B",
"|T 	c #535D58",
"1T 	c #586258",
"2T 	c #7F7F70",
"3T 	c #6F7566",
"4T 	c #869387",
"5T 	c #9A9D8D",
"6T 	c #7C8B81",
"7T 	c #2B2E2A",
"8T 	c #21241E",
"9T 	c #4C493D",
"0T 	c #534840",
"aT 	c #61514B",
"bT 	c #687158",
"cT 	c #5C5E48",
"dT 	c #696753",
"eT 	c #393A34",
"fT 	c #59645B",
"gT 	c #72796F",
"hT 	c #71766B",
"iT 	c #748174",
"jT 	c #879482",
"kT 	c #83938F",
"lT 	c #8A9690",
"mT 	c #83887E",
"nT 	c #8A9185",
"oT 	c #6C7368",
"pT 	c #3A3532",
"qT 	c #545544",
"rT 	c #61634E",
"sT 	c #645C4D",
"tT 	c #584D44",
"uT 	c #40433C",
"vT 	c #60665D",
"wT 	c #656E63",
"xT 	c #5D6154",
"yT 	c #6D796B",
"zT 	c #787D71",
"AT 	c #5A675C",
"BT 	c #7C816D",
"CT 	c #191D1B",
"DT 	c #424742",
"ET 	c #4C5046",
"FT 	c #686E62",
"GT 	c #65695C",
"HT 	c #929D86",
"IT 	c #96A18C",
"JT 	c #828D84",
"KT 	c #6C7B76",
"LT 	c #313935",
"MT 	c #181F1B",
"NT 	c #383C38",
"OT 	c #636D67",
"PT 	c #6E756C",
"QT 	c #6A6E61",
"RT 	c #71756C",
"ST 	c #707E77",
"TT 	c #7C8474",
"UT 	c #748073",
"VT 	c #20251E",
"WT 	c #303128",
"XT 	c #433D36",
"YT 	c #6D6E56",
"ZT 	c #656B53",
"`T 	c #585047",
" U 	c #4D574B",
".U 	c #6A756B",
"+U 	c #889487",
"@U 	c #7D8C85",
"#U 	c #818F83",
"$U 	c #8C9483",
"%U 	c #1B1F1B",
"&U 	c #252522",
"*U 	c #3A3430",
"=U 	c #676751",
"-U 	c #5C5A47",
";U 	c #52433D",
">U 	c #4D4E45",
",U 	c #596763",
"'U 	c #535E59",
")U 	c #7B7D70",
"!U 	c #697463",
"~U 	c #626E62",
"{U 	c #686C62",
"]U 	c #3C423C",
"^U 	c #4E5952",
"/U 	c #7F8170",
"(U 	c #879483",
"_U 	c #868677",
":U 	c #818777",
"<U 	c #828676",
"[U 	c #88968E",
"}U 	c #838F87",
"|U 	c #7B8279",
"1U 	c #1D1E1D",
"2U 	c #5E675E",
"3U 	c #74817A",
"4U 	c #67756E",
"5U 	c #748274",
"6U 	c #8B9589",
"7U 	c #232921",
"8U 	c #31372B",
"9U 	c #483E39",
"0U 	c #5B5147",
"aU 	c #6A6952",
"bU 	c #71735A",
"cU 	c #61685F",
"dU 	c #707D75",
"eU 	c #859188",
"fU 	c #7F8E86",
"gU 	c #8C9587",
"hU 	c #909A8B",
"iU 	c #818D84",
"jU 	c #242822",
"kU 	c #37312F",
"lU 	c #535044",
"mU 	c #646751",
"nU 	c #696653",
"oU 	c #53493F",
"pU 	c #6D6B55",
"qU 	c #6B6254",
"rU 	c #66766E",
"sU 	c #6F7B72",
"tU 	c #6F796D",
"uU 	c #75786A",
"vU 	c #7B887E",
"wU 	c #5F6457",
"xU 	c #6A7367",
"yU 	c #5B6960",
"zU 	c #121414",
"AU 	c #545950",
"BU 	c #5B5E54",
"CU 	c #4F5850",
"DU 	c #838676",
"EU 	c #858777",
"FU 	c #7C8578",
"GU 	c #9B9985",
"HU 	c #7A7F72",
"IU 	c #424940",
"JU 	c #5C6055",
"KU 	c #666F67",
"LU 	c #6C7467",
"MU 	c #728078",
"NU 	c #7D8A80",
"OU 	c #86887B",
"PU 	c #717C70",
"QU 	c #262422",
"RU 	c #34332B",
"SU 	c #464538",
"TU 	c #545142",
"UU 	c #574A42",
"VU 	c #686751",
"WU 	c #666851",
"XU 	c #505A56",
"YU 	c #515A52",
"ZU 	c #6C7872",
"`U 	c #819288",
" V 	c #88998E",
".V 	c #3A4034",
"+V 	c #4F5040",
"@V 	c #5F5B4B",
"#V 	c #5F5D4A",
"$V 	c #64644D",
"%V 	c #5C5947",
"&V 	c #5A5C4F",
"*V 	c #596862",
"=V 	c #5E665C",
"-V 	c #697566",
";V 	c #8E9989",
">V 	c #667265",
",V 	c #4C5653",
"'V 	c #656B5F",
")V 	c #81897A",
"!V 	c #717566",
"~V 	c #47473E",
"{V 	c #809188",
"]V 	c #6D7A6D",
"^V 	c #737A70",
"/V 	c #829187",
"(V 	c #87998F",
"_V 	c #7A8982",
":V 	c #20201C",
"<V 	c #342B2A",
"[V 	c #515242",
"}V 	c #594C45",
"|V 	c #5C5248",
"1V 	c #646951",
"2V 	c #6B5F53",
"3V 	c #63674F",
"4V 	c #5B5646",
"5V 	c #6F6E56",
"6V 	c #4C554D",
"7V 	c #717970",
"8V 	c #7C8A7F",
"9V 	c #828D86",
"0V 	c #909B91",
"aV 	c #8D9A8B",
"bV 	c #88978D",
"cV 	c #252922",
"dV 	c #3B3B33",
"eV 	c #4E4B3F",
"fV 	c #626750",
"gV 	c #70725A",
"hV 	c #51443C",
"iV 	c #6A6352",
"jV 	c #5B5346",
"kV 	c #584A43",
"lV 	c #5A6156",
"mV 	c #73796F",
"nV 	c #647165",
"oV 	c #6F7F75",
"pV 	c #95998A",
"qV 	c #6D7765",
"rV 	c #707868",
"sV 	c #667165",
"tV 	c #5C6862",
"uV 	c #535D53",
"vV 	c #686B5E",
"wV 	c #73776A",
"xV 	c #788379",
"yV 	c #908E7A",
"zV 	c #7F8777",
"AV 	c #928F80",
"BV 	c #909784",
"CV 	c #4B4C40",
"DV 	c #6E7C74",
"EV 	c #6A7163",
"FV 	c #808F80",
"GV 	c #878F81",
"HV 	c #818F8A",
"IV 	c #242421",
"JV 	c #49483B",
"KV 	c #574D43",
"LV 	c #5E634C",
"MV 	c #5C624B",
"NV 	c #5E5349",
"OV 	c #646C54",
"PV 	c #6B6554",
"QV 	c #5E6560",
"RV 	c #5D6760",
"SV 	c #616D64",
"TV 	c #798279",
"UV 	c #8C9488",
"VV 	c #7F928B",
"WV 	c #858C80",
"XV 	c #92978C",
"YV 	c #777F75",
"ZV 	c #1B1F1C",
"`V 	c #3C3A32",
" W 	c #535343",
".W 	c #655C50",
"+W 	c #6A6E56",
"@W 	c #686452",
"#W 	c #61644D",
"$W 	c #5B5245",
"%W 	c #424943",
"&W 	c #5D6358",
"*W 	c #6C7A6D",
"=W 	c #9EA890",
"-W 	c #6E7B6A",
";W 	c #68766A",
">W 	c #525B52",
",W 	c #535A4F",
"'W 	c #778175",
")W 	c #707B6E",
"!W 	c #5F6558",
"~W 	c #788278",
"{W 	c #787F76",
"]W 	c #575E59",
"^W 	c #8DA098",
"/W 	c #78857E",
"(W 	c #8D907F",
"_W 	c #9AA193",
":W 	c #839086",
"<W 	c #79867D",
"[W 	c #21231E",
"}W 	c #534D43",
"|W 	c #646851",
"1W 	c #605449",
"2W 	c #939F95",
"3W 	c #8B9B8E",
"4W 	c #99A192",
"5W 	c #7E8E86",
"6W 	c #35312D",
"7W 	c #61634D",
"8W 	c #5C5746",
"9W 	c #595145",
"0W 	c #41443E",
"aW 	c #44463D",
"bW 	c #61665B",
"cW 	c #6F7C73",
"dW 	c #677064",
"eW 	c #7F8E83",
"fW 	c #838372",
"gW 	c #8D8879",
"hW 	c #9BA291",
"iW 	c #7F8C85",
"jW 	c #505953",
"kW 	c #656D62",
"lW 	c #707365",
"mW 	c #6D7363",
"nW 	c #7D9082",
"oW 	c #7D8179",
"pW 	c #535549",
"qW 	c #505247",
"rW 	c #6D746B",
"sW 	c #5C685E",
"tW 	c #626F65",
"uW 	c #767C72",
"vW 	c #758885",
"wW 	c #9AAA9F",
"xW 	c #524A42",
"yW 	c #6D6356",
"zW 	c #5F5B49",
"AW 	c #575443",
"BW 	c #61554A",
"CW 	c #6A6B54",
"DW 	c #575D55",
"EW 	c #66685D",
"FW 	c #879285",
"GW 	c #969E90",
"HW 	c #969F97",
"IW 	c #949F97",
"JW 	c #85988C",
"KW 	c #8B9B96",
"LW 	c #8A9991",
"MW 	c #8C9A8D",
"NW 	c #393B2F",
"OW 	c #514C42",
"PW 	c #656150",
"QW 	c #625C4C",
"RW 	c #667057",
"SW 	c #696352",
"TW 	c #6A6C54",
"UW 	c #4E3D39",
"VW 	c #5B4B45",
"WW 	c #4C5048",
"XW 	c #71796F",
"YW 	c #86948D",
"ZW 	c #828677",
"`W 	c #959D90",
" X 	c #76847C",
".X 	c #535D55",
"+X 	c #707E74",
"@X 	c #626D5F",
"#X 	c #87887C",
"$X 	c #6F7561",
"%X 	c #6C7465",
"&X 	c #828A7B",
"*X 	c #56564B",
"=X 	c #52544F",
"-X 	c #5F685D",
";X 	c #748178",
">X 	c #7A887D",
",X 	c #8C9C8D",
"'X 	c #8D9F99",
")X 	c #282C26",
"!X 	c #3B3632",
"~X 	c #515041",
"{X 	c #5F644E",
"]X 	c #6D6856",
"^X 	c #585244",
"/X 	c #5B675D",
"(X 	c #74817B",
"_X 	c #8A968E",
":X 	c #8A9489",
"<X 	c #9B9D8A",
"[X 	c #97A297",
"}X 	c #9CA699",
"|X 	c #93A39A",
"1X 	c #272C25",
"2X 	c #4E5443",
"3X 	c #5F534A",
"4X 	c #53433F",
"5X 	c #625D4D",
"6X 	c #636750",
"7X 	c #6E7058",
"8X 	c #555B52",
"9X 	c #717F76",
"0X 	c #879187",
"aX 	c #9FA493",
"bX 	c #99A394",
"cX 	c #4C4F48",
"dX 	c #6B786D",
"eX 	c #79857C",
"fX 	c #696C5D",
"gX 	c #797C6F",
"hX 	c #757D73",
"iX 	c #737F7A",
"jX 	c #7D8C81",
"kX 	c #78857A",
"lX 	c #91988A",
"mX 	c #A2A894",
"nX 	c #94A08E",
"oX 	c #262823",
"pX 	c #565745",
"qX 	c #6C7057",
"rX 	c #64554D",
"sX 	c #5A5345",
"tX 	c #6D6A55",
"uX 	c #60624D",
"vX 	c #596154",
"wX 	c #595F52",
"xX 	c #6E6E62",
"yX 	c #909C8A",
"zX 	c #8B8B7A",
"AX 	c #93A697",
"BX 	c #9BAEA1",
"CX 	c #878A7E",
"DX 	c #788279",
"EX 	c #232420",
"FX 	c #3C3D33",
"GX 	c #404334",
"HX 	c #5F594C",
"IX 	c #4F433B",
"JX 	c #524B3E",
"KX 	c #41463F",
"LX 	c #565E54",
"MX 	c #737D74",
"NX 	c #727F72",
"OX 	c #7A8077",
"PX 	c #69756B",
"QX 	c #6D6E5F",
"RX 	c #748074",
"SX 	c #616A5D",
"TX 	c #7D8B81",
"UX 	c #414943",
"VX 	c #818C7F",
"WX 	c #8A8F84",
"XX 	c #1C221D",
"YX 	c #4F483F",
"ZX 	c #5C634E",
"`X 	c #6C6F57",
" Y 	c #65504D",
".Y 	c #6E6356",
"+Y 	c #666250",
"@Y 	c #64614E",
"#Y 	c #726E5A",
"$Y 	c #50514B",
"%Y 	c #63675B",
"&Y 	c #596259",
"*Y 	c #868E79",
"=Y 	c #7B7E70",
"-Y 	c #959281",
";Y 	c #919A8A",
">Y 	c #8C9F92",
",Y 	c #869081",
"'Y 	c #252A23",
")Y 	c #38322F",
"!Y 	c #3E3831",
"~Y 	c #4B4F3D",
"{Y 	c #4D4039",
"]Y 	c #585744",
"^Y 	c #676151",
"/Y 	c #43483F",
"(Y 	c #414A42",
"_Y 	c #657165",
":Y 	c #939B89",
"<Y 	c #95A092",
"[Y 	c #454841",
"}Y 	c #808D83",
"|Y 	c #758477",
"1Y 	c #586055",
"2Y 	c #5D5E52",
"3Y 	c #50554E",
"4Y 	c #626A62",
"5Y 	c #8B8B7B",
"6Y 	c #8A907E",
"7Y 	c #8E9782",
"8Y 	c #8FA090",
"9Y 	c #8B8B7C",
"0Y 	c #3B3A33",
"aY 	c #524E43",
"bY 	c #726F5A",
"cY 	c #71745B",
"dY 	c #444A43",
"eY 	c #616760",
"fY 	c #6E7871",
"gY 	c #778178",
"hY 	c #919580",
"iY 	c #858E80",
"jY 	c #8F9B94",
"kY 	c #8E9A89",
"lY 	c #969789",
"mY 	c #8E958B",
"nY 	c #1C201C",
"oY 	c #393730",
"pY 	c #4C5241",
"qY 	c #5E4E4A",
"rY 	c #4F423A",
"sY 	c #686451",
"tY 	c #555440",
"uY 	c #4F3F3A",
"vY 	c #464940",
"wY 	c #495045",
"xY 	c #5E675C",
"yY 	c #686C5F",
"zY 	c #92A499",
"AY 	c #202520",
"BY 	c #797D70",
"CY 	c #889186",
"DY 	c #7F8272",
"EY 	c #5F675D",
"FY 	c #131415",
"GY 	c #171916",
"HY 	c #181716",
"IY 	c #1B211B",
"JY 	c #181515",
"KY 	c #4F5149",
"LY 	c #626B63",
"MY 	c #778272",
"NY 	c #7E8777",
"OY 	c #868671",
"PY 	c #8D8A75",
"QY 	c #A4A89B",
"RY 	c #72736A",
"SY 	c #879A92",
"TY 	c #242120",
"UY 	c #3A3C31",
"VY 	c #5C5147",
"WY 	c #646952",
"XY 	c #6B6153",
"YY 	c #62574C",
"ZY 	c #5C645C",
"`Y 	c #73786D",
" Z 	c #767D73",
".Z 	c #8E9689",
"+Z 	c #90988C",
"@Z 	c #8E9C93",
"#Z 	c #949D8C",
"$Z 	c #98998A",
"%Z 	c #373C31",
"&Z 	c #3E3A31",
"*Z 	c #52493F",
"=Z 	c #565241",
"-Z 	c #6D6C56",
";Z 	c #51483D",
">Z 	c #5A5845",
",Z 	c #575342",
"'Z 	c #3D3E35",
")Z 	c #4C5549",
"!Z 	c #616355",
"~Z 	c #626558",
"{Z 	c #7C8272",
"]Z 	c #989A89",
"^Z 	c #737C6C",
"/Z 	c #20211C",
"(Z 	c #2B2626",
"_Z 	c #2A2A24",
":Z 	c #30302A",
"<Z 	c #292522",
"[Z 	c #585A53",
"}Z 	c #5D665E",
"|Z 	c #64685F",
"1Z 	c #75776D",
"2Z 	c #898D7F",
"3Z 	c #191B17",
"4Z 	c #252020",
"5Z 	c #282922",
"6Z 	c #211C1B",
"7Z 	c #2A2A25",
"8Z 	c #4E554E",
"9Z 	c #616C64",
"0Z 	c #7B7C6C",
"aZ 	c #848A7A",
"bZ 	c #7F7E6E",
"cZ 	c #87947A",
"dZ 	c #808D7D",
"eZ 	c #807F65",
"fZ 	c #787263",
"gZ 	c #262723",
"hZ 	c #525143",
"iZ 	c #62614E",
"jZ 	c #6A7057",
"kZ 	c #6E6D57",
"lZ 	c #696B53",
"mZ 	c #63654E",
"nZ 	c #474A43",
"oZ 	c #687770",
"pZ 	c #757D76",
"qZ 	c #97AB9E",
"rZ 	c #8A9180",
"sZ 	c #403F32",
"tZ 	c #5E524A",
"uZ 	c #6E6C56",
"vZ 	c #51433D",
"wZ 	c #585143",
"xZ 	c #5C5146",
"yZ 	c #485046",
"zZ 	c #4F584D",
"AZ 	c #636358",
"BZ 	c #6C766B",
"CZ 	c #1D221B",
"DZ 	c #2A2725",
"EZ 	c #31342A",
"FZ 	c #3C3331",
"GZ 	c #3F3A33",
"HZ 	c #454D3E",
"IZ 	c #3C3931",
"JZ 	c #54574F",
"KZ 	c #5A655A",
"LZ 	c #73796D",
"MZ 	c #717D6E",
"NZ 	c #6E7969",
"OZ 	c #2B2D24",
"PZ 	c #34372B",
"QZ 	c #333029",
"RZ 	c #37302C",
"SZ 	c #434337",
"TZ 	c #403D34",
"UZ 	c #464A3A",
"VZ 	c #4F524B",
"WZ 	c #61665C",
"XZ 	c #5F6A62",
"YZ 	c #82867B",
"ZZ 	c #82816E",
"`Z 	c #8C8376",
" ` 	c #8D8F7F",
".` 	c #848677",
"+` 	c #737763",
"@` 	c #646556",
"#` 	c #222922",
"$` 	c #36342E",
"%` 	c #515342",
"&` 	c #695E52",
"*` 	c #6C6D56",
"=` 	c #6F6856",
"-` 	c #4E574D",
";` 	c #5C6963",
">` 	c #6E766D",
",` 	c #686E63",
"'` 	c #8B9E90",
")` 	c #808A84",
"!` 	c #4F4A40",
"~` 	c #666D56",
"{` 	c #5C4C45",
"]` 	c #494C3D",
"^` 	c #43463B",
"/` 	c #627069",
"(` 	c #75847B",
"_` 	c #6D766D",
":` 	c #7A8981",
"<` 	c #768573",
"[` 	c #717A6D",
"}` 	c #686F62",
"|` 	c #3C3633",
"1` 	c #483E3A",
"2` 	c #525745",
"3` 	c #535845",
"4` 	c #4F493E",
"5` 	c #4E423D",
"6` 	c #4A473D",
"7` 	c #4E5750",
"8` 	c #666E62",
"9` 	c #768077",
"0` 	c #919385",
"a` 	c #888A79",
"b` 	c #6D7165",
"c` 	c #1D1F1C",
"d` 	c #252520",
"e` 	c #33342B",
"f` 	c #372F2A",
"g` 	c #3E342F",
"h` 	c #4F433D",
"i` 	c #524E41",
"j` 	c #4D4B3C",
"k` 	c #4C4B3B",
"l` 	c #544642",
"m` 	c #919287",
"n` 	c #717161",
"o` 	c #262924",
"p` 	c #393931",
"q` 	c #4E5342",
"r` 	c #686253",
"s` 	c #71715A",
"t` 	c #686D55",
"u` 	c #6B746B",
"v` 	c #767F78",
"w` 	c #919582",
"x` 	c #808D81",
"y` 	c #85948D",
"z` 	c #7E887E",
"A` 	c #7F8980",
"B` 	c #8B9784",
"C` 	c #1B1E1C",
"D` 	c #262922",
"E` 	c #4B463A",
"F` 	c #716E59",
"G` 	c #514841",
"H` 	c #545D52",
"I` 	c #58635F",
"J` 	c #59635C",
"K` 	c #6C746B",
"L` 	c #767B6F",
"M` 	c #727A69",
"N` 	c #7A7F6E",
"O` 	c #7A8776",
"P` 	c #636557",
"Q` 	c #212520",
"R` 	c #4E433D",
"S` 	c #62584D",
"T` 	c #6F6E60",
"U` 	c #6B7167",
"V` 	c #636860",
"W` 	c #84887D",
"X` 	c #838A81",
"Y` 	c #7A8173",
"Z` 	c #78867E",
"`` 	c #78877A",
"  .	c #7D8373",
". .	c #7B7E74",
"+ .	c #19181A",
"@ .	c #191817",
"# .	c #24201E",
"$ .	c #3D3A31",
"% .	c #464637",
"& .	c #535340",
"* .	c #4E4C3D",
"= .	c #575244",
"- .	c #4B3E38",
"; .	c #5B5746",
"> .	c #5A5B52",
", .	c #52554D",
"' .	c #5E6B61",
") .	c #7E877C",
"! .	c #262622",
"~ .	c #3B3732",
"{ .	c #535143",
"] .	c #5A4C46",
"^ .	c #6E7159",
"/ .	c #686A52",
"( .	c #6C6454",
"_ .	c #57625C",
": .	c #636C63",
"< .	c #777B71",
"[ .	c #8D9280",
"} .	c #8B9684",
"| .	c #889A8D",
"1 .	c #828D83",
"2 .	c #869389",
"3 .	c #92A192",
"4 .	c #999984",
"5 .	c #99A391",
"6 .	c #9FA796",
"7 .	c #94998C",
"8 .	c #90958B",
"9 .	c #97A596",
"0 .	c #8C978A",
"a .	c #646B64",
"b .	c #5C665B",
"c .	c #757C71",
"d .	c #707569",
"e .	c #727867",
"f .	c #83867A",
"g .	c #7C897C",
"h .	c #73735F",
"i .	c #858470",
"j .	c #778679",
"k .	c #7B8A7B",
"l .	c #67746A",
"m .	c #717D70",
"n .	c #7A8574",
"o .	c #8A9386",
"p .	c #818782",
"q .	c #848875",
"r .	c #929583",
"s .	c #8A8E80",
"t .	c #6F746B",
"u .	c #5D665B",
"v .	c #748279",
"w .	c #97A295",
"x .	c #798675",
"y .	c #767D69",
"z .	c #7E8378",
"A .	c #2C2A24",
"B .	c #3A382E",
"C .	c #564441",
"D .	c #544740",
"E .	c #545751",
"F .	c #51584F",
"G .	c #6F7363",
"H .	c #6A7061",
"I .	c #7F9187",
"J .	c #737767",
"K .	c #37372E",
"L .	c #4F463F",
"M .	c #5A5146",
"N .	c #6B6353",
"O .	c #726959",
"P .	c #716558",
"Q .	c #6B6A54",
"R .	c #808881",
"S .	c #626F66",
"T .	c #92A59A",
"U .	c #95A390",
"V .	c #989A8A",
"W .	c #8B998B",
"X .	c #A0AC9E",
"Y .	c #9FA99C",
"Z .	c #9DA395",
"` .	c #9AA69C",
" ..	c #72776A",
"...	c #818A79",
"+..	c #727870",
"@..	c #727B76",
"#..	c #5B6354",
"$..	c #758374",
"%..	c #75867D",
"&..	c #718275",
"*..	c #758276",
"=..	c #7A806F",
"-..	c #9DA08F",
";..	c #98A294",
">..	c #889C92",
",..	c #7E8677",
"'..	c #89907E",
")..	c #798072",
"!..	c #8F9F91",
"~..	c #74837C",
"{..	c #7F8074",
"]..	c #989F94",
"^..	c #7E7866",
"/..	c #777963",
"(..	c #7D8D82",
"_..	c #342F2C",
":..	c #504A40",
"<..	c #525240",
"[..	c #4F443B",
"}..	c #5C4B45",
"|..	c #574841",
"1..	c #505A52",
"2..	c #585B50",
"3..	c #71776D",
"4..	c #7D7E6F",
"5..	c #9C9D8B",
"6..	c #6C7D78",
"7..	c #899589",
"8..	c #7D8D85",
"9..	c #8A9289",
"0..	c #838F83",
"a..	c #121012",
"b..	c #181B17",
"c..	c #312B29",
"d..	c #60584C",
"e..	c #686652",
"f..	c #6D7259",
"g..	c #6F6958",
"h..	c #73715A",
"i..	c #75857E",
"j..	c #68776B",
"k..	c #666F62",
"l..	c #8C9D91",
"m..	c #8F9E8F",
"n..	c #9AA697",
"o..	c #8D9E91",
"p..	c #8D9D98",
"q..	c #A1AF9C",
"r..	c #9CA798",
"s..	c #9DAB98",
"t..	c #A0A898",
"u..	c #ADB5A4",
"v..	c #838B7C",
"w..	c #7B8A7D",
"x..	c #939E8A",
"y..	c #7D9185",
"z..	c #758780",
"A..	c #727563",
"B..	c #727C6F",
"C..	c #7E9186",
"D..	c #969986",
"E..	c #717B6C",
"F..	c #7F8B7D",
"G..	c #97A294",
"H..	c #A0A794",
"I..	c #95A595",
"J..	c #8B9A8A",
"K..	c #98A292",
"L..	c #738074",
"M..	c #81938A",
"N..	c #909386",
"O..	c #838C7E",
"P..	c #889086",
"Q..	c #7F9086",
"R..	c #909B90",
"S..	c #6E776F",
"T..	c #201D1D",
"U..	c #423A34",
"V..	c #625B4E",
"W..	c #676152",
"X..	c #63514B",
"Y..	c #4C5047",
"Z..	c #7F908A",
"`..	c #737866",
" +.	c #818C7E",
".+.	c #616659",
"++.	c #66756B",
"@+.	c #1F1F1B",
"#+.	c #48473A",
"$+.	c #5B5347",
"%+.	c #72715A",
"&+.	c #716458",
"*+.	c #565950",
"=+.	c #636B63",
"-+.	c #656D5E",
";+.	c #939C91",
">+.	c #667870",
",+.	c #6C7B70",
"'+.	c #989E89",
")+.	c #9FAD9A",
"!+.	c #6D7B6D",
"~+.	c #97A498",
"{+.	c #93A192",
"]+.	c #8B9A90",
"^+.	c #9F9E90",
"/+.	c #9DA793",
"(+.	c #95A391",
"_+.	c #A7B098",
":+.	c #A2A58E",
"<+.	c #A2A994",
"[+.	c #A2AB9F",
"}+.	c #95A295",
"|+.	c #95A190",
"1+.	c #848E7D",
"2+.	c #6A6F62",
"3+.	c #76806F",
"4+.	c #7B8775",
"5+.	c #7D816C",
"6+.	c #8A9687",
"7+.	c #738478",
"8+.	c #939A8A",
"9+.	c #9AA190",
"0+.	c #6D7464",
"a+.	c #999D8C",
"b+.	c #788374",
"c+.	c #949A84",
"d+.	c #979E8A",
"e+.	c #8F9D92",
"f+.	c #959D8F",
"g+.	c #9EAC9D",
"h+.	c #A0AB9F",
"i+.	c #A2A598",
"j+.	c #898A7B",
"k+.	c #889180",
"l+.	c #828C83",
"m+.	c #93A294",
"n+.	c #778578",
"o+.	c #575A46",
"p+.	c #595244",
"q+.	c #594B44",
"r+.	c #62614B",
"s+.	c #6C6155",
"t+.	c #5E645A",
"u+.	c #5F6155",
"v+.	c #737F72",
"w+.	c #737967",
"x+.	c #4B443D",
"y+.	c #616953",
"z+.	c #6D6555",
"A+.	c #65604E",
"B+.	c #4F544A",
"C+.	c #54594E",
"D+.	c #96A599",
"E+.	c #748078",
"F+.	c #758479",
"G+.	c #8B9C95",
"H+.	c #98A290",
"I+.	c #99A393",
"J+.	c #96A093",
"K+.	c #919D8F",
"L+.	c #94A290",
"M+.	c #898978",
"N+.	c #989E8E",
"O+.	c #A6A18C",
"P+.	c #A4A28D",
"Q+.	c #A2B29F",
"R+.	c #A4B4A6",
"S+.	c #98A699",
"T+.	c #7C8879",
"U+.	c #808D80",
"V+.	c #78897F",
"W+.	c #748173",
"X+.	c #7B7E71",
"Y+.	c #74776A",
"Z+.	c #787C6D",
"`+.	c #787F6F",
" @.	c #838E7E",
".@.	c #919B8D",
"+@.	c #949888",
"@@.	c #9B9988",
"#@.	c #8E907D",
"$@.	c #A4AC9D",
"%@.	c #959D92",
"&@.	c #98A59A",
"*@.	c #98A29A",
"=@.	c #8B8F80",
"-@.	c #828777",
";@.	c #97A193",
">@.	c #6C6F63",
",@.	c #7A7868",
"'@.	c #6E756B",
")@.	c #37352E",
"!@.	c #5E5448",
"~@.	c #605D4A",
"{@.	c #6D6955",
"]@.	c #615A4B",
"^@.	c #574B42",
"/@.	c #62675B",
"(@.	c #7A826F",
"_@.	c #908F7E",
":@.	c #809184",
"<@.	c #686F60",
"[@.	c #323029",
"}@.	c #4E5140",
"|@.	c #605B4B",
"1@.	c #665B4F",
"2@.	c #6D6F57",
"3@.	c #51413D",
"4@.	c #6E6A56",
"5@.	c #716A5A",
"6@.	c #56574F",
"7@.	c #6F7A6C",
"8@.	c #858A7D",
"9@.	c #8D907E",
"0@.	c #7E8370",
"a@.	c #717665",
"b@.	c #6A7467",
"c@.	c #6A6959",
"d@.	c #788472",
"e@.	c #768477",
"f@.	c #6F7C71",
"g@.	c #879889",
"h@.	c #9BAB9F",
"i@.	c #979E8D",
"j@.	c #6D7B6E",
"k@.	c #8A918A",
"l@.	c #797B6A",
"m@.	c #888C77",
"n@.	c #9EB09F",
"o@.	c #97A192",
"p@.	c #8D9D92",
"q@.	c #8E9387",
"r@.	c #98A093",
"s@.	c #7E8474",
"t@.	c #95A398",
"u@.	c #969D8F",
"v@.	c #312E28",
"w@.	c #554742",
"x@.	c #615F4C",
"y@.	c #5B5446",
"z@.	c #5B4E46",
"A@.	c #65524E",
"B@.	c #57584F",
"C@.	c #555D55",
"D@.	c #777C73",
"E@.	c #646455",
"F@.	c #7F7F71",
"G@.	c #878877",
"H@.	c #8E9988",
"I@.	c #919B93",
"J@.	c #252323",
"K@.	c #352F2C",
"L@.	c #423F35",
"M@.	c #5F4F48",
"N@.	c #685E51",
"O@.	c #726C5A",
"P@.	c #5F5049",
"Q@.	c #5C5F48",
"R@.	c #4D534E",
"S@.	c #63645B",
"T@.	c #696C60",
"U@.	c #8A9990",
"V@.	c #95A499",
"W@.	c #8C9B92",
"X@.	c #7A8779",
"Y@.	c #92988B",
"Z@.	c #8C9185",
"`@.	c #8F9382",
" #.	c #919E8E",
".#.	c #696654",
"+#.	c #6A7164",
"@#.	c #6A6D5D",
"##.	c #717871",
"$#.	c #737868",
"%#.	c #637064",
"&#.	c #748272",
"*#.	c #819189",
"=#.	c #878D80",
"-#.	c #8C9B93",
";#.	c #808373",
">#.	c #849383",
",#.	c #859385",
"'#.	c #959E8D",
")#.	c #76837C",
"!#.	c #868D84",
"~#.	c #829185",
"{#.	c #979F8F",
"]#.	c #5C5448",
"^#.	c #6B6654",
"/#.	c #5D4D47",
"(#.	c #5B5046",
"_#.	c #604C48",
":#.	c #6A5652",
"<#.	c #434843",
"[#.	c #464F49",
"}#.	c #8E9583",
"|#.	c #878977",
"1#.	c #808270",
"2#.	c #999D8E",
"3#.	c #9C9E8B",
"4#.	c #94A093",
"5#.	c #5D6155",
"6#.	c #34372C",
"7#.	c #5A6049",
"8#.	c #695E51",
"9#.	c #65624E",
"0#.	c #656952",
"a#.	c #585344",
"b#.	c #696D56",
"c#.	c #555C54",
"d#.	c #4E5249",
"e#.	c #7F8671",
"f#.	c #7F9589",
"g#.	c #7B8172",
"h#.	c #6A7B75",
"i#.	c #687063",
"j#.	c #627065",
"k#.	c #717A72",
"l#.	c #7D8982",
"m#.	c #8A9184",
"n#.	c #858B82",
"o#.	c #8F978C",
"p#.	c #839387",
"q#.	c #636556",
"r#.	c #677063",
"s#.	c #657266",
"t#.	c #6E7B6B",
"u#.	c #748077",
"v#.	c #727B6D",
"w#.	c #6B796D",
"x#.	c #6D7D75",
"y#.	c #6B7C74",
"z#.	c #6D7061",
"A#.	c #929D8D",
"B#.	c #929C89",
"C#.	c #909D8E",
"D#.	c #929A8D",
"E#.	c #98A599",
"F#.	c #8D9E93",
"G#.	c #77867E",
"H#.	c #7B8072",
"I#.	c #93998A",
"J#.	c #838874",
"K#.	c #909589",
"L#.	c #332B2A",
"M#.	c #554441",
"N#.	c #5F5A4A",
"O#.	c #66634F",
"P#.	c #48544D",
"Q#.	c #787B70",
"   .  +  @  #  $  %  &  *  =  -  ;  >  ,  '  )  !  ~  {  ]  ^  /  (  _  :  <  [  }  |  1  2  3  4  5  6  7  8  9  0  a  b  c  d  e  f  g  h  i  j  k  l  m  n  o  p  q  r  s  t  u  v  w  x  y  z  A  B  C  D  E  F  G  H  I  J  K  L  M  N  O  P  Q  R  S  T  U  V  W  X  Y  Z  `   . .. +. @. #. $. %. &. *. =. -. ;. >. ,. '. ). !. ~. {. ]. ^. /. (. _. :. <. [. }. |. 1. 2. 3. 4. 5. 6. 7. ",
"8. 9. 0. a. b. c. d. e. f. g. -  h. i. j. k. l. m. n. o. p. q. r. s. t. u. v. w. x. y. z. A. B. C. D. E. F. G. H. I. J. K. L. M. N. O. P. Q. R. S. T. U. V. W. X. Y. Z. `.  + .+ ++ @+ #+ $+ %+ &+ *+ =+ -+ ;+ >+ ,+ '+ )+ !+ ~+ {+ ]+ ^+ /+ (+ _+ :+ <+ [+ }+ |+ 1+ 2+ 3+ 4+ 5+ 6+ 7+ 8+ 9+ P  0+ a+ b+ c+ d+ e+ f+ g+ h+ i+ ,. j+ k+ l+ m+ n+ o+ p+ q+ r+ s+ t+ u+ v+ w+ x+ y+ z+ A+ B+ C+ D+ ",
"E+ F+ G+ 3+ H+ I+ J+ K+ L+ M+ N+ O+ P+ Q+ R+ S+ T+ U+ V+ W+ X+ Y+ Z+ `+  @ .@ +@ @@ #@ $@ %@ &@ *@ =@ -@ ;@ >@ ,@ '@ )@ )@ !@ ~@ {@ ]@ ^@ /@ (@ _@ :@ <@ [@ }@ |@ 1@ 2@ 3@ 4@ 5@ 6@ 7@ 8@ 9@ 0@ a@ b@ c@ d@ e@ f@ g@ h@ i@ j@ k@ l@ m@ n@ o@ p@ q@ r@ s@ t@ u@ v@ w@ x@ y@ z@ x@ A@ B@ C@ D@ E@ F@ G@ H@ I@ J@ K@ L@ M@ >. N@ k+ O@ P@ Q@ R@ S@ T@ U@ V@ W@ X@ Y@ Z@ `@  # .# +# @# ## $# %# &# ",
"*# =# -# ;# ># ,# '# N. -  )# L+ M+ !# ,  ~# {# ]# ^# /# (# _# :# <# [# }# |# ^+ 1# 2# 3# 4# 5# 6# 7# 8# F@ 9# 0# a# b# c# d# e# f# g# h# i# j# k# l# m# n# o# p# q# r# s# t# u# s# v# w# x# y# z# A# B# C# D# E# F# G# H# I# J# K# L# M# N# O# P# Q# R# S# T# ;. U# V# W# X# Y# Z# `#  $ .$ +$ @$ #$ $$ %$ &$ *$ =$ -$ ;$ )# >$ ,$ '$ )$ !$ ~$ {$ ]$ ^$ /$ ($ _$ :$ <$ [$ }$ C# |$ 1$ _+ 2$ 3$ ",
"4$ 5$ t  6$ 7$ 8$ 9$ 0$ h. L+ h. a$ b$ c$ d$ e$ f$ g$ h$ i$ j$ k$ l$ m$ n$ o$  + p$ q$ r$ s$ t$ u$ v$ w$ x$ y$ z$ A$ B$ C$ D$ E$ F$ G$ H$ I$ J$ K$ L$ M$ N$ O$ P$ Q$ R$ S$ T$ U$ V$ W$ X$ Y$ +$ Z$ `$  % .% +% @% #% $% %% &% *% =% -% ;% >% ,% '% )% !% ~% {% ]% ^% /% (% _% :% <% [% }% |% 1% 2% 3% 4% 5% 6% 7% 8% 9% N+ 0% a% ,. b% c% d% e% f% g% h% i% j% k% :$ l% m% n% o% p% q% r% s% t% ",
"A+ u% v% w% t  x% y% z% A% B% C% D% ;  E% P+ F% G% H% I% J% K% L% M% N% O% P% Q% R% S% T% U% V% W% X% Y% Z% `%  & .& +& @& #& $& %& && *& =& -& ;& >& ,& '& )& !& ~& {& ]& =+ ^& /& (& _& :& <& [& }& |& 1& 2& 3& 4& 5& 6& 7& 8& 9& 0& a& b& F# c& d& e& f& g& ;% h& i& j& k& l& m& C+ n& o& p& q& r& s& t& u& v& w& d# i+ L+ O@ a% x& y& z& A& B& C& D& E& ($ F& ^$ G& H& C# I& J& K& L& M& N& ",
"O& P& Q& R& S& T& U& V& W& X& M+ B% L+ D% N+ Y& Z& `&  * .* +* @* #* $* %* &* ** =* -* $$ ;* >* ,* '* )* U  !* b@ ~* {* ]* ^* /* (* _* :* <* [* }* |* 1* 2* 3* 4* 5* 6* 7* 8* 9* 0* a* b* c* d* e* f* g* h* i* j* k* l* m* n* o* p* q* r* s* t* u* v* w* x* y* z* A* B* C* D* E* F* }@ G* H* I* J* K* L* M* N* O* P* Q* A% j+ R* S* x& T* U* V* W* X* Y* Z* `*  = .= += @= #= $= %= &= n& *= == ",
"-= ;= >= ,= '= )= != ~= -  {= ]= ^= /= g. (= X& _= := <= [= }= |= 1= }= 2= 3= 4= <+ 5= 6= `. 7= 8= 9= 0= a= b= c= d= e= f= g= h= i= j= k= l= m= n= o= p= q= r= s= t= u= v= w= x= b# y= z= A= B= C= D= a. E= 4$ F= G= H= !& I= J= K= L= M= N= O= P= Q= O= R= S= T= U= V= W= X= Y= Z= `=  - .- +- @- u% #- $- %- &- *- =- -- ;- >- L+ ,- '- )- !- ~- {- ]- ^- /- (- _- :- <- ~@ M@ @@ [- }- |- 1- ",
"2- 3- 4- 5- 6- 7- T. 8- A% C% 9- 0- a- C% i. b- >. c- d- e- S* !. f- d- g- h- i- j- O. k- l- m- n- o- p- q- r- s- t- u- v- w- x- k+ S* y- x& z- A- a$ >. B- d- !. C- D- E- F- G- H- I- J- K- L- M- N- O- P- Q- R- S- T- U- i. h. b- V- W- X- Y- Z- /# `-  ; :- .; +; @; #; $; %; &; *; =; -; ;; >; ,; '; ); !; ~; {; ]; c$ M+ 9- ^; C% ~. {. /; (; _; :; <; [; }; |; 1; ;& 2; 3; E@ 4; 5; 6; 7; ",
"8; 9; 0; a; b; c; d; e; '$ O@ f; g; ;- h; i; j; k; X& l; m; A% n; k; o; p; q; r; s; C# t; u; v; w; x; y; z; A; B; C; D; E; A% F; 0% ^; j+ h+ ^; ~. X& '. -- h+ i; F; G; H; I; J; K; L; M; N; O; P; Q; R; S; T; U; V; W; X; j+ L+ 9- Y; '. Z; `;  > .> _  +> @> #> }; $> %> &> c  *> V$ => -> ;> >> H* ,> '> )> !> ~> {> ^; ]> ^> /> 9- (> _> :> <> [> }> |> 1> 2> 3> 4> 5> 6> 7> 8> 9> 0> a> b> ",
"c> d> e> f> g> h> i> j> a- k> l> a- C% O@ m> m; >  /= >. F; f. ,. x& n> o> p> q> r> s> t> u> v> w> x> y> z> A> B> C> D> E> N@ F> G> k; H> >. S* '$ I> ^; J> K> n; L> M> N> O> P> d. Q> R> S> a@ T> U> V> Q. W> X> Y> Z> `>  , ., g. h; ;$ +, @, #, $, %, &, *, =, +> -, ;, >, ,, ', ), !, ~, {, b; ], ^, /, (, _, :, <, [, ,. }, k+ -- _= |, 1, 2, 3, 4, 5, 6, 7, 8, 9, 0, a, b, c, d, e, f, g, ",
"h, i, j, k, l, m, n, o, -  b- a$ ^; ^> >  B% '$ j+ p, x& p, H> '$ A% S* q, r, s, t, u, v, w, o  x, y, z, A, B, C, D, E, x& x& 0% F, G, G, k+ H, x& m> '- O@ N@ j+ y- (> I, J, K$ K, L, M, N, O, P, Q, R, 2  S, T, U, V, k; >. W, x& X, F> Y, Z, `,  ' .' +' @' #' $' %' &' *' =' -' c> ;' >' ,' '' )' !' ~' {' ]' ^' /' X& >  j+ B% l; B- (' _' :' <' [' }' |' 1' 2' 3' 4' 5' 6' 7' 8' 9' 0' a' ",
"b' c' d' e' f' g' h' i' g. a- ]= j' k' 9- j; c- j+ j+ ,. (> l' k+ h+ I> m' n' o' p' q' r' @+ s' t' u' v' w' x' y' z' A' !. '. !. Q@ j+ j+ C- R* A- W, C- f. >. >. B' O@ C' D' E' F' G' H' I' J' K' L' M' N' O' P' Q' R' F; S' T' '$ P+ U' V' W' X' Y' Z' `'  ) .) +) @) #) $) %) &) *) =) -) ;) >) ,) ') )) !) ~) >; {) C% P+ ]) W& S* ^) /) () _) :) <) +; [) }) |) Z* 1) 2) 3) 4) 5) +- s% 6) ",
"'; D* 7) 8) 9) 0) a) 6* ;  c- C% g. b) C% b- c- 9- ,. j+ a% '$ (> A% I> c) d) e) f) g) U. h) x; -; x' i) j) k) l) m) n) d- o) p, p, E; !. >. x& h+ i; O@ B' ,  W, C- S* p) q) r) s) F' t) u) v) w) x) y) y; z) A) *@ B) N+ C) a- ;  g. l+ Z; D) E) F) i% G) H) I) J) K) L) M) g+ N) O) P) Q) R) S) T) p# 8)  . U) V) W) )# P+ X; k' H> X) Y) Z) `)  ! `@ .! +! @! #! $! %! a, &! *! =! -! ;! f* ",
">! ,! '! Q' )! !! ~! {! C% M+ ;- B- T' ;- ]! c- C% j; X; '$ _= ^! l' S* /! (! ~@ _! :! <! [! }! |! 1! 2! 3! 4! 5! 6! 7! Y& 8! E; H> H> 0% ;$ K> C- S' /= ^; F; m; y- L> 9! 0! a! b! c! y  d! e! f! g! h! i! j! k! l! m! A- n! h. o! 0- N+ p! q! r! s! t! u! v! w! |' x! y! g& z! A! B! C! D! E! F! G! H! I! J! K! '! &  ;  V- k+ g. V- L! M! N! O! P! Q! R! S! T! U! V! W! X! Y! Z! `!  ~ .~ +~ ",
"@~ [@ #~ $~ %~ &~ *~ =~ ,. b- >  ;- -- j; a- -~ C) A% M+ j+ O@ ;~ i+ E; >~ ,~ '~ )~ y+ !~ ~~ {~ ]~ ^~ /~ (~ _~ :~ <~ => ,$ H> A- C% k' ;$ C% h+ i. L+ A% X& A% '. S* >  [~ }~ |~ 1~ 2~ 3~ 4~ 5~ 6~ d' Z  7~ 8~ 9~ %# 0~ D% B' b) C% 0- a~ b~ c~ d~ e~ f~ g~ h~ |' i~ j~ k~ l~ m~ o@ n~ o~ p~ q~ r~ s~ t~ u~ v~ w~ x~ y~ ^; a- i. M+ z~ }, A~ B~ C~ D~ E~ F~ [) G~ H~ I~ J~ K~ F= z$ L~ M~ ,' N~ ",
"O~ P~ Q~ R~ %. S~ T~ U~ ]) ]> g. ^> 9- a- z- P+ C) S* F> ^; X& j+ E; V~ W~ X~ Y~ Z~ `~  { .{ +{ @{ #{ ${ %{ &{ *{ ={ t' 0% -{ ;{ C- y- ,$ G> h; L+ y- >$ L+ y- '$ V- x& >{ ,{ &  '{ ){ !{ ~{ {{ ]{ ^{ /{ ({ _{ :{ <{ [{ a- j; S* ^> K> }{ |{ 1{ 2{ 3{ 4{ 5{ 6{ 7{ 8{ 9{ m' 0{ a{ q@ b{ c{ J! d{ e{ f{ g{ h{ i{ j{ k{ l{ m{ n{ o{ X; ]> p{ q{ r{ s{ t{ u{ v{ w{ F& x{ y{ z{ A{ B{ C{ D{ E{ F{ G{ ",
"H{ I{ J{ K{ L{ M{ N{ O{ ^> j; ^> y- P{ '. 9- b) C% ]> R* l' o) ^; o) P+ e& Q{ {) R{ S{ 8# B{ T{ U{ V{ W{ X{ Y{ Z{ -> `{ 0% p, F, ;$ F;  ] h; A% a$ G> X& h+ ;$ o) ). ,$ .] 0# +] @] #] $] %] &] *] =] -] ;] >] ,] '] )] p, X; 9- )# ;- !] ~] {] ]] ^] /] (] _] :] <] [] }] |] 1] 2] _% 3] 4] 5] 6] 7] 8] 9] 0] a] b] c] g. k' M+ M+ ]> -- d] e] f] g] h] i] v{ j] k] l] m] n] o] p] q] N  r] s] ",
"t] u] v] w] x] y] z] A] (= c- ^> (> S* ;$ i. j; n; A% b- m> O@ Q+ k+ [, B] o$ C] D' h, D] E] F] '+ G] `% h{ H] I] J] K] L] ,$ M] I> h. i.  , F> j+ N] R* '- ;$ N+ e- Y& O] P] Q] r' R] S] T] U] V] W] 7. X] Y] Z] `]  ^ N+ o! l; c- ,$ .^ +^ @^ #^ $^ w{ %^ &^ *^ =^ -^ ;^ >^ ,^ '^ }% M@ )^ !^ ~^ {^ ]^ ^^ /^ (^ _^ :^ M+ C% )# b- )# <^ [^ }^ |^ 1^ }; 2^ +' 3^ }. 4^ [$ a) 5^ 6^ 7^ 8^ 9^ 0^ ",
"a^ b^ c^ d^ x) e^ f^ g^ c- K> h. N+ j+ ^> ^> h^ i^ j^ k^ l^ m^ n^ d$ o^ p^ q^ r^ s^ t^ u^ v^ w^ x^ y^ z^ A^ B^ 1  C^ D^ j+ y- i+ ^; l' i. E^ -- (> F> F^ <= G^ H^ I^ J^ K^ L^ M^ l# N^ O^ P^ Q^ R^ S^ T^ U^ V^ W^ X^ Y^ a% W, A% C% _= -- Z^ `^  / ./ +/ @/ #/ :. $/ 7{ %/ &/ */ =/ -/ ;/ >/ ,/ '/ )/ !/ ~/ {/ ]/ ^/ // -~ 9- ]> -  (/ L! _/ :/ </ [/ }/ |/ 1/ 2/ 3/ 4/ 5/ 6/ 7/ 8/ 9/ 0/ a/ b/ ",
"c/ d/ @{ e/ f/ g/ h/ i/ j/ x& A% i; ,. N+ h; Q@ W- k/ l/ m/ n/ o/ p/ q/ r/ s/ t/ p@ u/ Z. v/ w/ x/ y/ z/ A/ B/ C/ D/ '! [, N@ C- d- 0% 0- N] E/ F/ G/ H/ I/ J/ K/ L/ M/ N/ L$ E' O/ P/ Q/ {; R/ #@ S/ T/ U/ V/ W/ X/ Y/ i. y- l; n! Z/ .^ (' `/  ( .( +( @( #( $( %( &( a! *( =( -( -= ;( >( ,( '( @. )( !( ~( {( h/ ]( a$ i+ B% j; L+ T* ^( /( (( _( :( <( [( }( |( 1( 2( 3( 4( 5( 6( =' 7( v% ",
"8( 9( 0( a( y; b( c( d( k> W, X& D% f. f. Y& e( f( g( h( i( j( k( l( m( n( o( p( U# q( r( s( t( u( v( w( x( b^ y( z( $= {= J> N] X; P+ A( L! B( C( D( E( F( G( H( K% I( J( m% K( L( M( N( O( P( Q( R( S( T( U( V( W( X( )# k; S* '$ Y( Z( `(  _ ._ +_ @_ @' #_ $_ [( %_ &_ *_ =_ -_ ;_ >_ y# ,_ '_ )_ !_ ~_ {_ ]_ ^_ /_ C% P{ (_ ^; *  __ :_ <_ [_ }_ |_ 1_ 2_ }/ 3_ 4_ 5_ 6_ 7_ 8_ 9_ 0_ a_ b_ ",
"c_ d_ e_ f_ g_ z. h_ i_ n! V- -- S* S* '. j_ k_ l_ m_ n_ o_ p_ q_ r_ s_ >^ J, t_ u_ v_ w_ x_ y_ z_ A_ B_ C_ D_ E_ F_ G_ [, k> X& f.  ] X& W- H_ I_ J_ K_ L_ M_ N_ O_ P_ Q_ R_ S_ T_ c{ U_ V_ W_ X_ R, Y_ Z_ `_  : .: +: k+ A% c- @: >  #: $: %: &: *: .= =: -: @' ;: >: ,: ': x+ ): !: 0_ ~: {: ]: ^: F@ /: s% (: _: :: 0- C) O+ i. ,. ~. |, <: [: }: h~ |: 1: 2: D& 3: 4: 5: 6: 7: 8: 9: /^ P; ",
"0: a: b: c: d: e: f: g: h: i: x- R* l' d$ j: k: l: m: n: o: p: q: r: s: t: u: v: w: x: y: z: A: B: C: D: E: F: G: H: I: i. [, x& J> c$ !] J: K: L: M: N: O: P: Q: R: S: T: U: V: W: X: /^ &{ Y: Z: `:  < B> .< +< @< #< $< A% m; x- m> j. %< @^ ~- &< *< @' =< -< ;< >< ,< '< )< !< ~< {< 0_ ]< $# ^< /< b@ (< _< :< << [< }< M+ S' (> |< 1< 2< 3< 4< q. 5< 6< 7< 8< 9< 0< // a< b< q@ c< 5; d< ",
"e< f< g< h< i< j< k< l< m< n< o< p< q< r< s< t< u< v< w< x< y< z< /^ A< B< C< D< E< F< G< H< I< J< K< L< M< N< (: e> 9) N] o! V- -- L+ O< |{ P< Q< R< S< T< U< V< W< X< Y< Z< `< -% /^  [ .[ +[ @[ #[ $[ H* %[ y# &[ *[ a% H> j+ W, S* =[ -[ ;[ >[ ,[ '[ )[ <$ 2: ![ ~[ {[ ][ ^[ 0# G_ /[ ([ _[ :[ <[ [[ }[ }% |[ c{ 1[ 2[ 3[ g, 4[ 5[ j, 6[ 7[ 8[ 9[ 0[ a[ b[ c[ d[ e[ -] f[ Y~ }$ g[ h[ i[ j[ ",
"k[ l[ m[ n[ o[ p[ q[ r[ s[ t[ u[ v[ w[ x[ y[ z[ A[ B[ C[ D[ E[ F[ G[ H[ I[ P  J[ K[ L[ L@ e> M[ N[ O[ P[ Q[ R[ 9; S[ T[ M+ ., P+ K> P+ n! U[ V[ W[ X[ +/ Y[ Z[ F~ `[  } .} |# +} @} #} $} %} &} *} =} -} ;} >} z; ,} '} ;$ ,$ )} k' >. !} ~} {} ]} ^} /} (} _  #! _} }/ :} <} [} }} |} 1} 2} I+ Y$ 3} ,# 4} 5} 6} 7} 8} 9} 0} W> a} b} c} d} e} f} g} h} i} j} k} l} m} n} o} P' '+ p} n@ !( q} ",
"r} t$ s} t} u} v} w} x} 3  y} z} A} B} 0} C} D} E} F} G} H} I} J} K} L} M} J@ 7  L[ |# (+ J' N} O} P} Q} R} E+ S} T} U} 0- -- D% 0- O< a% V} W} X} Y} Z} `} }'  | |' .| +| @| #| $| %| &| *| =| -| B# ;| >| ,| '| )| !| >$ B- C- y- n! =[ ~| {| ]| +_ S: ^| /| (| _| :| <| [| }| || 1| 2| 3| B) 4| 5| 6| 7| X> 8| 9| 0| a| b| c| d| e| f: f| g| h| i| j| k| l| m| n| o| p| !/ q| r| s| t| u| v| ",
"w| x| y| z| A| B| C| D| E| F| G| H| I| J| K| L| M| N| O| P| Q| R| ]^ S| T| U| V| v; W| X| Y| Z| `|  1 .1 +1 @1 #1 $1 %1 M+ W& &1 P+ ]> L! *1 =1 -1 ;1 $' >1 #' _] ,1 '1 )1 !1 N$ ~1 w] {1 ]1 ^1 F} s} /1 (1 _1 :1 <1 8= >  m; y- >  n; [1 ~} }1 |1 11 21 ^$ 31 41 51 61 71 81 91 01 a1 b1 8> c1 d1 2} e1 f1 c( g1 h1 i1 j1 k1 l1 m1 n1 o1 p1 w_ 7) q1 r1 k| s1 t1 u1 a} v1 w1 x1 y1 z1 A1 B1 C1 ",
"D1 E1 F1 G1 H1 I1 N  J1 K1 {_ L1 M1 N1 Y_ 1% O1 P1 Q1 R1 S1 T1 U1 V1 W1 X1 Y1 Z1 `1 l- M} x) I]  2 (+ .2 +2 @2 #2 $2 ]; -  K> h; N] %2 &2 *2 /( =2 -2 ;2 >2 ,2 |; '2 )2 !2 X= ~2 {2 ]2 x% ^2 /2 (2 _2 :2 <2 [2 ^1 }2 |2 12 ,. C- y- m> 22 32 42 52 62 72 82 92 02 a2 b2 c2 d2 e2 f2 *' P/ g2 :[ {; h2 v~ i2 j2 k2 l2 m2 n2 o2 p2 q2 r2 s2 t2 u2 v2 w2 x2 y2 z2 A2 B2 C2 D2 E2 F2 G2 H2 0_ I2 J2 ",
"K2 L2 M2 N2 O2 P2 Q2 R2 S2 T2 U2 V2 W2 X2 Y2 Z2 `2  3 .3 +3 @3 #3 $3 %3 &3 *3 w] =3 -3 ;3 >3 ,3 '3 )3 !3 H. ;> )! ~3 {3 C% c- N+ i; N+ p{ ]3 ^3 /3 (3 _3 _] :3 :3 <3 1_ [3 }3 o] |3 13 23 33 43 53 63 73 83 93 ;( l- 03 S* m; M> j+ >  a3  * b3 c3 3, d3 e3 f3 g3 h3 i3 !2 j3 v  k3 l3 m3 n3 o3 =) I] p3 C< {; J2 q3 r3 s3 t3 p[ u3 v3 w3 x3 y3 z3 A3 B3 C3 D3 .% E3 F3 G3 H3 I3 J3 K3 M} L3 Y^ ",
"M3 N3 8' O3 Z{ 8= P3 5; Q3 R3 S3 T3 U3 V3 W3 X3 Y3 Z3 `3  4 .4 +4 @4 #4 $4 %4 _[ R' &4 *4 =4 -4 ;4 >4 ,4 '4 )4 !4 ~4 {4 ^! V- ^! ;  ,. a% ]4 ^4 /4 (4 _4 :4 <4 =, += [4 }4 |4 14 r| 24 1$ 34 .~ 44 54 64 74 84 94 04 a4 m; S* S* S* >  b4 Z; D) c4 d4 )[ e4 f4 g4 h4 i4 j4 k4 W! A$ M( _[ s~ z< E: l4 m4 n4 o4 p4 q4 r4 s4 t4 ;4 u4 v4 w4 x4 y4 z4 A4 B4 C4 D4 E4 H| F4 G4 H4 I4 J4 j< K4 L4 %# ",
"M4 N4 <{ O4 P4 Q4 {; R4 g/ S4 T4 U4 o} V4 W4 X4 k| Y4 F4 Z4 `4 O|  5 .5 5) +5 @5 #5 U> $5 -' C< q~ %5 &5 *5 =5 -5 ;5 >5 g. ~. K> ^> ,5 '5 )5 !5 ~5 {5 :; ]5 <) ^5 '1  ; /5 (5 _5 :5 <5 [5 )3 }5 |5 15 25 35 ;| ,| 45 -# E> ,. S* /= B- 55 65 75 85 95 05 a5 b5 c5 d5 e5 f5 g5 h5 i5 03 Q> j5 k5 l5 m5 n5 o5 p5 q5 r5 =@ s5 t5 u5 Z: j  v5 u] U3 w5 x5 y5 z5 A5 B5 C5 D5 E5 F5 G5 #{ H5 I5 J5 K5 ",
"j# L5 M5 N5 O5 P5 Q5 R5 a= S5 T5 U5 V5 W5 q( X5 Y5 Z5 ~: `5  6 .6 B1 +6 %5 @6 #6 O, $6 +. =' %6 &6 *6 =6 -6 P} ;6 >6 :+ y- n! S* H> h. T* d] ,6 '6 )6 !6 ~6 {6 ]6 r+ ^6 /6 (6 y+ J] _6 :6 <6 [6 }6 |6 K3 16 26 q[ 36 w  C- /= y- I> y- 46 56 66 ^. 76 86 i~ 2> 96 06 a6 b6 c6 q4 L@ d6 h  => 5[ e6 f6 g6 h6 ,) `4 i6 j6 g) k6 l6 m6 T& n6 o6 p6 q6 r6 s6 t6 u6 v6 w6 x6 N} y6 /_ z6 (+ A6 7- B6 ",
"C6 D6 E6 @+ ]( F6 G6 H6 I6 J6 K6 p] P' L6 *+ P  M6 N6 O6 P6 Q6 R. i| H| R6 S6 T6 U6 8$ V6 W6 X6 Y6 Z6 `6 0:  7 q6 .7 +7 -  X& >. S' @7 #7 $7 %7 &7 *7 =7 -7 $^ ;7 >7 #' ,7 '7 )7 !7 t& ~7 {7 ]7 D, ^7 /7 (7 _7 :7 <7 T4 y- S* j+ S' m> c% [7 }7 |7 17 .; 6{ 2^ 27 37 47 57 67 &; 77 87 97 07 a7 w% b7 c7 d7 w' e7 f7 g7 h7 i7 6} j7 k7 l7 y  m7 n7 o7 G* p7 q7 r7 s7 7$ X^ t7 u7 v7 w7 a] x7 y7 ",
"z7 5: A7 B7 C7 D7 E7 F7 G7 c< H7 I7 7* {< J7 K7 /^ L7 [5 M7 N7 O7 <@ P7 [& Q7 R7 S7 T7 U7 k| V7 W7 X7 Y7 Z7 `7  8 .8 +8 E> '$ A% H> Q@ _= @8 #8 $8 %8 &8 :# *8 =8 -8 (- ;8 >8 ,8 L6 94 +< '8 )8 u( !8 ~8 {8 ]8 ^8 /8 (8 ). >. _8 k' :8 <8 ]3 [8 }8 |8 18 28 38 48 58 68 78 &> 88 H7 Z. 98 9_ 08 a8 r} b8 c8 d8 e8 ,, f8 g8 h8 L( i8 j8 v. j# |~ ~< k8 l8 m8 n8 o8 p8 q8 r8 P  s8 t8 u8 |# v8 w8 ",
"x8 y8 z8 A8 B8 C8 D8 E8 F8 G8 H8 I8 J8 K8 L8 a] M8 _% N8 O8 P8 K] Q8 K; R8 2# j# X. S8 f/ T8 U8 V8 W| W8 }2 S6 v) B@ X8 Y8 C- _= Z8 '- j_ `8  9 .9 +9 @9 #9 $9 %9 [4 &9 *9 a, =9 -9 {; ;9 >9 f: 0_ J5 ,9 '9 )9 ${ !9 ~9 >. {9  ] E> X; ]9 ^9 /9 (9 _9 :9 <9 [9 }9 |9 19 29 5: 39 49 59 :5 69 Q7 79 Y2 89 99 09 a9 p% p; b9 c9 d9 e9 f9 g9 h9 i9 j9 k9 =~ l9 y+ m9 n9 o9 p9 q9 r9 s9 t9 u9 v9 w9 ",
"N> x9 @% y9 z9 A9 B9 C9 D9 E9 F9 G9 H9 (% I9 J9 K9 L9 l& M9 N9 O9 [- P9 D< Q9 R9 S9 T9 U9 q| V9 W9 X9 Y9 Z9 `9 h_  0 .0 i; Q+ Y( x& o) !} +0 @0 >[ #0 $0 27 %0 &0 *0 6{ W~ =0 -0 G' ;0 >0 :& ,0 '0 )0 !0 m} ~0 {0 ]0 ^0 >. /0 >. E> >. P+ (0 _0 :0 <0  ( [0 }0 |0 10 20 30 40 50 c# 60 70 H! <~ 80 90 00 a0 b0 c0 d0 e0 f0 g0 h0 H& i0 V# j0 k0 L) l0 m0 #| 6& n0 @% o0 p0 q0 r0 W= s0 /* t0 u0 ",
"v0 w0 J; x0 y0 z0 A0 %/ z0 B0 J( C0 '& k~ D0 E0 F0 G0 B0 H0 I0 J0 K0 L0 M0 C# N0 ]@ O0 y| P0 Q0 R0 S0 T0 U0 V0 W0 X0 Q4 n> ~. K> k' n> 22 Y0 Z0 `0  a .a '2 D& +a ($ ^6 @a #a $a %a &a @6 *a =a -a ;a >a d_ ,a 'a )a !a >  A- E> n; ~a )# a3 {a ]a ^a /a (a _a :a L: <a [a }a |a G{ 1a U0 2a 3a 4a F@ 5a c@ y) 6a v: 7a 8a 9a 0a aa ba ca da ea fa ga ha ia ja ka la ma ^* na oa pa qa ia r/ ra ",
"I= sa ta ua va wa xa ya da r* za Aa Ba Ca Da Ea Fa Ga Ha Ia Ja Ka La Ma h0 Na I8 Oa Pa Qa Ra Sa l6 r[ Ta t6 >4 Ua Va Wa O@ Xa o) Ya n> Za `a  b .b +b @b #b $b i% 9{ %b &b t9 .@ *b M@ 04 U> =b -b ;b >b F] ,b 'b i_ )b m; 12 W, g. p, o! '5 }, !b ~b -[ {b ]b #* ^b /b (b _b :b <b [b _: }b |b 2  r- n@ 1b 2b T% 3b U$ 4b 5b 6b 7b 8b 9b 0b ab bb cb db U= eb fb gb hb ib jb kb lb mb nb ob pb ",
"qb rb sb tb ub p= vb wb xb yb zb k= Ab Bb Cb Db Eb Fb ub Gb Hb Ib Jb Kb Lb Mb Nb '> Ob Pb C5 Qb Rb Sb Tb <~ @3 Ub u| Vb N@ H> O@ C- n> 22 Wb r{ Xb (# $/ ,1 Yb t+ u! Zb `b  c g8 -9 .c +c @c #c $c %c &c *c =c 0/ =] 3] E> n> R* {9 >$ m> S* P+ m; l; }{ '- -c _= Z( ;c >c ,c 'c )c 7_ !c ~c {c U8 ]c ^c /c (c _c C+ :c ,% <c [c }c |c 1c 2c 3c 4c 5c 6c 7c 8c |c 9c 0c ac bc p= cc dc ec fc gc ",
"c- D% [, b) Q+ f. hc l; n; F; O@ @7 P+ ic V} jc kc lc mc i% nc oc pc qc rc sc tc 6/ uc vc wc xc yc zc Ac Bc Cc Dc .6 Ec C- Fc E> Gc Gc }{ Hc Ic Jc Kc Lc Mc Nc +a i% Oc Pc Qc ,, Rc Sc e7 4- `: Tc Uc Vc Wc z< m6 f{ P# n; n> E>  ] ). !# N@ {9 A% ]> a$ ,. p, j+ n> Y( Xc Yc Zc `c  d .d +d @d #d X. $d %d &d *d r| =/ =d -d A% i; B- W, j+ C- m; Z/ ;d !. i+ _= Q+ H> j+ N@ x& N] w- V- -  R* ",
"X; @: :8 i. i; R* 0- _8 ,5 l' F; A- a% >d ,d 'd )d !d ~d {d ]d ^d /d (d _d :d D< <d W: [d *[ }d 5) |d 1d 2d 3d u> 4d m2 p, d- o; a% w- 5d 6d 7d 8d 9d 0d ad S: bd b2 cd dd o] ed q@ fd gd hd id jd hd kd ld md nd B> M4 k' e- E> d- od pd i+ C- K> m> k' J> A% /= B- ^! qd rd sd td :@ ud vd wd xd yd @- zd Ad -; D; Bd f. l; >$ S* ^; X& ;  S* n> @: !. Ya x& o) d- 9- S* a% f. y- {= @: n! V- ",
"c- g. ]> y- 0- Cd i. S* A- A- Dd A- x- Ed Fd Gd Hd Id Jd #' }/ Kd Ld Md Nd Od Pd R' Qd Rd .5 Sd Td @- Ud Vd Wd Xd Q5 V9 ,$ o; m; Gc m; '5 Yd V* Zd `d R:  e .e +e @e #e $e %e f' &e *e Q  =e -e ;e X6 >e ,e 'e )e -] !e N@ C- {9 $< >. A% N@ >  '$ P+ (_ >$ >. h+ S* m> ~e {e 0< ]e ^e /e (e _e 7; [6 :e <e [e }e |e 1e a% l; l; E> B' >. {9 !. ^> p, _=  ] p, k+ i; x& l' X; '- B' k> V- C% g; ",
"A% )# ;  V- c- N+ ^> N] a% >  C- x& _= (> 2e 3e 4e 5e 6e :# 7e .) 8e 9e 0e ae be ce de ee S9 fe ge he |2 ie u] je ke le C- m; Ya N@ l' [1 Y0 me ne oe pe qe re se te ue ve we xe t) !^ -] o2 ye ze B1 7; Ae Be H] Ce De _= Ee H> od m; -~ ). ,$ _8 S' k' 0% Fe >  >  S' Ge He i- t/ Ie Je Ke Le U0 Y5 Me :@ Ne Oe Pe l! m; '. Qe a% N@ ~. A- >  >  >. m> ,$ H> F, h. '$ X; [, h. o! ^; X; J> D% ",
"i.  , W& 9- h.  , >  ^; Re c$ Se n; j; L> Te `; Ue Ve We Xe 8e Ye Ze `e  f .f +f @f m5 #f $f 9= ^: 73 %f kd &f :& L3 *f S* ^! p, m; (> =f -f ;f >f ,f 'f )f !f ~f {f .a ]f '& ^f 2| 94 +< /f (f << o2 ~> _7 _f :f <f [f j+ _= m; B- h+ ^> b- >. E> >  }f Fe ,$ H> ,$ N@ S_ |f m0 1f 2f e7 x, 3f 4f L' %# `] 5f 6f _[ 7f X& M+ P+ >. 8f K> ]> A% k; '. Ya m; y- 9f k+ !. >. l' E; a$ j; 9- {= {= ",
"b) i. 9- ^> (= ^; :8 o) 0f C% j+ I> 9- ic '  af bf cf df (] ef ff gf hf if jf kf lf T~ E! mf nf of pf qf rf sf tf md uf {9 x& j+ /= k+ vf @8 wf xf yf zf Af -< !f e4 Bf Cf Df Ef Ff Gf Hf If [6 Jf ;} Kf Lf Mf Nf ~: Of S* Pf C) L+ 9- ,$ >  _= p, k' ,. N@ m; m; ). Xa Qf Rf Sf o% Tf I| u~ Uf &[ Vf Wf <@ 7. Xf o# o9 ,. j+ A% >  o) Ya A- '5 !. p, >. k; y-  ] ,$ (> o; Z/ X& c- h; Yf b) M+ ",
"V- a- j; D% c- '$ i. h. @: X& L+ g. V- od Zf `f  g .g +g 7e #! @g #g $g %g #% &g *g =g -g ;g >g ,g 'g 1} )g !g >@ ~g {g A% a% R* ,. x- ]9 ]g ^g /g (g ~6 ff _g :g <g [g }g ae ,c K, 5| J2 |g Uf J5 d[ 1g 2g 3g U  4g 5g i; C) /= n! ])  ] ^! od ,$ >$ ^! ). >. Q@ k' y- 6g 7g 8g 9g 0g ag bg e} _c cg '_ dg eg _@ &~ fg >$ A% j+ >  P@ M] x& p, ,$ Z/ !. gg Q@ '5 F, h+ Z8 S* n; ;  9- -  -  )# ",
"C% >- ^; ^> (= hg E; D% j; j; k> ^> D% &2 ig jg kg lg mg ng Mc og pg ue qg o$ rg be sg tg ug vg g' wg xg yg zg Ag Bg 2} 8f Cg F, -- !# Z8 Dg Eg Fg Gg *0 &8 Hg Ig Jg Kg Lg Mg s/ Ng *; Og o2 Pg >' ;| Qg B= Rg Sg +c Tg x& -~  ] C%  ] _8 m; m; _8 n! d- Q@ Ug S* x& >. }g Vg Wg '{ ]+ Xg Yg Zg J! `g  h .h +h @h #h $h >  ,. f. ,  k' l' ;$ e- y- >  f- N@ o) y- d- n; N@ ^; S' p, ^> -  i. i. ",
"b) h. C% 0- a- >- P+ %h ;- ^> ;- M+ D% 22 n^ &h *h =h -h (- ;h >h ,h 'h )h !h t9 )% ~h %| L4 N. {h I' ]h ^h /h (h _h L6 I> i+ N@ -- i; Z8 d% :h <h [h D& =, {f }h ]- [' |h 1h 2h $= 3h 4h 5h 6h 7h 8h l6 9h 0h ah bh c. X, C% ;$ %2 m> W, E> >. S* G> Re )} ). N@ C- m; ch 5@ dh eh 6% *f fh gh hh }- T( i! r( Y> ih 5) >  n! >  ). S* N@ >  m; >$ A( C- C- S* x& F, d- C- !. k; C- ,. 9- ]> b$ ",
";  ;  M+ V- i+ Cd X; (= Y; h+ jh D% kh a% lh mh nh 62 oh ph S: qh rh sh th jf '& m0 uh J8 9+ vh I2 7) C, wh xh yh zh Ah k; F; l' '$ n; ;{ ]b Bh Ch Dh Eh Fh Gh 4{ Hh Ih %> J, Jh @- Kh Lh S  Mh 3d 7( -= Nh Oh Ph Qh Rh 9- Sh k' /0 (> >$ ,. >. ). A% l' -- ,. !# %2  ] G9 Th Uh y+ Vh Wh $  B^ Xh Yh Zh M6 `h  i .i &@ m> j+  ] S* j+ ,. E> C- p, >  x& 0% >. >. y- d- w- x& H> '- k+ i. B' 9- ",
"*  ]> c- i. i. V- 9- ;  +i @i Y; c- :8 #i $i c~ %i &i }. *i =i -i ;i >i ,i 'i z! )i !i Y] Z  ~i J[ {i ]i ^i /i (i _i :i S* O@ ,. P+ @: _= @8 <i [i }i |i e4 e5 'f 1i 2i %! 3i o] p% '4 4i q1 p[ u| I@ 5i 6i 7i 8i 9i 0i B% P+ P{ h. c- H> P@ ^; Sh >. ,. S* >. n> ai Z/ h& bi G7 U# ci di ei fi gi hi h1 ii ji ki li mi G> n; od ni C- oi y- pi >. Ya N@ w- qi Gc ri si m; _= *  Gc 0- F> R* i. ",
"P+ A% V- X; [, /> ^> ^> c- B% k> c-  , ti ui vi wi xi U< Yb +> yi Ze zi Ai A0 lf 7/ l9 Bi g| x1 69 Ci Di Ei u, Fi N  =} G, n; K> h+ (> m^ Gi Hi Ii Ji Ki Li =, Y@ Mi Ni 7: -9 ^+ =' Oi Pi Qi e7 +d Ri Si O6 #d Ti 'b @- i+ j; )} -- C- A% k+ l; Y& Ui Vi Wi Xi Yi -c Zi `i  j .j |3 `! +j @j {4 #j @+ $j C= %j 3b &j *j =j -j ;j >j Z( ,j Z& ,j Z& 'j )j !j ~j {j ]j ^j /j (j _j a3 n^ :j <j f. ",
"]> *  D% N+ ., R* (= ., h. ^> >. j; h; [j Wb }j |j lg 1j 2j 3j 4j 5j W< 6j q, 7j 8j s# 9j 3% 0j aj <, bj cj K+ dj ej fj K> m; H> S* m; b% d% gj hj ij V@ jj kj lj mj 2: nj oj pj qj rj q5 sj tj uj N( vj D} wj xj Y$ yj S* B- N] C- E> zj ai W- Aj Bj Cj Dj Ej P< Fj Gj 0& Hj Ij Jj Kj Lj Mj v% Nj Oj `3 Pj 0: Qj Y2 Rj Sj Tj Uj Vj J/ Wj Xj Yj Zj `j  k .k +k Wj @k #k $k %k &k *k K/ =k -k <j ",
";k >k i. %h h. R* V- Fe o{ ]) Cd ^> '. ,k Z; 'k |j N: )k !k %b ~k  } {k ch ]k ^k >3 /k (k _k 8$ :k 8$ <k [k [6 }k |k 1k x& S' P@ C- /> <j U[ 2k 3k g% 0d @) 4k =7 5k 6k 7k 8k 9k /+ 8) 0k => ak C@ bk ck ,' dk ek fk gk ~. /0 m; k+ x& x& hk ik jk kk lk 'k mk nk ok pk y! qk d> rk sk tk uk vk wk Q. q7 xk Wf yk zk != g$ Ak Bk Ck Dk Ek Fk Gk Hk Ik Jk Kk Lk Mk Nk Ok Pk Qk Rk Sk Tk Uk k: Vk ",
"Wk <= a$ ]> Xk 0- h. ]> ,5 O+ -   , ;- R* Yk Zk `k  l .l +l k] @l #l $l %l &l *l n# =l -l ;l x= >l ,l 'l )l B} ,, e^ !~ _= h+ R* A% l' [= !l Zk ~l [> {l ]l ^l $b /l (l G- _l :l @# <l [l }l X> |l M* H2 1l Ei 2l 3l Qj N@ (> N@ (> ,. >. |= 4l l. 5l 6l 7l _) 8l 9l 0l `i al a) bl Th cl dl el fl gl hl il jl g_ kl ll ml nl ol pl ql rl sl tl ul vl wl xl yl zl ;2 Al Bl Cl Dl El Fl Gl Hl Il ",
"Jl Kl 0- '$ )# V- h. X& a$ X& D% W& [, E% Ll Ml Nl Ol Pl Ql Rl 3' Sl Tl H- Ul Vl Wl Xl C6 C+ Yl I' Zl `l  m .m +m $h @m #m $m (_ l' A% %m [7 &m *m =m -m #> ;m [' >m ,m P> ]% 'm I7 )m !m Qj ~m {m F@ ${ ]m >* ^m /m (m _m :m E; '- n; j. ~j <m [m }m |m {- 1m 2m 3m D} 4m ;+ r0 5m 6m n4 ]{ 7m 8m 9m Q4 0m am $- bm cm dm em fm :- bd <. gm 4k V+ #/ hm im h% r+ pc jm km lm mm Jg nm om pm qm ",
"n< rm sm tm um %. w^ vm D  Y/ wm xm ym zm Am Bm J+ Cm -} Dm Em Fm Gm Hm Qj Im Jm Km Lm Mm o& Nm Om Pm <! `4 Qm Rm e> Sm Tm 7h Um Vm Wm Oa Xm e^ P^ d< Ym Zm => `m  n A) e7 1$ .n +n f7 3h I2 )4 q( he @n #n t$ $n %n &n *n =n -n ;n -6 }2 >n -n ,n 'n b= )n 4# 8$ `$ z: X| !n Od d. ~n &  )! {n e= ]n =) ^n /n (n _n :n w; <n [n Sb }n |n 1n 2n 3n 4n 5n 6n 7n 8n 9n 0n an bn Z4 cn dn z/ g{ #] ",
"@- en fn gn hn in jn `# kn &| ln mn nn on pn qn rn w/ E| sn tn un vn wn xn yn c@ r' v; zn ~( t$ P; _5 An Bn Cn Dn Om En Fn Gn Hn A+ Y4 In 5h Jn Kn Ad Ln Mn Nn On Pn Qn Rn Sn Tn Un Vn Wn Xn 7= 1$ Yn h} W9 7[ Zn `n  o .o +o @o #o $o %o &o *o =o -o ;o >o ,o 'o )o !o ~o {o ]o ^o a) /o w, (o _o :o p8 #{ <o g| [o }o |o 1o 2o >* 3o 4o 5o 6o 7o 8o 9o >4 0o ao bo co do eo fo go ho io jo w2 ",
".. ko lo mo Q, z^ no oo po qo ro h> so to uo vo wo @] xo yo a_ zo Ao  < Bo Co Do Eo K1 @n -| Fo Go Ho Io j| >; Jo Ko Lo Pn Mo No Oo Po |2 Qo Ro So 33 To Uo Vo Wo Xo Yo Zo `o  p .p M6 +p Om @p 7; #p $p %p &p *p =p -p ;p ^8 >p /m ,p 'p )p !p ~p {p ]p ^p /p (p _p :p <p [p }p |p I. @f Ad b! ,> G' 1p 2p 3p 4p 'g 5p 6p %6 7p 8p 9p 0p ap bp cp dp ep fp >_ gp hp ip jp kp lp mp np op pp qp ",
"]{ ao rp sp tp +p up vp w$ wp :p xp yp  i g2 zp Ap U, Bp Cp Dp Ep Fp _7 Gp Hp Ip Jp Kp Lp Mp Np F@ ,* Op Pp u} Qp E  (n V  Rp Sp /m 5; =] U3  < Tp Up E5 Vp Wp Xp Yp Zp `p  q .q +q @q #q $q %q &q *q =q -q ;q N2 >q =p ,q 'q wh )q !q ~q {q ]q ^q /q (q _q :q z) +< <q [q }q |q c] t  1q 2q 3q 4q c! 5q 6q 7q 8q +p 9q 0q aq bq cq dq eq fq gq hq iq jq kq lq mq Y9 nq oq >( pq qq rq sq 8h tq ",
"D, @n uq vq wq xq yq li S2 zq Aq Bq Cq M1 L< E4 xj Z$ Dq Eq Fq Gq Hq Iq Jq Kq e' Lq v$ Mq Nq Oq Pq $$ Qq Rq Sq 7n Tq Uq Vq Wq Xq Yq Zq `q  r .r +r @r -3 #r $r %r |5 ,o C. &r Xm *r =r -r ;r >r ,r 'r )9 )r !r ~r 04 /f {r 7% ]r ^r B1 /r -o (r _r :r <r [r }r f* |r 1r 2r 3r n| 1g 4r J| B# o4 o[ 5r %# -b 6r 7r 8r 9r 0r nf ar br cr dr er fr gr hr ir jr kr lr mr Mo nr or S~ pr qr rr sr )* ",
"tr 'g ur vr >5 wr  5 xr yr zr Ar Br Cr Dr Er Fr Gr Hr Ir P3 Jr Kr wg cg Lr n  Mr Nr [& B= Or o6 Pr 5h Qr &{ Rr bj Sr Tr Ur Vr Wr q7 Xr ld Yr lq <~ vq ]n Zr g| M' `r C}  s |l 8+ .s X. +s 33 a4 .5 i5 z| nd @s #s Ph $s %s &s *s y} =s -s ;s 36 >s ,s 's )s !s 3[ ~s {s ]s ^s /s (s _s @] :s <s [s rp }s |s ,* 1s 2s 3s 4s 5s 6s q} 7s /< 8s 9s b/ 0s as R1 bs cs t( Rm ds es fs gs hs t( is js ",
"L' T~ ks ls ms ns ${ Wl os :{ ps [f rr x( ;; qs rs ss ts #~ us vs ws xs ys p' zs As D/ m  Bs Cs Ds P^ Es gi Fs Gs Hs Is M} Js Ks Ls q7 ko Ms Nr -o i< Ns =] fr |s <~ Os R, Ps Qs `  Rs Ss N. Ts #n Us e^ Vs Ws Xs Ys Hs Zs `s  t .t +t @t +< #t $t >> %t 08 &t *t =t -t ~9 ;t Rr >t ,t wo ); 't .s )t !t %r ~t {t ]t ^t w  /t h{ 0= (t /^ _t w| 0] [2 k{ :t <t -] [t }t #| |t 1t 2t 3t 4t 5t 6t ",
"Z% 7t 8t 9t c} 0t Y{ at <! bt ct -+ Ub u/ dt d' et ft gt ht it jt kt lt -o mt nt ot ${ b{ pt qt rt st tt t4 33 ut vt wt x| xt yt zt At Bt Ct )0 Dt Et '* d_ Ft R  Gt Ht 0}    Gn It Jt Xd Kt /^ Lt rj 4- =; Mt Nt Ot ~r (i o[ Pt Qt Rt St Tt -! =@ Ut Vt Wt Xt Yt t6 P6 '* Zt ,o `t  u .u ;! +u @u #u $u 7) %u p[ V  &u *u =u $h D+ -u ;u >u ,u 'u <t ut )u !u m3 ~u {u ]u ^u !! /u (u _u P& :u ",
"Nj <u [u }u |u 1u 2u 3u 4u `3 p( ;; 5u 6u S9 7u 8u 9u 0u ,_ au W( bu z2 cu 5o Gn @< du eu fu gu ^: Lt F* q| A; M1 i_ Y{ hu iu 0_ ju ku lu mu nu ou R0 D1 pu qu ru su e> tu uu B< ~( Z> s, vu 3} wu tu xu yu zu Au Bu Cu Du 9' Eu Fu Gu Hu Iu Ju gi Ku Lu Mu Nu )8 b/ Ou b} U6 *{ e7 &j Pu Qu e^ Ru f< Su Tu Uu Dt Vu Wu Xu Yu r  %= Zu I+ Jf )! `u =9  v .v +v @v #v s% $v %v &v *v Qa =v ,{ -v ",
"K, ,g ;v >v ,v 'v )v !v ju gt ~v xp B$ {v h2 '{ ]v 90 %~ ^v ;. /v ;/ (v _v :v <v [5 [v 4[ }v l} It |v Y$ }[ y} V> Is 1v 2v *$ 3v .s v) 4v 5v Y9 6v 7v 8v 9v 0v P4 b, av Oa bv cv dv ev R$ S  fv vd gv V0 hv iv jv F4 kv 5% F{ lv %# mv 3v nv ov pv qv rv 0] =e sv B} 9/ V{ 9= tv uv vv wv &] C+ q1 s4 wm %. %- ;o L. dk xv yv C6 zv Av /[ Bv Cv Dv Ev Fv Gv '# Hv Iv Jv Kv Lv Mv Nv Ov Wa Pv R) ",
"L, o0 d# .@ Qv u/ {m Rv Sv Tv >6 R> ys u  Uv Vv 87 Wv Xv .- Yv &; +h Zv W: `v  w v) Qa ]m S( .w z1 )/ +w Tn @w [d ', #w $w |~ %w &w *w q5 =w -w Bi ;w s> =9 >w ,w 'w Vh )w !w ~w {w ]w G_ ^w /w w  (w ev _w :w pj Wa {_ %r :2 y. De ]2 0$ c( >= S{ <w Y| 0j [w he f8 -$ }w [d Ob 'b {3 |w 1w V{ A: i! 2w 3w 4w 5w +: E8 9@ 6w 7w 8w G9 _o 9w 0w aw bw Tm 0# cw dw 9$ ew fw gw hw iw jw kw lw mw ",
"nw #; ;+ u, ow d0 pw 7/ ;w a, A< %~ qw Th A! || rw sw tw uw vw ww xw yw xw w@ t/ q^ yd zw Aw $3 Bw Cw Dw Ew Fw P* r@ >, r, Gw Hw Iw Jw Kw &! Lw 6/ Mw Nw _5 Ow Pw Qw Vg '% Rw Sw Tw K! Xd [d Uw Vw =3 Ww q% Q8 Xw Yw #1 9+ ~@ Zw }@ uc <l `w  x ;+ .x f@ +x 3@ @x #x $x N0 A! %x &x *x =x -x ;x !/ e^ ll &] >x [+ ,x N5 'x G_ )x !x ~x {x ]x ^x /x (x _x :x <x n' [x }x |x 1x 2x 3x 4x 5x 6x 7x ",
"Sw 8x &; z! oj 9x 0x ax bx X= mq '< 6@ cx dx ex fx -& gx hx ix jx kx lx m% /6 >^ mx nx 6] ox A= px qx rx sx tx ux vx wx xx yx zx Ax L( Bx Cx Dx 6w Ex Fx }~ X= Gx Hx Ix Jx p; e@ Kx u# Lx Mx Nx u  y| Hm Ox 9: I& Px B$ g0 Hv Qx Rx Sx Tx Ux Vx g+ vx Wx &> K$ Xx Yx Zx `x e2  y .y '4 {> U> A= +y @y xk #y +7 $y %y &y *y be =y -y ;y >y ,y 'y )y !y Wx ~y {y ]y O] u. ^y /y (y _y :y <y {) [y ",
"q) }y |y A9 1y 2y 3y  j 4y 5y 6y 7y u9 8y xx 9y 0y ay by cy dy ey fy gy hy iy jy 1. ky ~< J| ly 7t my Kn ny oy py qy c) ry sy ty uy vy Cx ,c 7: wy xy yy zy Ay By Cy H9 Dy Ey t/ 5: 1@ Fy 2- Gy Hy Iy Jy Ky Ly (c My Ny Oy Py ex Qy Ry J( Sy 2; O] F9 Ty Uy Vy Wy Xy Yy Zy `y  z 8j Na m! .z +z 6[ 'o ~r ]c @z e_ #z $z %z &z *z =z -z w+ ;z >z ,z 'z )z !z db ~z 5& {z j0 ]z ^z /z (z _z :z <z ",
"[z bb fb :* }z |z C0 1z 2z 9b 3z 4z 5z 6z da 1y g# 7z 8z 9z 0z az bz cz dz ez fz >^ 8g Cm o] N[ gz hz iz jz kz lz mz nz (* oz pz qz rz sz tz uz vz wz r* 2* Dk xz yz yz zz |x Az r9 P7 R% Bz Cz mq #v a: Dz Ez Fz Gz 6> Hz bi Iz Jz Kz /! Lz Mz Nz Oz Pz Qz z* Rz Sz Tz Uz Vz Y| Wz Xz Q} Yz Zz `z  A .A V  +A ^r 5w @A #A $A %A &A *A =A -A ;A >A ,A 'A )A !A ~A {A ]A pa ^A /A (A _A :A <A [A ",
"m= }A P= J= ac |A 1A 2A yb 3A 4A 5A Cb 6A 7A 8A 9A 0A aA qb bA cA dA eA fA gA hA iA !> 3- n) y  go jA I+ kA lA mA Xd Mx nA 0b }A oA Cb pA qA rA sA tA .* uA vA K/ 8c wA xA yA Gv #< zA `u o~ A_ AA BA CA S~ DA EA FA )( GA HA IA JA KA LA MA NA OA cb PA QA ac RA =A SA TA 0{ u@ %v UA VA f' L6 WA XA YA Sd `u ZA `A zx  B .B +B @B #B gc $B S= %B &B *B =B -B ;B Hb >B T= ,B k= 'B )B !B ~B {B ",
"]B G> [, [, ^B f. Gc d- n; I> N@ Ya C- ;$ >  ). !# N@ [, ,. m; g. P+ /B (B _B {y [~ :B <B [B }B ft |B Gy Xf m2 1B 'o y[ 2B S* (> j+ S* k+ -- k; >  C- ~. S* l; K> O@ 3B 4B 5B R) 6B 7B D^ 8B jr 9B 0B z, Pa aB bB cB )_ dB N@ {9 n; eB 8! A- l; >$ G> y- j+ p, ). e- n* fB J, gB hB iB jB )> H- P; kB lB mB nB T, oB pB qB ^; B' @: J> O@ L+ @: h. ;  V- R* i; X& D% -- '. ,$ ^; n; j+ A- hc I> ",
"k; i; -- c$ K> {= ,$ y- E; ,$ d- 0% n; F, ;$ >$ e- o) N@ ~. k+ j+ K> rB sB tB uB j3 Gs vB b# wB xB B< yB zB xc 8$ AB BB V~ n! l; x& P+ V~ O@ ^; l; >. i+ B- K> a% K> j_ Aa CB DB EB 2  4( FB GB e/ HB IB 9@ JB KB LB .h i; '. m> j/ N@ N@ !. E; H> S* S* O@ m; A% o) U' &' 7x MB B0 Xv t@ Si P} NB OB PB <6 QB RB SB TB b) ^> R* -  c- [, c- [, ^; @7 *  (= k> ,5 V- [, -- A- a% Y8 I> UB V- Q@ ",
"F, K> I> VB @: ^; A- ni k; A- n>  ] 0% N@ A( k> m; WB h+ A% j; ;- z~ j; XB A9 YB =_ ZB `B  C l! .C 5) +C @C J' x) s5 #C ). y- ~. ,. S* E; i; d- ]) x& A% K> A% h+ $C J> %C &C e0 &l &g *C =C -C P1 Bo ;C >C ,C {g 'C 2l W, }f k; Ya B- G> Gc A( S' k+ F; j+ V~ j+ I> k' `x 7j {* )C !C I6 Lh 3d .v a@ ~C {C 1- ]C ^C /C R* (C hg V- 9- ., k> ]> h. *  b) X& y- h. 0- >. N] S* E> x& Re hc G> 0f ",
"A- i; G, ^; Xk y- d- -- A( 9f 8! E> Y& Z/ p, !. N@ l' N@ Ya F, >  c- Yf _C :C ]z <C [C l4 }C @- |5 |C B< 1C 2C Nm 3C t) j+ S* x& ,. k; i; _8 /= i; >  (_ ]) i; i; E; R* 4C 5C l& Kx 6C 7C 8C 9C 0C aC bC cC dC a4 eC f7 p, n; d- h+ l; e- >$ C- >. d- O@ A% >  E; m> N@ L^ fC f7 *d gC hC iC vn jC kC G] v; lC mC nC oC i. L+ c$ j' 9- ^> *  @: c- a- ]>  , a$ m; j; Y; a$ i; f. F> 0% ^; S* 8! ",
"eB hc Fe pC ;~ (C -- f. '. !. x& 0%  ] n; y- A- o) C- f. >  o; G, C% B- qC G0 rC sC 'x Le tC uC 1} b> vC >C wC xC K1 yC >  i+ o) >  S* Q+ ^; j+ n! ]) zj L+ i; (_ K> (> zC fA #= AC .z BC <7 CC DC EC FC r- GC a[ %# HC ,. W, S' @: ^! I> V~ o) y- l' F, >  A% hc O@ G, Qf IC Ti =/ z. %a +1 ;4 JC KC LC MC NC OC PC QC X& 0- a- W& i; -- 9- h. N] h. o) j; k+ M+ 0- -- N] n; H> ,. w- Cd I> A% ",
"^> A- O@ J> c- A% 8! n; a$ N+ >$ m; F; O@ o; l' j+ S* d- >. S' '. Y; x& RC SC TC UC VC f^ ${ WC r} -} ,_ XC YC Oh 8= ZC y- `C /= A% L+ l; (/ zj i; ]) N+ c$ ;  ^; K> x&  D .D +D <B c0 @D t| #D $D %D &D A> *D q} =D 8@ O@ (> o) l' A% F; Z8 -D ;D x& (> Y8 m; N@ >D Y& ,D 'D )D !D mx Lm t: ~D o~ {D Gt fo  x ]D ^D dw j; b) /D  , h+ A% Cd h+ ^> S* hg >- >- ^> ^> G> -  V~ O@ ^B G> 0% i; ^; ",
"(= [, c- -- V- (D `C k> N+ ,. eB N+ j+ N] p, /= G> 0% d- o) y- >. h+ B- _D :D j- rw <D [D }D |D 1D (f 2D 3D 4D 5D yn 6D n! y- j+ >  P+ l' A% X& X; A% k+ A- R* ^; hg B' 7D 8D ,, M@ ]@ 9D 0D aD bD Cu cD 3[ dD eD 4g .. H> x& E; n! k+ O@ S* y- I> >  n> H> O@ d- x& y- )& Bx fD Z_ gD c> hD iD jD kD ># W% >4 lD mD )+ 9- Dd G, b) k+ {= 0- V- '$ f. nD x& -  /D (= [, C- ,  ]) y- y- 0- ., b) ",
" , a- (D ]> L+ @: A% J> f. &2 ^; X& A% j+ S* E; n! S' L> l' ;$ '. y- E; xy S_ oD pD &{ |v qD rD sD a/ tD F} uD vD wD xD S* x& L+ ]> A- -  l' Fe i; ]) E; X& (_ B' ,$ M] yD be N$ zD AD 7@ il d< Tc BD CD DD ED FD Jf fe Re x& ;~ Q+ j+ hc ,$ 0f I> o) F; k+ ;$ ,$ Gc S* GD HD ID JD KD Cr $h LD 8( Wf MD ND OD PD QD RD c- ., ^> A% ^> a$ (= H> SD M] -  i. S* c- c- b) G, 0- ;- '- +i l' c$ Fe ",
"E^ /D ;  M> N] L+ G, W& '$ X& i; i; i; R* E; l' x& j+ n! S* >. I> o) n! TD UD ww VD x$ j, y} WD Nh XD 0C YD ZD <s `D xj k; ^= S* P+ V- P+ ;  ). h+ (_ ^B k+ j/ )} j+ ,$ g#  E .E +E (< O7 @E 73 w7 #n #E $E %E Ct `] ', S' >$ j+ o) >. &E 0f m; >. H> ,$ 0f [, ^; S* {= <z xw *E uv 8j O. t& =E C, #r d< O( -E ;E JC T_ j; a- Y; M] ., WB >- E; i. &2 ., h. ^> nD D% b) j; @7 G, L+ j; [, :8 c- ",
"c- (= j; Q+ -  ^> 0- V- L+ M] {= V- X& S* A- /= >  x- S* n! O@ H> S* I> kb Vz >E ,E 'E )E Xf o4 !E ~E 2  {E z< u| ]E hv >  [,  ] i. ;$ h; P+ -- (D N+ l' ~. -- '$ S* (> ^E /E {3 P7 (E _E h{ :E <E tf hz fr [E }E Ru |E E^ /= l' l' O@ ;$ V~ Re d- V~ Re Z/ ^; o) W, w- 1E :d 2E u  3E .{ 4E 6# I| 5E 6E 7E 8E 9E 0E aE bE L+ D% C% a- h+ b- O@ WB W& nD ;  W& a$ N] ;- VB cE ;  b) a- ^> ., j; ",
"(= i; 9- X& a$ Xk N+ N+ {= P+ R* a$ /> B' n! ,. F; '. '- m; ). Re G> n; dE eE fE gE hE ro iE Ms ^q jE kE lE mE 7B -u A/ >. Gc A% M+ L+ 0- i. a% @: i+ x- Z8 n! Q@ ai d- 7k nE !> oE }@ 8% P  S  @n n) l6 nu o2 D{ Hu pE I> L> '. I> l' ,$ ;$ G> x& 8f ~. A( >. pi Y& qE rE lx sE tE uE vE yC wE xE yE zE AE BE Z9 CE DE (= *  ,5 Yf i. *  n; (C hc G> F; B' A% [j i; nD EE (C M+ N+ @7 Cd 0- Y; ",
"FE J> nD h. ., ]> X& L+ a$ (C P+ j/ N] /> S* gg GE HE <= IE JE KE LE ig d2 }  ME NE OE 7] R/ PE QE x) RE )g SE TE e= ~9 A% '$ N@ !. N+ ;  X& hg h+ UE VE WE XE YE ZE F/ Ia `E 2E  F -' .F 34 +F @F #F $F %F &F *F =F +j o) o) (> Y8 Q+ o) WB L> #i -F =[ ;F >F !j ,F 'F )F ce [y H- VA !F x' ~F y@ m} G  {F ]F ^F /F A1 (F -F IE _F :F ;{ <F #7 <F [F [F 9f }F |F [F 1F [F 2F 2F Y8 Y8 3F y& 4F ",
"hg i. b) 5F >- (C X& 0- X& B' j+ {= a$ O@ N@ 6F Zi 7F 8F 9F 0F &k aF bF c) j& fk L6 +: cr cF ~C O* dF q< eF fF gF hF iF A% m> )# X& z~ P+ $C jF kF lF mF nF oF pF qF rF p) vx sF s# tF uF B< vF wF r7 xF yF 3} %E zF u$ I> n! E; S* S* E> #i >d AF BF CF Zj DF Xj $* EF FF GF X= HF Jq .C R& ov IF JF yq WA KF Sc b* gi LF MF NF OF PF 9F QF RF SF TF UF VF WF U* mF XF YF ZF `F  G .G U* +G d$ ",
"@G }, a$ V- ]> VB a$ R* V- `> {= >$ I> ,  qi [7 #G )  $G %G &G *G =G l( ,~ ]_ r| cl xr -G [{ ;G Y% >G ,G 'G )G !G ~G b> K> h. ]) H> G> O@ F> F/ {G ]G ^G /G (G _G :G <G [G }G u^ 9k |G |w $j {{ s5 ]F 1G o- 03 RE 2G Ns E; WB x& j+ >. Q@ 3G 7F 4G 5G 6G 7G 8G 9G 0G aG bG B0 cG dG !v $h eG @z fG gG s} 7~ hG iG i< jG kG lG mG nG oG pG qG rG sG tG uG vG wG xG yG zG AG BG CG DG EG FG GG HG ",
"IG L! j/ ^> -  V- nD ,5  , (C -- k+ [, S* JE +* :/ JG KG LG o_ MG NG Sk BC OG G' PG /w QG 84 L  YD 8. 3f RG SG $. ih TG A- f. n! k+ ]> K> ^) UG VG WG XG YG ZG `G  H .H +H @H E< #H 8j $H R& %H T7 4- ze cj Wn &H D} m[ x& >  j+  ] x& ]B 'j *H =H -H ;H >H ,H 'H )H !H th F- qw fd ~H K| )n [u {H ]H ^H /H Z{ (H _H @F :H <H [H }H |H 1H 2H 3H n: 4H 5H 6H 7H 8H 9H 0H aH c4 bH cH dH eH fH D) ",
"gH hH J> ;  [, ]> 0- b$ ;  '$ Q+ {= G> Y8 iH jH kH lH *0 (# R: mH nH  1 oH q4 pH PE Ri qH rH 9m  . Ah sH 3  r| tH uH a] ^! n! y- V- ;  hg {j ,6 G( pl  l (- vH =, wH xH Pz yH v. 'c uF *l Op z< T4 zH AH $u BH  5 CH C{ ,$ '$ j+ Q@ ;$ '5 +0 !5 DH EH FH GH HH IH .) JH |h @H 'i KH LH MH NH OH PH /H QH RH SH TH UH VH #d WH XH YH im ZH `H  I .I +I @I #I $I %I &I *I |_ =I -I oe ;I o: >I xG ",
"4q ,I 'I )I +j kn !I ~I {I ]I ^I /I (I _I md }d c/ :I <I [I }I |I D: 1I D: 2I !: 3I D# ze ~: 4I 8$ Nt 5I 6I #@ 2} 7I +] h+ (> o) ]> x& WE 8I 9I 0I aI bI cI dI *< eI 1: fI gI hI BC iI ~3 jI kI 4h lI a7 mI M& nI oI Qb N@ >  Y8 >. Re >d pI qI rI sI tI uI vI Kg wI =7 xI Mg ~/ s: M3 Hy )* yI zI AI BI 4[ CI DI Fp EI FI GI HI m2 II JI /w :[ KI 3l LI MI NI ]D OI ar PI QI RI SI TI UI VI WI ",
"v1 XI YI ZI `I  J .J (i k| +J @J #J u1 $J %J &J *J =J -J ;J >J ,J 'J Dr T; )J Vv 2+ !J F{ l6 mB YA gi /^ ~J )3 ,( r~ $1 Q+ h. M> L+ -- Q@ ~| {J ]J ^J +' <$ /J 6k (J _J :J n( <J [J }J |J 1J 8( 2J 3J 4J 6| k| 2$ {E )^ Re y- o) y- x& !} {. 5J 6J zl %^ 1' <g k% .; 7J na 8J 9J 0J aJ V> bJ cJ dJ h/ eJ l@ fJ gJ hJ 4p iJ jJ kJ kv lJ mJ nJ A; oJ pJ qJ 6v rJ sJ tJ Y% ]i uJ 4u R6 Z2 vJ #o n  ",
"wJ xJ yJ zJ AJ BJ CJ DJ Bc EJ FJ GJ HJ IJ JJ KJ LJ MJ dq NJ NB @< OJ PJ QJ Im Et RJ 6B c! n  SJ nt TJ v] UJ 7#  d VJ !^ R* l' /= ^! b% <j WJ XJ YJ ZJ `J  K .K +K _g @K #K $K +E 5| N, dt %K &K 8) *K .q ,q dq =K -K iB A- n; k; y- F; ;K Gi >K ,K 'K ^| )K h3 !K ~K W@ A0 {K ]K ^K /K (K mw _K ^v /F F_ Ro :K <K [K }K |K 1K 2K 3K 4K F* 5K 6K %] 7K 8K 9K 0K aK Y{ Yl bK cK dK eK IJ fK gK hK ",
"Fp iK jK 9s kK lK mK nK oK pK qK rK sK tK uK vK wK xK $f yK zK AK Xf yk BK U> CK 1  -l DK v7 EK hu B@ FK GK HK IK [+ JK '- j+ i; ~. A- a3 @8 KK LK MK NK OK mj 2> %b #> PK B* ~w y_ v8 V> S9 r8 QK o- n5 RK SK SI Pi tr F, A- x& x& y- .^ +0 TK UK VK X@ oc WK ;: =< h3 jf XK s@ YK ZK k6 qy p# '_ |- a/ '| `K  L np .L +L @L Qq #L $L %L &L A6 *L f> =L -L ;L >L ,L 'L )L ls !L ~L Vf {L ]L ^L ",
"/L (L _L :L <L [L }L |L 1L 2L 3L 4L 5L 6L 7L 8L W9 9L Ut 0L RI aL ld bL |- E@ cL dL eL fL Wd gL hL iL z^ jL kL :2 lL mL D% ,. V- x& G, U' `8 ;[ nL oL K) pL qL =: Ze rL sL tL 8x uL !n o0 fo vL i| v> wL xL yL t6 Rm zL '$ ;$ H> F; ai AL Wk BL CL VK DL EL FL GL fm ^  HL zz IL JL 87 KL LL ML NE l@ NL =s H3 OL PL &p QL RL  m SL Fw TL UL VL WL XL YL nK ZL `L Jo EC  M .M +M @M #M $M %M &M ",
"*M Cn =M -M ;M Z% >M D@ *D v~ ,M In .8 Dz 'M )M !M ~M dL I4 /p {M ^~ N} gL 7) ]M +3 ^M cg /M ~r (M _M :M <M b1 [M }M |M k; O@ o! d- B- WE 1M 2M 3M 4M 5{ #( 5M y{ +a 9{ 6M 7M 14 #x 8M Ts G' vL 6| mp W% 9M 5% 1v Pe 0M F; A% ;$ S' E> aM bM cM 85 F) cf dM eM fM gM hM iM K8 jM kM o0 lM mM nM ]~ oM S, pM qM rM  n sM tM uM k| jd vM wM xM EK np yM zM AM BM CM Y/ -K DM EM Dm FM GM UI HM J2 ",
"IM JM RJ KM LM z_ S( 3~ MM NM ~> OM @1 PM As QM RM SM ep B# TM UM :@ g1 {s VM 0] WM XM YM Yz ZM 6; `M |v bm j  ot  N .N h+ ^; X; O@ x& ti b~ +N @N bd #N $N K) %N &N *N =N @a E' -N ;N P; >N yn ,N 'N mE Sa )N :v u7 !N l' l' l' ). !. 6F ~N {N ]N ^N f~ /N x{ !k (N _N :N Rv <N [N }N |N 1N pE 2N 3N 4N 5N 6N 7N [q |- O[ 8@ 8N 4d -n 9N 0N aN A< bN cN dN =s eN fN gN hN 6q iN Zr 6h }r jN kN ",
"lN QM mN nN e_ }[ A1 oN == pN b> z_ qN ]m $$ rN ># Y^ #+ {c sN tN bs uN ~9 po G| wg vN 9L /m wN b1 Gn a' '* D3 Rr fe xN S* n;  ] C- E> oi 6d yN zN AN 7< #b }> 37 BN [] `i *9 CN q4 DN dt EN QJ v( FN .7 Ys '* Sd Si GN S* j+ ,. >  f- HN Z^ IN JN KN LN MN `[ $g NN ON PN !y *v QN RN SN rN s> TN UN VN WN XN s, xv H+ hd mp 5i B} YN 0' ZN no '8 #+ ie dv `N ;| jr  O .O z3 +O @O 7u #O $O %O ",
"&O *O zk =O -O L{ ,g ;O Os X$ >O ,O 'O )O !O }e =e ]0 ~O {O iu ]O ^O /O 2$ 5u bm (O q7 _O :O Rm <O [O $f }O 'u |O 1O 2O y- i. l' C- H> 2F Z^ 3O h$ 4O '2 Nc 5O  = mj 6O 7O Vx 8O /, S{ :< 0+ 9O FC 0O mE P, aO bO cO *{ '$ p, ;$ @: ;~ !} dO eO 8d fO gO hO iO `} _. jO kO iM G8 +n 2  ej lO 6s mO nO oO S{ 3] .i pO 3o Zq qO rO cg v4 ]^ sO tO uO vO Um wO QJ }e xO yO zO AO BO CO DO os EO FO ",
"Er GO HO Ap 4N 2~ IO 2} JO KO n- LO MO NO (o o2 OO u( y} H| ;@ PO [6 Ht v& 1D [@ QO 0n RO v% 9' x% SO TO UO *t VO ~: 7= C- m; l' X& '- jF HG :/ WO _# &( XO XO h3 YO ZO `O  P nx .P L{ jl +P @P #P O/ Q0 $P i_ Yz z: %P h+ l' >. >$ A- := &P 42 *P =P f3 -P ;P uI >P 8{ ^& ,P dG 'P <{ vj )P g: S, !P C  Bm sF ~P =( EB =u Mo {P #  ]P TM ^P /P (P }v b} V0 Z5 _P :P <P 9m [P Gt }P |P 1P Je s  ",
"2P x> 3P +% 4P 5P 6P 7P )u 8P 9P 0P aP bP R( cP dP b0 q@ 8) eP fP gP nx 8@ p8 v& hP +v iP J6 jP kP lP mP Pn jA 3s nP [2 d- !. oP  ] O@ 22 WJ pP qP tI rP gM q. sP tP uP dd )i vP H6 1@ wP xP >N yP zP D@ Hu AP Rm m4 BP n! >. x& x& N@ c% CP DP EP FP GP HP IP JP hM KP LP MP NP  { ;. AM OP v3 x) du E@ AA PP v. 8g D$ QP RP SP TP {@ UP c0 VP =$ Fi WP z. -( XP 2L 5m iw ^+ YP hz i) h7 fg J6 ",
"QG ZP m1 `P  Q .Q +Q @Q #Q $Q %Q Q] )i &Q *Q =Q -Q 5@ '/ =+ ;Q HD GD fl >Q ,Q Ul d. _K 'Q hl )Q 4+ qO !Q Vr ~Q {Q ]Q ## >. E^ ,$ -- (> L> ^Q Y- /Q (Q _Q -h uP :Q 06 %0 4& jM <Q g8 [Q #d v& }Q |Q 1Q c{ 2Q 3Q 2] ;; 4Q K> b$ }f N@ f- vf U[ 5Q 6Q Cl 7Q !d !d 8Q 9Q 0Q aQ =- bQ $6 cQ -o dQ T. eQ Q4 zH o2 wE Kw Lw fQ gQ hQ iQ h0 W$ s# jQ Vl kQ 9k Q% p% lQ mQ nQ =l W: oQ x% pQ $h qQ }D h< ",
"rQ sQ tQ uQ vQ &g F9 wQ xQ t0 yQ Ca #K zQ >^ AQ Vu BQ CQ .D DQ EQ Vz $; FQ GQ [d HQ dl IQ le JQ q# KQ LQ MQ NQ 1d -J OQ d- ,$ H> R* A( WE PQ QQ RQ SQ TQ UQ VQ WQ XQ YQ -y jy ZQ |@ `Q  R M{ .R +R @R eg d! @1 =l  . :k X; h+ N@ ;  y- 9f KE #R $R %R JN &R *R =R -R ;R >R ,R @} `D 'R .% B2 WN U. h{ )R (O ^+ !R ~R {R 5& ]R ^R o' /R (R +D _R ,{ .E :R ~@ <R _l [R J9 q^ q^ }R |R X9 LM 1R 2R ",
"3R 4R =| }D 5R 2] Xl 6R 7R 8R 9R 0R x* aR bR 7& ,c 5& cR h0 g& dR Uy #% eR 0w fR N$ N[ gR >3 hl P& Q1 hR fp iR jR I[ Nm C- >. A% l' 0% kR U[ lR T@ mR X< nR oR @) pR qR -& rR sR s: ci tR uR R' vR nB B  wR x@ J] ~/ xR H> O@ l' f. E> {9 ic yR Ej zR AR BR CR DR ER FR GR HR IR JR W6 >> ~> KR LR YN Oa MR f1 T} ed p^ NR >{ 9! xQ OR PR E- QR :J RR 2; ea SR Uy iM ]x |y +Q TR UR P& VR WR XR ",
"L5 YR ZR `R  S ]c CN E9 .S +S @S 7z #S $S %S ^E &S *S =S -S 5& ;S >S ,S 'S )S N$ !S ]2 O6 -* v3 ~S {S SH ]S 3d ^S no /S n> n; H> x& S* '5 ]b E( (S _S rh :S vI <S [S }S 1y |S R$ oj 1S 2S f_ 3S 4S 5S 9B !I 6S 7S 8S 9S ,5 H, A% N@ eB ,  '5 W- aM 0S aS /b bS cS dS M= v= n( eS |~ wF fS `7  n 9' q6 DC gS uf hS b0 Dx iS jS [A :A =y :A kS lS ve mS ]A nS !2 oS fb pS qS rS sS e8 tS wB uS vS ",
"wS xS yS zS AS BS R5 CS DS ES S= s= L= FS U- +* bA 5c bc q= vA GS HS IS JS KS LS ]@ P; MS NS 9+ OS PS ~r [! QS RS SS v, N@ o) l' S' '$ b% TS l_ US s! VS q. WS XS YS ZS )& `S j#  T .T =w +T @T '{ #T $T oH %T &T *T =T k+ H, S* C- /> G> ,. ~. oi Z/ Z/ Za L! Y8 Ui m^ -T Ea ;T $h >T ,T 'T )T ;} [o +A B2 &5 !T q% u, Xy ~T |A {T ]T ^T /T (T Vj _T :T <T ,B 2A [T }T |T bi O$ 1T 87 2T Y> 3T ",
"c{ Ao 7. 4T rn 5T 6T ;+ 7T -- X& ^; N+ '. 8T 'd 9T 0T aT ~K bT cT dT eT oa 4b fT gT De K2 iu hT iT jT kT lT mT nT }s oT /= H> p, x& ;$ ,k Wb pT qT rT &9 D& a2 sT XO tT uT vT e# 2- cJ UR _[ L. wT xT %D yT H. zT AT BT A% m; ,. i; l' ,. l' >$ y- ;{ >. Z/ CT 9- >  ,  DT ET FT GT EB !u R, hd HT IT je BA n  JT R{ KT LT !. MT F; F; k; R* x& y- n; p{ F, [, Q@ Y& NT ;% OT !R K7 PT QT RT 3@ ",
"ST ge .z TT UT w7 @1 cv i; l' n! S' N] L> VT WT XT 3, #I Rl YT ZT `J `T 5&  U o# Q# .U q% +U @U U6 #U $U ep MM u> Ae ot C- n; S* b% n> %U &U *U .9 =U @K #9 4M i% -U ;U >U yQ ,U 'U =4 Bq Zu <+ )U 'x !U ~U c{ ^: @2 {U '$ V- (> @: '- K> G> ^; V- hc ^; D% >. !. f. S* ]U ^U t/ n~ )_ /U (U l, _U :U vJ <U [U }U |U }v C- y- j+ n; d- I> J> O@ WB E; Dd o) b) M] x& 1U gQ 2U c# W! %v pj 3U 4U ",
"OQ OJ y^ BE 8= 5U 6U |D L+ >  k> m; ^; ]9 7U 8U 9U 0U 6k +; :# $b aU bU ty cU {U dU !^ eU fo fU 23 x} +U gU 45 hU MM iU Q@ A- ,$ C- N@ =f jU kU lU mU  } nU <] oU pU qU Hw dz Ao rU sU tU IB uU vU ^: wU xU b] g/ h- yU B- zU h. y- -- {= N] A% m; od Q@ >. d- L+ N@ ^; AU BU CU I& td p]  v DU Vn EU FU Wm GU ;n HU g) Q@ y- n; >. G> g. g. @: d- P{ ;$ o) I> M+ L+ Q+ IU Uy JU e. KU LU *l MU ",
">= NU y1 7C OU dL PU ys ). >. !. Ya od _= QU RU SU TU UU VU mH V< WU qU XU YU ZU x( z. ej mt `U  V Bc BK MR !9 In >#  i p, N@ p, y- E> =[ `& .V +V @V !k ;U ;: #V $V %V I, MP &V *V =V :: ~4 yA /< IK -V ;V JL >V t7 2- (= R* A% F; k> h+ R* >  *  >$ m; >. )} eB !. C- ,V B* 'w r@ 'V #T T/ @- )3 )V ,_ 7) !V ,O wt r8 C- F; F, G> h+ G> g; b) i. P{ -  >- y- D% x& j+ ~V 5* G- GQ T~ {V ]V ^V ",
"V5 oB ks /V (V _V b/ It ^; O@ b% '- o; '5 :V <V [V }V |V 1V 2V 3V 4V 5V 6V c  R% 7V <v 8V Ub O  9V 0V ;e aV du ;( bV 0+ 0% F, m; _= Y& >d cV dV eV fV gV hV <( iV jV kV (* cz lV mV L, nV oV ~U ~! pV '* qV rV tQ 4( sV x& x& *  Y& )# i. ,$ V- A% p, o) H> n; >. !. -- 5* tV uV ~P vV Ts *@ wV kL xV yV zV >5 AV BV ~H I> F; Re ^; -- ]= D% ;- k> J> a- Yf n! N+ l' y- CV &> vT &g DV {g Gs EV ",
"P5 mV W6 FV GV KR &} HV h+ h+ ;$ o) ,$ .^ IV Z0 JV KV LV MV NV OV PV dT W~ QV RV SV TV @C y% UV VV WV XV 3~ Ta }d B1 YV n; F, WB ,$ 0% ZV b~ `V  W .W D& +W NN @W #W $W %W #z (% '7 &W T6 p[ In *W `n 1I =W -W ;W ;( >W k+ D% h+ E; ]) A% i; ;  I> O@ S* F; k; -- C- S' ,W Cx 7j ^+ b! 'W )W jA !W ~W ]0 -] m- EB {W f1 /= I> I> WB o; WB g. %h g. a- j; j; ^> '$ y- F; lS ]W R$ My ,, HQ xV ^W ",
"/W [P M  (W _W A, :W <W ,$ e- N@ >. k; .^ [W $G }W d4 -I |W Y* 1W 3^ |i >y q^ $z Lx c( m4 .6 SJ j} 2W (O <t 3W 4W a[ 5W >. eB Re N@ o! 5d `( 6W </ 7W W+ h~ ]6 8W 9W X+ 0W aW /x bW Q' cW Tr !| dW eW fW gW hW ]~ iW =- A- l; d- L+ ,5 k+ a$ A% ,$ `C N@ _= p, '. o; >. jW b< fE fE kW d> %a h2 lW f1 _f mW nW oW P& #h i; eB H> ^; '. g. P+ g; C% X& (= (> 9- P+ ^; n; pW qW rW sW tW JF 1~ vU ",
"uW vW a@ wW f: mo H5 O4 f- ,$ A- n> Q+ T* BF :h xW ./ yW zW AW `} BW CW DW L( EW !C /1 Y9 8+ FW GW HW IW JW KW LW MW v7 e-  ] !. ;{ 0% '5 ~| NW OW PW QW RW SW TW UW VW ~& WW )D E] $H Ww  t XW YW =o ZW k< `W dC  N  X m; S' nD i;  ] k+ >  @: >. j+ 0% x& /= k+ n; l' .X 8D {x T# &e +X In M< #+ Sd @X #X $X %X _e &X I> ]) >$ N] X; ]> `C (= c- C% ;- >- ., 9-  ] i; *X =X -X ;X >X ns >/ ms ",
"&{ [k QJ ,X 'N 'X x3 C6 !. d- G> m; A- ZV )X !X ~X {X +> ]X *< 'h ^X f4 +x /X K! (X 0= oJ _X :X <X qp [X }X |X J5 _P cC V~ gg N@ ,$ 0% gg 1X 5J 2X 3X 4X 5X e4 3V 6X 7X CV 8X E8 +] Tl r^ 4E 9X LW 0X sO aX bX &s ]{ #U h. E; Re j+ X; @: L+ ;  V~ N@ y- ,$ x& l; X&  ] cX 9x eE 87 pj t& [& I' '! dX eX fX gX 0j hX _i >. *  -~ B' L+ E; 9- b) X; ^> T' a- T' c- S* @: rC TB hT OQ |v iX Q7 pD ",
"jX A) kX lX mX nX /P O7 ,$ F; Ya p, qE AL oX e% pX 3, U< qX rX sX tX uX vX wX xX /h {{ yX 36 &} zX QL AX BX bj vq CX DX !. G>  ] k; Z/ od EX FX GX HX |' IX Y[ /} JX $' KX yQ LX 4. MX j5 NX I] hR UT 73 OX iG c/ c! H- P+ N+ !# H, A% ^; i; a% Q@ A- p, a% C- H, y- >. Ja r0 m~ 6/ PX QX ck t& xU RX <~ SX IO :1 TX Fv @: ;  G, j; X; h. C% a- /D N+ ;- (= B' V- >. h. UX 1E o8 L8 6D xc 2~ :1 ",
"fo VL ~O 8( eU VX WX )0 H> !. '. E> ,$ XX %< qI YX ZX `X  Y .Y +Y @Y #Y $Y %Y &Y wE *Y =Y -Y ;Y a_ {S _q >Y &f ,Y +4 9N F; F; e- ,$ !. U' 'Y )Y !Y ~Y {Y ]Y ,1 ^Y JX (3 /Y (Y X! )! ,Q _Y 2a :Y a( X3 <Y QI 7n }- Wn N$ ,. ,. (> k+ x& (D A% k; '5 S* A% '. _= Gc N@ f- [Y `i p9 b9 v~ t% |I )4 }Y {H M* FB ft |Y h{ 1Y L+ P@ A- ]> D% C% 9- c- B% a- Cd l; V- M+ ,$ N@ hy 2Y 3Y 4Y 'C 5Y p8 J6 ",
"6Y 7Y 8Y +A 9Y ^n H3 p# C- A( p, G> E> ic ~} 0Y aY 1m -^ bY 1: cY <$ UQ dY eY fY Pi gY Rn hY Hn lN iY jY kY 2n lY mY H] A- m> k; y- P+ nY Wb oY pY qY rY p. sY ^l tY uY vY wY xY yY L6 /K Qj V; fi s< Tg zY au j< !^ s) R* E; X& P+ A- S* y- y- n; J^ I^ 6F AY (j {a Yi Nz J, [x 4. B{ BY pE }r CY !C DY LB W% 1O QD EY K> [, FY ;$ C% O@ i. ,5 $C B' GY X) HY IY JY GE KY ,R w8 LY MY D5 NY ,o ",
"OY PY QY RY SY ~F bN (i k; l' _= {9 !. #: TY UY #& VY WY [( U! UQ XY YY 0y ZY d! `Y  Z NO .6 .Z Gf +Z %5 @Z #Z dn $Z ;e F, y- d- >. >. WE (' %Z &Z 3, *Z =Z -Z ;Z >Z ,Z 'Z )Z !Z ~Z #v R; b@ hi 1g {Z ]Z ^Z Ta 3! x/ dj V- X& O+ o) [, S' N] {a )j /Z (Z _Z +k :Z <Z o/ rz [Z }Z |Z oT {m e= {c 6=  S 1Z xt 2Z R5 gY Qj y- 9- Ya  ] >$ 9- =  hg 3Z 4Z Te 5Z #G 6Z 7Z 9F 8Z xY eY 9Z hT 0Z .r aZ ",
"bZ *$ cZ dZ eZ fZ T, )( l' d- Re V~ G> >d gZ 1, hZ iZ jZ kZ j% Lc lZ mZ nZ w. oZ Vv pZ M3 5g qZ lE ^r R6 X^ V6 }6 %F rZ m> E; MT >   ] 6F ~| }7 sZ tZ  | uZ vZ wZ >2 xZ yZ [$ zZ AZ xU BZ Lm q  qQ 0X Cp jD :@ #T h7 MD @7 ^; j/ ]> *  a% ;K CZ DZ EZ IN FZ GZ aG HZ IZ d& JZ KZ 9v LZ UT X| }[ I2 MZ NZ BK z: V5 u8 RJ l; /= -- G, h+ C% J> @G MF OZ PZ QZ RZ SZ TZ UZ VZ ZY WZ XZ /v q5 YZ ZZ ",
"p' S( `Z  ` .` +` b@ @` ). ;  L+ ^; e- ;K #` $` %` (N fm ![ &` j% *` =` -` ;` NE u  >` ,` z_ '` M' )`  t !8 f/ 4I Yn BK Re V~ WB j+ b% ,k Wb UY !` Ji ~` XY U! 51 {` ]` ^` G0 2Y /` qj HB (` _` :` pD :@ ,u <` HC [` }` {= N+ -  M+ L+ i; <^ Ej |` 1` 2` ^# 3` 4` 5` 6` 7` Vz .N @{ 8` Q4 9` s  `9 d6 0` TH a` PE IF b` K> O@ m; X& N@ ]> c` d` e` f` g` h` i` j` k` l` W= ka m% 2# P# w& m` n` ",
"KR == 4d Q, c( qQ 2| KL B% y- ]> F; n> ic o` p` q` Ji r` s` [] @) t` hM ;^ O$ =' u` v` It lq w` x` y` z` A` O6 o4 B` +o Wf gc j+ ;~ I> C` D` KK ]| E` @) F` WQ KV G` H` -T I` J` 0{ AA K` ]i V{ <+  N o~ w> L` M` N` O` P` Wi h. 9- )# L! Q` &m zG R` wl S` =U aT M0 T` U` V` e@ Xg B7 W` X` Y` Z` `` ;9 Y:   .DK 6~ . .d- x- ;$ O@ C) + .@ .# .$ .% .& .* .= .- .; .Ye #z > ., .' .5g '8 *$ Xm ",
"EM +z    R, In ) .fv 6D ,. S* h; y- f- (0 ! .~ .{ .] .=7 +K ^ ./ .( ./N |y _ .: .< .LR gD u} [ .} .| .1 .ke $@ 2 .3 .4 .5 .6 .7 .>( 8 .9 .7% g: W  y' 0 .y; C^ FU v~ wD RN a .Yx b .Cz '# c .d .e .n# o~ f .g .L` h .i .j .k ..1 l .0+ m .n .b= o .fd p .>_ B2 q .r .s .YV t .u .qN Wa h  v .3o #+ w .MY @q x .y ._M z .i+ A% A% C- ]> b% TS A .B .C .tT &^ 58 ,2 hM D .E .n$ F .>8 7+ dk v] r8 ",
"Ft >= G .H .I .J .f/ !W M> ;  j; !. )# 22 1X K .L .M .-7 N .O .OK P .Q .g& Na =9 v& w7 R .q~ S .T .K| `z )* _f A5 MW U .Hp V .`L |r W .X .Y .Z .-q ` .AK 0p mu  ..n- ...+..@..r@ P9 #..'v $..%..R/ 7. !^ ]V &..Y> k, 8m 4R .0 )= jA z` *..=..-..{q ;..>..<v ,..'..)..>X !..~..X| 5u qy {..H[ :P ]m In ]..xp ^..@- /..(..O@ ).  ] k; m; (> Zf _..:..<..[..(- }..#l 4j |..1..O] 2..,x qy 3..4..5..",
"6..Q% 7..D} 8..9..0..A/ A% ;$ a..l' G> b..&U c..h$ d..e..f..g..v! V! h..Ry F8 m3 X8 `# 15 xp i..j..k..ct ={ l..NS *s m..n..o..p..aV If q..r..s..t..u..GM {1 v..z: w..x..8m y..z..u` '{ 7# A.._, 9# B..j! VC U3 C..]0 g} `9 yc D..P~ E..;u F..G..H..I..J..K..'o a/ bC li e| |s tr g) Cr L..E@ M..N..O..P..Q..R..d( j5 S..p, N+ X& ]) _= >d T..b3 U..V..W..Ql =< X..}. W@ j3 Y..#| o> M~ ID fi Z..",
"`..BZ  +.>* D< .+.:R ++.^> M+ h; L+ N] WE @+.3O #+.q: Q .^Y $+.%+.&+.@b *+.=+.h7 ', .0 -+.;+.$v >+.,+.'+.)+.iG tO !+.~+.{+.bX ]+.^+.F] /+.(+._+.:+.<+.[+.0[ }+.mq -# |I |+.oH 1+.I6 2+.67 Ns iP tr 3+.4+.5+.6+.HI +U 7+.1e  v '; hP 8+.9+.0+.a+.b+.c+.d+.sO 4o e+.f+.g+.h+.i+.D4 j+.k+.S, 3~ Z{ 3d l+.m+.ZM n+.JC $$ ,` h. L+ J> M] '$ (> M! $R c3 o+.p+.q+.Ld [( r+.s+.jy t+.u+.)C -N =v  s v+.",
"w+.%q z6 ht 9_ O9 am // ]> ;  Xk h. 0- (> XE <: x+.y+.1> fV eI z+.#N A+.B+.+] C+.IB LR  % D+.E+.F+.TM G+.Yl H+.QK I+.J+.K+.L+.Q..X^ 5[ M+.N+.O+.P+.Q+.R+.S+.&s 0O 9| T+.U+.;# w  V+.W+.v; P, X+.Y+.Z+.`+.[D w; &F 9= ck D/ u~  @.!{ Ei h/ .@.wh +@.@@.{Q ,o #@.h} $@. 7 %@.&@.*@.@u =@.'o J! -@.g< ;@.^V ]~ !^ >@.,@.'@.o! k+ F; ,. h+ a3 ~} )@.W[ |_ !@.~@.{@.4j ]@.^@.N/ ,< gx /@.R$ J& 'v (@.",
"g/ _@.#] :@.T> <@.e> ]_ Cd :8 M+ L+ a$ ,  V' [@.}@.%8 |@.1@.2@.3@.4@.5@.6@.b9 Cz [+ B} @F 7@.gN j| !i  A -K Ip p7 Zo z; &s mu =t '8 8@.`5 9@.f, %J GW nN yB 5D s6 tn 0@.>u f, E  a@.b@.8) <! RB c@.fe /_ d@.<~ e@.f@.'4 g@.8# DK h@.,Y i@.j@.r] k@.l@.m@.%= /f n@.o@.p@.q| q@.RL r@.1L S  s@.t@.u@.j  ge %  _n h7 sF !! (C k+ B- L+ G> ic lF v@.Ue w@.x@.te y@.z@.A@.S: fA B@.h8 C@.6w D@.E@.F@.",
"G@.Nr H@.`M I@.RJ Fv )> h; +i M+ V- ]> O@ J@.K@.L@.e~ M@.N@.@( O@.P@.Q@.R@.S@.T@.6= /^ OJ 3~ SL `4 U@.|D '* 33 4| V@.7m )) B> Xt W@.;o wD X@.J5 Ip Y@.x| Rr Z@.Is `@. #..#.X| :% @] ,+ +#.@#.s% ##.0= $#.a@.F_ %#.&#.Z5 md 0B v| *#.$p `z =#.OD -#.xd ;#.@r >#.bm ,#.'#.)#.!#.rp Sd ~#.In %$ :Y Wm t} {#.Ah -u @{ f' o0 [, X& C-  ] h+ _8 G/ 5G Ch 0U ]#.^#./#.(#._#.:#.<#.[#..@ My ]% r6 ;| }#.",
"|#.1#.2#.3#.4#.DN Fo 5#.a- ]> b) )# a$ )$ )j 6#.(9 qY 7#.8#.9#.0#.a#.b#.c#.d#.Y..,y )] *r [d e#.f#.at 9n g#.h#.wP i#.j#.k#.kD $[ l#.m#.!4 %. e/ n#.o#.o .9m eG p#.uk [6 q#.ih Kv I6 .+.7m r#.s#.YK YP -w ,@ t#.u#.v#.uQ w#.x#.k+. 6 @n >o Ox y#.!8 y# z#.uS :& A#.B#.C#.D#.E#.2P F#.It G#.H#.I#.J#.SG =a K#.Un VI  w n~ i; }f '$ p, i; n! /) L#.h$ M#.N#.{6 bd O#.<g Fh P#.WW !y b9 dP Q#.=] T4 "};
