/* XPM */
static char * color_background_56_xpm[] = {
"32 32 2 1",
" 	c #9A8DEF",
".	c #B39EF9",
"                                ",
".......   .............   ......",
"........ ............... .......",
"........ ............... .......",
"........ ............... .......",
"........ ............... .......",
"........ ............... .......",
".......   .............   ......",
"                                ",
"  .............   ............. ",
" ............... ...............",
" ............... ...............",
" ............... ...............",
" ............... ...............",
" ............... ...............",
"  .............   ............. ",
"                                ",
".......   .............   ......",
"........ ............... .......",
"........ ............... .......",
"........ ............... .......",
"........ ............... .......",
"........ ............... .......",
".......   .............   ......",
"                                ",
"  .............   ............. ",
" ............... ...............",
" ............... ...............",
" ............... ...............",
" ............... ...............",
" ............... ...............",
"  .............   ............. "};
