/* XPM */
static char * 4_128_xpm[] = {
"128 128 8647 3",
"   	c #ACB5AF",
".  	c #B4BCB7",
"+  	c #BCC2C0",
"@  	c #AEB6B1",
"#  	c #AFAEA3",
"$  	c #9E978A",
"%  	c #B79933",
"&  	c #9F7F36",
"*  	c #987B32",
"=  	c #A48830",
"-  	c #AE9233",
";  	c #706551",
">  	c #55594C",
",  	c #84682C",
"'  	c #8C8269",
")  	c #867F72",
"!  	c #C0C6C3",
"~  	c #B0B8B4",
"{  	c #B6BCB9",
"]  	c #C1C6C4",
"^  	c #B2B9B5",
"/  	c #B3BAB7",
"(  	c #BAC2BC",
"_  	c #D0D2D3",
":  	c #A8A18F",
"<  	c #928B7D",
"[  	c #908F86",
"}  	c #787164",
"|  	c #CED2D2",
"1  	c #9C9384",
"2  	c #A1988A",
"3  	c #9E9687",
"4  	c #9D968A",
"5  	c #857236",
"6  	c #98854F",
"7  	c #8A7A46",
"8  	c #8F8153",
"9  	c #9F926F",
"0  	c #9E8131",
"a  	c #706D62",
"b  	c #725B44",
"c  	c #9C822C",
"d  	c #9E842D",
"e  	c #8F782B",
"f  	c #9A9385",
"g  	c #70695E",
"h  	c #C5CAC9",
"i  	c #C1C6C5",
"j  	c #C5C9C7",
"k  	c #C4C8C6",
"l  	c #C6CAC8",
"m  	c #C8CBCB",
"n  	c #BFC5C1",
"o  	c #C2C8C5",
"p  	c #C6CBC9",
"q  	c #CCCFD0",
"r  	c #BEC3C1",
"s  	c #C2C7C5",
"t  	c #C6CACA",
"u  	c #C4C9C7",
"v  	c #BDC4BF",
"w  	c #BDC3C1",
"x  	c #C3C8C6",
"y  	c #C8CCCA",
"z  	c #C6CBC8",
"A  	c #C4CDCA",
"B  	c #A89B7C",
"C  	c #B1A27C",
"D  	c #967D29",
"E  	c #A3862F",
"F  	c #9E7B3A",
"G  	c #765B38",
"H  	c #775D2B",
"I  	c #897B51",
"J  	c #7D776A",
"K  	c #CACFCC",
"L  	c #B7BFB8",
"M  	c #C7CCCA",
"N  	c #B1B8B4",
"O  	c #BEC5C1",
"P  	c #CED1D1",
"Q  	c #ACB3AF",
"R  	c #BAC0BE",
"S  	c #B0B8B3",
"T  	c #B1B6B5",
"U  	c #A8AFAC",
"V  	c #B0B6B4",
"W  	c #9DA8A0",
"X  	c #ACB4B0",
"Y  	c #94968C",
"Z  	c #B4BCBA",
"`  	c #A69D8D",
" . 	c #A49C8C",
".. 	c #777164",
"+. 	c #817E75",
"@. 	c #ABB2AF",
"#. 	c #B3B9B7",
"$. 	c #AFB7B3",
"%. 	c #A6B0AA",
"&. 	c #B5B9B9",
"*. 	c #B0B7B4",
"=. 	c #A9ACAB",
"-. 	c #ABB3AF",
";. 	c #9B9384",
">. 	c #9A9283",
",. 	c #998855",
"'. 	c #B09540",
"). 	c #B09332",
"!. 	c #A2882F",
"~. 	c #786423",
"{. 	c #887844",
"]. 	c #96875C",
"^. 	c #908461",
"/. 	c #787266",
"(. 	c #BCC1BF",
"_. 	c #B7BCBB",
":. 	c #A9B3AC",
"<. 	c #B8BFBA",
"[. 	c #BCC2BE",
"}. 	c #B9BFBD",
"|. 	c #B0A795",
"1. 	c #B2AB9A",
"2. 	c #9D8A4A",
"3. 	c #BA9C35",
"4. 	c #AA8C34",
"5. 	c #9E8132",
"6. 	c #906E37",
"7. 	c #846B4F",
"8. 	c #716F60",
"9. 	c #655848",
"0. 	c #73611F",
"a. 	c #7D6927",
"b. 	c #6D675C",
"c. 	c #B5BBB8",
"d. 	c #B0B7B3",
"e. 	c #BBC0BE",
"f. 	c #ADB6AF",
"g. 	c #BAC0BD",
"h. 	c #B8BFBB",
"i. 	c #B6BEBA",
"j. 	c #8B8375",
"k. 	c #938C7F",
"l. 	c #948D7F",
"m. 	c #9F978A",
"n. 	c #9F9789",
"o. 	c #A9A191",
"p. 	c #968B6C",
"q. 	c #A48D44",
"r. 	c #987D2F",
"s. 	c #766027",
"t. 	c #8E7727",
"u. 	c #8A7429",
"v. 	c #A08738",
"w. 	c #A4882F",
"x. 	c #866733",
"y. 	c #9D832A",
"z. 	c #997F27",
"A. 	c #907B35",
"B. 	c #968F83",
"C. 	c #BDC5C0",
"D. 	c #C6CAC9",
"E. 	c #BAC2BD",
"F. 	c #B9C0BB",
"G. 	c #CBCDCE",
"H. 	c #C2C7C4",
"I. 	c #C6CBCA",
"J. 	c #B8C0BA",
"K. 	c #BBC2BE",
"L. 	c #BFC5C3",
"M. 	c #B8C0BB",
"N. 	c #BCC3BF",
"O. 	c #BDC4C0",
"P. 	c #C7CBCB",
"Q. 	c #C9CDCC",
"R. 	c #BFC6C2",
"S. 	c #C3C8C5",
"T. 	c #C1C7C4",
"U. 	c #CCD0D0",
"V. 	c #AFB0A8",
"W. 	c #857E6F",
"X. 	c #A29B8B",
"Y. 	c #AFA385",
"Z. 	c #A39464",
"`. 	c #A78B2F",
" + 	c #A58734",
".+ 	c #886E2C",
"++ 	c #917F48",
"@+ 	c #686359",
"#+ 	c #ADB5B0",
"$+ 	c #B5BEB8",
"%+ 	c #A6AFA8",
"&+ 	c #D2D5D4",
"*+ 	c #B5BAB9",
"=+ 	c #BFC2C5",
"-+ 	c #B2B8B5",
";+ 	c #A8B0AB",
">+ 	c #B1B9B4",
",+ 	c #BABEBD",
"'+ 	c #AFB5B3",
")+ 	c #AAB3AD",
"!+ 	c #9C9586",
"~+ 	c #928A73",
"{+ 	c #8E8779",
"]+ 	c #A59D8E",
"^+ 	c #9D9686",
"/+ 	c #736D62",
"(+ 	c #B1B9B6",
"_+ 	c #B4BAB8",
":+ 	c #A9B1AD",
"<+ 	c #AEB6B2",
"[+ 	c #B0B7B5",
"}+ 	c #9B9588",
"|+ 	c #797468",
"1+ 	c #A4AFA9",
"2+ 	c #AAAAA2",
"3+ 	c #B5AD9C",
"4+ 	c #9F842A",
"5+ 	c #826D25",
"6+ 	c #A48833",
"7+ 	c #7C6130",
"8+ 	c #7A5F2F",
"9+ 	c #7A5C31",
"0+ 	c #8E742D",
"a+ 	c #836B28",
"b+ 	c #857C62",
"c+ 	c #8A8B83",
"d+ 	c #BAC3BE",
"e+ 	c #847D71",
"f+ 	c #C5CACA",
"g+ 	c #B8BFBC",
"h+ 	c #B3BEB8",
"i+ 	c #948B7D",
"j+ 	c #A29B8C",
"k+ 	c #8F825F",
"l+ 	c #977E2A",
"m+ 	c #B19843",
"n+ 	c #907033",
"o+ 	c #827D70",
"p+ 	c #828C86",
"q+ 	c #9B7626",
"r+ 	c #717872",
"s+ 	c #7A5C36",
"t+ 	c #8C7528",
"u+ 	c #897F63",
"v+ 	c #828078",
"w+ 	c #A4AEA8",
"x+ 	c #B2B9B6",
"y+ 	c #B2BAB5",
"z+ 	c #BDC2C0",
"A+ 	c #B4BBB7",
"B+ 	c #C4CAC6",
"C+ 	c #BBC1C0",
"D+ 	c #B0A896",
"E+ 	c #7D7561",
"F+ 	c #9A8646",
"G+ 	c #8B7C50",
"H+ 	c #96813E",
"I+ 	c #987F2B",
"J+ 	c #997F2C",
"K+ 	c #A68A2F",
"L+ 	c #987C30",
"M+ 	c #977E2B",
"N+ 	c #8D8265",
"O+ 	c #C4BBAA",
"P+ 	c #9C9174",
"Q+ 	c #ABA086",
"R+ 	c #9D9587",
"S+ 	c #BBC4BE",
"T+ 	c #C3C9C8",
"U+ 	c #C4CAC7",
"V+ 	c #ABB5AE",
"W+ 	c #BDC3C0",
"X+ 	c #C0C4C3",
"Y+ 	c #BEC4C1",
"Z+ 	c #BAC1BD",
"`+ 	c #BEC4C0",
" @ 	c #B7BFB9",
".@ 	c #BEC4BF",
"+@ 	c #C9CCCC",
"@@ 	c #C4C8C8",
"#@ 	c #B9C2BB",
"$@ 	c #C7CBCA",
"%@ 	c #CED2D3",
"&@ 	c #B6AD9E",
"*@ 	c #92845C",
"=@ 	c #8F7C3F",
"-@ 	c #9F852D",
";@ 	c #988548",
">@ 	c #948A71",
",@ 	c #7C786E",
"'@ 	c #9AA49D",
")@ 	c #B2B8B6",
"!@ 	c #B9BFBC",
"~@ 	c #C4C7C7",
"{@ 	c #ACB4AF",
"]@ 	c #A6AEA9",
"^@ 	c #ACB3B1",
"/@ 	c #C5CBC8",
"(@ 	c #B3B7B8",
"_@ 	c #B6BDB8",
":@ 	c #AFB6B3",
"<@ 	c #ADAA9E",
"[@ 	c #786A3F",
"}@ 	c #968B70",
"|@ 	c #847238",
"1@ 	c #887949",
"2@ 	c #90897C",
"3@ 	c #8F8E86",
"4@ 	c #ADB4B1",
"5@ 	c #B2B7B6",
"6@ 	c #A9B0AC",
"7@ 	c #8D8679",
"8@ 	c #9C9485",
"9@ 	c #817556",
"0@ 	c #A8A091",
"a@ 	c #9C8334",
"b@ 	c #9E822F",
"c@ 	c #917530",
"d@ 	c #A08431",
"e@ 	c #83633D",
"f@ 	c #493F2E",
"g@ 	c #1F231B",
"h@ 	c #3C3F39",
"i@ 	c #53402A",
"j@ 	c #664E27",
"k@ 	c #796420",
"l@ 	c #867B5B",
"m@ 	c #91897A",
"n@ 	c #90887B",
"o@ 	c #989183",
"p@ 	c #85764C",
"q@ 	c #8A7A45",
"r@ 	c #83733D",
"s@ 	c #AAA087",
"t@ 	c #AB9A67",
"u@ 	c #A68C39",
"v@ 	c #967E2C",
"w@ 	c #836647",
"x@ 	c #918778",
"y@ 	c #877869",
"z@ 	c #755B3F",
"A@ 	c #6A502D",
"B@ 	c #9B812B",
"C@ 	c #8A7C54",
"D@ 	c #797367",
"E@ 	c #94948C",
"F@ 	c #B4BBB8",
"G@ 	c #BBC0BF",
"H@ 	c #B9BEBC",
"I@ 	c #B7BEBA",
"J@ 	c #B1B9B3",
"K@ 	c #C0C7C2",
"L@ 	c #BBC1BF",
"M@ 	c #9F9686",
"N@ 	c #948454",
"O@ 	c #957C2A",
"P@ 	c #A88F3E",
"Q@ 	c #977F2B",
"R@ 	c #8E7729",
"S@ 	c #A3882E",
"T@ 	c #A79661",
"U@ 	c #ABA18C",
"V@ 	c #A7A08F",
"W@ 	c #C6CCCA",
"X@ 	c #B8C1BA",
"Y@ 	c #C0C7C3",
"Z@ 	c #B5BCB8",
"`@ 	c #C4C8C7",
" # 	c #C5C9C9",
".# 	c #C3C7C6",
"+# 	c #C4C9C6",
"@# 	c #C2C8C4",
"## 	c #BBC2BD",
"$# 	c #BEC4C2",
"%# 	c #7C7468",
"&# 	c #93938A",
"*# 	c #C4CBC8",
"=# 	c #C5C9C8",
"-# 	c #BDC5BF",
";# 	c #CFD2D2",
"># 	c #C7CACA",
",# 	c #C0C6C2",
"'# 	c #BDC1BE",
")# 	c #989184",
"!# 	c #A08B48",
"~# 	c #A38B3F",
"{# 	c #A6966A",
"]# 	c #858074",
"^# 	c #8F897B",
"/# 	c #BFC7C5",
"(# 	c #BBC1BE",
"_# 	c #B7BDBC",
":# 	c #7E7C72",
"<# 	c #726B5E",
"[# 	c #B7BCBE",
"}# 	c #B4B9B9",
"|# 	c #ACB5B0",
"1# 	c #A2ABA6",
"2# 	c #A2AEA6",
"3# 	c #ABB3AE",
"4# 	c #B7BBBA",
"5# 	c #85847C",
"6# 	c #B6BCBD",
"7# 	c #B5BCB9",
"8# 	c #A29A8B",
"9# 	c #7C6823",
"0# 	c #7D6627",
"a# 	c #6A581A",
"b# 	c #A9ADA8",
"c# 	c #ACB3B0",
"d# 	c #B8BDBC",
"e# 	c #ADB5B2",
"f# 	c #ACADA4",
"g# 	c #A8A191",
"h# 	c #AAA292",
"i# 	c #9E9788",
"j# 	c #8E877A",
"k# 	c #948C7B",
"l# 	c #A6914A",
"m# 	c #8B6F31",
"n# 	c #785D2E",
"o# 	c #99773A",
"p# 	c #6A5A43",
"q# 	c #515349",
"r# 	c #B5972F",
"s# 	c #C1A133",
"t# 	c #665F56",
"u# 	c #575D59",
"v# 	c #65513B",
"w# 	c #786420",
"x# 	c #B6AD9C",
"y# 	c #979082",
"z# 	c #9E8535",
"A# 	c #8C7628",
"B# 	c #9D8132",
"C# 	c #887129",
"D# 	c #7B6721",
"E# 	c #877C5B",
"F# 	c #A18F5C",
"G# 	c #9D842C",
"H# 	c #896C33",
"I# 	c #9F7E38",
"J# 	c #B89839",
"K# 	c #AF9232",
"L# 	c #867129",
"M# 	c #9C9589",
"N# 	c #BEB5A3",
"O# 	c #9F9888",
"P# 	c #7C766A",
"Q# 	c #7C766B",
"R# 	c #C2C8C6",
"S# 	c #B6BFB8",
"T# 	c #C8CDCB",
"U# 	c #BFC2C2",
"V# 	c #C7CBC9",
"W# 	c #ACAFA6",
"X# 	c #A9A194",
"Y# 	c #A0883B",
"Z# 	c #998750",
"`# 	c #968451",
" $ 	c #AC923B",
".$ 	c #B29633",
"+$ 	c #AA8E30",
"@$ 	c #8B762F",
"#$ 	c #928565",
"$$ 	c #8D8578",
"%$ 	c #BAC1BE",
"&$ 	c #C2C8C3",
"*$ 	c #B7BFBA",
"=$ 	c #BBC2BC",
"-$ 	c #C2C6C5",
";$ 	c #C3C9C6",
">$ 	c #B6BEB8",
",$ 	c #C0C5C3",
"'$ 	c #C2C7C6",
")$ 	c #C6C9C9",
"!$ 	c #9F9584",
"~$ 	c #6C665C",
"{$ 	c #888275",
"]$ 	c #8F887A",
"^$ 	c #939086",
"/$ 	c #C9CBCC",
"($ 	c #C8CCCB",
"_$ 	c #C5CAC7",
":$ 	c #C1C7C3",
"<$ 	c #C8CCCC",
"[$ 	c #B9C1BC",
"}$ 	c #CCCFCE",
"|$ 	c #CAD1D0",
"1$ 	c #AA9C72",
"2$ 	c #94834F",
"3$ 	c #918252",
"4$ 	c #948D80",
"5$ 	c #A49D8D",
"6$ 	c #9A917A",
"7$ 	c #827C6F",
"8$ 	c #837C6F",
"9$ 	c #B3B6B3",
"0$ 	c #999283",
"a$ 	c #897D59",
"b$ 	c #887D5B",
"c$ 	c #81796C",
"d$ 	c #BABFBD",
"e$ 	c #A7AFAA",
"f$ 	c #AAB2AC",
"g$ 	c #B1B7B4",
"h$ 	c #AEB6B3",
"i$ 	c #958D7F",
"j$ 	c #A3987A",
"k$ 	c #887C59",
"l$ 	c #A1ADA5",
"m$ 	c #ABA293",
"n$ 	c #A1852C",
"o$ 	c #977C2F",
"p$ 	c #8F8464",
"q$ 	c #A2ACA7",
"r$ 	c #ADB3B0",
"s$ 	c #BBC1BD",
"t$ 	c #B8BCBC",
"u$ 	c #978F7E",
"v$ 	c #948D7E",
"w$ 	c #918A7C",
"x$ 	c #B4AC9A",
"y$ 	c #A59D8D",
"z$ 	c #B3AA9A",
"A$ 	c #A98D2D",
"B$ 	c #98743C",
"C$ 	c #705735",
"D$ 	c #81684B",
"E$ 	c #6B6453",
"F$ 	c #63645C",
"G$ 	c #5F4F3B",
"H$ 	c #61594D",
"I$ 	c #595C57",
"J$ 	c #52544D",
"K$ 	c #565C54",
"L$ 	c #866F22",
"M$ 	c #A9A294",
"N$ 	c #ACA38F",
"O$ 	c #856E24",
"P$ 	c #B59734",
"Q$ 	c #917532",
"R$ 	c #785D2F",
"S$ 	c #917B30",
"T$ 	c #947F40",
"U$ 	c #AA934A",
"V$ 	c #816B27",
"W$ 	c #A48A2F",
"X$ 	c #A18939",
"Y$ 	c #9A9388",
"Z$ 	c #C0B6A3",
"`$ 	c #979083",
" % 	c #A19A8B",
".% 	c #857C67",
"+% 	c #807A6E",
"@% 	c #B8C1BB",
"#% 	c #BDC1C0",
"$% 	c #9DA7A0",
"%% 	c #B9C0BC",
"&% 	c #C0C3C4",
"*% 	c #C8CFCD",
"=% 	c #A0998C",
"-% 	c #9D8945",
";% 	c #968A69",
">% 	c #928767",
",% 	c #997F2F",
"'% 	c #8E7034",
")% 	c #947830",
"!% 	c #8D7A40",
"~% 	c #8C7E53",
"{% 	c #847D70",
"]% 	c #C9CDCB",
"^% 	c #BEC5C0",
"/% 	c #CDCFD1",
"(% 	c #C1C6C2",
"_% 	c #CACDCE",
":% 	c #C1C8C4",
"<% 	c #B2BBB5",
"[% 	c #C5CAC8",
"}% 	c #C9CCCD",
"|% 	c #B7B5AE",
"1% 	c #C4CAC9",
"2% 	c #A5A8A4",
"3% 	c #D0D1D4",
"4% 	c #C8CBCD",
"5% 	c #A39A89",
"6% 	c #907D44",
"7% 	c #806A20",
"8% 	c #A0998B",
"9% 	c #AAA392",
"0% 	c #A89E86",
"a% 	c #81723E",
"b% 	c #91866B",
"c% 	c #9A9284",
"d% 	c #A69D8E",
"e% 	c #938B7D",
"f% 	c #AFB6B4",
"g% 	c #AFB5B2",
"h% 	c #A9B1AC",
"i% 	c #AAB1AE",
"j% 	c #999182",
"k% 	c #918151",
"l% 	c #7D7048",
"m% 	c #6F6A60",
"n% 	c #B1AB9D",
"o% 	c #B1A68B",
"p% 	c #9E8F65",
"q% 	c #A2967B",
"r% 	c #8E8A80",
"s% 	c #B0B6B5",
"t% 	c #B1B8B3",
"u% 	c #B7BCBA",
"v% 	c #B3B8B8",
"w% 	c #BCC0BF",
"x% 	c #B3B9B8",
"y% 	c #9A9282",
"z% 	c #A8A8A0",
"A% 	c #BBB2A0",
"B% 	c #9F9475",
"C% 	c #9E8034",
"D% 	c #806237",
"E% 	c #6B5942",
"F% 	c #545950",
"G% 	c #AD8C31",
"H% 	c #A5872E",
"I% 	c #A78B2A",
"J% 	c #75583B",
"K% 	c #856440",
"L% 	c #675B4C",
"M% 	c #7E6820",
"N% 	c #9E8A4F",
"O% 	c #897226",
"P% 	c #9C8030",
"Q% 	c #AF9332",
"R% 	c #AA8E31",
"S% 	c #A4892D",
"T% 	c #A28D4A",
"U% 	c #A09062",
"V% 	c #A98E36",
"W% 	c #8B6E2F",
"X% 	c #69533C",
"Y% 	c #998B61",
"Z% 	c #8B8477",
"`% 	c #9CA299",
" & 	c #BDC4C4",
".& 	c #AA9D79",
"+& 	c #917E41",
"@& 	c #968969",
"#& 	c #8D8A83",
"$& 	c #A5AEA9",
"%& 	c #C2C6C6",
"&& 	c #BFC4C2",
"*& 	c #A6AFAB",
"=& 	c #B9BEBE",
"-& 	c #BCC1C1",
";& 	c #918A7D",
">& 	c #A19578",
",& 	c #AA9F84",
"'& 	c #9F998D",
")& 	c #AC9137",
"!& 	c #AE9131",
"~& 	c #967E2B",
"{& 	c #897637",
"]& 	c #8A7E5F",
"^& 	c #807B6E",
"/& 	c #C9CECC",
"(& 	c #B7BCB9",
"_& 	c #BEC3C0",
":& 	c #BFC4C1",
"<& 	c #BCC0BE",
"[& 	c #BCC2BF",
"}& 	c #B7C0BA",
"|& 	c #BBC4BF",
"1& 	c #BFC6C1",
"2& 	c #BFC5C2",
"3& 	c #9C9588",
"4& 	c #AC9758",
"5& 	c #967E29",
"6& 	c #9B927F",
"7& 	c #9F9065",
"8& 	c #7A6522",
"9& 	c #7E6922",
"0& 	c #9D9581",
"a& 	c #888175",
"b& 	c #A9ADA7",
"c& 	c #9EA8A2",
"d& 	c #8F877A",
"e& 	c #A1A7A2",
"f& 	c #9DA79F",
"g& 	c #A3ADA6",
"h& 	c #A9B2AD",
"i& 	c #BFB6A3",
"j& 	c #ABA081",
"k& 	c #9F842D",
"l& 	c #8D7834",
"m& 	c #B1A999",
"n& 	c #968758",
"o& 	c #7E766A",
"p& 	c #A8B1AB",
"q& 	c #B2B8B4",
"r& 	c #B0B3B4",
"s& 	c #A8B1AC",
"t& 	c #B4BAB7",
"u& 	c #A8B0AC",
"v& 	c #A1ABA3",
"w& 	c #ADA594",
"x& 	c #9C9587",
"y& 	c #A28B41",
"z& 	c #937633",
"A& 	c #7C6247",
"B& 	c #6A523C",
"C& 	c #948D84",
"D& 	c #BFC6C6",
"E& 	c #BDC5C3",
"F& 	c #BAC1C1",
"G& 	c #B29227",
"H& 	c #746859",
"I& 	c #A1862E",
"J& 	c #836532",
"K& 	c #88702B",
"L& 	c #AB8F30",
"M& 	c #9F9373",
"N& 	c #A79F8D",
"O& 	c #ADA493",
"P& 	c #A18531",
"Q& 	c #937533",
"R& 	c #6A533B",
"S& 	c #937B2A",
"T& 	c #B7BEBC",
"U& 	c #A1ABA5",
"V& 	c #B6BEBC",
"W& 	c #908A7D",
"X& 	c #AA9865",
"Y& 	c #957B26",
"Z& 	c #A09786",
"`& 	c #92948E",
" * 	c #ADB3B1",
".* 	c #C4CAC5",
"+* 	c #B8BEBC",
"@* 	c #CACDCC",
"#* 	c #BCC3C0",
"$* 	c #989182",
"%* 	c #A9A192",
"&* 	c #A08B4A",
"** 	c #967D2B",
"=* 	c #A5966C",
"-* 	c #B8AF9E",
";* 	c #A59566",
">* 	c #B19432",
",* 	c #A78B30",
"'* 	c #90804E",
")* 	c #9B9072",
"!* 	c #7E786B",
"~* 	c #C7CACB",
"{* 	c #CBCFCE",
"]* 	c #BCC4BF",
"^* 	c #C1C7C5",
"/* 	c #B5BCB6",
"(* 	c #B9C2BC",
"_* 	c #726D60",
":* 	c #B9C1BB",
"<* 	c #ADA28B",
"[* 	c #87763E",
"}* 	c #9B9381",
"|* 	c #999183",
"1* 	c #A59C8D",
"2* 	c #AEA388",
"3* 	c #A88C30",
"4* 	c #8B7426",
"5* 	c #807038",
"6* 	c #888174",
"7* 	c #9EAAA1",
"8* 	c #A8AFAD",
"9* 	c #99A199",
"0* 	c #A5ADA8",
"a* 	c #A6AEAA",
"b* 	c #9BA59E",
"c* 	c #ACB1AA",
"d* 	c #A1998A",
"e* 	c #A29570",
"f* 	c #A78C30",
"g* 	c #8C793D",
"h* 	c #B8AF9D",
"i* 	c #B2AD9F",
"j* 	c #9F9788",
"k* 	c #A7ADA6",
"l* 	c #BDC2BF",
"m* 	c #BBBEBF",
"n* 	c #ABB4AE",
"o* 	c #9A9B93",
"p* 	c #B3BABA",
"q* 	c #B2AA99",
"r* 	c #B0A794",
"s* 	c #A08527",
"t* 	c #907827",
"u* 	c #8C6A33",
"v* 	c #967829",
"w* 	c #B2BCBC",
"x* 	c #705E47",
"y* 	c #95792E",
"z* 	c #B19332",
"A* 	c #9A812C",
"B* 	c #987934",
"C* 	c #876B30",
"D* 	c #8D7526",
"E* 	c #91845D",
"F* 	c #968E81",
"G* 	c #B3AB9A",
"H* 	c #A89043",
"I* 	c #927C34",
"J* 	c #A9934F",
"K* 	c #989185",
"L* 	c #A1A099",
"M* 	c #C6CCC9",
"N* 	c #B6BDBC",
"O* 	c #A9A08F",
"P* 	c #BCB3A1",
"Q* 	c #B5AC9C",
"R* 	c #948B74",
"S* 	c #C7CCCB",
"T* 	c #BDC1C1",
"U* 	c #B6BDB9",
"V* 	c #BFC4C3",
"W* 	c #C9CDCF",
"X* 	c #7E7046",
"Y* 	c #8F772A",
"Z* 	c #9A8029",
"`* 	c #B2A895",
" = 	c #847D6F",
".= 	c #9D9688",
"+= 	c #9D8A4E",
"@= 	c #8D7527",
"#= 	c #9B822C",
"$= 	c #85743B",
"%= 	c #8E887B",
"&= 	c #C3CBC7",
"*= 	c #CFD1D1",
"== 	c #ABB5AC",
"-= 	c #CDD1D0",
";= 	c #B7BEB9",
">= 	c #B4BCB6",
",= 	c #B7BEB8",
"'= 	c #BDC3BF",
")= 	c #CBCDCF",
"!= 	c #C6C9CA",
"~= 	c #BCC3BE",
"{= 	c #C8CBCA",
"]= 	c #ABA292",
"^= 	c #98864D",
"/= 	c #A69C8A",
"(= 	c #C3BAA9",
"_= 	c #9D9068",
":= 	c #9D822C",
"<= 	c #B4983A",
"[= 	c #92886E",
"}= 	c #AAA191",
"|= 	c #989891",
"1= 	c #827B6F",
"2= 	c #6F695D",
"3= 	c #B1B6B6",
"4= 	c #9FA8A1",
"5= 	c #A5AEAA",
"6= 	c #BAB09E",
"7= 	c #9A8644",
"8= 	c #957C29",
"9= 	c #A3882F",
"0= 	c #897327",
"a= 	c #978961",
"b= 	c #B3AC9D",
"c= 	c #8A7C52",
"d= 	c #9C937D",
"e= 	c #7A7366",
"f= 	c #AFB7B1",
"g= 	c #BBBEC1",
"h= 	c #ABA496",
"i= 	c #A49A80",
"j= 	c #A79972",
"k= 	c #AB8F2F",
"l= 	c #6A726D",
"m= 	c #817653",
"n= 	c #C4CBCA",
"o= 	c #BBC2C2",
"p= 	c #BFC5C4",
"q= 	c #8D692A",
"r= 	c #858A88",
"s= 	c #664E32",
"t= 	c #9F9376",
"u= 	c #A0926B",
"v= 	c #B59732",
"w= 	c #947A2C",
"x= 	c #91792A",
"y= 	c #847545",
"z= 	c #938C7D",
"A= 	c #968F81",
"B= 	c #988D6B",
"C= 	c #CBC2B1",
"D= 	c #98907D",
"E= 	c #8D8678",
"F= 	c #B9C0BD",
"G= 	c #969D96",
"H= 	c #A69E8D",
"I= 	c #ACB0A9",
"J= 	c #A9B2AE",
"K= 	c #BCC1C0",
"L= 	c #A3A7A2",
"M= 	c #AAB3AF",
"N= 	c #A7B0AA",
"O= 	c #B7BDBB",
"P= 	c #A7AFA9",
"Q= 	c #B8BFB9",
"R= 	c #BAB2A0",
"S= 	c #937A26",
"T= 	c #A68D38",
"U= 	c #A58A32",
"V= 	c #98833D",
"W= 	c #A2967C",
"X= 	c #978A62",
"Y= 	c #A69E90",
"Z= 	c #9E8C57",
"`= 	c #A2956E",
" - 	c #96834A",
".- 	c #8B7325",
"+- 	c #98895D",
"@- 	c #95896A",
"#- 	c #8A8478",
"$- 	c #77746A",
"%- 	c #CBD0CF",
"&- 	c #D1D4D4",
"*- 	c #BAC0BC",
"=- 	c #CBCECF",
"-- 	c #C3C7C5",
";- 	c #BEC7C2",
">- 	c #929189",
",- 	c #746F64",
"'- 	c #CACECE",
")- 	c #93A096",
"!- 	c #C3CAC7",
"~- 	c #A29A88",
"{- 	c #8B7A41",
"]- 	c #99843C",
"^- 	c #AE943C",
"/- 	c #A48A38",
"(- 	c #8F8367",
"_- 	c #9F9787",
":- 	c #AFB5B5",
"<- 	c #98907F",
"[- 	c #807A6D",
"}- 	c #A4ADA8",
"|- 	c #AFB7B4",
"1- 	c #8E7725",
"2- 	c #82672C",
"3- 	c #836A2D",
"4- 	c #7E6131",
"5- 	c #7E632D",
"6- 	c #765C2D",
"7- 	c #8D722C",
"8- 	c #766221",
"9- 	c #908155",
"0- 	c #7F796D",
"a- 	c #9F9D92",
"b- 	c #ADB5B3",
"c- 	c #ABB3B1",
"d- 	c #A8AFAB",
"e- 	c #C3C5C6",
"f- 	c #B1AEA2",
"g- 	c #938C7E",
"h- 	c #A5A9A2",
"i- 	c #817B6F",
"j- 	c #8F8467",
"k- 	c #8C7524",
"l- 	c #937B29",
"m- 	c #75624B",
"n- 	c #79807C",
"o- 	c #957824",
"p- 	c #5F6A65",
"q- 	c #8A9392",
"r- 	c #7C8580",
"s- 	c #846649",
"t- 	c #AA8F31",
"u- 	c #A8A598",
"v- 	c #B5A267",
"w- 	c #8C7525",
"x- 	c #957C25",
"y- 	c #978E79",
"z- 	c #9F9889",
"A- 	c #C8BEAB",
"B- 	c #8A8377",
"C- 	c #A7A090",
"D- 	c #888173",
"E- 	c #949086",
"F- 	c #9DA09A",
"G- 	c #CACFCD",
"H- 	c #A3ACA6",
"I- 	c #ADB5B1",
"J- 	c #ACB5AE",
"K- 	c #A7B0AC",
"L- 	c #A29B8D",
"M- 	c #A18D4A",
"N- 	c #A28830",
"O- 	c #9D8A4B",
"P- 	c #968A6B",
"Q- 	c #B6AE9D",
"R- 	c #9B9176",
"S- 	c #8C7D54",
"T- 	c #9A8A56",
"U- 	c #928356",
"V- 	c #ADA185",
"W- 	c #C2B79C",
"X- 	c #A29056",
"Y- 	c #837031",
"Z- 	c #86733A",
"`- 	c #666259",
" ; 	c #80796C",
".; 	c #8C887C",
"+; 	c #CCCED0",
"@; 	c #C5C9C6",
"#; 	c #BBC2BF",
"$; 	c #8A8375",
"%; 	c #817A6E",
"&; 	c #7E786D",
"*; 	c #AAA290",
"=; 	c #80796D",
"-; 	c #756E62",
";; 	c #BAC1BC",
">; 	c #B3BBB6",
",; 	c #ADB7B1",
"'; 	c #9AA49E",
"); 	c #A6ADAA",
"!; 	c #8E7D4B",
"~; 	c #9C8032",
"{; 	c #997D32",
"]; 	c #A3882D",
"^; 	c #BCB3A3",
"/; 	c #818178",
"(; 	c #A9B0AD",
"_; 	c #ABB2B1",
":; 	c #797164",
"<; 	c #B3B8B7",
"[; 	c #9DA39B",
"}; 	c #8B867B",
"|; 	c #BFA034",
"1; 	c #3E3220",
"2; 	c #5B472E",
"3; 	c #54422B",
"4; 	c #24281F",
"5; 	c #2D352C",
"6; 	c #2C342A",
"7; 	c #5C4730",
"8; 	c #857025",
"9; 	c #7F7556",
"0; 	c #989082",
"a; 	c #8B8577",
"b; 	c #7D776D",
"c; 	c #78715F",
"d; 	c #B5BAB8",
"e; 	c #BCBFC1",
"f; 	c #B2A999",
"g; 	c #868073",
"h; 	c #9B9486",
"i; 	c #978A64",
"j; 	c #8D7628",
"k; 	c #8A6836",
"l; 	c #86663D",
"m; 	c #83725D",
"n; 	c #8B8F8A",
"o; 	c #797C74",
"p; 	c #9A7A31",
"q; 	c #7C5D2E",
"r; 	c #777263",
"s; 	c #856B2A",
"t; 	c #AAA08A",
"u; 	c #B6BDBB",
"v; 	c #AEB5B3",
"w; 	c #978E7E",
"x; 	c #958E7F",
"y; 	c #A5ADAB",
"z; 	c #A6A69C",
"A; 	c #A6AEAC",
"B; 	c #BABEBC",
"C; 	c #9B9485",
"D; 	c #81775C",
"E; 	c #C0C7C5",
"F; 	c #BCC2C1",
"G; 	c #9D9C92",
"H; 	c #A8A9A8",
"I; 	c #A5AFA9",
"J; 	c #99A59D",
"K; 	c #ACB3AE",
"L; 	c #AAB1AF",
"M; 	c #B6BDBA",
"N; 	c #A39A8A",
"O; 	c #A89D80",
"P; 	c #938766",
"Q; 	c #A8A8A3",
"R; 	c #ACB4B1",
"S; 	c #B1A795",
"T; 	c #A89E88",
"U; 	c #907829",
"V; 	c #7A6521",
"W; 	c #9E8C59",
"X; 	c #9E8E60",
"Y; 	c #998D6F",
"Z; 	c #7D6822",
"`; 	c #887847",
" > 	c #7E714C",
".> 	c #858278",
"+> 	c #676258",
"@> 	c #A7A59F",
"#> 	c #B0B9B1",
"$> 	c #C0C6C4",
"%> 	c #C1C8C6",
"&> 	c #C8CFCC",
"*> 	c #AAA9A3",
"=> 	c #90845D",
"-> 	c #73601D",
";> 	c #92845B",
">> 	c #B3AA9C",
",> 	c #84774E",
"'> 	c #777064",
")> 	c #ADAFA9",
"!> 	c #B4BCB8",
"~> 	c #B6BBBA",
"{> 	c #BDBEBE",
"]> 	c #9A9384",
"^> 	c #B89A35",
"/> 	c #927928",
"(> 	c #8D867A",
"_> 	c #857E72",
":> 	c #908A7E",
"<> 	c #BCC0C2",
"[> 	c #ADB2B1",
"}> 	c #AEB4B3",
"|> 	c #A4ACA8",
"1> 	c #B0B5B5",
"2> 	c #9FA8A3",
"3> 	c #B4B2AB",
"4> 	c #9A8B5F",
"5> 	c #9B812C",
"6> 	c #423726",
"7> 	c #5A4730",
"8> 	c #21251C",
"9> 	c #A59F95",
"0> 	c #A88A31",
"a> 	c #424A40",
"b> 	c #624A2F",
"c> 	c #715E1D",
"d> 	c #ACA494",
"e> 	c #A8A093",
"f> 	c #88773B",
"g> 	c #90856B",
"h> 	c #76683C",
"i> 	c #867F76",
"j> 	c #7A7468",
"k> 	c #817A6D",
"l> 	c #ABA395",
"m> 	c #987F27",
"n> 	c #735530",
"o> 	c #766652",
"p> 	c #62665D",
"q> 	c #6E746D",
"r> 	c #82735F",
"s> 	c #6D756C",
"t> 	c #666E67",
"u> 	c #A48337",
"v> 	c #987739",
"w> 	c #7E6244",
"x> 	c #7D6820",
"y> 	c #ACB2B0",
"z> 	c #ABB1B0",
"A> 	c #95A298",
"B> 	c #ADB3B3",
"C> 	c #AAB0AF",
"D> 	c #9AA69E",
"E> 	c #A1AAA6",
"F> 	c #877E6B",
"G> 	c #858174",
"H> 	c #9EA8A3",
"I> 	c #9B9A91",
"J> 	c #878074",
"K> 	c #8A8477",
"L> 	c #635D52",
"M> 	c #BDC4C1",
"N> 	c #968F80",
"O> 	c #7A7569",
"P> 	c #847C6E",
"Q> 	c #ADB6B0",
"R> 	c #B3BDB8",
"S> 	c #8B8163",
"T> 	c #9E832B",
"U> 	c #9D8841",
"V> 	c #988546",
"W> 	c #7F6921",
"X> 	c #A3987B",
"Y> 	c #B4AD9D",
"Z> 	c #AA9B6D",
"`> 	c #A49055",
" , 	c #836D21",
"., 	c #8C8163",
"+, 	c #82785B",
"@, 	c #8F7724",
"#, 	c #7D786D",
"$, 	c #C5CCC9",
"%, 	c #7F786B",
"&, 	c #C8CECC",
"*, 	c #8C8677",
"=, 	c #867C5F",
"-, 	c #807248",
";, 	c #958C76",
">, 	c #85702C",
",, 	c #A58A2E",
"', 	c #7D612F",
"), 	c #A3892F",
"!, 	c #8C7527",
"~, 	c #917F4A",
"{, 	c #B8C1B9",
"], 	c #9CA89F",
"^, 	c #C2C3C2",
"/, 	c #A89F8F",
"(, 	c #958659",
"_, 	c #AD9030",
":, 	c #8E732E",
"<, 	c #B59735",
"[, 	c #866F24",
"}, 	c #B1A78E",
"|, 	c #C2B8A6",
"1, 	c #8A8376",
"2, 	c #A3ACA7",
"3, 	c #ACB2B1",
"4, 	c #ABB3B0",
"5, 	c #A9B2AC",
"6, 	c #AEA695",
"7, 	c #A88C2A",
"8, 	c #171B12",
"9, 	c #2E2F25",
"0, 	c #A08528",
"a, 	c #ADA697",
"b, 	c #5F4C38",
"c, 	c #495248",
"d, 	c #62533C",
"e, 	c #7F6B23",
"f, 	c #ADA288",
"g, 	c #9C9486",
"h, 	c #958655",
"i, 	c #9F8D54",
"j, 	c #8D7627",
"k, 	c #7D6923",
"l, 	c #998239",
"m, 	c #988550",
"n, 	c #887640",
"o, 	c #A88B2E",
"p, 	c #7C5D2F",
"q, 	c #828681",
"r, 	c #7B7C73",
"s, 	c #906B3B",
"t, 	c #805E36",
"u, 	c #896A25",
"v, 	c #798079",
"w, 	c #757B76",
"x, 	c #8F7230",
"y, 	c #AB893A",
"z, 	c #82672E",
"A, 	c #786321",
"B, 	c #ABAFAC",
"C, 	c #AAB2AD",
"D, 	c #AFB6B1",
"E, 	c #B7BEBB",
"F, 	c #A0AAA4",
"G, 	c #9DA7A1",
"H, 	c #98A39A",
"I, 	c #A3ACA8",
"J, 	c #A29989",
"K, 	c #A8B0AE",
"L, 	c #938A7C",
"M, 	c #948C7E",
"N, 	c #B2A998",
"O, 	c #958D7E",
"P, 	c #676256",
"Q, 	c #B7BBBB",
"R, 	c #ABB1AF",
"S, 	c #B5BBBA",
"T, 	c #B2B7B7",
"U, 	c #B1A998",
"V, 	c #A0A199",
"W, 	c #9EA7A1",
"X, 	c #A3AEA9",
"Y, 	c #9F9473",
"Z, 	c #91845F",
"`, 	c #B0A899",
" ' 	c #AB9E7E",
".' 	c #938559",
"+' 	c #ABA083",
"@' 	c #968348",
"#' 	c #98864B",
"$' 	c #927929",
"%' 	c #887436",
"&' 	c #8B7D56",
"*' 	c #B8BDBA",
"=' 	c #C5CBCA",
"-' 	c #998C69",
";' 	c #A1872E",
">' 	c #9D832E",
",' 	c #6C5740",
"'' 	c #755832",
")' 	c #795C35",
"!' 	c #84682F",
"~' 	c #7B612E",
"{' 	c #A09785",
"]' 	c #8F8B81",
"^' 	c #B9C1BA",
"/' 	c #9DA6A1",
"(' 	c #C9CECD",
"_' 	c #B1B1AB",
":' 	c #878173",
"<' 	c #A79F90",
"[' 	c #8B7324",
"}' 	c #886C2F",
"|' 	c #927C37",
"1' 	c #857234",
"2' 	c #847548",
"3' 	c #B0A998",
"4' 	c #898275",
"5' 	c #857F71",
"6' 	c #9AA59C",
"7' 	c #99A49B",
"8' 	c #A7AEAB",
"9' 	c #887123",
"0' 	c #070C0B",
"a' 	c #0C0F0B",
"b' 	c #816233",
"c' 	c #2C3429",
"d' 	c #58523F",
"e' 	c #957436",
"f' 	c #B39631",
"g' 	c #998545",
"h' 	c #8F7D45",
"i' 	c #978753",
"j' 	c #A39776",
"k' 	c #846F2B",
"l' 	c #9A8747",
"m' 	c #A18B47",
"n' 	c #8A7327",
"o' 	c #7F6728",
"p' 	c #9C832D",
"q' 	c #9A812D",
"r' 	c #8A6738",
"s' 	c #6D6F62",
"t' 	c #848982",
"u' 	c #848B85",
"v' 	c #757C76",
"w' 	c #815D2E",
"x' 	c #A99969",
"y' 	c #7F6F5A",
"z' 	c #614C39",
"A' 	c #947832",
"B' 	c #8F762B",
"C' 	c #A4892E",
"D' 	c #7A7361",
"E' 	c #A9B0AF",
"F' 	c #A3ABA8",
"G' 	c #A5B0A9",
"H' 	c #94A197",
"I' 	c #A3ABA7",
"J' 	c #9EA194",
"K' 	c #A3AAA6",
"L' 	c #98978C",
"M' 	c #A69E8F",
"N' 	c #BAB09D",
"O' 	c #969385",
"P' 	c #9EA9A1",
"Q' 	c #AFB4B3",
"R' 	c #726E63",
"S' 	c #B8C0BC",
"T' 	c #B1A997",
"U' 	c #A9A291",
"V' 	c #A7A092",
"W' 	c #9D8E63",
"X' 	c #A49671",
"Y' 	c #9D9170",
"Z' 	c #A69971",
"`' 	c #A5945F",
" ) 	c #7C6722",
".) 	c #90866F",
"+) 	c #C0C5C4",
"@) 	c #7E786E",
"#) 	c #A2872C",
"$) 	c #6C5235",
"%) 	c #AC8E28",
"&) 	c #605F5B",
"*) 	c #5B5141",
"=) 	c #856930",
"-) 	c #84692F",
";) 	c #947C28",
">) 	c #8C8578",
",) 	c #BDC5C1",
"') 	c #B3BBB7",
")) 	c #A0A9A4",
"!) 	c #9FA7A3",
"~) 	c #98A49C",
"{) 	c #A49B8A",
"]) 	c #AE9E6A",
"^) 	c #C0A035",
"/) 	c #91782A",
"() 	c #AC8F31",
"_) 	c #846E25",
":) 	c #857338",
"<) 	c #ADA595",
"[) 	c #756F64",
"}) 	c #A3ABA6",
"|) 	c #A9B0AE",
"1) 	c #B6BBB8",
"2) 	c #AAACA6",
"3) 	c #9D8D5E",
"4) 	c #926D3E",
"5) 	c #151A14",
"6) 	c #46493E",
"7) 	c #4B4533",
"8) 	c #81662E",
"9) 	c #BB9C33",
"0) 	c #9B8D67",
"a) 	c #A89247",
"b) 	c #816B23",
"c) 	c #837549",
"d) 	c #A9A293",
"e) 	c #9E9064",
"f) 	c #AC9F80",
"g) 	c #BAB1A1",
"h) 	c #937F41",
"i) 	c #9D822B",
"j) 	c #AF9333",
"k) 	c #B49538",
"l) 	c #8D6B37",
"m) 	c #7E7B71",
"n) 	c #878E88",
"o) 	c #8C7A62",
"p) 	c #656F65",
"q) 	c #7C847D",
"r) 	c #949898",
"s) 	c #787F79",
"t) 	c #90742F",
"u) 	c #987E2E",
"v) 	c #9F8528",
"w) 	c #928C81",
"x) 	c #827C6E",
"y) 	c #9CA79F",
"z) 	c #9CA7A0",
"A) 	c #A4ACA9",
"B) 	c #AEB3B2",
"C) 	c #A5ADA9",
"D) 	c #ADB3B2",
"E) 	c #A7B0AB",
"F) 	c #978F7F",
"G) 	c #958A69",
"H) 	c #716D63",
"I) 	c #9DA8A1",
"J) 	c #A4ADA9",
"K) 	c #9A9281",
"L) 	c #9C9D95",
"M) 	c #ADB2B2",
"N) 	c #9CA8A0",
"O) 	c #A3ADA7",
"P) 	c #B3BAB6",
"Q) 	c #B2A997",
"R) 	c #B6AD9B",
"S) 	c #897C57",
"T) 	c #9A8A5A",
"U) 	c #9C8330",
"V) 	c #937B28",
"W) 	c #9F852C",
"X) 	c #9E8C54",
"Y) 	c #A0893E",
"Z) 	c #A79355",
"`) 	c #AAA18F",
" ! 	c #A3A5A0",
".! 	c #C2C9C7",
"+! 	c #999589",
"@! 	c #998F7A",
"#! 	c #977A30",
"$! 	c #4F534D",
"%! 	c #A79559",
"&! 	c #4E504A",
"*! 	c #534A3B",
"=! 	c #6C5F4C",
"-! 	c #6B5233",
";! 	c #957E29",
">! 	c #6E6960",
",! 	c #C2C9C4",
"'! 	c #C3C9C7",
")! 	c #C9CCCB",
"!! 	c #BDC2C1",
"~! 	c #A5ADAA",
"{! 	c #999386",
"]! 	c #9C832C",
"^! 	c #A89149",
"/! 	c #907A37",
"(! 	c #8B7B48",
"_! 	c #A9A193",
":! 	c #857954",
"<! 	c #8B8578",
"[! 	c #B4BBB9",
"}! 	c #A0AAA3",
"|! 	c #A0AAA5",
"1! 	c #AEA696",
"2! 	c #958142",
"3! 	c #A89769",
"4! 	c #99802C",
"5! 	c #795936",
"6! 	c #272115",
"7! 	c #705538",
"8! 	c #A0862E",
"9! 	c #ADA182",
"0! 	c #AB9241",
"a! 	c #AD9A5C",
"b! 	c #988549",
"c! 	c #8D7A38",
"d! 	c #8D8675",
"e! 	c #AEA594",
"f! 	c #A8A090",
"g! 	c #A09889",
"h! 	c #BBB19A",
"i! 	c #AA9B6C",
"j! 	c #A08730",
"k! 	c #AF9231",
"l! 	c #8D6F32",
"m! 	c #846745",
"n! 	c #8F6B3A",
"o! 	c #806548",
"p! 	c #7A7261",
"q! 	c #79705C",
"r! 	c #906B3E",
"s! 	c #826545",
"t! 	c #876832",
"u! 	c #948E82",
"v! 	c #B0BAB3",
"w! 	c #C0C5C5",
"x! 	c #7B786F",
"y! 	c #9CA29B",
"z! 	c #726E62",
"A! 	c #AFB6B2",
"B! 	c #9FA9A4",
"C! 	c #A6AEAB",
"D! 	c #B8BBBF",
"E! 	c #968E7F",
"F! 	c #B3AA99",
"G! 	c #89816F",
"H! 	c #8F8E84",
"I! 	c #9EA8A1",
"J! 	c #9FA9A2",
"K! 	c #A7AFAB",
"L! 	c #8D877A",
"M! 	c #8E7831",
"N! 	c #826B21",
"O! 	c #938764",
"P! 	c #6E695F",
"Q! 	c #888780",
"R! 	c #898477",
"S! 	c #877F72",
"T! 	c #928A7B",
"U! 	c #ACA79A",
"V! 	c #AAA18C",
"W! 	c #9F998A",
"X! 	c #AC9D75",
"Y! 	c #8D7F57",
"Z! 	c #A2872D",
"`! 	c #755E27",
" ~ 	c #7F6232",
".~ 	c #957930",
"+~ 	c #8E7626",
"@~ 	c #9B9487",
"#~ 	c #928D82",
"$~ 	c #A49C8B",
"%~ 	c #90897A",
"&~ 	c #AEA79B",
"*~ 	c #B0932F",
"=~ 	c #8B6A36",
"-~ 	c #5A594F",
";~ 	c #454940",
">~ 	c #5D5F55",
",~ 	c #494B42",
"'~ 	c #5B503D",
")~ 	c #624B30",
"!~ 	c #7B6526",
"~~ 	c #8D867B",
"{~ 	c #766F63",
"]~ 	c #BBC3BE",
"^~ 	c #C0C6C1",
"/~ 	c #C3C9C4",
"(~ 	c #CBCFCF",
"_~ 	c #AEB5B2",
":~ 	c #A1AAA5",
"<~ 	c #C0B7A6",
"[~ 	c #A68A2E",
"}~ 	c #9D906C",
"|~ 	c #96854F",
"1~ 	c #A9A395",
"2~ 	c #93865D",
"3~ 	c #8E7F55",
"4~ 	c #9EA9A2",
"5~ 	c #A0A9A3",
"6~ 	c #9D9484",
"7~ 	c #9D8F69",
"8~ 	c #958141",
"9~ 	c #AF974A",
"0~ 	c #B59733",
"a~ 	c #927334",
"b~ 	c #8C722E",
"c~ 	c #9C8D5E",
"d~ 	c #AD9C69",
"e~ 	c #B69732",
"f~ 	c #A28B43",
"g~ 	c #A88D33",
"h~ 	c #8F7E4D",
"i~ 	c #A0998A",
"j~ 	c #A09788",
"k~ 	c #ACA596",
"l~ 	c #968963",
"m~ 	c #AD9132",
"n~ 	c #7A6623",
"o~ 	c #AE9130",
"p~ 	c #AB8B35",
"q~ 	c #A38139",
"r~ 	c #997A34",
"s~ 	c #A98D31",
"t~ 	c #B59834",
"u~ 	c #978B6B",
"v~ 	c #746E62",
"w~ 	c #A1ACA2",
"x~ 	c #8C8D85",
"y~ 	c #A6ACA6",
"z~ 	c #757063",
"A~ 	c #918A7B",
"B~ 	c #AAB4AE",
"C~ 	c #B4B8BA",
"D~ 	c #ADB6B1",
"E~ 	c #ABB4AF",
"F~ 	c #A7B0A9",
"G~ 	c #9FA8A2",
"H~ 	c #AEB4B4",
"I~ 	c #989081",
"J~ 	c #847E71",
"K~ 	c #9CA69F",
"L~ 	c #A1ABA4",
"M~ 	c #96A499",
"N~ 	c #A4ACA7",
"O~ 	c #A1ACA3",
"P~ 	c #A08A42",
"Q~ 	c #90804B",
"R~ 	c #95834D",
"S~ 	c #725F1E",
"T~ 	c #83754D",
"U~ 	c #878174",
"V~ 	c #9B9D96",
"W~ 	c #A0998D",
"X~ 	c #8F792C",
"Y~ 	c #836E23",
"Z~ 	c #7C602F",
"`~ 	c #8A6F30",
" { 	c #957931",
".{ 	c #876933",
"+{ 	c #836533",
"@{ 	c #705D1F",
"#{ 	c #938252",
"${ 	c #898377",
"%{ 	c #A1998B",
"&{ 	c #978E75",
"*{ 	c #877125",
"={ 	c #685845",
"-{ 	c #675743",
";{ 	c #70604C",
">{ 	c #515248",
",{ 	c #685C4A",
"'{ 	c #755F45",
"){ 	c #8C7030",
"!{ 	c #866932",
"~{ 	c #755C2A",
"{{ 	c #8D7730",
"]{ 	c #837133",
"^{ 	c #CCD1D1",
"/{ 	c #AFB8B2",
"({ 	c #BEC6C0",
"_{ 	c #A5ACA9",
":{ 	c #CED2D1",
"<{ 	c #CBCECE",
"[{ 	c #9DA7A2",
"}{ 	c #AFB4B4",
"|{ 	c #CED0D1",
"1{ 	c #A69B7C",
"2{ 	c #8B7630",
"3{ 	c #A29881",
"4{ 	c #AEABA1",
"5{ 	c #B9B19F",
"6{ 	c #8B8579",
"7{ 	c #9EAAA3",
"8{ 	c #AEB4B2",
"9{ 	c #9D9D93",
"0{ 	c #908879",
"a{ 	c #B0963C",
"b{ 	c #483624",
"c{ 	c #73582E",
"d{ 	c #886D30",
"e{ 	c #AA8E2E",
"f{ 	c #AA8E2F",
"g{ 	c #B79934",
"h{ 	c #896B31",
"i{ 	c #79602C",
"j{ 	c #756223",
"k{ 	c #958C74",
"l{ 	c #B8BBB5",
"m{ 	c #ACB0AC",
"n{ 	c #AEAEA7",
"o{ 	c #AFADA1",
"p{ 	c #A89F87",
"q{ 	c #B89A33",
"r{ 	c #AC9031",
"s{ 	c #A59874",
"t{ 	c #A2915E",
"u{ 	c #8B7634",
"v{ 	c #9E842B",
"w{ 	c #A18938",
"x{ 	c #927A28",
"y{ 	c #957B28",
"z{ 	c #837C68",
"A{ 	c #B7BFBB",
"B{ 	c #B3BAB9",
"C{ 	c #B5BBB9",
"D{ 	c #B2B9B7",
"E{ 	c #7F796C",
"F{ 	c #A5ACA8",
"G{ 	c #A4ABA7",
"H{ 	c #9BA69F",
"I{ 	c #99A49D",
"J{ 	c #B2B6B7",
"K{ 	c #9F9F94",
"L{ 	c #96A398",
"M{ 	c #A2ACA5",
"N{ 	c #A2ACA4",
"O{ 	c #A79F8F",
"P{ 	c #7B6D44",
"Q{ 	c #908776",
"R{ 	c #8A7B4B",
"S{ 	c #96854A",
"T{ 	c #9F916E",
"U{ 	c #87794F",
"V{ 	c #91887B",
"W{ 	c #999286",
"X{ 	c #977B30",
"Y{ 	c #7C612D",
"Z{ 	c #886C30",
"`{ 	c #6E614E",
" ] 	c #846435",
".] 	c #8A6A37",
"+] 	c #84692E",
"@] 	c #897328",
"#] 	c #8C7730",
"$] 	c #B6AC92",
"%] 	c #998B65",
"&] 	c #8C7C49",
"*] 	c #AC8F30",
"=] 	c #987D30",
"-] 	c #907233",
";] 	c #8A6944",
">] 	c #6F5636",
",] 	c #735B40",
"'] 	c #595850",
")] 	c #755F44",
"!] 	c #8D6E36",
"~] 	c #B69833",
"{] 	c #6F5840",
"]] 	c #6E542F",
"^] 	c #A58A2F",
"/] 	c #7E6F40",
"(] 	c #6F685B",
"_] 	c #A7ADAC",
":] 	c #A0A9A5",
"<] 	c #A1A9A5",
"[] 	c #9DA69F",
"}] 	c #9CA69E",
"|] 	c #A2AAA5",
"1] 	c #AAB0AE",
"2] 	c #B4AA98",
"3] 	c #9B927E",
"4] 	c #948353",
"5] 	c #B3B7BA",
"6] 	c #838178",
"7] 	c #857D6F",
"8] 	c #A4ADAA",
"9] 	c #96A298",
"0] 	c #A0998E",
"a] 	c #BA9B34",
"b] 	c #8D7033",
"c] 	c #644C31",
"d] 	c #A78A32",
"e] 	c #9A802B",
"f] 	c #B99B34",
"g] 	c #61533F",
"h] 	c #3F473E",
"i] 	c #866930",
"j] 	c #705D1E",
"k] 	c #787367",
"l] 	c #A8B2AB",
"m] 	c #A9A292",
"n] 	c #988D6F",
"o] 	c #7C622D",
"p] 	c #977D2A",
"q] 	c #B7AD98",
"r] 	c #B2A682",
"s] 	c #A98E30",
"t] 	c #8D7B3E",
"u] 	c #9E947E",
"v] 	c #7A766B",
"w] 	c #C3C7C7",
"x] 	c #C1C4C5",
"y] 	c #B6BBBB",
"z] 	c #978F80",
"A] 	c #696459",
"B] 	c #B1B7B5",
"C] 	c #AFB5B4",
"D] 	c #A4AEA6",
"E] 	c #A1A9A4",
"F] 	c #A6AFAA",
"G] 	c #A8B1AD",
"H] 	c #A1AAA4",
"I] 	c #AAAAA4",
"J] 	c #A5A299",
"K] 	c #ACA392",
"L] 	c #968B71",
"M] 	c #8D7E4F",
"N] 	c #B7AE9E",
"O] 	c #A29679",
"P] 	c #998C65",
"Q] 	c #81682B",
"R] 	c #7E5F3A",
"S] 	c #8E6D38",
"T] 	c #785F44",
"U] 	c #816B51",
"V] 	c #796146",
"W] 	c #866831",
"X] 	c #BB9D35",
"Y] 	c #8F7729",
"Z] 	c #866F25",
"`] 	c #B29632",
" ^ 	c #775E46",
".^ 	c #886934",
"+^ 	c #83643A",
"@^ 	c #967339",
"#^ 	c #977437",
"$^ 	c #67553D",
"%^ 	c #605340",
"&^ 	c #695743",
"*^ 	c #8A6741",
"=^ 	c #715638",
"-^ 	c #695031",
";^ 	c #785D2C",
">^ 	c #CBCFD0",
",^ 	c #C1C7C2",
"'^ 	c #BCC4BE",
")^ 	c #AAB2AF",
"!^ 	c #CED0D2",
"~^ 	c #CCD0CF",
"{^ 	c #9BA69E",
"]^ 	c #A29A8A",
"^^ 	c #A29573",
"/^ 	c #A4966F",
"(^ 	c #B3B7B9",
"_^ 	c #B0B4B4",
":^ 	c #8C8579",
"<^ 	c #AD8F2D",
"[^ 	c #A18530",
"}^ 	c #8D6F34",
"|^ 	c #7C632B",
"1^ 	c #917136",
"2^ 	c #534938",
"3^ 	c #333D32",
"4^ 	c #63685E",
"5^ 	c #6C5337",
"6^ 	c #78641F",
"7^ 	c #928A7C",
"8^ 	c #878072",
"9^ 	c #B1BCB7",
"0^ 	c #A59E8E",
"a^ 	c #988B65",
"b^ 	c #AB8F31",
"c^ 	c #957D2B",
"d^ 	c #AE9957",
"e^ 	c #988C70",
"f^ 	c #ABA392",
"g^ 	c #A68E44",
"h^ 	c #9C8845",
"i^ 	c #806A24",
"j^ 	c #8B826B",
"k^ 	c #767063",
"l^ 	c #B3B9B6",
"m^ 	c #A6B0A9",
"n^ 	c #B8BEBD",
"o^ 	c #AEB5B1",
"p^ 	c #96A199",
"q^ 	c #B4BAB9",
"r^ 	c #A2ADA6",
"s^ 	c #969B90",
"t^ 	c #797268",
"u^ 	c #726B60",
"v^ 	c #A6B0AB",
"w^ 	c #A9AFAD",
"x^ 	c #A0A49A",
"y^ 	c #A9A699",
"z^ 	c #9D9278",
"A^ 	c #A19B8D",
"B^ 	c #C0B7A4",
"C^ 	c #AFA692",
"D^ 	c #AAA394",
"E^ 	c #926F3B",
"F^ 	c #977344",
"G^ 	c #926F3F",
"H^ 	c #9B7B37",
"I^ 	c #78634B",
"J^ 	c #6C5A48",
"K^ 	c #886D2D",
"L^ 	c #9B7E31",
"M^ 	c #896E2F",
"N^ 	c #B99B35",
"O^ 	c #A38238",
"P^ 	c #6D6457",
"Q^ 	c #856C51",
"R^ 	c #624D38",
"S^ 	c #846633",
"T^ 	c #695D4D",
"U^ 	c #4D4D45",
"V^ 	c #6D573F",
"W^ 	c #634F3B",
"X^ 	c #947536",
"Y^ 	c #6B5133",
"Z^ 	c #80642F",
"`^ 	c #A38731",
" / 	c #8A7224",
"./ 	c #928D81",
"+/ 	c #CACECD",
"@/ 	c #AFB7B5",
"#/ 	c #8A8275",
"$/ 	c #ACA185",
"%/ 	c #7C6D3F",
"&/ 	c #95896E",
"*/ 	c #A3A9A4",
"=/ 	c #AEB3B4",
"-/ 	c #A2AAA6",
";/ 	c #9FA9A3",
">/ 	c #ADB2B3",
",/ 	c #A7AFAC",
"'/ 	c #938D80",
")/ 	c #A38E4E",
"!/ 	c #9D7F32",
"~/ 	c #785E41",
"{/ 	c #3D4236",
"]/ 	c #444A3D",
"^/ 	c #685F4E",
"// 	c #585242",
"(/ 	c #7A602C",
"_/ 	c #928146",
":/ 	c #8D7528",
"</ 	c #6E5B1B",
"[/ 	c #867D64",
"}/ 	c #8E8361",
"|/ 	c #AF9230",
"1/ 	c #927730",
"2/ 	c #9D832D",
"3/ 	c #9F842C",
"4/ 	c #938350",
"5/ 	c #AEA283",
"6/ 	c #A39C8D",
"7/ 	c #9A9485",
"8/ 	c #B29B50",
"9/ 	c #B29D59",
"0/ 	c #856F27",
"a/ 	c #A8AFAA",
"b/ 	c #AFB7B2",
"c/ 	c #86857B",
"d/ 	c #726C60",
"e/ 	c #B7BEBE",
"f/ 	c #AAB2B0",
"g/ 	c #AEB3B3",
"h/ 	c #A9B1AF",
"i/ 	c #AEB8B2",
"j/ 	c #90897B",
"k/ 	c #938664",
"l/ 	c #807660",
"m/ 	c #70695D",
"n/ 	c #9FAAA4",
"o/ 	c #919288",
"p/ 	c #A19889",
"q/ 	c #97978C",
"r/ 	c #948C7F",
"s/ 	c #ABA394",
"t/ 	c #A9A091",
"u/ 	c #977D27",
"v/ 	c #8A702C",
"w/ 	c #977B32",
"x/ 	c #987836",
"y/ 	c #A78C2F",
"z/ 	c #A78B2D",
"A/ 	c #B79931",
"B/ 	c #AE9232",
"C/ 	c #998958",
"D/ 	c #9B822D",
"E/ 	c #998138",
"F/ 	c #BC9D35",
"G/ 	c #A68B2E",
"H/ 	c #AE9B5C",
"I/ 	c #7E5E36",
"J/ 	c #735B42",
"K/ 	c #9B7A38",
"L/ 	c #8E6A46",
"M/ 	c #5C5B52",
"N/ 	c #58534A",
"O/ 	c #5A5751",
"P/ 	c #524839",
"Q/ 	c #9B7E34",
"R/ 	c #917432",
"S/ 	c #8B7738",
"T/ 	c #CDCFD2",
"U/ 	c #C2C9C5",
"V/ 	c #AEB7B1",
"W/ 	c #928F84",
"X/ 	c #6E695D",
"Y/ 	c #7D766A",
"Z/ 	c #847F73",
"`/ 	c #84743E",
" ( 	c #7D7357",
".( 	c #786A3D",
"+( 	c #78641E",
"@( 	c #967D2A",
"#( 	c #897537",
"$( 	c #8E8577",
"%( 	c #A8B0AD",
"&( 	c #A2ABA5",
"*( 	c #99A49C",
"=( 	c #9F988C",
"-( 	c #B09230",
";( 	c #8C6C37",
">( 	c #555648",
",( 	c #3E4438",
"'( 	c #707266",
")( 	c #6A5235",
"!( 	c #584633",
"~( 	c #8C7130",
"{( 	c #735C25",
"]( 	c #73592B",
"^( 	c #A3892C",
"/( 	c #A98C31",
"(( 	c #9B8E6E",
"_( 	c #826F31",
":( 	c #A39B8C",
"<( 	c #AA985D",
"[( 	c #A89A73",
"}( 	c #807B71",
"|( 	c #ABB4AD",
"1( 	c #A1ADA3",
"2( 	c #B0B6B3",
"3( 	c #9E9F97",
"4( 	c #746E64",
"5( 	c #9D9687",
"6( 	c #8A826E",
"7( 	c #807A6A",
"8( 	c #91825B",
"9( 	c #6C591C",
"0( 	c #7E786A",
"a( 	c #7B7465",
"b( 	c #7E7769",
"c( 	c #9FA19D",
"d( 	c #968D7E",
"e( 	c #BAB2A1",
"f( 	c #947E38",
"g( 	c #816C27",
"h( 	c #7F7868",
"i( 	c #898375",
"j( 	c #A69D88",
"k( 	c #A3987C",
"l( 	c #B1A796",
"m( 	c #9B9484",
"n( 	c #9E9681",
"o( 	c #958A6E",
"p( 	c #938B79",
"q( 	c #87784E",
"r( 	c #998856",
"s( 	c #A1905C",
"t( 	c #AE9D6C",
"u( 	c #8E7932",
"v( 	c #8F792F",
"w( 	c #968F7E",
"x( 	c #AAA393",
"y( 	c #827B6E",
"z( 	c #8F8772",
"A( 	c #9F8F64",
"B( 	c #ABA498",
"C( 	c #B29D56",
"D( 	c #B4A887",
"E( 	c #826A4E",
"F( 	c #9B7A34",
"G( 	c #A28335",
"H( 	c #656054",
"I( 	c #83613A",
"J( 	c #5A574F",
"K( 	c #6A5B48",
"L( 	c #3C3A30",
"M( 	c #70563C",
"N( 	c #6D5431",
"O( 	c #856F26",
"P( 	c #888276",
"Q( 	c #A9B3AB",
"R( 	c #979488",
"S( 	c #938D7F",
"T( 	c #8D826A",
"U( 	c #A58A2D",
"V( 	c #816C26",
"W( 	c #8A6E2F",
"X( 	c #7D5E33",
"Y( 	c #A0852E",
"Z( 	c #8C7C4B",
"`( 	c #9E9688",
" _ 	c #B4B7B9",
"._ 	c #BABCBF",
"+_ 	c #98A49B",
"@_ 	c #A8AEAC",
"#_ 	c #9DA8A2",
"$_ 	c #A19D8E",
"%_ 	c #AB9B6E",
"&_ 	c #917928",
"*_ 	c #83672F",
"=_ 	c #4B412E",
"-_ 	c #6E6A59",
";_ 	c #8B683C",
">_ 	c #856831",
",_ 	c #6B5740",
"'_ 	c #625B4C",
")_ 	c #6D6E65",
"!_ 	c #61685F",
"~_ 	c #5C6660",
"{_ 	c #756D5E",
"]_ 	c #92762E",
"^_ 	c #9D832C",
"/_ 	c #B3A88F",
"(_ 	c #938D81",
"__ 	c #968F82",
":_ 	c #ACAA9F",
"<_ 	c #B5BAB6",
"[_ 	c #B2AA98",
"}_ 	c #AEB7B3",
"|_ 	c #ADB4B0",
"1_ 	c #A3AEA6",
"2_ 	c #B1A897",
"3_ 	c #9E916C",
"4_ 	c #988F7B",
"5_ 	c #A19576",
"6_ 	c #948450",
"7_ 	c #A1862C",
"8_ 	c #8F7829",
"9_ 	c #967A2D",
"0_ 	c #776125",
"a_ 	c #765F25",
"b_ 	c #908878",
"c_ 	c #90887A",
"d_ 	c #B9AFA0",
"e_ 	c #9B8231",
"f_ 	c #836C27",
"g_ 	c #816C22",
"h_ 	c #857131",
"i_ 	c #897842",
"j_ 	c #BAC2BE",
"k_ 	c #C3C7C8",
"l_ 	c #ACA493",
"m_ 	c #A89D87",
"n_ 	c #897A4B",
"o_ 	c #796524",
"p_ 	c #9D916F",
"q_ 	c #90897D",
"r_ 	c #A49774",
"s_ 	c #A9A69D",
"t_ 	c #CBD0CE",
"u_ 	c #B4B0A3",
"v_ 	c #BFB6A5",
"w_ 	c #9F9684",
"x_ 	c #AEA592",
"y_ 	c #A99B74",
"z_ 	c #9D7A38",
"A_ 	c #74746C",
"B_ 	c #6D6B65",
"C_ 	c #ACA28B",
"D_ 	c #997834",
"E_ 	c #413E36",
"F_ 	c #68533C",
"G_ 	c #8F6D39",
"H_ 	c #8D742C",
"I_ 	c #8A7D5A",
"J_ 	c #7E7B70",
"K_ 	c #C1C5C4",
"L_ 	c #948E81",
"M_ 	c #88753A",
"N_ 	c #725639",
"O_ 	c #50412D",
"P_ 	c #413827",
"Q_ 	c #57432F",
"R_ 	c #9C8D67",
"S_ 	c #8E8B80",
"T_ 	c #AAB2AE",
"U_ 	c #ABB2B0",
"V_ 	c #A2ABA7",
"W_ 	c #AAB1B0",
"X_ 	c #B2AA9D",
"Y_ 	c #B19330",
"Z_ 	c #8A6B35",
"`_ 	c #987F2C",
" : 	c #907132",
".: 	c #665742",
"+: 	c #545951",
"@: 	c #646964",
"#: 	c #927F45",
"$: 	c #7E5E39",
"%: 	c #6A7068",
"&: 	c #62584A",
"*: 	c #A3892E",
"=: 	c #857B5C",
"-: 	c #C7CECB",
";: 	c #9D988A",
">: 	c #A9A090",
",: 	c #AFB9B5",
"': 	c #AEA593",
"): 	c #B8BEBF",
"!: 	c #B1B4B3",
"~: 	c #B1B8B5",
"{: 	c #B3B8B6",
"]: 	c #B8AFA0",
"^: 	c #AFA48A",
"/: 	c #918562",
"(: 	c #A68A2D",
"_: 	c #AC8F33",
":: 	c #856437",
"<: 	c #504435",
"[: 	c #6C522C",
"}: 	c #7C6526",
"|: 	c #867231",
"1: 	c #796224",
"2: 	c #664D2F",
"3: 	c #4C4B44",
"4: 	c #584C3D",
"5: 	c #594839",
"6: 	c #755B2C",
"7: 	c #876E2A",
"8: 	c #82785C",
"9: 	c #837D6F",
"0: 	c #B5BCBA",
"a: 	c #ADA494",
"b: 	c #8C7B44",
"c: 	c #938455",
"d: 	c #9D9586",
"e: 	c #948B78",
"f: 	c #BFC4C0",
"g: 	c #777165",
"h: 	c #A8A59A",
"i: 	c #C8CECB",
"j: 	c #AFA696",
"k: 	c #877C5E",
"l: 	c #8F897D",
"m: 	c #A39052",
"n: 	c #9D832F",
"o: 	c #625544",
"p: 	c #696D67",
"q: 	c #A0852A",
"r: 	c #9C906D",
"s: 	c #957233",
"t: 	c #514F46",
"u: 	c #534939",
"v: 	c #705B43",
"w: 	c #796325",
"x: 	c #B2BAB4",
"y: 	c #B0B9B6",
"z: 	c #AFA284",
"A: 	c #95733A",
"B: 	c #5F4931",
"C: 	c #434336",
"D: 	c #3E3F34",
"E: 	c #4C3B2A",
"F: 	c #847851",
"G: 	c #A4A5A3",
"H: 	c #A4AEA7",
"I: 	c #919F93",
"J: 	c #B0B4B6",
"K: 	c #A7AEAA",
"L: 	c #B1B5B6",
"M: 	c #99895D",
"N: 	c #B39532",
"O: 	c #A18B45",
"P: 	c #B09642",
"Q: 	c #856830",
"R: 	c #706756",
"S: 	c #A58726",
"T: 	c #A7AFAF",
"U: 	c #745530",
"V: 	c #796E5B",
"W: 	c #717062",
"X: 	c #7D622C",
"Y: 	c #836F29",
"Z: 	c #A19E91",
"`: 	c #9B9385",
" < 	c #A6A6A1",
".< 	c #B3BAB8",
"+< 	c #92908A",
"@< 	c #C1C5C5",
"#< 	c #B6BABB",
"$< 	c #B1B8B6",
"%< 	c #A2ADA5",
"&< 	c #9D9B90",
"*< 	c #B4AB9B",
"=< 	c #88763D",
"-< 	c #9A8B5D",
";< 	c #A08C4B",
">< 	c #AC913B",
",< 	c #AC9340",
"'< 	c #A2872F",
")< 	c #B49734",
"!< 	c #856E28",
"~< 	c #654D2D",
"{< 	c #493725",
"]< 	c #6B5238",
"^< 	c #4F4535",
"/< 	c #3B3D36",
"(< 	c #4E4D47",
"_< 	c #41433C",
":< 	c #595447",
"<< 	c #644D34",
"[< 	c #705B25",
"}< 	c #76611F",
"|< 	c #897E66",
"1< 	c #A09C95",
"2< 	c #A4A9A4",
"3< 	c #9B9387",
"4< 	c #826D2D",
"5< 	c #A1977F",
"6< 	c #AEA595",
"7< 	c #959184",
"8< 	c #A8A89E",
"9< 	c #857E71",
"0< 	c #ADAFAB",
"a< 	c #C4C9C5",
"b< 	c #B6AD9D",
"c< 	c #9E9584",
"d< 	c #9C958A",
"e< 	c #978340",
"f< 	c #876A30",
"g< 	c #6C6555",
"h< 	c #6C502F",
"i< 	c #877124",
"j< 	c #977B2A",
"k< 	c #947A20",
"l< 	c #665744",
"m< 	c #4A483F",
"n< 	c #8B6A3A",
"o< 	c #866C2C",
"p< 	c #8E7627",
"q< 	c #888277",
"r< 	c #B7C0BB",
"s< 	c #BAC1BF",
"t< 	c #9E947F",
"u< 	c #C3A336",
"v< 	c #B19039",
"w< 	c #694E34",
"x< 	c #4C4131",
"y< 	c #9D822E",
"z< 	c #8E7933",
"A< 	c #AAA192",
"B< 	c #A7AEAC",
"C< 	c #8D8677",
"D< 	c #A19888",
"E< 	c #8F7728",
"F< 	c #997F2B",
"G< 	c #B19532",
"H< 	c #625543",
"I< 	c #958A70",
"J< 	c #A9A6A0",
"K< 	c #807B6F",
"L< 	c #8A908A",
"M< 	c #6A6F6B",
"N< 	c #735731",
"O< 	c #846D22",
"P< 	c #A79C82",
"Q< 	c #979182",
"R< 	c #9B9383",
"S< 	c #BEC1C2",
"T< 	c #B7BEBD",
"U< 	c #988B6B",
"V< 	c #968B6F",
"W< 	c #9A884B",
"X< 	c #957C2B",
"Y< 	c #938353",
"Z< 	c #8C752C",
"`< 	c #8F7F4B",
" [ 	c #867335",
".[ 	c #B3983D",
"+[ 	c #987E30",
"@[ 	c #926E3E",
"#[ 	c #624D34",
"$[ 	c #49473E",
"%[ 	c #524F46",
"&[ 	c #695945",
"*[ 	c #5E5647",
"=[ 	c #635443",
"-[ 	c #6B5A46",
";[ 	c #906D41",
">[ 	c #705639",
",[ 	c #7B5C35",
"'[ 	c #756026",
")[ 	c #8D7B44",
"![ 	c #A8AEA8",
"~[ 	c #9C9789",
"{[ 	c #898173",
"][ 	c #A79D89",
"^[ 	c #A39B8B",
"/[ 	c #C7CDCA",
"([ 	c #C4CCC7",
"_[ 	c #A7A8A2",
":[ 	c #BFC3C1",
"<[ 	c #957B23",
"[[ 	c #6A5136",
"}[ 	c #7A6127",
"|[ 	c #9C822B",
"1[ 	c #72614B",
"2[ 	c #707168",
"3[ 	c #A2872A",
"4[ 	c #957B2B",
"5[ 	c #BFC1BF",
"6[ 	c #CED2D7",
"7[ 	c #BF9F33",
"8[ 	c #3C3D37",
"9[ 	c #85682E",
"0[ 	c #6F552D",
"a[ 	c #897326",
"b[ 	c #9D9788",
"c[ 	c #867F74",
"d[ 	c #797265",
"e[ 	c #BCC4C1",
"f[ 	c #87837A",
"g[ 	c #A9A59A",
"h[ 	c #969081",
"i[ 	c #999388",
"j[ 	c #A28629",
"k[ 	c #967F33",
"l[ 	c #B49733",
"m[ 	c #AB9B6A",
"n[ 	c #B2AA96",
"o[ 	c #9D9485",
"p[ 	c #A4AEA9",
"q[ 	c #A1ABA6",
"r[ 	c #9E8B51",
"s[ 	c #7C5F31",
"t[ 	c #8E722E",
"u[ 	c #BC9D36",
"v[ 	c #C4A437",
"w[ 	c #4F5652",
"x[ 	c #636A65",
"y[ 	c #747B73",
"z[ 	c #866642",
"A[ 	c #746149",
"B[ 	c #876F29",
"C[ 	c #9D9685",
"D[ 	c #A69F8F",
"E[ 	c #988F7C",
"F[ 	c #92824F",
"G[ 	c #9D8D5D",
"H[ 	c #807555",
"I[ 	c #94958E",
"J[ 	c #BEC3C2",
"K[ 	c #AC9C6C",
"L[ 	c #9C8B56",
"M[ 	c #A49153",
"N[ 	c #AA944C",
"O[ 	c #948A6D",
"P[ 	c #A59568",
"Q[ 	c #9C968A",
"R[ 	c #A79C80",
"S[ 	c #A79B7A",
"T[ 	c #937E3E",
"U[ 	c #C3A338",
"V[ 	c #7F5F3A",
"W[ 	c #735D43",
"X[ 	c #4A4235",
"Y[ 	c #554F42",
"Z[ 	c #494A42",
"`[ 	c #1C2018",
" } 	c #675B4B",
".} 	c #927A29",
"+} 	c #AC9030",
"@} 	c #A38336",
"#} 	c #644C29",
"$} 	c #7C632C",
"%} 	c #7D6821",
"&} 	c #776A43",
"*} 	c #817F74",
"=} 	c #93A196",
"-} 	c #938B7B",
";} 	c #8C826A",
">} 	c #938A7A",
",} 	c #96958C",
"'} 	c #B4B6B1",
")} 	c #8F8779",
"!} 	c #878075",
"~} 	c #8D7E50",
"{} 	c #8A6736",
"]} 	c #878782",
"^} 	c #7A6044",
"/} 	c #826E56",
"(} 	c #757162",
"_} 	c #707065",
":} 	c #5E584D",
"<} 	c #8B7837",
"[} 	c #958552",
"}} 	c #373931",
"|} 	c #2D2F2B",
"1} 	c #4F4C45",
"2} 	c #484740",
"3} 	c #544737",
"4} 	c #927B28",
"5} 	c #74611F",
"6} 	c #74611D",
"7} 	c #6D6860",
"8} 	c #AAA79C",
"9} 	c #A69E8E",
"0} 	c #AEA694",
"a} 	c #A3A396",
"b} 	c #ADA597",
"c} 	c #B6AA89",
"d} 	c #9D8C59",
"e} 	c #89732A",
"f} 	c #958963",
"g} 	c #878073",
"h} 	c #93958E",
"i} 	c #B5BCBB",
"j} 	c #B6BCBC",
"k} 	c #9FAAA5",
"l} 	c #9E9276",
"m} 	c #856B2D",
"n} 	c #695641",
"o} 	c #4A4F49",
"p} 	c #51564F",
"q} 	c #585F55",
"r} 	c #6A7069",
"s} 	c #946F3D",
"t} 	c #795F41",
"u} 	c #957D29",
"v} 	c #A39C8F",
"w} 	c #8F887D",
"x} 	c #8C772F",
"y} 	c #927E40",
"z} 	c #837035",
"A} 	c #BABEBE",
"B} 	c #716B5F",
"C} 	c #949187",
"D} 	c #B0A999",
"E} 	c #867C61",
"F} 	c #97813A",
"G} 	c #A49772",
"H} 	c #9B9076",
"I} 	c #ADA596",
"J} 	c #999285",
"K} 	c #B5AC9D",
"L} 	c #B9B09E",
"M} 	c #897A47",
"N} 	c #A08632",
"O} 	c #978860",
"P} 	c #ADA181",
"Q} 	c #A0967F",
"R} 	c #AF9233",
"S} 	c #58452F",
"T} 	c #624B31",
"U} 	c #7C5E39",
"V} 	c #76624A",
"W} 	c #886636",
"X} 	c #997E2D",
"Y} 	c #99812B",
"Z} 	c #9E8D5A",
"`} 	c #9A8B5E",
" | 	c #A59154",
".| 	c #AB8E31",
"+| 	c #937A2A",
"@| 	c #887127",
"#| 	c #958862",
"$| 	c #948971",
"%| 	c #B6B9B4",
"&| 	c #ADA495",
"*| 	c #81703F",
"=| 	c #7B692D",
"-| 	c #9E9789",
";| 	c #8F8B80",
">| 	c #A29D91",
",| 	c #B6BAB3",
"'| 	c #968E80",
")| 	c #968B6D",
"!| 	c #BC9C33",
"~| 	c #84674B",
"{| 	c #807664",
"]| 	c #795F3E",
"^| 	c #929690",
"/| 	c #8D9087",
"(| 	c #73766E",
"_| 	c #947F3B",
":| 	c #A5A8A2",
"<| 	c #B6BFB9",
"[| 	c #BDC6C5",
"}| 	c #9A7538",
"|| 	c #AD9B60",
"1| 	c #55534E",
"2| 	c #535247",
"3| 	c #504F43",
"4| 	c #7A602B",
"5| 	c #735730",
"6| 	c #706233",
"7| 	c #A09888",
"8| 	c #8E8367",
"9| 	c #9A9383",
"0| 	c #979081",
"a| 	c #978F82",
"b| 	c #8A7A47",
"c| 	c #8F8673",
"d| 	c #757064",
"e| 	c #96958E",
"f| 	c #B4BBBA",
"g| 	c #B6B9BB",
"h| 	c #A5997A",
"i| 	c #A4945F",
"j| 	c #B79833",
"k| 	c #A98E31",
"l| 	c #9D842D",
"m| 	c #8A6B31",
"n| 	c #6E695B",
"o| 	c #646960",
"p| 	c #848880",
"q| 	c #6D6555",
"r| 	c #736857",
"s| 	c #765832",
"t| 	c #A98C2E",
"u| 	c #7C6525",
"v| 	c #937B27",
"w| 	c #A79975",
"x| 	c #927925",
"y| 	c #847E6E",
"z| 	c #827B6D",
"A| 	c #837B6D",
"B| 	c #9A9077",
"C| 	c #7E6E3B",
"D| 	c #85774E",
"E| 	c #A49B8C",
"F| 	c #B1B4AB",
"G| 	c #B4AB9A",
"H| 	c #AFA798",
"I| 	c #988A5C",
"J| 	c #927D33",
"K| 	c #9C9072",
"L| 	c #9E906B",
"M| 	c #9F9681",
"N| 	c #9C7F32",
"O| 	c #7F6347",
"P| 	c #7B602E",
"Q| 	c #836337",
"R| 	c #90762B",
"S| 	c #B59838",
"T| 	c #A59873",
"U| 	c #897E5C",
"V| 	c #8F8157",
"W| 	c #9D9171",
"X| 	c #9E8946",
"Y| 	c #8D732F",
"Z| 	c #746225",
"`| 	c #8C805D",
" 1 	c #A29A87",
".1 	c #A4882C",
"+1 	c #86753F",
"@1 	c #A09371",
"#1 	c #8B8478",
"$1 	c #ADA593",
"%1 	c #9C8D60",
"&1 	c #978341",
"*1 	c #7F6D57",
"=1 	c #8E7A5F",
"-1 	c #7B7F72",
";1 	c #82633D",
">1 	c #AD9031",
",1 	c #9B948A",
"'1 	c #CCCFD1",
")1 	c #B0A99B",
"!1 	c #4E4B45",
"~1 	c #44382F",
"{1 	c #9A8028",
"]1 	c #9D8947",
"^1 	c #A08F58",
"/1 	c #363B30",
"(1 	c #504B3B",
"_1 	c #6D5231",
":1 	c #7B6724",
"<1 	c #9B8F6B",
"[1 	c #B1A68D",
"}1 	c #93886B",
"|1 	c #B0ADA1",
"11 	c #B0A897",
"21 	c #B5AD9B",
"31 	c #AEA797",
"41 	c #9B9074",
"51 	c #84795D",
"61 	c #8A773A",
"71 	c #9E9480",
"81 	c #B2B8B8",
"91 	c #AAB0AD",
"01 	c #ACB1B0",
"a1 	c #96A299",
"b1 	c #8C8E84",
"c1 	c #B6AC9A",
"d1 	c #B3B8BB",
"e1 	c #9D7F33",
"f1 	c #9A7E31",
"g1 	c #7C6448",
"h1 	c #645D49",
"i1 	c #866848",
"j1 	c #737164",
"k1 	c #82857C",
"l1 	c #5D6159",
"m1 	c #746755",
"n1 	c #666961",
"o1 	c #6C5E4B",
"p1 	c #685029",
"q1 	c #908463",
"r1 	c #867C60",
"s1 	c #958865",
"t1 	c #9A8A58",
"u1 	c #92792C",
"v1 	c #604A30",
"w1 	c #7A6425",
"x1 	c #A19988",
"y1 	c #ADB6B2",
"z1 	c #999488",
"A1 	c #B0B5B3",
"B1 	c #B6BCBA",
"C1 	c #A3A19A",
"D1 	c #887C57",
"E1 	c #9D8F67",
"F1 	c #968551",
"G1 	c #A29B90",
"H1 	c #967C28",
"I1 	c #9A802A",
"J1 	c #937A28",
"K1 	c #9B773C",
"L1 	c #795D3A",
"M1 	c #89702A",
"N1 	c #B0953A",
"O1 	c #A59258",
"P1 	c #BFB6A7",
"Q1 	c #998D70",
"R1 	c #948351",
"S1 	c #AC995D",
"T1 	c #81662F",
"U1 	c #947C2C",
"V1 	c #8A7426",
"W1 	c #9D873D",
"X1 	c #A48732",
"Y1 	c #7D6D3D",
"Z1 	c #92886B",
"`1 	c #AEA697",
" 2 	c #A59E90",
".2 	c #A2862B",
"+2 	c #7E5F3C",
"@2 	c #6E583E",
"#2 	c #8E8C80",
"$2 	c #81613D",
"%2 	c #AC8C34",
"&2 	c #76786E",
"*2 	c #696960",
"=2 	c #9E988F",
"-2 	c #4F473D",
";2 	c #595852",
">2 	c #565749",
",2 	c #514C40",
"'2 	c #2C342E",
")2 	c #C1C9CA",
"!2 	c #AAA295",
"~2 	c #40483B",
"{2 	c #3C3E2F",
"]2 	c #6F5535",
"^2 	c #6C532C",
"/2 	c #8D8160",
"(2 	c #9F9784",
"_2 	c #6F5C1A",
":2 	c #A09575",
"<2 	c #999383",
"[2 	c #80796B",
"}2 	c #C0B6A4",
"|2 	c #A29B8A",
"12 	c #ABA290",
"22 	c #898376",
"32 	c #928151",
"42 	c #A0977E",
"52 	c #80775B",
"62 	c #8B8476",
"72 	c #B9BCBE",
"82 	c #AFB4B5",
"92 	c #B3BDB5",
"02 	c #ACB1B1",
"a2 	c #A69562",
"b2 	c #977A31",
"c2 	c #B89B34",
"d2 	c #A38534",
"e2 	c #81623E",
"f2 	c #796952",
"g2 	c #686D63",
"h2 	c #585F57",
"i2 	c #7A5E3E",
"j2 	c #927B2A",
"k2 	c #9A8850",
"l2 	c #A99D7E",
"m2 	c #A28A3A",
"n2 	c #624B34",
"o2 	c #6B512B",
"p2 	c #8E6A3D",
"q2 	c #423D32",
"r2 	c #3E3426",
"s2 	c #8C7B48",
"t2 	c #7A7266",
"u2 	c #BCBFC0",
"v2 	c #A9B3AE",
"w2 	c #868174",
"x2 	c #998A61",
"y2 	c #A28A3C",
"z2 	c #7E632C",
"A2 	c #514332",
"B2 	c #655D4E",
"C2 	c #977833",
"D2 	c #9D863F",
"E2 	c #978A68",
"F2 	c #968A67",
"G2 	c #83754E",
"H2 	c #AA9A6C",
"I2 	c #A58931",
"J2 	c #B19433",
"K2 	c #9C822D",
"L2 	c #A68A30",
"M2 	c #A48930",
"N2 	c #8A6F2F",
"O2 	c #674E2A",
"P2 	c #8D742B",
"Q2 	c #72592B",
"R2 	c #7C6825",
"S2 	c #8B793E",
"T2 	c #9A7F27",
"U2 	c #785C30",
"V2 	c #76592F",
"W2 	c #7D6F5B",
"X2 	c #76705C",
"Y2 	c #81837A",
"Z2 	c #838782",
"`2 	c #A49670",
" 3 	c #969289",
".3 	c #767060",
"+3 	c #74736C",
"@3 	c #6B6557",
"#3 	c #6D5E4A",
"$3 	c #4C5548",
"%3 	c #575B52",
"&3 	c #9C8022",
"*3 	c #434C40",
"=3 	c #635F4F",
"-3 	c #7F613E",
";3 	c #7D622E",
">3 	c #725C26",
",3 	c #877026",
"'3 	c #795E2D",
")3 	c #967D2C",
"!3 	c #C6CACB",
"~3 	c #9A8D67",
"{3 	c #A89F8A",
"]3 	c #989284",
"^3 	c #B1B7B7",
"/3 	c #92A095",
"(3 	c #B4B7BB",
"_3 	c #A6B0A8",
":3 	c #BFC7C3",
"<3 	c #9F842B",
"[3 	c #98833C",
"}3 	c #9C853C",
"|3 	c #9E8A4C",
"13 	c #966F3C",
"23 	c #7F5F38",
"33 	c #9C7F31",
"43 	c #BB9C35",
"53 	c #8F782C",
"63 	c #756226",
"73 	c #8F7B3B",
"83 	c #8C7526",
"93 	c #8B6C32",
"03 	c #65655D",
"a3 	c #5F6056",
"b3 	c #64645B",
"c3 	c #4B4334",
"d3 	c #654D37",
"e3 	c #7F6920",
"f3 	c #B2BAB6",
"g3 	c #A8B1AA",
"h3 	c #A9B3AD",
"i3 	c #B9AF9C",
"j3 	c #B7AF9E",
"k3 	c #957F33",
"l3 	c #A68A32",
"m3 	c #453D30",
"n3 	c #41443A",
"o3 	c #41443B",
"p3 	c #384039",
"q3 	c #666C68",
"r3 	c #796228",
"s3 	c #95844F",
"t3 	c #A39C8C",
"u3 	c #9B9380",
"v3 	c #A8A192",
"w3 	c #B7A055",
"x3 	c #AA944E",
"y3 	c #AE9D6E",
"z3 	c #AA9345",
"A3 	c #B29334",
"B3 	c #B89932",
"C3 	c #A98C2B",
"D3 	c #A39C90",
"E3 	c #A69150",
"F3 	c #947B27",
"G3 	c #9B822A",
"H3 	c #A38D45",
"I3 	c #A68B2F",
"J3 	c #826530",
"K3 	c #846C52",
"L3 	c #7C6F5D",
"M3 	c #8A8E84",
"N3 	c #7F8379",
"O3 	c #AE902B",
"P3 	c #97978E",
"Q3 	c #8C8375",
"R3 	c #817159",
"S3 	c #917531",
"T3 	c #836E53",
"U3 	c #767465",
"V3 	c #646250",
"W3 	c #706B57",
"X3 	c #786046",
"Y3 	c #7D6035",
"Z3 	c #83653F",
"`3 	c #9B7E33",
" 4 	c #9A802E",
".4 	c #B29533",
"+4 	c #8B7327",
"@4 	c #9B8F6D",
"#4 	c #7D776B",
"$4 	c #C5C9CA",
"%4 	c #A99F8E",
"&4 	c #B4AD9B",
"*4 	c #A49771",
"=4 	c #8A7E57",
"-4 	c #A59976",
";4 	c #ACA393",
">4 	c #B5AB99",
",4 	c #A19A8A",
"'4 	c #837D70",
")4 	c #736D61",
"!4 	c #B5B9BB",
"~4 	c #7F776A",
"{4 	c #B3952F",
"]4 	c #B1984B",
"^4 	c #A28C47",
"/4 	c #96875B",
"(4 	c #9C894A",
"_4 	c #A99A74",
":4 	c #8B7D54",
"<4 	c #B19949",
"[4 	c #A3872B",
"}4 	c #8C762B",
"|4 	c #8C732B",
"14 	c #926E3B",
"24 	c #8D6E4B",
"34 	c #6B685D",
"44 	c #585A51",
"54 	c #68675D",
"64 	c #6F583E",
"74 	c #816C23",
"84 	c #7B756A",
"94 	c #888274",
"04 	c #957C27",
"a4 	c #7D5F3B",
"b4 	c #34372E",
"c4 	c #685944",
"d4 	c #987831",
"e4 	c #C4A435",
"f4 	c #39413C",
"g4 	c #5A503E",
"h4 	c #604B36",
"i4 	c #755F26",
"j4 	c #8D7733",
"k4 	c #8F866E",
"l4 	c #887B57",
"m4 	c #8A773C",
"n4 	c #978B69",
"o4 	c #AE9F74",
"p4 	c #8F887C",
"q4 	c #918B7E",
"r4 	c #ABA291",
"s4 	c #BBBAB2",
"t4 	c #999185",
"u4 	c #B1A890",
"v4 	c #A48A34",
"w4 	c #BCA55B",
"x4 	c #A88B34",
"y4 	c #8C6F50",
"z4 	c #958C7B",
"A4 	c #827C69",
"B4 	c #777B71",
"C4 	c #676D61",
"D4 	c #82857A",
"E4 	c #81857A",
"F4 	c #5B6052",
"G4 	c #7D5F30",
"H4 	c #927137",
"I4 	c #A78638",
"J4 	c #A98934",
"K4 	c #998029",
"L4 	c #997D31",
"M4 	c #BC9E36",
"N4 	c #936F3C",
"O4 	c #A18136",
"P4 	c #9A822B",
"Q4 	c #AD9032",
"R4 	c #95803D",
"S4 	c #9F9578",
"T4 	c #917F47",
"U4 	c #978653",
"V4 	c #A8996C",
"W4 	c #736020",
"X4 	c #82795F",
"Y4 	c #B8B09E",
"Z4 	c #C0B7A5",
"`4 	c #B3AA98",
" 5 	c #A79E8E",
".5 	c #9D9584",
"+5 	c #787267",
"@5 	c #A2A49E",
"#5 	c #98A39B",
"$5 	c #B0B5B6",
"%5 	c #B8BEBB",
"&5 	c #C8CDCA",
"*5 	c #95938A",
"=5 	c #958E81",
"-5 	c #856E22",
";5 	c #A1893C",
">5 	c #A59569",
",5 	c #A7996D",
"'5 	c #AD9B69",
")5 	c #A58B30",
"!5 	c #9B8232",
"~5 	c #977A34",
"{5 	c #9E7E37",
"]5 	c #856642",
"^5 	c #8D6D34",
"/5 	c #67685F",
"(5 	c #6E5F4B",
"_5 	c #4A4B43",
":5 	c #5D472F",
"<5 	c #836E24",
"[5 	c #736E64",
"}5 	c #97A49B",
"|5 	c #8B6B36",
"15 	c #99723D",
"25 	c #323834",
"35 	c #A6A096",
"45 	c #A39363",
"55 	c #5B5748",
"65 	c #4D5248",
"75 	c #726252",
"85 	c #9B9589",
"95 	c #88806F",
"05 	c #948E7E",
"a5 	c #9D8F6B",
"b5 	c #AAB3B0",
"c5 	c #958C7C",
"d5 	c #ABB2AC",
"e5 	c #C7CCC8",
"f5 	c #D2D4D4",
"g5 	c #C2CAC3",
"h5 	c #98823D",
"i5 	c #AF9D63",
"j5 	c #A68637",
"k5 	c #80623A",
"l5 	c #997C5B",
"m5 	c #9A764A",
"n5 	c #95968D",
"o5 	c #71766A",
"p5 	c #838982",
"q5 	c #C3A232",
"r5 	c #907821",
"s5 	c #616963",
"t5 	c #896836",
"u5 	c #B19431",
"v5 	c #797368",
"w5 	c #9C9689",
"x5 	c #B4973A",
"y5 	c #90804F",
"z5 	c #ABA494",
"A5 	c #A39C8B",
"B5 	c #C2C8C7",
"C5 	c #C7C9CA",
"D5 	c #BFC3C3",
"E5 	c #938F85",
"F5 	c #AD9E74",
"G5 	c #69581B",
"H5 	c #948A73",
"I5 	c #B0A793",
"J5 	c #ABB5B2",
"K5 	c #959387",
"L5 	c #ADB4B3",
"M5 	c #BBBEC2",
"N5 	c #726F69",
"O5 	c #6A6559",
"P5 	c #A4ABA8",
"Q5 	c #999080",
"R5 	c #9D927A",
"S5 	c #A19986",
"T5 	c #948456",
"U5 	c #927D37",
"V5 	c #8F7933",
"W5 	c #A19161",
"X5 	c #857233",
"Y5 	c #85784D",
"Z5 	c #ABA393",
"`5 	c #A0893D",
" 6 	c #A28937",
".6 	c #988751",
"+6 	c #BE9F36",
"@6 	c #8E7728",
"#6 	c #9E842E",
"$6 	c #AC8F32",
"%6 	c #C1A238",
"&6 	c #81664B",
"*6 	c #5D5F57",
"=6 	c #505148",
"-6 	c #937A27",
";6 	c #ABB2AD",
">6 	c #BBBEBE",
",6 	c #AEA078",
"'6 	c #A28433",
")6 	c #5F5746",
"!6 	c #5C4F3E",
"~6 	c #393A2F",
"{6 	c #444B43",
"]6 	c #755835",
"^6 	c #9D8130",
"/6 	c #A09472",
"(6 	c #A4A194",
"_6 	c #A08E56",
":6 	c #998339",
"<6 	c #948554",
"[6 	c #A59E8F",
"}6 	c #9AA59D",
"|6 	c #C7CDC9",
"16 	c #ABB1AE",
"26 	c #C7CDC8",
"36 	c #C9CFCC",
"46 	c #C6CECA",
"56 	c #AB975B",
"66 	c #A98D2F",
"76 	c #A08331",
"86 	c #7B6348",
"96 	c #89897F",
"06 	c #83887B",
"a6 	c #8B8B85",
"b6 	c #9C8E64",
"c6 	c #8E7427",
"d6 	c #A6A09A",
"e6 	c #5C665E",
"f6 	c #6A573F",
"g6 	c #796520",
"h6 	c #958D7B",
"i6 	c #C5CCCA",
"j6 	c #8D877C",
"k6 	c #9F988A",
"l6 	c #B7AF9C",
"m6 	c #C4C9C9",
"n6 	c #A59E93",
"o6 	c #92782E",
"p6 	c #907232",
"q6 	c #A78A33",
"r6 	c #8B722B",
"s6 	c #8B7735",
"t6 	c #B8B09F",
"u6 	c #7E776A",
"v6 	c #C3C9C5",
"w6 	c #95A198",
"x6 	c #A7B0AD",
"y6 	c #989181",
"z6 	c #9F9472",
"A6 	c #927E41",
"B6 	c #90762D",
"C6 	c #9C812D",
"D6 	c #AD9754",
"E6 	c #A48B38",
"F6 	c #826E2B",
"G6 	c #93814D",
"H6 	c #96813F",
"I6 	c #97823F",
"J6 	c #8F7C3C",
"K6 	c #B3A892",
"L6 	c #A79C81",
"M6 	c #AB9C71",
"N6 	c #AE9D68",
"O6 	c #99802D",
"P6 	c #947930",
"Q6 	c #C2A237",
"R6 	c #896E2D",
"S6 	c #A48832",
"T6 	c #98753A",
"U6 	c #695740",
"V6 	c #72634E",
"W6 	c #624F39",
"X6 	c #CACDCD",
"Y6 	c #BABDBE",
"Z6 	c #ACA495",
"`6 	c #896934",
" 7 	c #413C2B",
".7 	c #2B342B",
"+7 	c #555A50",
"@7 	c #71624C",
"#7 	c #846A2D",
"$7 	c #B0B4AC",
"%7 	c #A2ABA1",
"&7 	c #CBD0CD",
"*7 	c #C5CBC7",
"=7 	c #C3CAC5",
"-7 	c #BFBDB3",
";7 	c #A99555",
">7 	c #9F8133",
",7 	c #91938D",
"'7 	c #907456",
")7 	c #7C5F3F",
"!7 	c #9F8424",
"~7 	c #A38728",
"{7 	c #A1852A",
"]7 	c #848A87",
"^7 	c #725A3F",
"/7 	c #795C2F",
"(7 	c #6D5924",
"_7 	c #9D906A",
":7 	c #ACA391",
"<7 	c #ACA594",
"[7 	c #858076",
"}7 	c #AFB9B2",
"|7 	c #B6BFBB",
"17 	c #988B63",
"27 	c #90752E",
"37 	c #837751",
"47 	c #B7BDBA",
"57 	c #B2B5B7",
"67 	c #B7BABE",
"77 	c #BEC3C3",
"87 	c #AFB6B6",
"97 	c #ACAA9E",
"07 	c #837756",
"a7 	c #584635",
"b7 	c #8D6E31",
"c7 	c #5B4936",
"d7 	c #987E2F",
"e7 	c #9E8840",
"f7 	c #9C9487",
"g7 	c #9A9074",
"h7 	c #8D8159",
"i7 	c #9E926E",
"j7 	c #B1A899",
"k7 	c #B5B7B2",
"l7 	c #A29A86",
"m7 	c #99802F",
"n7 	c #856731",
"o7 	c #765A2E",
"p7 	c #8C712E",
"q7 	c #8F7036",
"r7 	c #937337",
"s7 	c #A27E3F",
"t7 	c #755939",
"u7 	c #745A2B",
"v7 	c #866F29",
"w7 	c #7B6D41",
"x7 	c #B3BCB6",
"y7 	c #908258",
"z7 	c #B99A33",
"A7 	c #615340",
"B7 	c #464438",
"C7 	c #5A5443",
"D7 	c #81613B",
"E7 	c #695133",
"F7 	c #947731",
"G7 	c #917E43",
"H7 	c #726B61",
"I7 	c #CED2D0",
"J7 	c #AEB4B1",
"K7 	c #A5ACAA",
"L7 	c #CCD1CE",
"M7 	c #C1C8C3",
"N7 	c #CDD2D0",
"O7 	c #C5CAC6",
"P7 	c #D6D9DB",
"Q7 	c #AC8E2E",
"R7 	c #B39634",
"S7 	c #80684E",
"T7 	c #817C71",
"U7 	c #B4962F",
"V7 	c #927820",
"W7 	c #A69B78",
"X7 	c #7E5A29",
"Y7 	c #7B6D5B",
"Z7 	c #826631",
"`7 	c #91762E",
" 8 	c #836B2A",
".8 	c #786521",
"+8 	c #988E72",
"@8 	c #908569",
"#8 	c #8E887A",
"$8 	c #C7CBCC",
"%8 	c #A8A08F",
"&8 	c #A9A18F",
"*8 	c #8D8779",
"=8 	c #BABCB6",
"-8 	c #B9C2BD",
";8 	c #80786C",
">8 	c #706B60",
",8 	c #B8B8B4",
"'8 	c #AC9B63",
")8 	c #B19842",
"!8 	c #897D57",
"~8 	c #B4A788",
"{8 	c #A39880",
"]8 	c #9A9183",
"^8 	c #BEC3C4",
"/8 	c #B0B7B2",
"(8 	c #949A91",
"_8 	c #A8B0AA",
":8 	c #99A39B",
"<8 	c #97A399",
"[8 	c #BBC3BD",
"}8 	c #696458",
"|8 	c #9C822A",
"18 	c #6C5C48",
"28 	c #6E726A",
"38 	c #6A6E65",
"48 	c #5B594F",
"58 	c #A99760",
"68 	c #8B826A",
"78 	c #A09789",
"88 	c #A09C8F",
"98 	c #B2BBB7",
"08 	c #AAA190",
"a8 	c #97854C",
"b8 	c #A68933",
"c8 	c #A2892F",
"d8 	c #7C5E37",
"e8 	c #7C602E",
"f8 	c #987C32",
"g8 	c #7C5E31",
"h8 	c #7C5E35",
"i8 	c #584A3B",
"j8 	c #816B21",
"k8 	c #6A6458",
"l8 	c #B29531",
"m8 	c #846439",
"n8 	c #957831",
"o8 	c #A68C2F",
"p8 	c #B69832",
"q8 	c #827D71",
"r8 	c #9BA79F",
"s8 	c #C6CDC9",
"t8 	c #C0C3C5",
"u8 	c #A1ACA4",
"v8 	c #B1B6B4",
"w8 	c #C6CCC8",
"x8 	c #C7CCC9",
"y8 	c #C6CCC7",
"z8 	c #D0D1D2",
"A8 	c #A49D8E",
"B8 	c #AB944C",
"C8 	c #946F42",
"D8 	c #87684A",
"E8 	c #6B6353",
"F8 	c #786B59",
"G8 	c #868880",
"H8 	c #8D8B7F",
"I8 	c #6F7165",
"J8 	c #7D6346",
"K8 	c #705B41",
"L8 	c #7B5E31",
"M8 	c #857B60",
"N8 	c #857E70",
"O8 	c #7D7669",
"P8 	c #948762",
"Q8 	c #9A968C",
"R8 	c #969288",
"S8 	c #877335",
"T8 	c #806F3C",
"U8 	c #9B937D",
"V8 	c #968C73",
"W8 	c #AAB0AA",
"X8 	c #B8BDBB",
"Y8 	c #99A59B",
"Z8 	c #98A59A",
"`8 	c #B4B9B8",
" 9 	c #A4AEAA",
".9 	c #918254",
"+9 	c #A3882C",
"@9 	c #A88B33",
"#9 	c #666456",
"$9 	c #63665E",
"%9 	c #685541",
"&9 	c #917333",
"*9 	c #A1862D",
"=9 	c #9C8F68",
"-9 	c #796A3A",
";9 	c #958760",
">9 	c #8B7F5F",
",9 	c #C4C9C8",
"'9 	c #AFB1A7",
")9 	c #BDB4A1",
"!9 	c #B2A996",
"~9 	c #AB8E2F",
"{9 	c #BF9F36",
"]9 	c #B39633",
"^9 	c #7B5D3A",
"/9 	c #906D3C",
"(9 	c #926E3D",
"_9 	c #58584C",
":9 	c #5A5D56",
"<9 	c #473827",
"[9 	c #95834A",
"}9 	c #7D766B",
"|9 	c #BCBEC0",
"19 	c #C0C4C4",
"29 	c #B7BABD",
"39 	c #A7B1AA",
"49 	c #928B7C",
"59 	c #A88C2C",
"69 	c #9B8542",
"79 	c #958A6F",
"89 	c #ADB6B4",
"99 	c #AFB3B5",
"09 	c #B1B5B5",
"a9 	c #A4ABAA",
"b9 	c #CCD0CE",
"c9 	c #CFD3D2",
"d9 	c #B9C2BA",
"e9 	c #ABA89E",
"f9 	c #9C8126",
"g9 	c #8A722A",
"h9 	c #997F2D",
"i9 	c #A58B2F",
"j9 	c #A27F38",
"k9 	c #867661",
"l9 	c #6F6046",
"m9 	c #75634F",
"n9 	c #9A7C34",
"o9 	c #6B5427",
"p9 	c #947A27",
"q9 	c #7B7567",
"r9 	c #AAA89D",
"s9 	c #B7BBB6",
"t9 	c #B5AC9B",
"u9 	c #BBB19E",
"v9 	c #9A8E73",
"w9 	c #A49E91",
"x9 	c #A4A49E",
"y9 	c #9B988D",
"z9 	c #B2BBB6",
"A9 	c #9F9687",
"B9 	c #8D762D",
"C9 	c #7F6927",
"D9 	c #84733F",
"E9 	c #9E8E5D",
"F9 	c #8E887C",
"G9 	c #B3B7B7",
"H9 	c #BBBFC0",
"I9 	c #918D82",
"J9 	c #A8A294",
"K9 	c #736554",
"L9 	c #6F6350",
"M9 	c #474D43",
"N9 	c #9F842E",
"O9 	c #9F862E",
"P9 	c #907C3A",
"Q9 	c #7F6B24",
"R9 	c #867439",
"S9 	c #8A8479",
"T9 	c #B6BDB7",
"U9 	c #A19574",
"V9 	c #A68E45",
"W9 	c #A48B3B",
"X9 	c #A98937",
"Y9 	c #87663D",
"Z9 	c #675B48",
"`9 	c #6A503A",
" 0 	c #786F64",
".0 	c #545953",
"+0 	c #7F672A",
"@0 	c #837135",
"#0 	c #716A5F",
"$0 	c #ABAEA7",
"%0 	c #C7CAC9",
"&0 	c #A2A29B",
"*0 	c #989083",
"=0 	c #928A7D",
"-0 	c #B5B9BC",
";0 	c #C2C7C7",
">0 	c #CBCFCD",
",0 	c #CDD0CF",
"'0 	c #C0C7C1",
")0 	c #CBCECD",
"!0 	c #CCCFCF",
"~0 	c #AEA798",
"{0 	c #8F8155",
"]0 	c #A58C38",
"^0 	c #A68C35",
"/0 	c #938D84",
"(0 	c #AE9D6B",
"_0 	c #A38935",
":0 	c #886841",
"<0 	c #80715D",
"[0 	c #886836",
"}0 	c #866F2A",
"|0 	c #897227",
"10 	c #86712B",
"20 	c #847F74",
"30 	c #BBBFBD",
"40 	c #78736A",
"50 	c #947F39",
"60 	c #826C24",
"70 	c #ACA188",
"80 	c #6B655A",
"90 	c #989085",
"00 	c #A78C2E",
"a0 	c #735736",
"b0 	c #71582A",
"c0 	c #867026",
"d0 	c #857751",
"e0 	c #C2C4C5",
"f0 	c #AAB4AD",
"g0 	c #AEB6B0",
"h0 	c #A9AFAE",
"i0 	c #B9BFBE",
"j0 	c #ADA492",
"k0 	c #A7924F",
"l0 	c #755C3F",
"m0 	c #726A56",
"n0 	c #676356",
"o0 	c #927A2A",
"p0 	c #A88D30",
"q0 	c #987F2A",
"r0 	c #947C2B",
"s0 	c #A19881",
"t0 	c #7C7467",
"u0 	c #8F7F4F",
"v0 	c #948760",
"w0 	c #A0883C",
"x0 	c #A88C2F",
"y0 	c #A98C30",
"z0 	c #7E6032",
"A0 	c #5B615B",
"B0 	c #AA8D2E",
"C0 	c #7A5C3A",
"D0 	c #565B5D",
"E0 	c #644D32",
"F0 	c #765F27",
"G0 	c #827036",
"H0 	c #787064",
"I0 	c #D2D2D4",
"J0 	c #A9B1AE",
"K0 	c #A0A8A3",
"L0 	c #ABB0AF",
"M0 	c #A3AAA5",
"N0 	c #9DA19A",
"O0 	c #9FAAA2",
"P0 	c #C0C3BD",
"Q0 	c #AE9E6C",
"R0 	c #968E7A",
"S0 	c #ACA289",
"T0 	c #B69734",
"U0 	c #B9A04F",
"V0 	c #9C894F",
"W0 	c #8E7032",
"X0 	c #715F49",
"Y0 	c #B19236",
"Z0 	c #8E762A",
"`0 	c #776027",
" a 	c #9D842E",
".a 	c #7A612A",
"+a 	c #877435",
"@a 	c #7E796E",
"#a 	c #ADA99B",
"$a 	c #A59A80",
"%a 	c #A49B83",
"&a 	c #8C8166",
"*a 	c #9C937B",
"=a 	c #897A4D",
"-a 	c #8C7128",
";a 	c #605444",
">a 	c #6C5A45",
",a 	c #5B452A",
"'a 	c #C2C6C7",
")a 	c #BEC2C2",
"!a 	c #A4ADA7",
"~a 	c #ACB2B2",
"{a 	c #B9BDBE",
"]a 	c #C9CBCB",
"^a 	c #C1C9C5",
"/a 	c #B5AA91",
"(a 	c #9E7F32",
"_a 	c #766B58",
":a 	c #787B73",
"<a 	c #656965",
"[a 	c #675037",
"}a 	c #917233",
"|a 	c #91772C",
"1a 	c #A68B30",
"2a 	c #AE9C63",
"3a 	c #A7A294",
"4a 	c #898174",
"5a 	c #8D825F",
"6a 	c #A0915F",
"7a 	c #938355",
"8a 	c #9E906A",
"9a 	c #81692A",
"0a 	c #595242",
"aa 	c #555B55",
"ba 	c #988031",
"ca 	c #826232",
"da 	c #5F645F",
"ea 	c #A0862D",
"fa 	c #756F63",
"ga 	c #B3BDB6",
"ha 	c #C9CBCE",
"ia 	c #7B682B",
"ja 	c #7D745A",
"ka 	c #8B8479",
"la 	c #7A7469",
"ma 	c #8B8D82",
"na 	c #99A69D",
"oa 	c #A6ADA9",
"pa 	c #CACCCD",
"qa 	c #C9CECB",
"ra 	c #A09A8C",
"sa 	c #98843F",
"ta 	c #9B8645",
"ua 	c #987E2D",
"va 	c #897948",
"wa 	c #9B884C",
"xa 	c #997E30",
"ya 	c #A28237",
"za 	c #785F2C",
"Aa 	c #7E622D",
"Ba 	c #785B32",
"Ca 	c #7C5D30",
"Da 	c #705637",
"Ea 	c #AAA291",
"Fa 	c #8C7424",
"Ga 	c #60523E",
"Ha 	c #595F55",
"Ia 	c #7E7870",
"Ja 	c #785C2D",
"Ka 	c #6A5031",
"La 	c #9F8E59",
"Ma 	c #B4B8B7",
"Na 	c #A6B0A7",
"Oa 	c #9DA9A0",
"Pa 	c #AAB1AD",
"Qa 	c #B3B6AD",
"Ra 	c #6C6756",
"Sa 	c #AB8D29",
"Ta 	c #9C8436",
"Ua 	c #A7872E",
"Va 	c #4F4F46",
"Wa 	c #5D4A35",
"Xa 	c #8C732C",
"Ya 	c #877539",
"Za 	c #AAB5AD",
"`a 	c #A49D8C",
" b 	c #8D8778",
".b 	c #948A72",
"+b 	c #917929",
"@b 	c #B09331",
"#b 	c #908055",
"$b 	c #716C61",
"%b 	c #5B4934",
"&b 	c #745929",
"*b 	c #7C5F41",
"=b 	c #585F59",
"-b 	c #867126",
";b 	c #736125",
">b 	c #7C766C",
",b 	c #948C7D",
"'b 	c #A3872A",
")b 	c #806B25",
"!b 	c #897225",
"~b 	c #9E957D",
"{b 	c #928B7E",
"]b 	c #86774D",
"^b 	c #746D62",
"/b 	c #D4D7D8",
"(b 	c #A6ACAB",
"_b 	c #CDD0D0",
":b 	c #B1B3AB",
"<b 	c #9A917D",
"[b 	c #A99E80",
"}b 	c #B69935",
"|b 	c #866A2E",
"1b 	c #795F2B",
"2b 	c #927A2B",
"3b 	c #9D853B",
"4b 	c #877127",
"5b 	c #9A7D34",
"6b 	c #927533",
"7b 	c #846533",
"8b 	c #6F695B",
"9b 	c #505244",
"0b 	c #464D43",
"ab 	c #6B5128",
"bb 	c #A49C8D",
"cb 	c #A7A496",
"db 	c #BFB5A3",
"eb 	c #9D8E67",
"fb 	c #694F36",
"gb 	c #696D66",
"hb 	c #7D7A70",
"ib 	c #957532",
"jb 	c #987E2A",
"kb 	c #886E2D",
"lb 	c #806C2E",
"mb 	c #ACB4AE",
"nb 	c #B1B9B5",
"ob 	c #BBBFBF",
"pb 	c #C0C5C2",
"qb 	c #BDC2C2",
"rb 	c #BBC5BF",
"sb 	c #907824",
"tb 	c #6F5B44",
"ub 	c #6E5C48",
"vb 	c #585B55",
"wb 	c #55594E",
"xb 	c #616159",
"yb 	c #5E4E39",
"zb 	c #A7A192",
"Ab 	c #BAB19F",
"Bb 	c #A4997E",
"Cb 	c #958C75",
"Db 	c #978858",
"Eb 	c #AB9C75",
"Fb 	c #9A9486",
"Gb 	c #BD9E35",
"Hb 	c #775C3E",
"Ib 	c #785935",
"Jb 	c #4B5350",
"Kb 	c #4C4D3D",
"Lb 	c #4F5346",
"Mb 	c #725633",
"Nb 	c #977B2E",
"Ob 	c #796622",
"Pb 	c #836E2C",
"Qb 	c #918A7E",
"Rb 	c #726D61",
"Sb 	c #B3BCB7",
"Tb 	c #BBBEC0",
"Ub 	c #C1C4C4",
"Vb 	c #9F9B8D",
"Wb 	c #9E8429",
"Xb 	c #B29534",
"Yb 	c #8E7C43",
"Zb 	c #867E68",
"`b 	c #85774A",
" c 	c #958452",
".c 	c #7F7867",
"+c 	c #C5CBC9",
"@c 	c #948E80",
"#c 	c #8A7C53",
"$c 	c #A68A31",
"%c 	c #866833",
"&c 	c #6F644F",
"*c 	c #766F60",
"=c 	c #71562A",
"-c 	c #8D732E",
";c 	c #A2872E",
">c 	c #947B29",
",c 	c #9A812A",
"'c 	c #937236",
")c 	c #6A7167",
"!c 	c #A0822C",
"~c 	c #5F6760",
"{c 	c #846F26",
"]c 	c #8B7E5E",
"^c 	c #ABA085",
"/c 	c #A28233",
"(c 	c #756B5B",
"_c 	c #7B5E3F",
":c 	c #9C8741",
"<c 	c #A69251",
"[c 	c #9E8F5E",
"}c 	c #887A4C",
"|c 	c #746D60",
"1c 	c #B9BDBC",
"2c 	c #A5AFA8",
"3c 	c #BFC2C3",
"4c 	c #A7ADAA",
"5c 	c #ABB2AE",
"6c 	c #B6BABA",
"7c 	c #AEB7B0",
"8c 	c #CDD0D1",
"9c 	c #A48D45",
"0c 	c #6D5943",
"ac 	c #62665C",
"bc 	c #6A604C",
"cc 	c #6F5F47",
"dc 	c #414338",
"ec 	c #4C4C43",
"fc 	c #524D41",
"gc 	c #7F6A23",
"hc 	c #756E5B",
"ic 	c #9D9483",
"jc 	c #A8A397",
"kc 	c #BBB09A",
"lc 	c #8A7E5D",
"mc 	c #867F6D",
"nc 	c #8E877B",
"oc 	c #A59C88",
"pc 	c #908873",
"qc 	c #928B78",
"rc 	c #B99A35",
"sc 	c #8E6F33",
"tc 	c #60665D",
"uc 	c #4C5547",
"vc 	c #6C736A",
"wc 	c #535A55",
"xc 	c #454840",
"yc 	c #474438",
"zc 	c #544A3A",
"Ac 	c #8B6D30",
"Bc 	c #897432",
"Cc 	c #766B4B",
"Dc 	c #918E85",
"Ec 	c #B4BDB6",
"Fc 	c #B1B5B7",
"Gc 	c #9DA098",
"Hc 	c #AEA796",
"Ic 	c #AD8F2E",
"Jc 	c #8D712F",
"Kc 	c #907F4D",
"Lc 	c #A18F5A",
"Mc 	c #948246",
"Nc 	c #82754E",
"Oc 	c #877F6B",
"Pc 	c #93958F",
"Qc 	c #BEC4C3",
"Rc 	c #A9AFAF",
"Sc 	c #9E9585",
"Tc 	c #908770",
"Uc 	c #988030",
"Vc 	c #766D59",
"Wc 	c #626960",
"Xc 	c #7E613E",
"Yc 	c #886D2F",
"Zc 	c #948763",
"`c 	c #A79A76",
" d 	c #887B6B",
".d 	c #626860",
"+d 	c #434D44",
"@d 	c #554A38",
"#d 	c #8C7426",
"$d 	c #B1A485",
"%d 	c #C3BBAA",
"&d 	c #978964",
"*d 	c #88773E",
"=d 	c #907C3F",
"-d 	c #7C612E",
";d 	c #8E6B3E",
">d 	c #9D812F",
",d 	c #9E8E62",
"'d 	c #9D8D62",
")d 	c #8F8365",
"!d 	c #C0C4C5",
"~d 	c #B9BEBD",
"{d 	c #BFC1C5",
"]d 	c #B1BAB4",
"^d 	c #9F8F5F",
"/d 	c #73593B",
"(d 	c #917137",
"_d 	c #987736",
":d 	c #665741",
"<d 	c #3F423A",
"[d 	c #937B2C",
"}d 	c #88732C",
"|d 	c #746C56",
"1d 	c #8C8577",
"2d 	c #938B75",
"3d 	c #95865F",
"4d 	c #A39A8B",
"5d 	c #9D9F98",
"6d 	c #9C9380",
"7d 	c #957F37",
"8d 	c #92782A",
"9d 	c #6C624F",
"0d 	c #50584D",
"ad 	c #A89764",
"bd 	c #B8B3A9",
"cd 	c #AE9854",
"dd 	c #BEA54E",
"ed 	c #5C5C5A",
"fd 	c #8F7828",
"gd 	c #837D73",
"hd 	c #9A9B91",
"id 	c #AF9D66",
"jd 	c #908255",
"kd 	c #9F8E5D",
"ld 	c #9D9172",
"md 	c #8F8054",
"nd 	c #736741",
"od 	c #B3BBB5",
"pd 	c #AFB3B6",
"qd 	c #706A5E",
"rd 	c #CACFCE",
"sd 	c #AFA695",
"td 	c #A39572",
"ud 	c #9A8440",
"vd 	c #A68932",
"wd 	c #7E5F34",
"xd 	c #917430",
"yd 	c #A0852C",
"zd 	c #A28E52",
"Ad 	c #7E6C32",
"Bd 	c #9D8C5B",
"Cd 	c #B0922F",
"Dd 	c #B08A3E",
"Ed 	c #5F6155",
"Fd 	c #675D48",
"Gd 	c #8D6A37",
"Hd 	c #997B32",
"Id 	c #81672D",
"Jd 	c #837034",
"Kd 	c #87794D",
"Ld 	c #9A812B",
"Md 	c #5A4F3C",
"Nd 	c #574F3D",
"Od 	c #96854D",
"Pd 	c #9C8A50",
"Qd 	c #A59D8B",
"Rd 	c #A0ACA2",
"Sd 	c #A7B2AA",
"Td 	c #B2B9B4",
"Ud 	c #C1C4C6",
"Vd 	c #B0B8B5",
"Wd 	c #B5BCB7",
"Xd 	c #BEC5C2",
"Yd 	c #A89E87",
"Zd 	c #B3994A",
"`d 	c #936F3B",
" e 	c #B09330",
".e 	c #B09137",
"+e 	c #906E3A",
"@e 	c #947238",
"#e 	c #937B2B",
"$e 	c #90782A",
"%e 	c #9E842C",
"&e 	c #7F6E37",
"*e 	c #937E3B",
"=e 	c #887434",
"-e 	c #AA9F88",
";e 	c #ABA390",
">e 	c #8E8678",
",e 	c #B8BBBA",
"'e 	c #93792C",
")e 	c #4E524D",
"!e 	c #847E73",
"~e 	c #A6AFAC",
"{e 	c #555854",
"]e 	c #5B5648",
"^e 	c #514B3E",
"/e 	c #715C24",
"(e 	c #A4A59C",
"_e 	c #968E7E",
":e 	c #A59B83",
"<e 	c #AFA796",
"[e 	c #8A8476",
"}e 	c #98A59B",
"|e 	c #848076",
"1e 	c #A08838",
"2e 	c #A08529",
"3e 	c #90792D",
"4e 	c #A19677",
"5e 	c #8B836D",
"6e 	c #A38C40",
"7e 	c #A28A3D",
"8e 	c #4B544B",
"9e 	c #232C27",
"0e 	c #5C4B34",
"ae 	c #927532",
"be 	c #7F613F",
"ce 	c #92792A",
"de 	c #A68832",
"ee 	c #786F61",
"fe 	c #475247",
"ge 	c #434132",
"he 	c #594D39",
"ie 	c #705728",
"je 	c #8E7827",
"ke 	c #786421",
"le 	c #7B766A",
"me 	c #888479",
"ne 	c #A6B2AA",
"oe 	c #B5BDBA",
"pe 	c #92928A",
"qe 	c #9C9C94",
"re 	c #BABFBF",
"se 	c #B9BFBB",
"te 	c #B5AC9A",
"ue 	c #A68E3E",
"ve 	c #9B812D",
"we 	c #B09435",
"xe 	c #998443",
"ye 	c #A69870",
"ze 	c #A89B79",
"Ae 	c #9E8329",
"Be 	c #6D5429",
"Ce 	c #997C33",
"De 	c #7A602D",
"Ee 	c #68502A",
"Fe 	c #A69974",
"Ge 	c #8F897A",
"He 	c #A7ADA8",
"Ie 	c #8F8778",
"Je 	c #877F71",
"Ke 	c #BDA03E",
"Le 	c #64665F",
"Me 	c #625B4A",
"Ne 	c #6A4D29",
"Oe 	c #A8A296",
"Pe 	c #4B534C",
"Qe 	c #57574B",
"Re 	c #937235",
"Se 	c #B4BDB7",
"Te 	c #ABB0A8",
"Ue 	c #8B8474",
"Ve 	c #A5A49D",
"We 	c #B1A896",
"Xe 	c #B4AC9B",
"Ye 	c #918A7A",
"Ze 	c #C3CAC6",
"`e 	c #C4CBC7",
" f 	c #A0A8A4",
".f 	c #797366",
"+f 	c #A49B8B",
"@f 	c #B7AD9B",
"#f 	c #908772",
"$f 	c #A69254",
"%f 	c #877024",
"&f 	c #9D873E",
"*f 	c #AD9139",
"=f 	c #AF9331",
"-f 	c #606961",
";f 	c #4C514C",
">f 	c #605139",
",f 	c #977835",
"'f 	c #8A6D30",
")f 	c #886C2C",
"!f 	c #A68734",
"~f 	c #96703A",
"{f 	c #8C7458",
"]f 	c #4C5143",
"^f 	c #51574E",
"/f 	c #655A46",
"(f 	c #605846",
"_f 	c #605642",
":f 	c #5B4E3B",
"<f 	c #8B6B33",
"[f 	c #69523C",
"}f 	c #917927",
"|f 	c #8A7E58",
"1f 	c #999A90",
"2f 	c #B2BBB4",
"3f 	c #BFC6C3",
"4f 	c #917D39",
"5f 	c #9B8C63",
"6f 	c #99907A",
"7f 	c #9A8F74",
"8f 	c #9E9378",
"9f 	c #B59632",
"0f 	c #745A2D",
"af 	c #725736",
"bf 	c #69553E",
"cf 	c #5F492F",
"df 	c #887433",
"ef 	c #8A7944",
"ff 	c #A68C32",
"gf 	c #8F6E36",
"hf 	c #806136",
"if 	c #535548",
"jf 	c #705E48",
"kf 	c #4F554E",
"lf 	c #4D4F44",
"mf 	c #5A5648",
"nf 	c #6E573E",
"of 	c #79602A",
"pf 	c #87784B",
"qf 	c #696359",
"rf 	c #BEC7C3",
"sf 	c #B1B6B2",
"tf 	c #ADB2AC",
"uf 	c #A29D90",
"vf 	c #C5C8C8",
"wf 	c #ABB5AD",
"xf 	c #C8CDCC",
"yf 	c #B2A897",
"zf 	c #A3A39D",
"Af 	c #A8AEAD",
"Bf 	c #BBC0C0",
"Cf 	c #BEC2C3",
"Df 	c #B7BDB9",
"Ef 	c #A79E8D",
"Ff 	c #907E43",
"Gf 	c #A98D32",
"Hf 	c #A4892F",
"If 	c #9D7E34",
"Jf 	c #5F6960",
"Kf 	c #464B41",
"Lf 	c #433B2A",
"Mf 	c #544935",
"Nf 	c #404941",
"Of 	c #605D4F",
"Pf 	c #4E5547",
"Qf 	c #384034",
"Rf 	c #50574D",
"Sf 	c #515950",
"Tf 	c #4A5047",
"Uf 	c #3F453C",
"Vf 	c #685037",
"Wf 	c #2E352D",
"Xf 	c #46402E",
"Yf 	c #5D4C32",
"Zf 	c #474F46",
"`f 	c #654C30",
" g 	c #9B8B5A",
".g 	c #ADB0AB",
"+g 	c #91897B",
"@g 	c #B9BDBD",
"#g 	c #C8CBCC",
"$g 	c #BEC6C3",
"%g 	c #A79D82",
"&g 	c #B2B2A9",
"*g 	c #B4B4AC",
"=g 	c #908A7C",
"-g 	c #AAA188",
";g 	c #918566",
">g 	c #8D6F33",
",g 	c #95703E",
"'g 	c #685339",
")g 	c #534A38",
"!g 	c #8B6F30",
"~g 	c #8C7429",
"{g 	c #79641D",
"]g 	c #867D67",
"^g 	c #ADA180",
"/g 	c #867952",
"(g 	c #A58930",
"_g 	c #876734",
":g 	c #75634C",
"<g 	c #5C5546",
"[g 	c #977436",
"}g 	c #906F35",
"|g 	c #60523D",
"1g 	c #866438",
"2g 	c #826A26",
"3g 	c #9E8F63",
"4g 	c #988F79",
"5g 	c #C5C8C9",
"6g 	c #7B776B",
"7g 	c #6E6B62",
"8g 	c #AAB5AE",
"9g 	c #C4C7C8",
"0g 	c #BEC2C1",
"ag 	c #ADB5AE",
"bg 	c #949189",
"cg 	c #987E29",
"dg 	c #9F8233",
"eg 	c #C0A038",
"fg 	c #82692B",
"gg 	c #52574F",
"hg 	c #404A43",
"ig 	c #252F27",
"jg 	c #41473D",
"kg 	c #474F47",
"lg 	c #584C37",
"mg 	c #585646",
"ng 	c #383F36",
"og 	c #5A5B50",
"pg 	c #AA833D",
"qg 	c #63513D",
"rg 	c #987E26",
"sg 	c #7B5F45",
"tg 	c #494A3E",
"ug 	c #765B3E",
"vg 	c #54564B",
"wg 	c #5D5549",
"xg 	c #796129",
"yg 	c #A89C7E",
"zg 	c #BFC1C3",
"Ag 	c #A5B1A7",
"Bg 	c #B5BEBA",
"Cg 	c #BCC4C0",
"Dg 	c #C6CBCC",
"Eg 	c #A59C8C",
"Fg 	c #C3B79B",
"Gg 	c #A08C49",
"Hg 	c #997A35",
"Ig 	c #65523A",
"Jg 	c #544F41",
"Kg 	c #4A4738",
"Lg 	c #6A5942",
"Mg 	c #454A43",
"Ng 	c #574937",
"Og 	c #695033",
"Pg 	c #967833",
"Qg 	c #735B29",
"Rg 	c #7F6922",
"Sg 	c #857649",
"Tg 	c #AC954F",
"Ug 	c #A28139",
"Vg 	c #967930",
"Wg 	c #9A843C",
"Xg 	c #B29F66",
"Yg 	c #B7982E",
"Zg 	c #987E25",
"`g 	c #A08D52",
" h 	c #9B9488",
".h 	c #B0A797",
"+h 	c #A6A295",
"@h 	c #736D60",
"#h 	c #B4BDB5",
"$h 	c #827F76",
"%h 	c #B4B9B6",
"&h 	c #AFB5B0",
"*h 	c #A19D94",
"=h 	c #6F695F",
"-h 	c #D0D4D5",
";h 	c #8D8476",
">h 	c #979B93",
",h 	c #A7AAA5",
"'h 	c #AFA795",
")h 	c #A1872D",
"!h 	c #AD9033",
"~h 	c #B09231",
"{h 	c #AA9246",
"]h 	c #9C822E",
"^h 	c #454A41",
"/h 	c #424C42",
"(h 	c #5E645A",
"_h 	c #504D3E",
":h 	c #6C6251",
"<h 	c #A48536",
"[h 	c #94713B",
"}h 	c #806137",
"|h 	c #434B42",
"1h 	c #242A23",
"2h 	c #A5B0AF",
"3h 	c #ACACA7",
"4h 	c #474D45",
"5h 	c #6E532D",
"6h 	c #937731",
"7h 	c #6B5C4B",
"8h 	c #705631",
"9h 	c #93845A",
"0h 	c #B7AE9D",
"ah 	c #C1CAC8",
"bh 	c #A5A8A0",
"ch 	c #BABFBE",
"dh 	c #C3C6C6",
"eh 	c #C1C5C3",
"fh 	c #6C665B",
"gh 	c #B5BDB8",
"hh 	c #BDB2A0",
"ih 	c #8D7F55",
"jh 	c #7E6243",
"kh 	c #353D33",
"lh 	c #383E34",
"mh 	c #635037",
"nh 	c #545647",
"oh 	c #4E4C3A",
"ph 	c #5C594A",
"qh 	c #5D513F",
"rh 	c #74592D",
"sh 	c #594B38",
"th 	c #70582A",
"uh 	c #826D24",
"vh 	c #988A61",
"wh 	c #A39B8D",
"xh 	c #938A75",
"yh 	c #9B8129",
"zh 	c #8C6E33",
"Ah 	c #A28C44",
"Bh 	c #7B7468",
"Ch 	c #B9C0BF",
"Dh 	c #C8CDCE",
"Eh 	c #BFC6C4",
"Fh 	c #BAC3BF",
"Gh 	c #858175",
"Hh 	c #B5B8B9",
"Ih 	c #838279",
"Jh 	c #CBCED0",
"Kh 	c #C7CCCC",
"Lh 	c #9D9D96",
"Mh 	c #8B8C85",
"Nh 	c #B5BDB9",
"Oh 	c #7F7A6E",
"Ph 	c #B5BEB7",
"Qh 	c #9AA69D",
"Rh 	c #8F8F84",
"Sh 	c #A59B7E",
"Th 	c #4D4C3D",
"Uh 	c #3E443A",
"Vh 	c #605A4A",
"Wh 	c #AF9134",
"Xh 	c #977E29",
"Yh 	c #A98D30",
"Zh 	c #A28434",
"`h 	c #19201D",
" i 	c #A6B1AD",
".i 	c #A08422",
"+i 	c #5E5B50",
"@i 	c #6B543C",
"#i 	c #A1852E",
"$i 	c #8B7B4C",
"%i 	c #908562",
"&i 	c #989080",
"*i 	c #9F9477",
"=i 	c #7B7266",
"-i 	c #AFB8B1",
";i 	c #AFB1AB",
">i 	c #B5B6B3",
",i 	c #817C6F",
"'i 	c #A4A29A",
")i 	c #A78D37",
"!i 	c #866A31",
"~i 	c #8F7231",
"{i 	c #86653B",
"]i 	c #534E3E",
"^i 	c #373E34",
"/i 	c #524C38",
"(i 	c #605E50",
"_i 	c #4E5143",
":i 	c #505247",
"<i 	c #69563D",
"[i 	c #614C33",
"}i 	c #A88A33",
"|i 	c #97895E",
"1i 	c #8F7E48",
"2i 	c #907729",
"3i 	c #A89145",
"4i 	c #827346",
"5i 	c #928B7F",
"6i 	c #A5AEA8",
"7i 	c #B6BCB8",
"8i 	c #BDC3BE",
"9i 	c #A5A7A0",
"0i 	c #9F9D93",
"ai 	c #948E7F",
"bi 	c #A8A193",
"ci 	c #8B8269",
"di 	c #7B766C",
"ei 	c #BAC0BB",
"fi 	c #ACB6AE",
"gi 	c #C5C7C1",
"hi 	c #848077",
"ii 	c #97A39A",
"ji 	c #A5AEAB",
"ki 	c #B3A994",
"li 	c #836D22",
"mi 	c #6A563D",
"ni 	c #967731",
"oi 	c #95813F",
"pi 	c #AA9B71",
"qi 	c #BA9B37",
"ri 	c #A99249",
"si 	c #5C5544",
"ti 	c #222923",
"ui 	c #9F957A",
"vi 	c #765F47",
"wi 	c #6B563E",
"xi 	c #9F8134",
"yi 	c #BB9C36",
"zi 	c #93782F",
"Ai 	c #947B2A",
"Bi 	c #8E752B",
"Ci 	c #6E5629",
"Di 	c #947C2A",
"Ei 	c #8B762D",
"Fi 	c #8A7D54",
"Gi 	c #7C6E43",
"Hi 	c #ADB7B0",
"Ii 	c #A5A59D",
"Ji 	c #B3B2A9",
"Ki 	c #746D61",
"Li 	c #B1932F",
"Mi 	c #876C2E",
"Ni 	c #8E7330",
"Oi 	c #A48338",
"Pi 	c #9D773D",
"Qi 	c #454333",
"Ri 	c #8A6935",
"Si 	c #8C693D",
"Ti 	c #B09037",
"Ui 	c #987C2F",
"Vi 	c #615642",
"Wi 	c #504F40",
"Xi 	c #514633",
"Yi 	c #866D2A",
"Zi 	c #9A833A",
"`i 	c #B1A074",
" j 	c #A18D4B",
".j 	c #AB9448",
"+j 	c #A58D46",
"@j 	c #A58F49",
"#j 	c #C1C6C3",
"$j 	c #A4A59E",
"%j 	c #857850",
"&j 	c #816B22",
"*j 	c #705E1C",
"=j 	c #7A5E29",
"-j 	c #74592B",
";j 	c #7C6227",
">j 	c #C1CAC6",
",j 	c #A2A298",
"'j 	c #ABA190",
")j 	c #B3A684",
"!j 	c #8F8670",
"~j 	c #AD9544",
"{j 	c #A18834",
"]j 	c #978035",
"^j 	c #A0862F",
"/j 	c #8B6B34",
"(j 	c #605D50",
"_j 	c #1D231E",
":j 	c #525651",
"<j 	c #434941",
"[j 	c #66533B",
"}j 	c #927830",
"|j 	c #997E31",
"1j 	c #886A33",
"2j 	c #795D30",
"3j 	c #544126",
"4j 	c #775F29",
"5j 	c #887124",
"6j 	c #99802B",
"7j 	c #8A7326",
"8j 	c #81744E",
"9j 	c #8F8A7E",
"0j 	c #ACB6AF",
"aj 	c #B6BEB9",
"bj 	c #A0A097",
"cj 	c #A9A295",
"dj 	c #AE9548",
"ej 	c #AC9756",
"fj 	c #917038",
"gj 	c #9A7D31",
"hj 	c #8C6D33",
"ij 	c #84633C",
"jj 	c #5C4933",
"kj 	c #81652F",
"lj 	c #AB9139",
"mj 	c #9E9375",
"nj 	c #968A66",
"oj 	c #9B8028",
"pj 	c #7F796E",
"qj 	c #C9CCCE",
"rj 	c #9A998F",
"sj 	c #A58F4A",
"tj 	c #A88D31",
"uj 	c #6C5D4B",
"vj 	c #66665E",
"wj 	c #6A6961",
"xj 	c #797B74",
"yj 	c #757772",
"zj 	c #7F6824",
"Aj 	c #8A8065",
"Bj 	c #B4BAB6",
"Cj 	c #BCC0C0",
"Dj 	c #BBBFBE",
"Ej 	c #B3BBB4",
"Fj 	c #AAABA6",
"Gj 	c #AEB2B2",
"Hj 	c #A09E95",
"Ij 	c #988F80",
"Jj 	c #C3BAA7",
"Kj 	c #9D947D",
"Lj 	c #A0842F",
"Mj 	c #936F3E",
"Nj 	c #796044",
"Oj 	c #73614D",
"Pj 	c #6B573D",
"Qj 	c #82623C",
"Rj 	c #846730",
"Sj 	c #957535",
"Tj 	c #776651",
"Uj 	c #645341",
"Vj 	c #8D6E35",
"Wj 	c #856B2E",
"Xj 	c #8E7628",
"Yj 	c #867E71",
"Zj 	c #AAB4AC",
"`j 	c #B0B8B2",
" k 	c #B5BDB7",
".k 	c #C8CFCE",
"+k 	c #B3A997",
"@k 	c #8F7D47",
"#k 	c #AB9F80",
"$k 	c #927A2C",
"%k 	c #AD9131",
"&k 	c #9A7E30",
"*k 	c #B29A4B",
"=k 	c #9A8030",
"-k 	c #B79834",
";k 	c #BE9E37",
">k 	c #B39533",
",k 	c #91752F",
"'k 	c #A09578",
")k 	c #9D8C55",
"!k 	c #9D8A4D",
"~k 	c #A19471",
"{k 	c #9C8D64",
"]k 	c #BEC2C0",
"^k 	c #C3C8C7",
"/k 	c #92896E",
"(k 	c #C3A237",
"_k 	c #947635",
":k 	c #7E756B",
"<k 	c #796A56",
"[k 	c #787A70",
"}k 	c #757970",
"|k 	c #6C5F4E",
"1k 	c #85702A",
"2k 	c #909E93",
"3k 	c #9EA9A3",
"4k 	c #AAADA3",
"5k 	c #968D7A",
"6k 	c #AC8F2E",
"7k 	c #9F8A44",
"8k 	c #A5892E",
"9k 	c #97743A",
"0k 	c #8A6A36",
"ak 	c #705A3F",
"bk 	c #6F583D",
"ck 	c #6D5336",
"dk 	c #695C49",
"ek 	c #846634",
"fk 	c #6C5843",
"gk 	c #937137",
"hk 	c #585143",
"ik 	c #655746",
"jk 	c #907332",
"kk 	c #937238",
"lk 	c #887227",
"mk 	c #8D8A80",
"nk 	c #A8ABA5",
"ok 	c #9E9686",
"pk 	c #9E957C",
"qk 	c #AD9F7A",
"rk 	c #A48F4F",
"sk 	c #A78B31",
"tk 	c #AA8B34",
"uk 	c #A88C31",
"vk 	c #9E832E",
"wk 	c #7E6A25",
"xk 	c #B4B3A7",
"yk 	c #927F46",
"zk 	c #7F6C2D",
"Ak 	c #969083",
"Bk 	c #A88B2F",
"Ck 	c #987B33",
"Dk 	c #B19334",
"Ek 	c #89683B",
"Fk 	c #716C5E",
"Gk 	c #756652",
"Hk 	c #74582D",
"Ik 	c #887A4D",
"Jk 	c #BEC7C1",
"Kk 	c #B1BAB3",
"Lk 	c #BDC1C2",
"Mk 	c #AEB2B3",
"Nk 	c #B2B8B7",
"Ok 	c #A0ABA2",
"Pk 	c #AEA492",
"Qk 	c #A5935A",
"Rk 	c #8B7633",
"Sk 	c #A39360",
"Tk 	c #AB9657",
"Uk 	c #AB8E32",
"Vk 	c #9D7A3D",
"Wk 	c #96733A",
"Xk 	c #6B6555",
"Yk 	c #6D614C",
"Zk 	c #4C534A",
"`k 	c #665843",
" l 	c #826531",
".l 	c #92762F",
"+l 	c #876740",
"@l 	c #A58537",
"#l 	c #876538",
"$l 	c #59584C",
"%l 	c #785C2E",
"&l 	c #8E742E",
"*l 	c #BD9E36",
"=l 	c #817B6D",
"-l 	c #746E61",
";l 	c #C1CAC4",
">l 	c #B0B9B3",
",l 	c #AAB5AB",
"'l 	c #C2C1BB",
")l 	c #AC9B6F",
"!l 	c #9A8647",
"~l 	c #A2905D",
"{l 	c #AF964A",
"]l 	c #957932",
"^l 	c #8B7427",
"/l 	c #9D9582",
"(l 	c #C4CACB",
"_l 	c #9D8C5C",
":l 	c #A28934",
"<l 	c #83713A",
"[l 	c #7F776B",
"}l 	c #CDCFD0",
"|l 	c #C9CBCD",
"1l 	c #C9CDCD",
"2l 	c #A39262",
"3l 	c #BFA037",
"4l 	c #846541",
"5l 	c #7B6F5F",
"6l 	c #716E64",
"7l 	c #766B4A",
"8l 	c #C4C8C9",
"9l 	c #A2987F",
"0l 	c #9F8B4D",
"al 	c #9E8B4E",
"bl 	c #9F916C",
"cl 	c #907235",
"dl 	c #977737",
"el 	c #866647",
"fl 	c #615C4C",
"gl 	c #4F4E3D",
"hl 	c #635945",
"il 	c #796247",
"jl 	c #68533B",
"kl 	c #866534",
"ll 	c #6B5237",
"ml 	c #A27B3F",
"nl 	c #73593E",
"ol 	c #7E6230",
"pl 	c #5E482B",
"ql 	c #91772F",
"rl 	c #A5892F",
"sl 	c #937632",
"tl 	c #9E832D",
"ul 	c #746637",
"vl 	c #C3C5C7",
"wl 	c #A5AEA7",
"xl 	c #B6B8B2",
"yl 	c #A5A093",
"zl 	c #A69C83",
"Al 	c #92772F",
"Bl 	c #927531",
"Cl 	c #A1862F",
"Dl 	c #978032",
"El 	c #A38B3C",
"Fl 	c #A08630",
"Gl 	c #A0852B",
"Hl 	c #9E8636",
"Il 	c #90762C",
"Jl 	c #8B7839",
"Kl 	c #A29778",
"Ll 	c #AAA293",
"Ml 	c #8B8166",
"Nl 	c #CAD0CF",
"Ol 	c #C2C6C4",
"Pl 	c #B7C0B8",
"Ql 	c #867E70",
"Rl 	c #80796A",
"Sl 	c #8D7E53",
"Tl 	c #9F7E36",
"Ul 	c #8C702E",
"Vl 	c #836D27",
"Wl 	c #8E8057",
"Xl 	c #C1C5C6",
"Yl 	c #C3C6C7",
"Zl 	c #9B9586",
"`l 	c #6A645A",
" m 	c #CCCDD0",
".m 	c #B1B7B6",
"+m 	c #8C793A",
"@m 	c #908154",
"#m 	c #A6976E",
"$m 	c #9E9067",
"%m 	c #695236",
"&m 	c #947436",
"*m 	c #7D6042",
"=m 	c #5F543F",
"-m 	c #987A33",
";m 	c #695B46",
">m 	c #655B48",
",m 	c #8A7153",
"'m 	c #636255",
")m 	c #5B5547",
"!m 	c #69655B",
"~m 	c #826431",
"{m 	c #7E6039",
"]m 	c #71583B",
"^m 	c #745833",
"/m 	c #675034",
"(m 	c #917A2A",
"_m 	c #7E691F",
":m 	c #958B6F",
"<m 	c #90772C",
"[m 	c #7B5E36",
"}m 	c #897531",
"|m 	c #ACA390",
"1m 	c #928560",
"2m 	c #BA9D3D",
"3m 	c #9C7E34",
"4m 	c #7A5D34",
"5m 	c #564E40",
"6m 	c #6E522D",
"7m 	c #847131",
"8m 	c #8C7F53",
"9m 	c #B4AA92",
"0m 	c #A19F9A",
"am 	c #979690",
"bm 	c #B1BAB5",
"cm 	c #878176",
"dm 	c #B7AF9D",
"em 	c #B1A898",
"fm 	c #AA9967",
"gm 	c #92886C",
"hm 	c #B8BEBA",
"im 	c #908564",
"jm 	c #877952",
"km 	c #7F786D",
"lm 	c #B3B6B8",
"mm 	c #ADB4AF",
"nm 	c #94803D",
"om 	c #927C36",
"pm 	c #B7AF9F",
"qm 	c #A3882A",
"rm 	c #69583E",
"sm 	c #6B6455",
"tm 	c #785B2F",
"um 	c #8D7629",
"vm 	c #A58832",
"wm 	c #6F614A",
"xm 	c #6D6B5E",
"ym 	c #6A6351",
"zm 	c #776248",
"Am 	c #63655A",
"Bm 	c #50544D",
"Cm 	c #725838",
"Dm 	c #977735",
"Em 	c #4E402F",
"Fm 	c #947A2D",
"Gm 	c #9A9387",
"Hm 	c #A6A89E",
"Im 	c #BBC3BF",
"Jm 	c #877F70",
"Km 	c #A18A44",
"Lm 	c #917332",
"Mm 	c #725738",
"Nm 	c #725732",
"Om 	c #B19333",
"Pm 	c #A0862C",
"Qm 	c #9C8640",
"Rm 	c #877126",
"Sm 	c #A08A47",
"Tm 	c #A4966E",
"Um 	c #AE8F35",
"Vm 	c #4F4E3E",
"Wm 	c #655846",
"Xm 	c #725734",
"Ym 	c #907928",
"Zm 	c #8D772D",
"`m 	c #79672A",
" n 	c #978D73",
".n 	c #99988B",
"+n 	c #C3CAC8",
"@n 	c #867E6A",
"#n 	c #A7986E",
"$n 	c #9B8B5E",
"%n 	c #CACCCE",
"&n 	c #898274",
"*n 	c #BEC5BF",
"=n 	c #ABB6AE",
"-n 	c #BCC5C1",
";n 	c #98854C",
">n 	c #968244",
",n 	c #9E8A46",
"'n 	c #7C6449",
")n 	c #585441",
"!n 	c #9C7D36",
"~n 	c #AA913E",
"{n 	c #A39054",
"]n 	c #968037",
"^n 	c #89683E",
"/n 	c #907135",
"(n 	c #A07C3A",
"_n 	c #7B6952",
":n 	c #866540",
"<n 	c #5B5948",
"[n 	c #83735C",
"}n 	c #61645D",
"|n 	c #625744",
"1n 	c #65563E",
"2n 	c #5D4B39",
"3n 	c #89763A",
"4n 	c #999284",
"5n 	c #86857D",
"6n 	c #979993",
"7n 	c #CBD1D1",
"8n 	c #978963",
"9n 	c #A2882E",
"0n 	c #6F562A",
"an 	c #6C532A",
"bn 	c #A48C42",
"cn 	c #927D38",
"dn 	c #887126",
"en 	c #BFA036",
"fn 	c #A18432",
"gn 	c #917237",
"hn 	c #7D5F38",
"in 	c #5A4932",
"jn 	c #856439",
"kn 	c #544431",
"ln 	c #80652F",
"mn 	c #7B6A34",
"nn 	c #6C5A1C",
"on 	c #9D9689",
"pn 	c #908876",
"qn 	c #7E776B",
"rn 	c #C0C2C5",
"sn 	c #A2A094",
"tn 	c #847B6E",
"un 	c #B4BEB6",
"vn 	c #9D8F6A",
"wn 	c #908256",
"xn 	c #ADA695",
"yn 	c #8C8267",
"zn 	c #8B7734",
"An 	c #987F29",
"Bn 	c #C5C7C8",
"Cn 	c #B4BEB7",
"Dn 	c #938250",
"En 	c #A29575",
"Fn 	c #ADA699",
"Gn 	c #957A2D",
"Hn 	c #856636",
"In 	c #B29432",
"Jn 	c #AD9547",
"Kn 	c #A59A7F",
"Ln 	c #A88E36",
"Mn 	c #947831",
"Nn 	c #6D5539",
"On 	c #AD893B",
"Pn 	c #686759",
"Qn 	c #7D8079",
"Rn 	c #60675C",
"Sn 	c #71634A",
"Tn 	c #6E5639",
"Un 	c #785C2F",
"Vn 	c #9F9780",
"Wn 	c #B5B8B4",
"Xn 	c #A8A9A1",
"Yn 	c #B3BAB5",
"Zn 	c #A49D8F",
"`n 	c #A78F3F",
" o 	c #C4A438",
".o 	c #A69D84",
"+o 	c #968140",
"@o 	c #674F34",
"#o 	c #8B722A",
"$o 	c #9F8035",
"%o 	c #927038",
"&o 	c #856C50",
"*o 	c #5C6259",
"=o 	c #4F5550",
"-o 	c #5C4F3C",
";o 	c #685C4D",
">o 	c #6E5330",
",o 	c #7A5E2D",
"'o 	c #887A51",
")o 	c #746431",
"!o 	c #978F81",
"~o 	c #9C9C95",
"{o 	c #AAAFA9",
"]o 	c #B4BDB8",
"^o 	c #BBB09D",
"/o 	c #918B7D",
"(o 	c #BABFC0",
"_o 	c #B7C0BE",
":o 	c #8F897E",
"<o 	c #A7A8A1",
"[o 	c #ACB7AF",
"}o 	c #BFC3C4",
"|o 	c #A59C8B",
"1o 	c #B4AA9A",
"2o 	c #A99C78",
"3o 	c #9B8332",
"4o 	c #847133",
"5o 	c #7E6923",
"6o 	c #8E7D45",
"7o 	c #C0A23C",
"8o 	c #AC9032",
"9o 	c #B59833",
"0o 	c #8B693B",
"ao 	c #636D63",
"bo 	c #7A807A",
"co 	c #767B72",
"do 	c #6D6F64",
"eo 	c #5E5742",
"fo 	c #6D5436",
"go 	c #C2C9C6",
"ho 	c #A59771",
"io 	c #978A63",
"jo 	c #8D7C46",
"ko 	c #928666",
"lo 	c #A8903C",
"mo 	c #9A7D32",
"no 	c #69624F",
"oo 	c #4D5549",
"po 	c #595240",
"qo 	c #745838",
"ro 	c #81674D",
"so 	c #636662",
"to 	c #BC9F39",
"uo 	c #97722E",
"vo 	c #5D6157",
"wo 	c #65665E",
"xo 	c #565B55",
"yo 	c #554A3B",
"zo 	c #856D2A",
"Ao 	c #907828",
"Bo 	c #9A9488",
"Co 	c #D0D3D5",
"Do 	c #A0AAA2",
"Eo 	c #7A7367",
"Fo 	c #AFAB9D",
"Go 	c #7F786C",
"Ho 	c #A6AFA9",
"Io 	c #B3BEB6",
"Jo 	c #ACB6B0",
"Ko 	c #AEB7B2",
"Lo 	c #CFD2D3",
"Mo 	c #A5AFAC",
"No 	c #B7AD9C",
"Oo 	c #968862",
"Po 	c #B39A48",
"Qo 	c #AB8D2D",
"Ro 	c #A28E4F",
"So 	c #AB9A68",
"To 	c #785E42",
"Uo 	c #6B736A",
"Vo 	c #626B5F",
"Wo 	c #B0922E",
"Xo 	c #6A7268",
"Yo 	c #596256",
"Zo 	c #685740",
"`o 	c #73562E",
" p 	c #837138",
".p 	c #B1BAB6",
"+p 	c #716B60",
"@p 	c #6B6459",
"#p 	c #C0C8C3",
"$p 	c #CCCECE",
"%p 	c #7B766B",
"&p 	c #9D9990",
"*p 	c #A9AAA2",
"=p 	c #8F8672",
"-p 	c #8F7E4B",
";p 	c #B2A78F",
">p 	c #AEA48A",
",p 	c #A19884",
"'p 	c #9C8C5C",
")p 	c #9D842B",
"!p 	c #A7833B",
"~p 	c #444835",
"{p 	c #676C63",
"]p 	c #515041",
"^p 	c #7C6044",
"/p 	c #886635",
"(p 	c #676D68",
"_p 	c #A1936C",
":p 	c #AB9C6C",
"<p 	c #8B6931",
"[p 	c #6E6E64",
"}p 	c #72746D",
"|p 	c #A99A6B",
"1p 	c #545952",
"2p 	c #715530",
"3p 	c #6A5029",
"4p 	c #65531D",
"5p 	c #A5B2A7",
"6p 	c #BBBBB8",
"7p 	c #9F9786",
"8p 	c #C5C7C9",
"9p 	c #BCC1BE",
"0p 	c #B0B8B1",
"ap 	c #C0C8C4",
"bp 	c #837E72",
"cp 	c #B09439",
"dp 	c #5D5A45",
"ep 	c #786242",
"fp 	c #6A7366",
"gp 	c #877155",
"hp 	c #886D4D",
"ip 	c #827B6B",
"jp 	c #917729",
"kp 	c #908568",
"lp 	c #ABA79E",
"mp 	c #867F71",
"np 	c #CFD0D3",
"op 	c #CECFD2",
"pp 	c #C5C8C7",
"qp 	c #A29C8D",
"rp 	c #8F8777",
"sp 	c #917828",
"tp 	c #7E796D",
"up 	c #ADABA0",
"vp 	c #999282",
"wp 	c #BAC2C0",
"xp 	c #B7AEA0",
"yp 	c #AB9651",
"zp 	c #A8863A",
"Ap 	c #71614D",
"Bp 	c #565E53",
"Cp 	c #6D563A",
"Dp 	c #8B6B47",
"Ep 	c #7B5E38",
"Fp 	c #7E5F29",
"Gp 	c #656C65",
"Hp 	c #776A58",
"Ip 	c #A78832",
"Jp 	c #60635B",
"Kp 	c #A88830",
"Lp 	c #5C6159",
"Mp 	c #71583F",
"Np 	c #747970",
"Op 	c #71552C",
"Pp 	c #826C22",
"Qp 	c #92938B",
"Rp 	c #847D6D",
"Sp 	c #796F54",
"Tp 	c #B8C1BD",
"Up 	c #878A80",
"Vp 	c #BABFBC",
"Wp 	c #B8BDBD",
"Xp 	c #B7B4A8",
"Yp 	c #B6C1BB",
"Zp 	c #9A8334",
"`p 	c #C3A337",
" q 	c #8C6936",
".q 	c #6A7468",
"+q 	c #826D54",
"@q 	c #767D71",
"#q 	c #787566",
"$q 	c #705636",
"%q 	c #927C2E",
"&q 	c #999385",
"*q 	c #A8B3AD",
"=q 	c #9B8E6D",
"-q 	c #8C7A3E",
";q 	c #9F9066",
">q 	c #B0A178",
",q 	c #A39055",
"'q 	c #957B2E",
")q 	c #7D6B30",
"!q 	c #95875E",
"~q 	c #9E9689",
"{q 	c #8B8267",
"]q 	c #9E8D57",
"^q 	c #B2973F",
"/q 	c #947C29",
"(q 	c #785A36",
"_q 	c #967438",
":q 	c #AB902F",
"<q 	c #80674D",
"[q 	c #72766B",
"}q 	c #71746A",
"|q 	c #956E39",
"1q 	c #636964",
"2q 	c #85643C",
"3q 	c #7A7D74",
"4q 	c #7C776A",
"5q 	c #7D8177",
"6q 	c #73624E",
"7q 	c #867E6E",
"8q 	c #897E62",
"9q 	c #9E9271",
"0q 	c #8C762D",
"aq 	c #93855E",
"bq 	c #887D5D",
"cq 	c #A7AAA6",
"dq 	c #B3B9B5",
"eq 	c #787063",
"fq 	c #7B7568",
"gq 	c #98968D",
"hq 	c #7F7D72",
"iq 	c #AFB8B3",
"jq 	c #7A7466",
"kq 	c #AC9750",
"lq 	c #6C766E",
"mq 	c #9E763B",
"nq 	c #5E665A",
"oq 	c #9A753C",
"pq 	c #93792B",
"qq 	c #7C7359",
"rq 	c #949083",
"sq 	c #BAC1BB",
"tq 	c #988D73",
"uq 	c #97885C",
"vq 	c #867746",
"wq 	c #B4A579",
"xq 	c #A49877",
"yq 	c #A39364",
"zq 	c #84795E",
"Aq 	c #968F7A",
"Bq 	c #8E8368",
"Cq 	c #9F9989",
"Dq 	c #998E72",
"Eq 	c #8D8263",
"Fq 	c #A0883A",
"Gq 	c #997A36",
"Hq 	c #8C6A3F",
"Iq 	c #636B60",
"Jq 	c #A29364",
"Kq 	c #9B884D",
"Lq 	c #847762",
"Mq 	c #877B68",
"Nq 	c #81867D",
"Oq 	c #8C918B",
"Pq 	c #84662D",
"Qq 	c #837E74",
"Rq 	c #C1C7C7",
"Sq 	c #726C5F",
"Tq 	c #686257",
"Uq 	c #A5AFA7",
"Vq 	c #999181",
"Wq 	c #958556",
"Xq 	c #A5892D",
"Yq 	c #8F7D43",
"Zq 	c #95896B",
"`q 	c #807143",
" r 	c #A19989",
".r 	c #838077",
"+r 	c #878071",
"@r 	c #827C70",
"#r 	c #A6A7A3",
"$r 	c #C2C5C5",
"%r 	c #87867E",
"&r 	c #BFC4C4",
"*r 	c #CACECC",
"=r 	c #B5AA8D",
"-r 	c #A99146",
";r 	c #9D852D",
">r 	c #70634B",
",r 	c #6F7670",
"'r 	c #737972",
")r 	c #6D5C42",
"!r 	c #998D6C",
"~r 	c #80703C",
"{r 	c #666157",
"]r 	c #8D8C84",
"^r 	c #BDC1BA",
"/r 	c #888072",
"(r 	c #BDB5A7",
"_r 	c #A59B81",
":r 	c #A29986",
"<r 	c #A19163",
"[r 	c #9D906E",
"}r 	c #A59B84",
"|r 	c #8B683A",
"1r 	c #79786B",
"2r 	c #717774",
"3r 	c #72746A",
"4r 	c #747364",
"5r 	c #B09430",
"6r 	c #BDA34C",
"7r 	c #95742A",
"8r 	c #7C5D37",
"9r 	c #7B6620",
"0r 	c #867F73",
"ar 	c #796F52",
"br 	c #827C71",
"cr 	c #CACFCF",
"dr 	c #C0C6C5",
"er 	c #8E7D47",
"fr 	c #8B7A45",
"gr 	c #A09475",
"hr 	c #8F8678",
"ir 	c #A5A9A3",
"jr 	c #ACB1AD",
"kr 	c #7D7047",
"lr 	c #8C867A",
"mr 	c #716C62",
"nr 	c #726B5F",
"or 	c #C8CACC",
"pr 	c #C2C4C6",
"qr 	c #C3C6C5",
"rr 	c #B3BBB8",
"sr 	c #A4A7A1",
"tr 	c #CDD1CF",
"ur 	c #D4D8DA",
"vr 	c #928C7E",
"wr 	c #A08E57",
"xr 	c #91782B",
"yr 	c #AC8B3A",
"zr 	c #8B683B",
"Ar 	c #6C6753",
"Br 	c #515646",
"Cr 	c #99895B",
"Dr 	c #90866A",
"Er 	c #6E5D28",
"Fr 	c #ABA495",
"Gr 	c #797266",
"Hr 	c #BCC0C1",
"Ir 	c #C0C8C2",
"Jr 	c #AA8D2F",
"Kr 	c #997E2F",
"Lr 	c #8A7D57",
"Mr 	c #90887C",
"Nr 	c #736E63",
"Or 	c #B2B3AA",
"Pr 	c #A19D92",
"Qr 	c #B5BABC",
"Rr 	c #C8CECA",
"Sr 	c #B3A16C",
"Tr 	c #74593D",
"Ur 	c #755A32",
"Vr 	c #B09333",
"Wr 	c #A18331",
"Xr 	c #848980",
"Yr 	c #A79F94",
"Zr 	c #A89F90",
"`r 	c #858A87",
" s 	c #846531",
".s 	c #8A7F5E",
"+s 	c #9E9273",
"@s 	c #8B8270",
"#s 	c #B5B9B7",
"$s 	c #A69E91",
"%s 	c #9D8F68",
"&s 	c #907B37",
"*s 	c #7A6B3D",
"=s 	c #CACBCD",
"-s 	c #746C60",
";s 	c #726D62",
">s 	c #888073",
",s 	c #CAD0CD",
"'s 	c #D0D2D2",
")s 	c #CBD0CC",
"!s 	c #A29A89",
"~s 	c #A08A45",
"{s 	c #BE9E35",
"]s 	c #957C2C",
"^s 	c #94713A",
"/s 	c #997C32",
"(s 	c #725E1D",
"_s 	c #AE9853",
":s 	c #967E33",
"<s 	c #7C756A",
"[s 	c #C1C1BA",
"}s 	c #B39944",
"|s 	c #957B2A",
"1s 	c #968D77",
"2s 	c #8C8477",
"3s 	c #B4AA99",
"4s 	c #7E755E",
"5s 	c #C5CCC8",
"6s 	c #BFC3C2",
"7s 	c #CFD1D2",
"8s 	c #B3B3B0",
"9s 	c #B79A39",
"0s 	c #8F7132",
"as 	c #916D38",
"bs 	c #7A6751",
"cs 	c #897223",
"ds 	c #9D978C",
"es 	c #837F73",
"fs 	c #9E8133",
"gs 	c #95875F",
"hs 	c #857648",
"is 	c #91835C",
"js 	c #8A8274",
"ks 	c #938B7E",
"ls 	c #A29A8C",
"ms 	c #AC8E34",
"ns 	c #887D5F",
"os 	c #A6A79E",
"ps 	c #A09989",
"qs 	c #8E7830",
"rs 	c #7B6B38",
"ss 	c #8A877D",
"ts 	c #CCCECF",
"us 	c #ABACA3",
"vs 	c #A9ABA5",
"ws 	c #AFB8B4",
"xs 	c #929389",
"ys 	c #CFD2D1",
"zs 	c #A8B3AB",
"As 	c #A9A79C",
"Bs 	c #A2998A",
"Cs 	c #9A8C66",
"Ds 	c #9A8955",
"Es 	c #A8934F",
"Fs 	c #A58D44",
"Gs 	c #B09641",
"Hs 	c #997B34",
"Is 	c #927632",
"Js 	c #6F542C",
"Ks 	c #7E7044",
"Ls 	c #8E7E51",
"Ms 	c #968D76",
"Ns 	c #856F24",
"Os 	c #83733C",
"Ps 	c #A8AAA4",
"Qs 	c #B0994F",
"Rs 	c #977C31",
"Ss 	c #8A6B46",
"Ts 	c #7C8079",
"Us 	c #8F751E",
"Vs 	c #99864A",
"Ws 	c #988441",
"Xs 	c #796421",
"Ys 	c #7D766D",
"Zs 	c #746E63",
"`s 	c #807145",
" t 	c #958A6D",
".t 	c #867022",
"+t 	c #7C6822",
"@t 	c #AD933D",
"#t 	c #7F6F3B",
"$t 	c #95978F",
"%t 	c #A49365",
"&t 	c #886E2E",
"*t 	c #867025",
"=t 	c #6E675B",
"-t 	c #8D8B81",
";t 	c #B2BAB3",
">t 	c #847C6F",
",t 	c #655E54",
"'t 	c #CED0CF",
")t 	c #CDCFCF",
"!t 	c #A19167",
"~t 	c #8D7735",
"{t 	c #938149",
"]t 	c #A29470",
"^t 	c #9A843B",
"/t 	c #846335",
"(t 	c #5A4E3D",
"_t 	c #80662D",
":t 	c #A48633",
"<t 	c #735C27",
"[t 	c #BAC3BC",
"}t 	c #67561C",
"|t 	c #A68F48",
"1t 	c #826532",
"2t 	c #74592C",
"3t 	c #967D27",
"4t 	c #6E685D",
"5t 	c #9D9585",
"6t 	c #B8AD90",
"7t 	c #937730",
"8t 	c #7E632F",
"9t 	c #8A918B",
"0t 	c #7B8079",
"at 	c #AB8F2D",
"bt 	c #848887",
"ct 	c #B3973D",
"dt 	c #9F883D",
"et 	c #967832",
"ft 	c #94792E",
"gt 	c #907925",
"ht 	c #8E7625",
"it 	c #876C2D",
"jt 	c #8A712A",
"kt 	c #605B4D",
"lt 	c #635948",
"mt 	c #8D6D35",
"nt 	c #886F2C",
"ot 	c #7B6929",
"pt 	c #979184",
"qt 	c #92855D",
"rt 	c #AC9139",
"st 	c #A98B33",
"tt 	c #5E4934",
"ut 	c #98802B",
"vt 	c #9E9787",
"wt 	c #6C665A",
"xt 	c #B2BCB5",
"yt 	c #B1B1AA",
"zt 	c #A39A84",
"At 	c #666158",
"Bt 	c #B7BBB9",
"Ct 	c #B2B7B2",
"Dt 	c #887021",
"Et 	c #A79C83",
"Ft 	c #A39A83",
"Gt 	c #B49634",
"Ht 	c #916F39",
"It 	c #73593C",
"Jt 	c #9A802F",
"Kt 	c #9B874A",
"Lt 	c #B6AE9F",
"Mt 	c #C0C5C1",
"Nt 	c #B6C0B9",
"Ot 	c #C6CDCB",
"Pt 	c #AA9864",
"Qt 	c #8A6B34",
"Rt 	c #6C5334",
"St 	c #664F33",
"Tt 	c #A18332",
"Ut 	c #866B2F",
"Vt 	c #685741",
"Wt 	c #585F56",
"Xt 	c #5D594A",
"Yt 	c #726333",
"Zt 	c #8E8679",
"`t 	c #676257",
" u 	c #C4CBC9",
".u 	c #ACA496",
"+u 	c #A2862D",
"@u 	c #6D5433",
"#u 	c #A38332",
"$u 	c #826443",
"%u 	c #7A7D76",
"&u 	c #727871",
"*u 	c #9C7D30",
"=u 	c #A19577",
"-u 	c #9D8B53",
";u 	c #9B8743",
">u 	c #876F2A",
",u 	c #907432",
"'u 	c #866E29",
")u 	c #5F4C3B",
"!u 	c #75756B",
"~u 	c #61695F",
"{u 	c #606760",
"]u 	c #37433A",
"^u 	c #55584F",
"/u 	c #8D6831",
"(u 	c #383F2F",
"_u 	c #867027",
":u 	c #6F5D26",
"<u 	c #BDB5A3",
"[u 	c #9C8C5D",
"}u 	c #745C41",
"|u 	c #644C32",
"1u 	c #877433",
"2u 	c #A2987E",
"3u 	c #8E8879",
"4u 	c #87857C",
"5u 	c #CED0D0",
"6u 	c #C4CAC8",
"7u 	c #837B6E",
"8u 	c #958E80",
"9u 	c #877744",
"0u 	c #97875B",
"au 	c #B19741",
"bu 	c #9F852E",
"cu 	c #7E6925",
"du 	c #9D8031",
"eu 	c #9D9272",
"fu 	c #988854",
"gu 	c #957B2C",
"hu 	c #826A29",
"iu 	c #7F652C",
"ju 	c #9D906F",
"ku 	c #B2A898",
"lu 	c #A69665",
"mu 	c #B49636",
"nu 	c #715C45",
"ou 	c #7A7A74",
"pu 	c #5E4F3B",
"qu 	c #655A45",
"ru 	c #747A73",
"su 	c #4E564C",
"tu 	c #434C43",
"uu 	c #A2977E",
"vu 	c #958F80",
"wu 	c #B7B8AF",
"xu 	c #9E9588",
"yu 	c #856E26",
"zu 	c #756C5D",
"Au 	c #7E7A6E",
"Bu 	c #6F5742",
"Cu 	c #9D8033",
"Du 	c #AE9031",
"Eu 	c #AE9231",
"Fu 	c #9D8846",
"Gu 	c #837340",
"Hu 	c #997D30",
"Iu 	c #957538",
"Ju 	c #6D5537",
"Ku 	c #746D5C",
"Lu 	c #776C57",
"Mu 	c #91836D",
"Nu 	c #6B7165",
"Ou 	c #614931",
"Pu 	c #B1B0A9",
"Qu 	c #916F34",
"Ru 	c #646963",
"Su 	c #636A5E",
"Tu 	c #404739",
"Uu 	c #A59D91",
"Vu 	c #937D34",
"Wu 	c #A98B32",
"Xu 	c #AD8E34",
"Yu 	c #7F603C",
"Zu 	c #806037",
"`u 	c #8A712D",
" v 	c #836D24",
".v 	c #7F7A70",
"+v 	c #847652",
"@v 	c #6B665B",
"#v 	c #C6C8CA",
"$v 	c #C9CACD",
"%v 	c #98968E",
"&v 	c #A69D8A",
"*v 	c #88806D",
"=v 	c #8E7525",
"-v 	c #8A7B4E",
";v 	c #B4B5AE",
">v 	c #A49054",
",v 	c #A0852D",
"'v 	c #897538",
")v 	c #A29B8E",
"!v 	c #73601F",
"~v 	c #8A7328",
"{v 	c #866C2D",
"]v 	c #94865E",
"^v 	c #D3D7D9",
"/v 	c #B5BABA",
"(v 	c #C2C6C3",
"_v 	c #8F7D48",
":v 	c #98723C",
"<v 	c #797D73",
"[v 	c #7B7E75",
"}v 	c #71736C",
"|v 	c #5C6359",
"1v 	c #AE9643",
"2v 	c #645C4A",
"3v 	c #404940",
"4v 	c #866F23",
"5v 	c #A69F90",
"6v 	c #8E8677",
"7v 	c #949288",
"8v 	c #A58C36",
"9v 	c #A88837",
"0v 	c #887058",
"av 	c #816447",
"bv 	c #9B802D",
"cv 	c #A48A30",
"dv 	c #A8903E",
"ev 	c #977935",
"fv 	c #856931",
"gv 	c #9D7B39",
"hv 	c #90714E",
"iv 	c #6F6855",
"jv 	c #757769",
"kv 	c #7F674B",
"lv 	c #6E6959",
"mv 	c #2A392D",
"nv 	c #A39C8E",
"ov 	c #ACA79B",
"pv 	c #74685B",
"qv 	c #626A5F",
"rv 	c #695D4A",
"sv 	c #666257",
"tv 	c #81642D",
"uv 	c #765B2B",
"vv 	c #7E6725",
"wv 	c #7C6723",
"xv 	c #907331",
"yv 	c #666A64",
"zv 	c #6E6353",
"Av 	c #5C4F3D",
"Bv 	c #504A3A",
"Cv 	c #906F36",
"Dv 	c #493F2F",
"Ev 	c #7E6826",
"Fv 	c #7F6E3B",
"Gv 	c #937C30",
"Hv 	c #877333",
"Iv 	c #7C776D",
"Jv 	c #777062",
"Kv 	c #A89F8E",
"Lv 	c #9C9484",
"Mv 	c #A2998B",
"Nv 	c #A3A49D",
"Ov 	c #968035",
"Pv 	c #998853",
"Qv 	c #A7986B",
"Rv 	c #8B7C53",
"Sv 	c #93855B",
"Tv 	c #AC9D71",
"Uv 	c #B29634",
"Vv 	c #927630",
"Wv 	c #8F825B",
"Xv 	c #8D7E4D",
"Yv 	c #A69F8E",
"Zv 	c #9A907A",
"`v 	c #AB9030",
" w 	c #7A786C",
".w 	c #807B6D",
"+w 	c #4D5246",
"@w 	c #62695E",
"#w 	c #666C63",
"$w 	c #7B8178",
"%w 	c #464F44",
"&w 	c #6B581C",
"*w 	c #B2B4B1",
"=w 	c #CCD0D1",
"-w 	c #857F75",
";w 	c #AAB5B0",
">w 	c #D2D4D5",
",w 	c #B2A99B",
"'w 	c #CDAB3B",
")w 	c #AF9545",
"!w 	c #654D33",
"~w 	c #826332",
"{w 	c #7B5D39",
"]w 	c #715C42",
"^w 	c #997442",
"/w 	c #725D42",
"(w 	c #797363",
"_w 	c #495442",
":w 	c #727A6D",
"<w 	c #706C58",
"[w 	c #826C21",
"}w 	c #958E85",
"|w 	c #A08F5C",
"1w 	c #997633",
"2w 	c #997246",
"3w 	c #646862",
"4w 	c #846425",
"5w 	c #5D5747",
"6w 	c #645B4B",
"7w 	c #785D40",
"8w 	c #68593F",
"9w 	c #424E43",
"0w 	c #AF9854",
"aw 	c #696E6A",
"bw 	c #595C55",
"cw 	c #846643",
"dw 	c #73583C",
"ew 	c #8A6F2E",
"fw 	c #A58733",
"gw 	c #967E31",
"hw 	c #867334",
"iw 	c #6A5A21",
"jw 	c #857A59",
"kw 	c #A1A69F",
"lw 	c #ACADA7",
"mw 	c #B1B6AE",
"nw 	c #B3B4AE",
"ow 	c #9E8637",
"pw 	c #90792A",
"qw 	c #9A843E",
"rw 	c #B4A370",
"sw 	c #9C832B",
"tw 	c #AC9035",
"uw 	c #A78934",
"vw 	c #9E8A4B",
"ww 	c #907826",
"xw 	c #8E7E52",
"yw 	c #8F8878",
"zw 	c #C0C9C5",
"Aw 	c #C4C5BE",
"Bw 	c #857749",
"Cw 	c #AB9D76",
"Dw 	c #AB985B",
"Ew 	c #9C8A51",
"Fw 	c #876742",
"Gw 	c #896D53",
"Hw 	c #80613A",
"Iw 	c #5C5B4A",
"Jw 	c #6F5C43",
"Kw 	c #886536",
"Lw 	c #676156",
"Mw 	c #A4ADA6",
"Nw 	c #A4A39D",
"Ow 	c #B4C0B8",
"Pw 	c #978962",
"Qw 	c #B49D50",
"Rw 	c #957D2C",
"Sw 	c #826630",
"Tw 	c #886E2F",
"Uw 	c #896D31",
"Vw 	c #7B5C2F",
"Ww 	c #6C5B43",
"Xw 	c #4D4B3A",
"Yw 	c #765B37",
"Zw 	c #4E574B",
"`w 	c #434F3B",
" x 	c #55604E",
".x 	c #6F776A",
"+x 	c #747A72",
"@x 	c #8E7622",
"#x 	c #8B7226",
"$x 	c #968D75",
"%x 	c #9B8127",
"&x 	c #A1B1AD",
"*x 	c #AFA178",
"=x 	c #A2ACA6",
"-x 	c #B4BCBD",
";x 	c #9B733A",
">x 	c #767C75",
",x 	c #987929",
"'x 	c #9E9B93",
")x 	c #B1A792",
"!x 	c #5F615B",
"~x 	c #3F3D30",
"{x 	c #83643E",
"]x 	c #9B7839",
"^x 	c #C7A639",
"/x 	c #9C812C",
"(x 	c #A3872E",
"_x 	c #776225",
":x 	c #7D7049",
"<x 	c #CBD1CF",
"[x 	c #77736A",
"}x 	c #8E8F86",
"|x 	c #736C60",
"1x 	c #948D7D",
"2x 	c #9A9890",
"3x 	c #BAC2BB",
"4x 	c #908978",
"5x 	c #A78E3F",
"6x 	c #836F31",
"7x 	c #A48B35",
"8x 	c #7C6529",
"9x 	c #877027",
"0x 	c #A28631",
"ax 	c #8E732F",
"bx 	c #866E2A",
"cx 	c #8A7226",
"dx 	c #7D6F40",
"ex 	c #C2C5C6",
"fx 	c #948861",
"gx 	c #7F6B27",
"hx 	c #A49461",
"ix 	c #AA8E35",
"jx 	c #9A7F2F",
"kx 	c #957C28",
"lx 	c #BC9F36",
"mx 	c #8E722F",
"nx 	c #88673D",
"ox 	c #8E7B41",
"px 	c #918D83",
"qx 	c #D3D5D7",
"rx 	c #B7B6A9",
"sx 	c #B3A990",
"tx 	c #B49B46",
"ux 	c #AC9131",
"vx 	c #A07F38",
"wx 	c #987D31",
"xx 	c #866B2E",
"yx 	c #725F45",
"zx 	c #826A4F",
"Ax 	c #434B3E",
"Bx 	c #6E5B42",
"Cx 	c #4F5246",
"Dx 	c #5E6254",
"Ex 	c #65583C",
"Fx 	c #475242",
"Gx 	c #797F73",
"Hx 	c #858A84",
"Ix 	c #796A58",
"Jx 	c #7B7871",
"Kx 	c #93782B",
"Lx 	c #948F89",
"Mx 	c #959087",
"Nx 	c #A5B0A8",
"Ox 	c #9A9992",
"Px 	c #6F695A",
"Qx 	c #785B3B",
"Rx 	c #948E83",
"Sx 	c #4A584F",
"Tx 	c #776958",
"Ux 	c #504432",
"Vx 	c #645947",
"Wx 	c #9B812A",
"Xx 	c #B99C3E",
"Yx 	c #B0A27C",
"Zx 	c #907E49",
"`x 	c #9E957E",
" y 	c #6A6358",
".y 	c #BCC2C2",
"+y 	c #897C50",
"@y 	c #5C564C",
"#y 	c #B8C1BC",
"$y 	c #777266",
"%y 	c #8C8576",
"&y 	c #A09680",
"*y 	c #AB8E33",
"=y 	c #705828",
"-y 	c #8E7132",
";y 	c #674F31",
">y 	c #8A7329",
",y 	c #8C712C",
"'y 	c #AC964D",
")y 	c #BA9B32",
"!y 	c #9F8E5B",
"~y 	c #A8924C",
"{y 	c #977F2F",
"]y 	c #605A51",
"^y 	c #B1B5B1",
"/y 	c #B4B5AF",
"(y 	c #A3A39E",
"_y 	c #C3C8C8",
":y 	c #BFC3BE",
"<y 	c #A79870",
"[y 	c #A99143",
"}y 	c #90782B",
"|y 	c #958243",
"1y 	c #A1987F",
"2y 	c #AEA89A",
"3y 	c #A69A7C",
"4y 	c #7B6D43",
"5y 	c #807A6F",
"6y 	c #A5B0AA",
"7y 	c #8A6E33",
"8y 	c #71572D",
"9y 	c #7F6245",
"0y 	c #98733B",
"ay 	c #434230",
"by 	c #66563D",
"cy 	c #655339",
"dy 	c #525A4F",
"ey 	c #5F5A47",
"fy 	c #796E5A",
"gy 	c #848B84",
"hy 	c #959A94",
"iy 	c #879088",
"jy 	c #707871",
"ky 	c #9B7F22",
"ly 	c #767D7A",
"my 	c #697169",
"ny 	c #725D16",
"oy 	c #B9BEBF",
"py 	c #ADB5AF",
"qy 	c #A1ADA4",
"ry 	c #A8A194",
"sy 	c #8B6B2F",
"ty 	c #66513C",
"uy 	c #96823F",
"vy 	c #6F7772",
"wy 	c #806C52",
"xy 	c #917135",
"yy 	c #684F35",
"zy 	c #968137",
"Ay 	c #A49876",
"By 	c #CDD2D1",
"Cy 	c #A9A497",
"Dy 	c #9F9783",
"Ey 	c #B2A790",
"Fy 	c #A9A18E",
"Gy 	c #918152",
"Hy 	c #9D8D61",
"Iy 	c #7B6931",
"Jy 	c #907E46",
"Ky 	c #6E5F2F",
"Ly 	c #897F65",
"My 	c #7E786C",
"Ny 	c #807451",
"Oy 	c #98968C",
"Py 	c #7B7367",
"Qy 	c #77631E",
"Ry 	c #92814A",
"Sy 	c #747873",
"Ty 	c #69685D",
"Uy 	c #726B5C",
"Vy 	c #7C664D",
"Wy 	c #624D33",
"Xy 	c #967D2D",
"Yy 	c #B1A99A",
"Zy 	c #A49C8E",
"`y 	c #938458",
" z 	c #CCD1D0",
".z 	c #766B49",
"+z 	c #908A7B",
"@z 	c #A2A89F",
"#z 	c #B8B8B2",
"$z 	c #A69A76",
"%z 	c #A28935",
"&z 	c #6D5A1C",
"*z 	c #C1B8A8",
"=z 	c #B4B3A8",
"-z 	c #A59C8A",
";z 	c #7D6929",
">z 	c #837B65",
",z 	c #888880",
"'z 	c #BFC7C2",
")z 	c #A18835",
"!z 	c #AC863E",
"~z 	c #78644D",
"{z 	c #646154",
"]z 	c #6C5E49",
"^z 	c #6F5B42",
"/z 	c #9D793C",
"(z 	c #9A753D",
"_z 	c #726B5B",
":z 	c #787D74",
"<z 	c #A78728",
"[z 	c #8F7256",
"}z 	c #A4ABA6",
"|z 	c #8C816F",
"1z 	c #7A7665",
"2z 	c #826130",
"3z 	c #937530",
"4z 	c #727A76",
"5z 	c #7A736A",
"6z 	c #B1A89B",
"7z 	c #AAA49A",
"8z 	c #78766F",
"9z 	c #765E41",
"0z 	c #8E6C43",
"az 	c #866742",
"bz 	c #6E5840",
"cz 	c #967E32",
"dz 	c #897C58",
"ez 	c #847E70",
"fz 	c #9B968A",
"gz 	c #897A49",
"hz 	c #856E29",
"iz 	c #7B661E",
"jz 	c #A29164",
"kz 	c #8F7A36",
"lz 	c #816E31",
"mz 	c #998C66",
"nz 	c #99874D",
"oz 	c #856F23",
"pz 	c #7C745F",
"qz 	c #797165",
"rz 	c #7A7467",
"sz 	c #8D7E51",
"tz 	c #746124",
"uz 	c #908A7F",
"vz 	c #AB9553",
"wz 	c #757D74",
"xz 	c #888C88",
"yz 	c #7B6850",
"zz 	c #896945",
"Az 	c #8B6E33",
"Bz 	c #A4997C",
"Cz 	c #B3AA95",
"Dz 	c #A59A7D",
"Ez 	c #B0A798",
"Fz 	c #9B9480",
"Gz 	c #BFC5C5",
"Hz 	c #7A6D46",
"Iz 	c #D2D6D9",
"Jz 	c #978548",
"Kz 	c #7C6721",
"Lz 	c #948C7C",
"Mz 	c #BEB5A5",
"Nz 	c #AFA68F",
"Oz 	c #9C884A",
"Pz 	c #8E8D83",
"Qz 	c #A59A7C",
"Rz 	c #9C822F",
"Sz 	c #545A51",
"Tz 	c #5F635D",
"Uz 	c #6B5841",
"Vz 	c #6A5336",
"Wz 	c #636C61",
"Xz 	c #787E74",
"Yz 	c #9D8122",
"Zz 	c #959E9D",
"`z 	c #7E867F",
" A 	c #746B5B",
".A 	c #74562F",
"+A 	c #A18A3F",
"@A 	c #BD9C32",
"#A 	c #8F732E",
"$A 	c #656C63",
"%A 	c #6C665F",
"&A 	c #A5B1AB",
"*A 	c #B8BDBE",
"=A 	c #465149",
"-A 	c #917049",
";A 	c #A18630",
">A 	c #8B702E",
",A 	c #886D2E",
"'A 	c #957D2A",
")A 	c #8A7D53",
"!A 	c #A9A398",
"~A 	c #9B8641",
"{A 	c #B39534",
"]A 	c #896D30",
"^A 	c #A69D85",
"/A 	c #9E9370",
"(A 	c #8F7726",
"_A 	c #A1883B",
":A 	c #918664",
"<A 	c #978D74",
"[A 	c #988750",
"}A 	c #9B9179",
"|A 	c #97813B",
"1A 	c #6F5C1E",
"2A 	c #907725",
"3A 	c #A38B3A",
"4A 	c #C5A63F",
"5A 	c #BDA142",
"6A 	c #7E6E5A",
"7A 	c #776A5A",
"8A 	c #9D9175",
"9A 	c #AEA494",
"0A 	c #B9AF9E",
"aA 	c #948A75",
"bA 	c #75611E",
"cA 	c #B7AE9C",
"dA 	c #ABA99F",
"eA 	c #ACA597",
"fA 	c #887A50",
"gA 	c #8C7837",
"hA 	c #BDBCB4",
"iA 	c #BDBEB9",
"jA 	c #ABA28D",
"kA 	c #7F6729",
"lA 	c #8E752A",
"mA 	c #84672E",
"nA 	c #7E6920",
"oA 	c #9F8A43",
"pA 	c #A99F84",
"qA 	c #A8A69D",
"rA 	c #8F8C81",
"sA 	c #B8BBBD",
"tA 	c #A69563",
"uA 	c #AB9756",
"vA 	c #AC893A",
"wA 	c #806F5A",
"xA 	c #5B5F57",
"yA 	c #596057",
"zA 	c #635C4B",
"AA 	c #70614D",
"BA 	c #73786E",
"CA 	c #837A69",
"DA 	c #717165",
"EA 	c #818075",
"FA 	c #878D86",
"GA 	c #827A69",
"HA 	c #8A6E2C",
"IA 	c #8D7625",
"JA 	c #A0936F",
"KA 	c #7A5E2B",
"LA 	c #5F685D",
"MA 	c #5B6255",
"NA 	c #765926",
"OA 	c #86743A",
"PA 	c #B5BFBF",
"QA 	c #A19059",
"RA 	c #867564",
"SA 	c #6E7065",
"TA 	c #7A5F43",
"UA 	c #876A31",
"VA 	c #927927",
"WA 	c #847D73",
"XA 	c #A8B2AA",
"YA 	c #BDBDB7",
"ZA 	c #B7AB90",
"`A 	c #A88935",
" B 	c #765930",
".B 	c #7B5D34",
"+B 	c #96844A",
"@B 	c #9B8540",
"#B 	c #958242",
"$B 	c #9B8E6C",
"%B 	c #8A8270",
"&B 	c #9D8A4F",
"*B 	c #9A8548",
"=B 	c #AC9A69",
"-B 	c #A1852F",
";B 	c #9C8331",
">B 	c #A48535",
",B 	c #8D6A41",
"'B 	c #756B5D",
")B 	c #95834B",
"!B 	c #C7CDCC",
"~B 	c #A2A097",
"{B 	c #958143",
"]B 	c #836C28",
"^B 	c #9A9386",
"/B 	c #918870",
"(B 	c #BBC3C0",
"_B 	c #BBB5A7",
":B 	c #917822",
"<B 	c #9C802F",
"[B 	c #ABA18D",
"}B 	c #999281",
"|B 	c #B5B2A8",
"1B 	c #8C857A",
"2B 	c #A3882B",
"3B 	c #685032",
"4B 	c #60533E",
"5B 	c #816431",
"6B 	c #81682C",
"7B 	c #72572C",
"8B 	c #948453",
"9B 	c #B6BCBB",
"0B 	c #8C805E",
"aB 	c #A58D3F",
"bB 	c #75624D",
"cB 	c #52594F",
"dB 	c #83847F",
"eB 	c #756C5A",
"fB 	c #7D6A54",
"gB 	c #7C6D55",
"hB 	c #726956",
"iB 	c #80654A",
"jB 	c #95834E",
"kB 	c #A79F91",
"lB 	c #A79F8E",
"mB 	c #ADB2AB",
"nB 	c #A7A094",
"oB 	c #8E7529",
"pB 	c #604D37",
"qB 	c #7F6030",
"rB 	c #656D64",
"sB 	c #7E694F",
"tB 	c #929794",
"uB 	c #727165",
"vB 	c #866830",
"wB 	c #A6976F",
"xB 	c #715C48",
"yB 	c #795F2D",
"zB 	c #735A2D",
"AB 	c #957832",
"BB 	c #7E642C",
"CB 	c #847236",
"DB 	c #A5976D",
"EB 	c #867C64",
"FB 	c #92897A",
"GB 	c #AEAFA7",
"HB 	c #B4A57C",
"IB 	c #B49532",
"JB 	c #967B2F",
"KB 	c #5C4F41",
"LB 	c #C8A83C",
"MB 	c #B09433",
"NB 	c #836339",
"OB 	c #8A712B",
"PB 	c #7F6A24",
"QB 	c #7C671F",
"RB 	c #7E7355",
"SB 	c #938767",
"TB 	c #B9B09F",
"UB 	c #C6BCAE",
"VB 	c #8D732B",
"WB 	c #7A5C30",
"XB 	c #73592D",
"YB 	c #8A7E5E",
"ZB 	c #C5CCCB",
"`B 	c #BAB19E",
" C 	c #847E72",
".C 	c #92782C",
"+C 	c #947438",
"@C 	c #876930",
"#C 	c #896A35",
"$C 	c #6E5634",
"%C 	c #867338",
"&C 	c #847546",
"*C 	c #958C77",
"=C 	c #B39638",
"-C 	c #B39942",
";C 	c #636559",
">C 	c #6C7168",
",C 	c #595F57",
"'C 	c #6E6757",
")C 	c #7F7B70",
"!C 	c #695C48",
"~C 	c #7A705D",
"{C 	c #765F45",
"]C 	c #A49D90",
"^C 	c #A5A79C",
"/C 	c #C0C4C2",
"(C 	c #AFB9B4",
"_C 	c #AC902E",
":C 	c #96723B",
"<C 	c #866B49",
"[C 	c #767769",
"}C 	c #786C59",
"|C 	c #8C6F31",
"1C 	c #8E732D",
"2C 	c #B4A16B",
"3C 	c #A4987D",
"4C 	c #B6BBB2",
"5C 	c #C9CECE",
"6C 	c #A5892B",
"7C 	c #9A8233",
"8C 	c #806B22",
"9C 	c #CAD0D2",
"0C 	c #A08E58",
"aC 	c #7A634C",
"bC 	c #826544",
"cC 	c #6D5A42",
"dC 	c #7E622E",
"eC 	c #75592D",
"fC 	c #8D7131",
"gC 	c #B29433",
"hC 	c #947337",
"iC 	c #69502E",
"jC 	c #8F7330",
"kC 	c #8D722F",
"lC 	c #836A2C",
"mC 	c #827446",
"nC 	c #9E9586",
"oC 	c #9F988D",
"pC 	c #BDB4A2",
"qC 	c #8E887E",
"rC 	c #836430",
"sC 	c #60655E",
"tC 	c #887E64",
"uC 	c #8F8156",
"vC 	c #8A6E31",
"wC 	c #8E6F35",
"xC 	c #A58536",
"yC 	c #745A3B",
"zC 	c #6F5639",
"AC 	c #695946",
"BC 	c #816D25",
"CC 	c #837C70",
"DC 	c #ACB2AF",
"EC 	c #A7A7A3",
"FC 	c #BCC2C3",
"GC 	c #857F73",
"HC 	c #A7B2AC",
"IC 	c #868175",
"JC 	c #968550",
"KC 	c #A38533",
"LC 	c #7F6131",
"MC 	c #787A71",
"NC 	c #726853",
"OC 	c #757872",
"PC 	c #5A5F55",
"QC 	c #656960",
"RC 	c #85643F",
"SC 	c #695A44",
"TC 	c #6C5438",
"UC 	c #9E978B",
"VC 	c #B9C1BD",
"WC 	c #BDC1C3",
"XC 	c #755E44",
"YC 	c #8F6F34",
"ZC 	c #7D654A",
"`C 	c #856537",
" D 	c #8F8876",
".D 	c #736334",
"+D 	c #958F82",
"@D 	c #CFD2D4",
"#D 	c #BEC6C1",
"$D 	c #B3B8B3",
"%D 	c #CACECF",
"&D 	c #A8965D",
"*D 	c #775B2E",
"=D 	c #AC9B67",
"-D 	c #A29367",
";D 	c #847D6B",
">D 	c #9F8D55",
",D 	c #8A8063",
"'D 	c #C1CAC5",
")D 	c #8B8475",
"!D 	c #958348",
"~D 	c #967B2E",
"{D 	c #8C6A3E",
"]D 	c #686454",
"^D 	c #6B6C65",
"/D 	c #685C48",
"(D 	c #615A4C",
"_D 	c #7E642A",
":D 	c #795D31",
"<D 	c #74604B",
"[D 	c #7B5F2F",
"}D 	c #A78C32",
"|D 	c #7E662A",
"1D 	c #887029",
"2D 	c #948662",
"3D 	c #827D75",
"4D 	c #CAD1CE",
"5D 	c #7E7768",
"6D 	c #C0C7C4",
"7D 	c #AEB3AE",
"8D 	c #957E31",
"9D 	c #80652C",
"0D 	c #7C7768",
"aD 	c #765C3E",
"bD 	c #B29532",
"cD 	c #97938A",
"dD 	c #C1C7C6",
"eD 	c #A18433",
"fD 	c #8E7231",
"gD 	c #82672D",
"hD 	c #574F3C",
"iD 	c #6D624E",
"jD 	c #6F5532",
"kD 	c #C0A039",
"lD 	c #7E6D33",
"mD 	c #9B9C96",
"nD 	c #847543",
"oD 	c #B49834",
"pD 	c #7E5F37",
"qD 	c #876E50",
"rD 	c #5B6258",
"sD 	c #7D6446",
"tD 	c #474C42",
"uD 	c #535850",
"vD 	c #756853",
"wD 	c #74593A",
"xD 	c #6F6960",
"yD 	c #C3C8C4",
"zD 	c #BAC0BF",
"AD 	c #B7B0A2",
"BD 	c #897125",
"CD 	c #A28235",
"DD 	c #8D752B",
"ED 	c #7E6130",
"FD 	c #917D38",
"GD 	c #7A6A34",
"HD 	c #6F5C1F",
"ID 	c #968F7D",
"JD 	c #7B7569",
"KD 	c #AAAEA9",
"LD 	c #C2CAC6",
"MD 	c #878175",
"ND 	c #977F31",
"OD 	c #BC9C36",
"PD 	c #93834E",
"QD 	c #A99E85",
"RD 	c #9E9685",
"SD 	c #B6AB91",
"TD 	c #9D8843",
"UD 	c #B5A165",
"VD 	c #B69934",
"WD 	c #866747",
"XD 	c #846849",
"YD 	c #6E5F47",
"ZD 	c #5E594A",
"`D 	c #7B674F",
" E 	c #715630",
".E 	c #BC9E35",
"+E 	c #896835",
"@E 	c #C2A238",
"#E 	c #AC8E33",
"$E 	c #8E7832",
"%E 	c #BBB8B0",
"&E 	c #A99B75",
"*E 	c #7F6D36",
"=E 	c #A49053",
"-E 	c #B39536",
";E 	c #907430",
">E 	c #756534",
",E 	c #959286",
"'E 	c #A0A198",
")E 	c #806331",
"!E 	c #93824E",
"~E 	c #998E6E",
"{E 	c #978136",
"]E 	c #8C742A",
"^E 	c #7F632E",
"/E 	c #735D48",
"(E 	c #594D3D",
"_E 	c #666458",
":E 	c #4C4E3E",
"<E 	c #716A5B",
"[E 	c #70746E",
"}E 	c #87672E",
"|E 	c #565B51",
"1E 	c #60533D",
"2E 	c #977733",
"3E 	c #A9996C",
"4E 	c #918C81",
"5E 	c #A4B0A7",
"6E 	c #A4925A",
"7E 	c #826C25",
"8E 	c #A28533",
"9E 	c #A2977A",
"0E 	c #8D8469",
"aE 	c #928971",
"bE 	c #876D2D",
"cE 	c #8C793B",
"dE 	c #B6AE9C",
"eE 	c #9B9077",
"fE 	c #A7904B",
"gE 	c #897F67",
"hE 	c #C1B7A5",
"iE 	c #B8BBB6",
"jE 	c #B2B6B0",
"kE 	c #5D584E",
"lE 	c #B8B8B3",
"mE 	c #9D9271",
"nE 	c #B49F61",
"oE 	c #A7914D",
"pE 	c #B59A48",
"qE 	c #8D742D",
"rE 	c #977736",
"sE 	c #846748",
"tE 	c #5F645C",
"uE 	c #5D635A",
"vE 	c #896C2F",
"wE 	c #A08A46",
"xE 	c #9F8430",
"yE 	c #977E2D",
"zE 	c #6D5825",
"AE 	c #958B72",
"BE 	c #6A655B",
"CE 	c #C6C8C6",
"DE 	c #836D23",
"EE 	c #C7CDCD",
"FE 	c #A3997D",
"GE 	c #A0893B",
"HE 	c #BBC4C1",
"IE 	c #ACB2A9",
"JE 	c #A88A2B",
"KE 	c #AA9E7E",
"LE 	c #9F9170",
"ME 	c #AE9132",
"NE 	c #9A802D",
"OE 	c #A39779",
"PE 	c #918255",
"QE 	c #A38932",
"RE 	c #967638",
"SE 	c #7E6C54",
"TE 	c #6A6D63",
"UE 	c #70746C",
"VE 	c #555B52",
"WE 	c #6E6653",
"XE 	c #6E7165",
"YE 	c #4F5650",
"ZE 	c #535245",
"`E 	c #715636",
" F 	c #9A822F",
".F 	c #A5935E",
"+F 	c #97844D",
"@F 	c #8D8267",
"#F 	c #B1B4B0",
"$F 	c #A9ACA7",
"%F 	c #A49C8A",
"&F 	c #A89044",
"*F 	c #8B7838",
"=F 	c #8B7A48",
"-F 	c #9C884F",
";F 	c #9C863F",
">F 	c #AA9F86",
",F 	c #7E6D35",
"'F 	c #9E957B",
")F 	c #BEB4A3",
"!F 	c #94814B",
"~F 	c #B7AE9F",
"{F 	c #B9B2A2",
"]F 	c #8B8168",
"^F 	c #817B70",
"/F 	c #9FA09A",
"(F 	c #A39A86",
"_F 	c #999078",
":F 	c #A38E48",
"<F 	c #6F5F49",
"[F 	c #3C453B",
"}F 	c #40473F",
"|F 	c #997B33",
"1F 	c #AF9F73",
"2F 	c #BFB5A4",
"3F 	c #AA9243",
"4F 	c #A38831",
"5F 	c #776029",
"6F 	c #BDB4A4",
"7F 	c #84764F",
"8F 	c #726C62",
"9F 	c #B9C1BF",
"0F 	c #B5A98E",
"aF 	c #988342",
"bF 	c #AA985F",
"cF 	c #9E8844",
"dF 	c #9A8E6E",
"eF 	c #BDC0C1",
"fF 	c #A0967D",
"gF 	c #9C8C59",
"hF 	c #BBAC86",
"iF 	c #CAA737",
"jF 	c #99843F",
"kF 	c #95865B",
"lF 	c #A5A496",
"mF 	c #B3B5B4",
"nF 	c #B39E5D",
"oF 	c #8B6A37",
"pF 	c #78654F",
"qF 	c #827762",
"rF 	c #717770",
"sF 	c #626864",
"tF 	c #3F483F",
"uF 	c #50554E",
"vF 	c #464F46",
"wF 	c #9E8C55",
"xF 	c #B2A99A",
"yF 	c #8F7C3D",
"zF 	c #9A9B95",
"AF 	c #958D7A",
"BF 	c #8F897C",
"CF 	c #9C9277",
"DF 	c #928358",
"EF 	c #9C906E",
"FF 	c #A18D4F",
"GF 	c #987C31",
"HF 	c #AE9133",
"IF 	c #7A5F2E",
"JF 	c #937A2B",
"KF 	c #8B773A",
"LF 	c #7F6A22",
"MF 	c #8C793F",
"NF 	c #978C70",
"OF 	c #86774A",
"PF 	c #968D79",
"QF 	c #988F77",
"RF 	c #99885A",
"SF 	c #918049",
"TF 	c #88722A",
"UF 	c #615C53",
"VF 	c #A49A8A",
"WF 	c #988C6E",
"XF 	c #A0988A",
"YF 	c #A19A8D",
"ZF 	c #917035",
"`F 	c #4F574D",
" G 	c #42473E",
".G 	c #997F29",
"+G 	c #A4997D",
"@G 	c #A5904B",
"#G 	c #9C998D",
"$G 	c #8B8576",
"%G 	c #C6CCCB",
"&G 	c #A0A39C",
"*G 	c #8D8365",
"=G 	c #A39570",
"-G 	c #90866C",
";G 	c #83764D",
">G 	c #757065",
",G 	c #B3B4AC",
"'G 	c #A9996F",
")G 	c #9D8E64",
"!G 	c #9C8B58",
"~G 	c #846F28",
"{G 	c #918359",
"]G 	c #B0912E",
"^G 	c #937336",
"/G 	c #69553C",
"(G 	c #666A65",
"_G 	c #485049",
":G 	c #626358",
"<G 	c #815E32",
"[G 	c #485048",
"}G 	c #A48733",
"|G 	c #8C7C46",
"1G 	c #80744B",
"2G 	c #8D7F56",
"3G 	c #90876D",
"4G 	c #A39983",
"5G 	c #B5B8B0",
"6G 	c #9E9C90",
"7G 	c #B8BCB9",
"8G 	c #82682C",
"9G 	c #8A7C50",
"0G 	c #A7986F",
"aG 	c #B6AC96",
"bG 	c #AAA088",
"cG 	c #A09887",
"dG 	c #9A8649",
"eG 	c #88806E",
"fG 	c #887740",
"gG 	c #8D7C45",
"hG 	c #9F9474",
"iG 	c #8D7936",
"jG 	c #83682E",
"kG 	c #675A45",
"lG 	c #3E4338",
"mG 	c #3D4339",
"nG 	c #785930",
"oG 	c #A39D91",
"pG 	c #CBD0D0",
"qG 	c #ACA292",
"rG 	c #C5BCAA",
"sG 	c #8C8679",
"tG 	c #665F54",
"uG 	c #C7CECC",
"vG 	c #979285",
"wG 	c #B2B0A4",
"xG 	c #989285",
"yG 	c #A59D8F",
"zG 	c #B2BCB8",
"AG 	c #B5B9B4",
"BG 	c #96813B",
"CG 	c #AAA086",
"DG 	c #9B8A57",
"EG 	c #837032",
"FG 	c #9A9079",
"GG 	c #7C6D38",
"HG 	c #7E6B31",
"IG 	c #A88E37",
"JG 	c #8F6C38",
"KG 	c #6A6D64",
"LG 	c #61665C",
"MG 	c #5A4C39",
"NG 	c #B8A87C",
"OG 	c #555E55",
"PG 	c #655741",
"QG 	c #484537",
"RG 	c #5E503B",
"SG 	c #694F29",
"TG 	c #715E1F",
"UG 	c #8C8473",
"VG 	c #AFAEAC",
"WG 	c #7C7970",
"XG 	c #797158",
"YG 	c #8F7D44",
"ZG 	c #6D5428",
"`G 	c #735D26",
" H 	c #7B6525",
".H 	c #6E5B1D",
"+H 	c #928251",
"@H 	c #867749",
"#H 	c #9F998B",
"$H 	c #9B9587",
"%H 	c #AEB8B1",
"&H 	c #B3B6B1",
"*H 	c #9F832B",
"=H 	c #9D863C",
"-H 	c #A4882E",
";H 	c #A28F52",
">H 	c #806133",
",H 	c #7D6130",
"'H 	c #BEC6C2",
")H 	c #C7CDCB",
"!H 	c #C2C2BE",
"~H 	c #B7BCB8",
"{H 	c #8F7F4D",
"]H 	c #99833F",
"^H 	c #A79E8F",
"/H 	c #777369",
"(H 	c #BABFB9",
"_H 	c #A59978",
":H 	c #8D815E",
"<H 	c #A98F38",
"[H 	c #91772E",
"}H 	c #71624E",
"|H 	c #5B5542",
"1H 	c #5C6258",
"2H 	c #6F5A41",
"3H 	c #947C27",
"4H 	c #ADADA5",
"5H 	c #B5B6B1",
"6H 	c #A8ABA9",
"7H 	c #BABDBF",
"8H 	c #837A6D",
"9H 	c #A7A8A3",
"0H 	c #C4C9CB",
"aH 	c #8F876F",
"bH 	c #97823E",
"cH 	c #8A7C57",
"dH 	c #917F49",
"eH 	c #8A7C51",
"fH 	c #B19A4E",
"gH 	c #A29263",
"hH 	c #74644F",
"iH 	c #817560",
"jH 	c #595542",
"kH 	c #56503F",
"lH 	c #9B7B34",
"mH 	c #545E56",
"nH 	c #545E53",
"oH 	c #434F44",
"pH 	c #806343",
"qH 	c #766220",
"rH 	c #8F887B",
"sH 	c #8C8470",
"tH 	c #A29265",
"uH 	c #A98D2E",
"vH 	c #826236",
"wH 	c #6C5F4B",
"xH 	c #7A5C2D",
"yH 	c #655644",
"zH 	c #765C2C",
"AH 	c #81785E",
"BH 	c #AAB2AB",
"CH 	c #A29883",
"DH 	c #AD9238",
"EH 	c #C1A137",
"FH 	c #735B41",
"GH 	c #937435",
"HH 	c #6D5740",
"IH 	c #8E7230",
"JH 	c #84764C",
"KH 	c #B6B9B5",
"LH 	c #999180",
"MH 	c #A09787",
"NH 	c #BBC4C0",
"OH 	c #B1A99C",
"PH 	c #B2952F",
"QH 	c #736D5C",
"RH 	c #A77F39",
"SH 	c #3B433B",
"TH 	c #817A6C",
"UH 	c #848177",
"VH 	c #A7B1AC",
"WH 	c #A7B1AB",
"XH 	c #625C52",
"YH 	c #6F685E",
"ZH 	c #857F72",
"`H 	c #AB8E30",
" I 	c #A88F41",
".I 	c #947F3D",
"+I 	c #9C8228",
"@I 	c #988758",
"#I 	c #9F8C57",
"$I 	c #AD902F",
"%I 	c #9A7739",
"&I 	c #71746C",
"*I 	c #464F43",
"=I 	c #5D655C",
"-I 	c #535E58",
";I 	c #9D7932",
">I 	c #7A7769",
",I 	c #807058",
"'I 	c #705630",
")I 	c #755B2A",
"!I 	c #847342",
"~I 	c #786937",
"{I 	c #7F724D",
"]I 	c #917C39",
"^I 	c #806F3D",
"/I 	c #8A673D",
"(I 	c #777A74",
"_I 	c #87673B",
":I 	c #B09431",
"<I 	c #B79936",
"[I 	c #897F61",
"}I 	c #BFC7C4",
"|I 	c #B39E61",
"1I 	c #927F3F",
"2I 	c #886835",
"3I 	c #826547",
"4I 	c #5C5548",
"5I 	c #906D38",
"6I 	c #72624F",
"7I 	c #8B6D34",
"8I 	c #B9BFBA",
"9I 	c #AAA59A",
"0I 	c #C8C8C2",
"aI 	c #AF9646",
"bI 	c #906C38",
"cI 	c #4F574E",
"dI 	c #956F35",
"eI 	c #7E6726",
"fI 	c #989186",
"gI 	c #645F53",
"hI 	c #A39986",
"iI 	c #897F66",
"jI 	c #757066",
"kI 	c #ADB7AF",
"lI 	c #8C8678",
"mI 	c #726B58",
"nI 	c #8C836C",
"oI 	c #756D56",
"pI 	c #787265",
"qI 	c #A5B1AA",
"rI 	c #A1A197",
"sI 	c #968345",
"tI 	c #B99A34",
"uI 	c #857130",
"vI 	c #A39159",
"wI 	c #9D863B",
"xI 	c #9C8B5D",
"yI 	c #A79459",
"zI 	c #A8986A",
"AI 	c #AB944D",
"BI 	c #7F6344",
"CI 	c #6C624D",
"DI 	c #5E675D",
"EI 	c #70776F",
"FI 	c #7C7360",
"GI 	c #7A6D56",
"HI 	c #646150",
"II 	c #666E64",
"JI 	c #5A594C",
"KI 	c #7A6327",
"LI 	c #A99B72",
"MI 	c #AF922F",
"NI 	c #6E5B47",
"OI 	c #7E642E",
"PI 	c #AE9D6A",
"QI 	c #705A26",
"RI 	c #806B23",
"SI 	c #A89762",
"TI 	c #755936",
"UI 	c #75593A",
"VI 	c #2A3127",
"WI 	c #5F625A",
"XI 	c #6D6354",
"YI 	c #735A41",
"ZI 	c #8A7943",
"`I 	c #C4C7C6",
" J 	c #997F28",
".J 	c #5D4934",
"+J 	c #8F8364",
"@J 	c #97885B",
"#J 	c #84733C",
"$J 	c #90804C",
"%J 	c #887950",
"&J 	c #8B8377",
"*J 	c #ACB4B2",
"=J 	c #C3CBC8",
"-J 	c #7A756B",
";J 	c #B8BEBE",
">J 	c #84733D",
",J 	c #8F7727",
"'J 	c #9C9175",
")J 	c #BCB19E",
"!J 	c #A49A83",
"~J 	c #9F8F60",
"{J 	c #877C60",
"]J 	c #81622E",
"^J 	c #67695B",
"/J 	c #7F603D",
"(J 	c #7E857E",
"_J 	c #868783",
":J 	c #716152",
"<J 	c #6B7169",
"[J 	c #87663C",
"}J 	c #726451",
"|J 	c #6A502C",
"1J 	c #9B822B",
"2J 	c #BB9D36",
"3J 	c #856832",
"4J 	c #A48F50",
"5J 	c #8F7934",
"6J 	c #AF984E",
"7J 	c #A0852F",
"8J 	c #9E9068",
"9J 	c #9E9889",
"0J 	c #A28933",
"aJ 	c #8C6B36",
"bJ 	c #746A59",
"cJ 	c #6F6E62",
"dJ 	c #6F6959",
"eJ 	c #686C67",
"fJ 	c #B39435",
"gJ 	c #7C6821",
"hJ 	c #A6A49E",
"iJ 	c #B8C0B9",
"jJ 	c #978B68",
"kJ 	c #9A8235",
"lJ 	c #84733A",
"mJ 	c #C1C9C6",
"nJ 	c #B6BEB7",
"oJ 	c #AAA89F",
"pJ 	c #A49879",
"qJ 	c #AB985C",
"rJ 	c #94896A",
"sJ 	c #77631F",
"tJ 	c #837D71",
"uJ 	c #AEB3B1",
"vJ 	c #AFB6B5",
"wJ 	c #A6A296",
"xJ 	c #978E77",
"yJ 	c #9FAAA3",
"zJ 	c #A79974",
"AJ 	c #A2946A",
"BJ 	c #AB9652",
"CJ 	c #8D7D49",
"DJ 	c #A3A398",
"EJ 	c #B2BAB7",
"FJ 	c #B2B2AE",
"GJ 	c #AD9858",
"HJ 	c #8B6C34",
"IJ 	c #856735",
"JJ 	c #7C6244",
"KJ 	c #7E715C",
"LJ 	c #776754",
"MJ 	c #7D602F",
"NJ 	c #806827",
"OJ 	c #6C736F",
"PJ 	c #787160",
"QJ 	c #816F56",
"RJ 	c #816232",
"SJ 	c #7B632A",
"TJ 	c #99802E",
"UJ 	c #A0872E",
"VJ 	c #ABA084",
"WJ 	c #99864B",
"XJ 	c #C2BAAA",
"YJ 	c #A9A08E",
"ZJ 	c #8A783F",
"`J 	c #AFA797",
" K 	c #B09D61",
".K 	c #897761",
"+K 	c #896E51",
"@K 	c #946F3A",
"#K 	c #957537",
"$K 	c #A27E3D",
"%K 	c #8F7134",
"&K 	c #72572D",
"*K 	c #836E25",
"=K 	c #9FA8A4",
"-K 	c #A49361",
";K 	c #AC9138",
">K 	c #BBB2A1",
",K 	c #998751",
"'K 	c #7C6A2F",
")K 	c #B1B8B8",
"!K 	c #A9B2AF",
"~K 	c #959082",
"{K 	c #92897B",
"]K 	c #9E9E92",
"^K 	c #B5BDBB",
"/K 	c #9FA197",
"(K 	c #9B9990",
"_K 	c #A3AAA4",
":K 	c #958D7D",
"<K 	c #A0967B",
"[K 	c #A88C2E",
"}K 	c #9C8F6B",
"|K 	c #A29984",
"1K 	c #958761",
"2K 	c #B9C0BE",
"3K 	c #AAB3AE",
"4K 	c #A5A092",
"5K 	c #AE8B3D",
"6K 	c #86694B",
"7K 	c #6F6E5F",
"8K 	c #7F5F2E",
"9K 	c #806445",
"0K 	c #6F776E",
"aK 	c #767D72",
"bK 	c #7C705E",
"cK 	c #9F7D39",
"dK 	c #AF9035",
"eK 	c #71583C",
"fK 	c #896D2F",
"gK 	c #896C31",
"hK 	c #775E29",
"iK 	c #675026",
"jK 	c #978C6F",
"kK 	c #A59879",
"lK 	c #A5A39B",
"mK 	c #A9A89C",
"nK 	c #938453",
"oK 	c #9F8333",
"pK 	c #8D6D36",
"qK 	c #8C742B",
"rK 	c #99802A",
"sK 	c #AE9230",
"tK 	c #B99B32",
"uK 	c #8B712E",
"vK 	c #6A655D",
"wK 	c #99A39C",
"xK 	c #A89F8D",
"yK 	c #AD9A5E",
"zK 	c #937F3F",
"AK 	c #8B877C",
"BK 	c #817A6F",
"CK 	c #837E71",
"DK 	c #726A5E",
"EK 	c #A4A69C",
"FK 	c #A49F92",
"GK 	c #9B9282",
"HK 	c #9FACA4",
"IK 	c #9C9B92",
"JK 	c #A2A39A",
"KK 	c #A1A39F",
"LK 	c #9A8336",
"MK 	c #A08B49",
"NK 	c #948452",
"OK 	c #807245",
"PK 	c #B1B9B7",
"QK 	c #B1A272",
"RK 	c #967931",
"SK 	c #8C6E34",
"TK 	c #9A743D",
"UK 	c #71776F",
"VK 	c #8D6F2A",
"WK 	c #A6A19B",
"XK 	c #6F7870",
"YK 	c #83694B",
"ZK 	c #8E7131",
"`K 	c #6D5A40",
" L 	c #6A6655",
".L 	c #6F6958",
"+L 	c #776C58",
"@L 	c #6E6C61",
"#L 	c #6E6657",
"$L 	c #7C5F30",
"%L 	c #8C7428",
"&L 	c #8A7530",
"*L 	c #AC9656",
"=L 	c #967E2A",
"-L 	c #A79977",
";L 	c #B6A67A",
">L 	c #A59C87",
",L 	c #9F8B4A",
"'L 	c #977D29",
")L 	c #846C29",
"!L 	c #756C51",
"~L 	c #9CA89E",
"{L 	c #98A39C",
"]L 	c #94A097",
"^L 	c #909D92",
"/L 	c #95A199",
"(L 	c #A2A9A6",
"_L 	c #B5AC99",
":L 	c #928E82",
"<L 	c #948B71",
"[L 	c #ABABA5",
"}L 	c #B5BBBC",
"|L 	c #B3BDB7",
"1L 	c #A8A195",
"2L 	c #967C29",
"3L 	c #9D8A50",
"4L 	c #9A853F",
"5L 	c #9A8132",
"6L 	c #A7986C",
"7L 	c #938A71",
"8L 	c #A59D8C",
"9L 	c #A39366",
"0L 	c #7D642A",
"aL 	c #8A6A44",
"bL 	c #7C6143",
"cL 	c #737264",
"dL 	c #6C716A",
"eL 	c #896834",
"fL 	c #957251",
"gL 	c #725D44",
"hL 	c #695238",
"iL 	c #A98A35",
"jL 	c #947339",
"kL 	c #79644B",
"lL 	c #82867D",
"mL 	c #7E8479",
"nL 	c #7A7464",
"oL 	c #88897E",
"pL 	c #7F705A",
"qL 	c #7F6345",
"rL 	c #725839",
"sL 	c #957E35",
"tL 	c #917C35",
"uL 	c #80765B",
"vL 	c #9A988B",
"wL 	c #8C7F55",
"xL 	c #8B805E",
"yL 	c #9E947D",
"zL 	c #806F39",
"AL 	c #C5CBC6",
"BL 	c #A9ABA0",
"CL 	c #A8A08E",
"DL 	c #6A6359",
"EL 	c #BBBEBC",
"FL 	c #8C8475",
"GL 	c #827D72",
"HL 	c #978759",
"IL 	c #88763E",
"JL 	c #C2BCAF",
"KL 	c #938C7C",
"LL 	c #BFC2C4",
"ML 	c #897B50",
"NL 	c #877848",
"OL 	c #856F22",
"PL 	c #918B7F",
"QL 	c #A8A8A2",
"RL 	c #A09A8B",
"SL 	c #9C8C5A",
"TL 	c #B49533",
"UL 	c #928668",
"VL 	c #ABB3AD",
"WL 	c #9D8D59",
"XL 	c #776126",
"YL 	c #75592E",
"ZL 	c #846534",
"`L 	c #8C693C",
" M 	c #9B7A37",
".M 	c #767164",
"+M 	c #696E67",
"@M 	c #7F715D",
"#M 	c #777770",
"$M 	c #886A47",
"%M 	c #81623C",
"&M 	c #886933",
"*M 	c #8F6C39",
"=M 	c #6F7061",
"-M 	c #7A8075",
";M 	c #83887F",
">M 	c #6F766B",
",M 	c #5D5C4B",
"'M 	c #75582E",
")M 	c #A58C3E",
"!M 	c #A69049",
"~M 	c #897C59",
"{M 	c #817656",
"]M 	c #B0B1AE",
"^M 	c #827A6E",
"/M 	c #A79B79",
"(M 	c #7B661F",
"_M 	c #B0AB9D",
":M 	c #B7B8B2",
"<M 	c #8B7F5E",
"[M 	c #C1C6C6",
"}M 	c #9EA7A2",
"|M 	c #929F95",
"1M 	c #A0A8A5",
"2M 	c #9AA59F",
"3M 	c #8D887C",
"4M 	c #8F8569",
"5M 	c #968E7D",
"6M 	c #878275",
"7M 	c #9A8544",
"8M 	c #A39B89",
"9M 	c #B6B8B3",
"0M 	c #8F8050",
"aM 	c #755C2C",
"bM 	c #888071",
"cM 	c #B3BDB9",
"dM 	c #B7BBBD",
"eM 	c #B0B5B4",
"fM 	c #B8BCBD",
"gM 	c #A39981",
"hM 	c #A3956B",
"iM 	c #958347",
"jM 	c #B4BCB9",
"kM 	c #B0B9B5",
"lM 	c #B4A780",
"mM 	c #9B783B",
"nM 	c #8B693A",
"oM 	c #9E7D39",
"pM 	c #A17A3D",
"qM 	c #857F6D",
"rM 	c #7C7769",
"sM 	c #816544",
"tM 	c #725F47",
"uM 	c #8A6B37",
"vM 	c #B69834",
"wM 	c #B59637",
"xM 	c #6E5F49",
"yM 	c #746D5A",
"zM 	c #868C85",
"AM 	c #7E7F76",
"BM 	c #7F6240",
"CM 	c #A59255",
"DM 	c #81785A",
"EM 	c #7F7146",
"FM 	c #79651E",
"GM 	c #897841",
"HM 	c #7C622C",
"IM 	c #806E2F",
"JM 	c #AEADA5",
"KM 	c #958F81",
"LM 	c #B3B5B7",
"MM 	c #A1A9A3",
"NM 	c #817862",
"OM 	c #B3B4AD",
"PM 	c #9F9E98",
"QM 	c #8B8376",
"RM 	c #947A2F",
"SM 	c #877742",
"TM 	c #8F7C40",
"UM 	c #AA8D30",
"VM 	c #796426",
"WM 	c #AC9B6A",
"XM 	c #524230",
"YM 	c #8E7629",
"ZM 	c #88773F",
"`M 	c #9B9D95",
" N 	c #9DA29B",
".N 	c #AFB2AD",
"+N 	c #94865B",
"@N 	c #9D8437",
"#N 	c #93782D",
"$N 	c #987638",
"%N 	c #817967",
"&N 	c #727267",
"*N 	c #705C42",
"=N 	c #AA903B",
"-N 	c #9C894C",
";N 	c #876637",
">N 	c #937138",
",N 	c #947A59",
"'N 	c #796045",
")N 	c #83662F",
"!N 	c #AFA482",
"~N 	c #93886A",
"{N 	c #958349",
"]N 	c #665440",
"^N 	c #85682C",
"/N 	c #806235",
"(N 	c #977834",
"_N 	c #785D3D",
":N 	c #72593F",
"<N 	c #645643",
"[N 	c #6F552C",
"}N 	c #898374",
"|N 	c #877953",
"1N 	c #B3AB9B",
"2N 	c #BFB7A5",
"3N 	c #908362",
"4N 	c #CAD0CB",
"5N 	c #C8CACB",
"6N 	c #9A978F",
"7N 	c #928B7B",
"8N 	c #A09780",
"9N 	c #BFB6A4",
"0N 	c #A59C89",
"aN 	c #958968",
"bN 	c #AA8D32",
"cN 	c #795B30",
"dN 	c #604924",
"eN 	c #7A622A",
"fN 	c #736A4B",
"gN 	c #B2B6B3",
"hN 	c #907B39",
"iN 	c #967932",
"jN 	c #ABB5AF",
"kN 	c #A5A9A1",
"lN 	c #AAB3AC",
"mN 	c #B6BBB9",
"nN 	c #B4AA91",
"oN 	c #ADA07B",
"pN 	c #A8955C",
"qN 	c #C6A538",
"rN 	c #807F71",
"sN 	c #9E7851",
"tN 	c #6D7069",
"uN 	c #6F6552",
"vN 	c #B39432",
"wN 	c #A6935A",
"xN 	c #A38C42",
"yN 	c #A79253",
"zN 	c #BAA04B",
"AN 	c #BF9F34",
"BN 	c #937335",
"CN 	c #7D6245",
"DN 	c #A18F56",
"EN 	c #978345",
"FN 	c #876D2A",
"GN 	c #686557",
"HN 	c #896B2E",
"IN 	c #937C31",
"JN 	c #6E786F",
"KN 	c #675E4B",
"LN 	c #99743B",
"MN 	c #7B6042",
"NN 	c #9B7939",
"ON 	c #735A3D",
"PN 	c #5F5A48",
"QN 	c #6A502E",
"RN 	c #8E8058",
"SN 	c #715D1E",
"TN 	c #8D7A3A",
"UN 	c #837443",
"VN 	c #81713F",
"WN 	c #857F74",
"XN 	c #ABB4B0",
"YN 	c #9CA6A0",
"ZN 	c #A99F8A",
"`N 	c #8B7F5B",
" O 	c #9B8F72",
".O 	c #85692C",
"+O 	c #886830",
"@O 	c #796F5F",
"#O 	c #766851",
"$O 	c #70634E",
"%O 	c #82674B",
"&O 	c #906E35",
"*O 	c #7F7160",
"=O 	c #70604D",
"-O 	c #7C6527",
";O 	c #716130",
">O 	c #918C83",
",O 	c #AAADA6",
"'O 	c #BFC8C5",
")O 	c #9D873F",
"!O 	c #A38633",
"~O 	c #99A69C",
"{O 	c #706B5F",
"]O 	c #BEC2C4",
"^O 	c #B7BDBD",
"/O 	c #A2ADA3",
"(O 	c #BABEC0",
"_O 	c #8C836E",
":O 	c #806E36",
"<O 	c #9B8953",
"[O 	c #846F25",
"}O 	c #A0783E",
"|O 	c #616860",
"1O 	c #BAAE8C",
"2O 	c #6B6F67",
"3O 	c #675440",
"4O 	c #99833E",
"5O 	c #9F9169",
"6O 	c #AA9657",
"7O 	c #AF9132",
"8O 	c #B69B3F",
"9O 	c #9C812E",
"0O 	c #705A42",
"aO 	c #596258",
"bO 	c #6D6655",
"cO 	c #545141",
"dO 	c #8A6C32",
"eO 	c #B99C35",
"fO 	c #956F3C",
"gO 	c #868E87",
"hO 	c #726957",
"iO 	c #71614B",
"jO 	c #6F6550",
"kO 	c #A08234",
"lO 	c #AD8C3A",
"mO 	c #836333",
"nO 	c #785D3F",
"oO 	c #856A2E",
"pO 	c #785F2B",
"qO 	c #7D6727",
"rO 	c #74601E",
"sO 	c #6F6A5F",
"tO 	c #B5B9BA",
"uO 	c #96A19A",
"vO 	c #C9CFCB",
"wO 	c #ABB0B0",
"xO 	c #9D9486",
"yO 	c #A19782",
"zO 	c #C1B7A4",
"AO 	c #9F926C",
"BO 	c #7F6627",
"CO 	c #726554",
"DO 	c #6B6E65",
"EO 	c #71746B",
"FO 	c #7F8277",
"GO 	c #817866",
"HO 	c #888374",
"IO 	c #80715C",
"JO 	c #817361",
"KO 	c #7E7E72",
"LO 	c #987331",
"MO 	c #8F6936",
"NO 	c #6F542E",
"OO 	c #897535",
"PO 	c #8B867A",
"QO 	c #ABB1A8",
"RO 	c #806C2F",
"SO 	c #6F6A62",
"TO 	c #A7ABA3",
"UO 	c #AFA99F",
"VO 	c #B19D60",
"WO 	c #795B31",
"XO 	c #9F8429",
"YO 	c #A8B1AE",
"ZO 	c #92886F",
"`O 	c #8C7F57",
" P 	c #9C9B96",
".P 	c #BBC1C1",
"+P 	c #AA975F",
"@P 	c #8B7B4F",
"#P 	c #A48D3E",
"$P 	c #8D6A3A",
"%P 	c #6C6F64",
"&P 	c #6C5F50",
"*P 	c #907032",
"=P 	c #656C60",
"-P 	c #7D5F2F",
";P 	c #988C67",
">P 	c #938661",
",P 	c #A49159",
"'P 	c #896E2E",
")P 	c #675540",
"!P 	c #5D645A",
"~P 	c #6A5339",
"{P 	c #CFD2D9",
"]P 	c #C0C8C7",
"^P 	c #667066",
"/P 	c #5B5645",
"(P 	c #715632",
"_P 	c #906F37",
":P 	c #7F6445",
"<P 	c #7C6B52",
"[P 	c #766147",
"}P 	c #A08135",
"|P 	c #9A7D33",
"1P 	c #8D6C37",
"2P 	c #73604A",
"3P 	c #AE9035",
"4P 	c #857541",
"5P 	c #897947",
"6P 	c #85743F",
"7P 	c #958140",
"8P 	c #A08232",
"9P 	c #89745A",
"0P 	c #84867F",
"aP 	c #686C62",
"bP 	c #7B7F7A",
"cP 	c #926D35",
"dP 	c #75796B",
"eP 	c #6A614B",
"fP 	c #6A644F",
"gP 	c #83847C",
"hP 	c #A68A28",
"iP 	c #BFC9C9",
"jP 	c #B19228",
"kP 	c #7F612D",
"lP 	c #7E6A22",
"mP 	c #83682F",
"nP 	c #806929",
"oP 	c #8A7940",
"pP 	c #6D675A",
"qP 	c #93792D",
"rP 	c #83692E",
"sP 	c #A1946F",
"tP 	c #A6B1AA",
"uP 	c #978E7D",
"vP 	c #A8A092",
"wP 	c #9D937C",
"xP 	c #A1862B",
"yP 	c #6C5B46",
"zP 	c #636761",
"AP 	c #86682F",
"BP 	c #6C573F",
"CP 	c #554632",
"DP 	c #8E8056",
"EP 	c #987C2E",
"FP 	c #9C802E",
"GP 	c #675A46",
"HP 	c #666457",
"IP 	c #9C8021",
"JP 	c #AAB6B0",
"KP 	c #94752C",
"LP 	c #665B48",
"MP 	c #886A32",
"NP 	c #A38435",
"OP 	c #8C6C45",
"PP 	c #6E776D",
"QP 	c #7C7766",
"RP 	c #735738",
"SP 	c #AB8C36",
"TP 	c #736652",
"UP 	c #716D5F",
"VP 	c #B39632",
"WP 	c #70582B",
"XP 	c #7B6328",
"YP 	c #86743B",
"ZP 	c #848379",
"`P 	c #C1C9C3",
" Q 	c #C3CAC3",
".Q 	c #B0B1AA",
"+Q 	c #928870",
"@Q 	c #9E9172",
"#Q 	c #A08432",
"$Q 	c #7B5F40",
"%Q 	c #80857C",
"&Q 	c #7A7F76",
"*Q 	c #866541",
"=Q 	c #C09F32",
"-Q 	c #837465",
";Q 	c #7E7460",
">Q 	c #7B7C6C",
",Q 	c #73614B",
"'Q 	c #96918A",
")Q 	c #9F978B",
"!Q 	c #9F9F98",
"~Q 	c #71573D",
"{Q 	c #957F34",
"]Q 	c #A38830",
"^Q 	c #AE9335",
"/Q 	c #977D2D",
"(Q 	c #765E2A",
"_Q 	c #705C1B",
":Q 	c #857E73",
"<Q 	c #B9C1BE",
"[Q 	c #B49632",
"}Q 	c #8B722C",
"|Q 	c #8A752F",
"1Q 	c #807865",
"2Q 	c #756224",
"3Q 	c #9C937C",
"4Q 	c #BCB2A0",
"5Q 	c #B2A995",
"6Q 	c #907E40",
"7Q 	c #978B66",
"8Q 	c #B1A275",
"9Q 	c #A98838",
"0Q 	c #888679",
"aQ 	c #71736E",
"bQ 	c #51594F",
"cQ 	c #7D684F",
"dQ 	c #886A34",
"eQ 	c #AA8D33",
"fQ 	c #93803F",
"gQ 	c #9B8744",
"hQ 	c #BA9B35",
"iQ 	c #A48931",
"jQ 	c #7C5D21",
"kQ 	c #AA8B23",
"lQ 	c #50594F",
"mQ 	c #755A37",
"nQ 	c #926D3A",
"oQ 	c #7A7868",
"pQ 	c #81887E",
"qQ 	c #6B6253",
"rQ 	c #9F8F5C",
"sQ 	c #A58438",
"tQ 	c #7B603D",
"uQ 	c #806F54",
"vQ 	c #656C64",
"wQ 	c #5B4A37",
"xQ 	c #86692F",
"yQ 	c #6D5438",
"zQ 	c #8A6934",
"AQ 	c #6D532E",
"BQ 	c #868177",
"CQ 	c #ACB8B1",
"DQ 	c #CCD1CF",
"EQ 	c #D1D4D5",
"FQ 	c #8B7C4D",
"GQ 	c #846F23",
"HQ 	c #7D632D",
"IQ 	c #69523B",
"JQ 	c #86663E",
"KQ 	c #947336",
"LQ 	c #7C837A",
"MQ 	c #906B33",
"NQ 	c #826A50",
"OQ 	c #837865",
"PQ 	c #87877A",
"QQ 	c #55594A",
"RQ 	c #B8B1A3",
"SQ 	c #887122",
"TQ 	c #979188",
"UQ 	c #927F40",
"VQ 	c #5F6159",
"WQ 	c #9F8736",
"XQ 	c #B79C47",
"YQ 	c #AE9C64",
"ZQ 	c #857C65",
"`Q 	c #785A2F",
" R 	c #4D4736",
".R 	c #775A2F",
"+R 	c #7F7763",
"@R 	c #9C8F6D",
"#R 	c #756F65",
"$R 	c #B7BFBD",
"%R 	c #969792",
"&R 	c #A9B2AB",
"*R 	c #A4AFA7",
"=R 	c #ABB3B2",
"-R 	c #917A27",
";R 	c #786045",
">R 	c #81867E",
",R 	c #626861",
"'R 	c #997E2C",
")R 	c #72572E",
"!R 	c #A68736",
"~R 	c #91762F",
"{R 	c #5C5A4D",
"]R 	c #AAB4AB",
"^R 	c #B2A688",
"/R 	c #A38133",
"(R 	c #616962",
"_R 	c #9D7A36",
":R 	c #77684F",
"<R 	c #787F74",
"[R 	c #7C8376",
"}R 	c #64685A",
"|R 	c #9B7F2E",
"1R 	c #896A31",
"2R 	c #65644F",
"3R 	c #676C5C",
"4R 	c #4D564C",
"5R 	c #696E68",
"6R 	c #6F6C61",
"7R 	c #6B6050",
"8R 	c #666459",
"9R 	c #6C5C44",
"0R 	c #876638",
"aR 	c #CCD0CD",
"bR 	c #D1D4D3",
"cR 	c #CFD4D3",
"dR 	c #968D78",
"eR 	c #7F632D",
"fR 	c #5A4934",
"gR 	c #6D5941",
"hR 	c #866535",
"iR 	c #8F6C3B",
"jR 	c #8D7032",
"kR 	c #7C7D71",
"lR 	c #696C66",
"mR 	c #887863",
"nR 	c #8A775F",
"oR 	c #7E6A53",
"pR 	c #84877C",
"qR 	c #60675B",
"rR 	c #998031",
"sR 	c #9E8A47",
"tR 	c #AD8F2B",
"uR 	c #77776D",
"vR 	c #9B802E",
"wR 	c #AF9234",
"xR 	c #8B7428",
"yR 	c #76621F",
"zR 	c #9E8E5E",
"AR 	c #6E5A45",
"BR 	c #40493D",
"CR 	c #51584D",
"DR 	c #515348",
"ER 	c #94782D",
"FR 	c #86712C",
"GR 	c #6D685D",
"HR 	c #87753A",
"IR 	c #73694B",
"JR 	c #6B665C",
"KR 	c #7E7A6F",
"LR 	c #7F8176",
"MR 	c #8F7C43",
"NR 	c #8E6E34",
"OR 	c #685641",
"PR 	c #594935",
"QR 	c #716651",
"RR 	c #73786F",
"SR 	c #5C4D3A",
"TR 	c #A6892C",
"UR 	c #97844E",
"VR 	c #AC8E35",
"WR 	c #8C7032",
"XR 	c #9C8A55",
"YR 	c #C6A539",
"ZR 	c #886638",
"`R 	c #5B645C",
" S 	c #ADB8B3",
".S 	c #A68E3C",
"+S 	c #515A53",
"@S 	c #585F54",
"#S 	c #796A51",
"$S 	c #80857F",
"%S 	c #5F624E",
"&S 	c #8C775C",
"*S 	c #785B35",
"=S 	c #798074",
"-S 	c #888E81",
";S 	c #898E82",
">S 	c #A3842B",
",S 	c #A2882B",
"'S 	c #947A23",
")S 	c #62695F",
"!S 	c #656D61",
"~S 	c #8A7C55",
"{S 	c #767065",
"]S 	c #CED1D0",
"^S 	c #C9CDCA",
"/S 	c #A78B2B",
"(S 	c #676052",
"_S 	c #656151",
":S 	c #6F7267",
"<S 	c #655C4B",
"[S 	c #7F652D",
"}S 	c #927431",
"|S 	c #8A683D",
"1S 	c #816443",
"2S 	c #99753D",
"3S 	c #7F623F",
"4S 	c #525A4D",
"5S 	c #664B2C",
"6S 	c #B9BCBB",
"7S 	c #81827E",
"8S 	c #906D36",
"9S 	c #73592C",
"0S 	c #C5A538",
"aS 	c #987F2D",
"bS 	c #806928",
"cS 	c #816330",
"dS 	c #766321",
"eS 	c #A28936",
"fS 	c #A88B31",
"gS 	c #74796F",
"hS 	c #81847C",
"iS 	c #57503C",
"jS 	c #4E4332",
"kS 	c #7E6A21",
"lS 	c #979183",
"mS 	c #A3A59B",
"nS 	c #8A847B",
"oS 	c #958346",
"pS 	c #6E5C1E",
"qS 	c #9AA59E",
"rS 	c #B3B6B7",
"sS 	c #A5945C",
"tS 	c #A68833",
"uS 	c #6B695D",
"vS 	c #5B6159",
"wS 	c #63513B",
"xS 	c #AA8833",
"yS 	c #8D6936",
"zS 	c #9B8A54",
"AS 	c #9C8130",
"BS 	c #775D2C",
"CS 	c #92792D",
"DS 	c #BEA037",
"ES 	c #A38F54",
"FS 	c #927236",
"GS 	c #60685E",
"HS 	c #726023",
"IS 	c #8A7120",
"JS 	c #626458",
"KS 	c #886B4A",
"LS 	c #7C674C",
"MS 	c #786044",
"NS 	c #896737",
"OS 	c #A48437",
"PS 	c #9D7E37",
"QS 	c #836A50",
"RS 	c #677461",
"SS 	c #8A7E6A",
"TS 	c #82887C",
"US 	c #5E655D",
"VS 	c #545C55",
"WS 	c #747B74",
"XS 	c #757C70",
"YS 	c #655945",
"ZS 	c #A58634",
"`S 	c #CAD0CC",
" T 	c #92938A",
".T 	c #8D938F",
"+T 	c #4A564A",
"@T 	c #697066",
"#T 	c #766856",
"$T 	c #715B44",
"%T 	c #A18434",
"&T 	c #9A763D",
"*T 	c #7C6F59",
"=T 	c #7D7A6E",
"-T 	c #8B7D67",
";T 	c #757363",
">T 	c #72766C",
",T 	c #5B6257",
"'T 	c #8B6E31",
")T 	c #63503B",
"!T 	c #A18431",
"~T 	c #665D4E",
"{T 	c #6C522E",
"]T 	c #876833",
"^T 	c #816344",
"/T 	c #6D756A",
"(T 	c #776349",
"_T 	c #876949",
":T 	c #8E6B39",
"<T 	c #B49633",
"[T 	c #7D6F46",
"}T 	c #9C937E",
"|T 	c #927A27",
"1T 	c #654D26",
"2T 	c #70542F",
"3T 	c #6E5D25",
"4T 	c #A7B2AB",
"5T 	c #958553",
"6T 	c #AB8C35",
"7T 	c #5A6058",
"8T 	c #6D6A5B",
"9T 	c #5A6156",
"0T 	c #535C50",
"aT 	c #8F7130",
"bT 	c #9E7E35",
"cT 	c #73593A",
"dT 	c #7A5D30",
"eT 	c #A88E3C",
"fT 	c #776954",
"gT 	c #656B64",
"hT 	c #686155",
"iT 	c #A27E2F",
"jT 	c #5D6358",
"kT 	c #9B773D",
"lT 	c #9C7C37",
"mT 	c #896B33",
"nT 	c #94782F",
"oT 	c #A58F47",
"pT 	c #968240",
"qT 	c #A78836",
"rT 	c #99733F",
"sT 	c #7F7055",
"tT 	c #886B48",
"uT 	c #8E6C38",
"vT 	c #72593C",
"wT 	c #7F6F56",
"xT 	c #625440",
"yT 	c #A2872B",
"zT 	c #7C7669",
"AT 	c #A08734",
"BT 	c #616660",
"CT 	c #A48233",
"DT 	c #81847E",
"ET 	c #66695F",
"FT 	c #795E38",
"GT 	c #877029",
"HT 	c #7E613D",
"IT 	c #937531",
"JT 	c #836531",
"KT 	c #87887E",
"LT 	c #8E9088",
"MT 	c #91968B",
"NT 	c #9B998E",
"OT 	c #5B6352",
"PT 	c #6A7062",
"QT 	c #4D4D3D",
"RT 	c #A48731",
"ST 	c #7C6145",
"TT 	c #55584C",
"UT 	c #6E5431",
"VT 	c #8F6F37",
"WT 	c #907234",
"XT 	c #83653D",
"YT 	c #6C6151",
"ZT 	c #645F51",
"`T 	c #7D6443",
" U 	c #746044",
".U 	c #6A5338",
"+U 	c #A49051",
"@U 	c #928974",
"#U 	c #ADB1AC",
"$U 	c #94855B",
"%U 	c #AEA38A",
"&U 	c #897228",
"*U 	c #AE9234",
"=U 	c #6C5942",
"-U 	c #5E4B36",
";U 	c #888278",
">U 	c #9DAAA1",
",U 	c #9F9F97",
"'U 	c #68685A",
")U 	c #5B5E53",
"!U 	c #7D5E31",
"~U 	c #A18B49",
"{U 	c #795F44",
"]U 	c #75654F",
"^U 	c #6B685B",
"/U 	c #635B49",
"(U 	c #6B5843",
"_U 	c #61503C",
":U 	c #91752E",
"<U 	c #786853",
"[U 	c #665846",
"}U 	c #938971",
"|U 	c #AFBAB9",
"1U 	c #7B7562",
"2U 	c #977A32",
"3U 	c #A08136",
"4U 	c #A58A30",
"5U 	c #A08837",
"6U 	c #A68C36",
"7U 	c #967A2F",
"8U 	c #A5803E",
"9U 	c #826334",
"0U 	c #846436",
"aU 	c #6B5943",
"bU 	c #A49875",
"cU 	c #D0D3D4",
"dU 	c #D2D6D6",
"eU 	c #BABBB5",
"fU 	c #A38B3D",
"gU 	c #8F7133",
"hU 	c #615643",
"iU 	c #84642B",
"jU 	c #624F3A",
"kU 	c #765D41",
"lU 	c #92742D",
"mU 	c #666A62",
"nU 	c #634F3A",
"oU 	c #9E7D38",
"pU 	c #7C6243",
"qU 	c #716C5A",
"rU 	c #756650",
"sU 	c #7E8379",
"tU 	c #9E812D",
"uU 	c #A38A34",
"vU 	c #747C70",
"wU 	c #6A7061",
"xU 	c #7E694C",
"yU 	c #785A30",
"zU 	c #634C35",
"AU 	c #806236",
"BU 	c #66685C",
"CU 	c #5E6155",
"DU 	c #736F5E",
"EU 	c #73634B",
"FU 	c #61523F",
"GU 	c #645C49",
"HU 	c #475146",
"IU 	c #767972",
"JU 	c #686964",
"KU 	c #715D41",
"LU 	c #685840",
"MU 	c #66523D",
"NU 	c #9A8D6C",
"OU 	c #AAB6AE",
"PU 	c #A99E7D",
"QU 	c #917234",
"RU 	c #9A7F30",
"SU 	c #9F988B",
"TU 	c #9D832B",
"UU 	c #756751",
"VU 	c #7C786B",
"WU 	c #786A59",
"XU 	c #736B5E",
"YU 	c #71542E",
"ZU 	c #96723A",
"`U 	c #6B6D65",
" V 	c #777C77",
".V 	c #787B74",
"+V 	c #6D6F68",
"@V 	c #957634",
"#V 	c #574D3B",
"$V 	c #AB9032",
"%V 	c #80684F",
"&V 	c #7B6954",
"*V 	c #806E57",
"=V 	c #6D716A",
"-V 	c #6B6F6A",
";V 	c #626760",
">V 	c #6F6F66",
",V 	c #5D6057",
"'V 	c #696354",
")V 	c #70593D",
"!V 	c #7A5C32",
"~V 	c #7B6426",
"{V 	c #B99B36",
"]V 	c #7A5C33",
"^V 	c #8C6D34",
"/V 	c #8A702E",
"(V 	c #AAA085",
"_V 	c #A69669",
":V 	c #A5B0A7",
"<V 	c #736E62",
"[V 	c #9B7E30",
"}V 	c #8F6C40",
"|V 	c #77766E",
"1V 	c #5B5C51",
"2V 	c #797A71",
"3V 	c #595C54",
"4V 	c #726D5F",
"5V 	c #5C5F59",
"6V 	c #8D6C36",
"7V 	c #A18235",
"8V 	c #B08F37",
"9V 	c #70756F",
"0V 	c #6A6A61",
"aV 	c #75552B",
"bV 	c #AFA280",
"cV 	c #958F85",
"dV 	c #8E6B36",
"eV 	c #A4842C",
"fV 	c #68604D",
"gV 	c #8E7130",
"hV 	c #866533",
"iV 	c #6E573C",
"jV 	c #7E6D55",
"kV 	c #686658",
"lV 	c #7E7563",
"mV 	c #757567",
"nV 	c #636153",
"oV 	c #575D53",
"pV 	c #6B6959",
"qV 	c #7B7F78",
"rV 	c #6F756A",
"sV 	c #767871",
"tV 	c #74634A",
"uV 	c #9C7B36",
"vV 	c #7F6037",
"wV 	c #A38631",
"xV 	c #827962",
"yV 	c #B6BAB4",
"zV 	c #7B5D32",
"AV 	c #AC8D36",
"BV 	c #877950",
"CV 	c #988B68",
"DV 	c #7F662A",
"EV 	c #80694F",
"FV 	c #705A41",
"GV 	c #74756B",
"HV 	c #75756D",
"IV 	c #6E6250",
"JV 	c #81837E",
"KV 	c #8C741F",
"LV 	c #9F9688",
"MV 	c #A59567",
"NV 	c #76746B",
"OV 	c #655843",
"PV 	c #906C39",
"QV 	c #745839",
"RV 	c #69665A",
"SV 	c #6C6D64",
"TV 	c #696B63",
"UV 	c #79644C",
"VV 	c #6C5741",
"WV 	c #8B6944",
"XV 	c #7E5F38",
"YV 	c #937136",
"ZV 	c #686050",
"`V 	c #795D41",
" W 	c #7C5F3C",
".W 	c #987A32",
"+W 	c #977D2B",
"@W 	c #484B35",
"#W 	c #7A5D38",
"$W 	c #9A8F6F",
"%W 	c #9D9C93",
"&W 	c #7F7A6F",
"*W 	c #837859",
"=W 	c #8A8069",
"-W 	c #9C8A53",
";W 	c #72573E",
">W 	c #9A773C",
",W 	c #987450",
"'W 	c #696A5F",
")W 	c #584932",
"!W 	c #645742",
"~W 	c #7F6449",
"{W 	c #715634",
"]W 	c #866735",
"^W 	c #71583E",
"/W 	c #5B594B",
"(W 	c #968034",
"_W 	c #B1BAB8",
":W 	c #CAD2D5",
"<W 	c #7B5B33",
"[W 	c #ADA69C",
"}W 	c #715F48",
"|W 	c #585A4E",
"1W 	c #5A5646",
"2W 	c #585C50",
"3W 	c #6C5C43",
"4W 	c #5B594A",
"5W 	c #595A4B",
"6W 	c #676655",
"7W 	c #595742",
"8W 	c #706A56",
"9W 	c #656759",
"0W 	c #5C6459",
"aW 	c #6E6C5E",
"bW 	c #775931",
"cW 	c #82692A",
"dW 	c #969C93",
"eW 	c #A69667",
"fW 	c #8A6D31",
"gW 	c #8B7C52",
"hW 	c #BBC0BD",
"iW 	c #B4B9BA",
"jW 	c #998E73",
"kW 	c #9C832A",
"lW 	c #99812A",
"mW 	c #836C53",
"nW 	c #857767",
"oW 	c #7D7467",
"pW 	c #7C7C75",
"qW 	c #6A5948",
"rW 	c #776B56",
"sW 	c #816D54",
"tW 	c #695D46",
"uW 	c #6C6556",
"vW 	c #77654E",
"wW 	c #83643D",
"xW 	c #6F5E45",
"yW 	c #876B4F",
"zW 	c #8A7227",
"AW 	c #A99351",
"BW 	c #A68A2C",
"CW 	c #AD964D",
"DW 	c #A68929",
"EW 	c #A08836",
"FW 	c #AC9D72",
"GW 	c #957D28",
"HW 	c #AF9540",
"IW 	c #BE9F35",
"JW 	c #A5803F",
"KW 	c #615B43",
"LW 	c #695339",
"MW 	c #938973",
"NW 	c #9D9273",
"OW 	c #958554",
"PW 	c #836433",
"QW 	c #916F3A",
"RW 	c #977439",
"SW 	c #896837",
"TW 	c #715B43",
"UW 	c #917331",
"VW 	c #69645B",
"WW 	c #605C4D",
"XW 	c #494A43",
"YW 	c #525E56",
"ZW 	c #7E612F",
"`W 	c #735C3E",
" X 	c #555B4C",
".X 	c #53594A",
"+X 	c #707268",
"@X 	c #A9872E",
"#X 	c #75766E",
"$X 	c #595B50",
"%X 	c #676B60",
"&X 	c #736B57",
"*X 	c #7A5D3D",
"=X 	c #936E3C",
"-X 	c #73583B",
";X 	c #394537",
">X 	c #78664C",
",X 	c #62655C",
"'X 	c #70563B",
")X 	c #8B7737",
"!X 	c #937831",
"~X 	c #7E6921",
"{X 	c #696357",
"]X 	c #A0ABA3",
"^X 	c #D1D5D6",
"/X 	c #BAB1A0",
"(X 	c #9C8849",
"_X 	c #AA9341",
":X 	c #876534",
"<X 	c #6C6451",
"[X 	c #585D57",
"}X 	c #918A81",
"|X 	c #C2C5C7",
"1X 	c #956E33",
"2X 	c #54594C",
"3X 	c #8A693E",
"4X 	c #7F603A",
"5X 	c #977241",
"6X 	c #836541",
"7X 	c #6E6450",
"8X 	c #BFBEB3",
"9X 	c #979185",
"0X 	c #968B72",
"aX 	c #837C72",
"bX 	c #BBB3A3",
"cX 	c #A38E49",
"dX 	c #958965",
"eX 	c #B3B4B0",
"fX 	c #7C6A33",
"gX 	c #775C2F",
"hX 	c #B89A34",
"iX 	c #A38632",
"jX 	c #836A2B",
"kX 	c #A3872C",
"lX 	c #A38337",
"mX 	c #927333",
"nX 	c #AF9131",
"oX 	c #5D5D53",
"pX 	c #5C4F3B",
"qX 	c #454741",
"rX 	c #B5BDBD",
"sX 	c #8C6C33",
"tX 	c #71604D",
"uX 	c #71786B",
"vX 	c #80684B",
"wX 	c #907131",
"xX 	c #887E5D",
"yX 	c #B1BABD",
"zX 	c #B99B37",
"AX 	c #6A5F49",
"BX 	c #505748",
"CX 	c #856436",
"DX 	c #A88936",
"EX 	c #695944",
"FX 	c #645F52",
"GX 	c #846444",
"HX 	c #454338",
"IX 	c #4D4636",
"JX 	c #92772E",
"KX 	c #836D25",
"LX 	c #767368",
"MX 	c #8F8F86",
"NX 	c #B29945",
"OX 	c #897D5C",
"PX 	c #938970",
"QX 	c #565147",
"RX 	c #B7B9BB",
"SX 	c #928A79",
"TX 	c #AA913C",
"UX 	c #7A5E45",
"VX 	c #54574D",
"WX 	c #5A5850",
"XX 	c #C2C9CA",
"YX 	c #B59428",
"ZX 	c #555C51",
"`X 	c #816331",
" Y 	c #957635",
".Y 	c #7F613A",
"+Y 	c #D1D3D4",
"@Y 	c #C8CCCF",
"#Y 	c #9B8F6E",
"$Y 	c #ABACA7",
"%Y 	c #9C988E",
"&Y 	c #B5B4A8",
"*Y 	c #B8BAB8",
"=Y 	c #B6BAB9",
"-Y 	c #B6B3A8",
";Y 	c #AFA591",
">Y 	c #938354",
",Y 	c #9C894D",
"'Y 	c #A48D42",
")Y 	c #AFA27D",
"!Y 	c #AA965A",
"~Y 	c #A1893E",
"{Y 	c #917D3C",
"]Y 	c #967A2E",
"^Y 	c #4C4A42",
"/Y 	c #AFB7B7",
"(Y 	c #ACAFAD",
"_Y 	c #B6972C",
":Y 	c #806033",
"<Y 	c #A09164",
"[Y 	c #9FABA6",
"}Y 	c #785E47",
"|Y 	c #70624B",
"1Y 	c #404639",
"2Y 	c #795C2E",
"3Y 	c #B69C42",
"4Y 	c #7F6140",
"5Y 	c #444C41",
"6Y 	c #5F6158",
"7Y 	c #454A45",
"8Y 	c #48473C",
"9Y 	c #5E4C37",
"0Y 	c #897126",
"aY 	c #C8CCCD",
"bY 	c #716B5E",
"cY 	c #B2A377",
"dY 	c #907728",
"eY 	c #857543",
"fY 	c #B8BABC",
"gY 	c #B0AA9E",
"hY 	c #A3AEA7",
"iY 	c #B1B9B9",
"jY 	c #918874",
"kY 	c #635441",
"lY 	c #927922",
"mY 	c #928C83",
"nY 	c #5A6055",
"oY 	c #6A5C48",
"pY 	c #71634E",
"qY 	c #6C614E",
"rY 	c #856539",
"sY 	c #ABA397",
"tY 	c #938E82",
"uY 	c #A39D8F",
"vY 	c #929287",
"wY 	c #B4B3AB",
"xY 	c #9B9382",
"yY 	c #79715F",
"zY 	c #867F70",
"AY 	c #B9BBB7",
"BY 	c #938043",
"CY 	c #A0936E",
"DY 	c #9B927B",
"EY 	c #B4AB9C",
"FY 	c #C1B8A5",
"GY 	c #A39B86",
"HY 	c #A39672",
"IY 	c #AA913D",
"JY 	c #A18E52",
"KY 	c #A8934D",
"LY 	c #B2A581",
"MY 	c #877123",
"NY 	c #AB8D35",
"OY 	c #5B4E3C",
"PY 	c #474940",
"QY 	c #7A6F52",
"RY 	c #9F8323",
"SY 	c #5E4C39",
"TY 	c #BCB5A8",
"UY 	c #656B6B",
"VY 	c #6D695B",
"WY 	c #5B5441",
"XY 	c #8F782D",
"YY 	c #826238",
"ZY 	c #545649",
"`Y 	c #5F5C4E",
" Z 	c #62523E",
".Z 	c #7C5E32",
"+Z 	c #79651F",
"@Z 	c #AC9F76",
"#Z 	c #AA9553",
"$Z 	c #886A31",
"%Z 	c #A08430",
"&Z 	c #816C24",
"*Z 	c #918461",
"=Z 	c #736D63",
"-Z 	c #B4B8B9",
";Z 	c #A3ACA5",
">Z 	c #98854B",
",Z 	c #765B3F",
"'Z 	c #4D4C3F",
")Z 	c #725534",
"!Z 	c #6C7169",
"~Z 	c #725C3F",
"{Z 	c #72756A",
"]Z 	c #66695D",
"^Z 	c #6F6656",
"/Z 	c #75614D",
"(Z 	c #A58635",
"_Z 	c #BFC8C1",
":Z 	c #D0D3D2",
"<Z 	c #A1A59E",
"[Z 	c #D2D4D6",
"}Z 	c #C3C6C2",
"|Z 	c #B7BCBC",
"1Z 	c #BCBCB9",
"2Z 	c #817B71",
"3Z 	c #A09884",
"4Z 	c #C3C9CA",
"5Z 	c #766E60",
"6Z 	c #A7A79E",
"7Z 	c #A19780",
"8Z 	c #C1C8C5",
"9Z 	c #8B8062",
"0Z 	c #A99F88",
"aZ 	c #908A80",
"bZ 	c #AD9B65",
"cZ 	c #B1A277",
"dZ 	c #9B8D6B",
"eZ 	c #AE9A5C",
"fZ 	c #8B6F2F",
"gZ 	c #585951",
"hZ 	c #6D6B62",
"iZ 	c #6D541C",
"jZ 	c #A8B3AA",
"kZ 	c #BCC6C2",
"lZ 	c #70736B",
"mZ 	c #4B5045",
"nZ 	c #494F45",
"oZ 	c #54574C",
"pZ 	c #3B4139",
"qZ 	c #767A73",
"rZ 	c #4F5950",
"sZ 	c #886733",
"tZ 	c #6B5339",
"uZ 	c #A19575",
"vZ 	c #A3987E",
"wZ 	c #75634B",
"xZ 	c #82623A",
"yZ 	c #AD912E",
"zZ 	c #7F6B25",
"AZ 	c #B9BCBD",
"BZ 	c #947D30",
"CZ 	c #9E8E5C",
"DZ 	c #6B5742",
"EZ 	c #92782B",
"FZ 	c #8A7F5C",
"GZ 	c #B6BBBC",
"HZ 	c #98733E",
"IZ 	c #494A3F",
"JZ 	c #53554C",
"KZ 	c #5D6155",
"LZ 	c #6C5C45",
"MZ 	c #A7843B",
"NZ 	c #6B624E",
"OZ 	c #72614C",
"PZ 	c #A99246",
"QZ 	c #937F3E",
"RZ 	c #8F825E",
"SZ 	c #B0B9B4",
"TZ 	c #8F8A7D",
"UZ 	c #898276",
"VZ 	c #BAC1C0",
"WZ 	c #86877F",
"XZ 	c #BABEBA",
"YZ 	c #968656",
"ZZ 	c #9F9372",
"`Z 	c #AC9D73",
" ` 	c #977F34",
".` 	c #A68B2D",
"+` 	c #867233",
"@` 	c #B2A379",
"#` 	c #AE912F",
"$` 	c #8E6D36",
"%` 	c #5E5C54",
"&` 	c #755A24",
"*` 	c #927720",
"=` 	c #968960",
"-` 	c #69503A",
";` 	c #665942",
">` 	c #6D583F",
",` 	c #766348",
"'` 	c #69614E",
")` 	c #7E7665",
"!` 	c #A28731",
"~` 	c #B79935",
"{` 	c #A99D7A",
"]` 	c #A4925E",
"^` 	c #B4AB99",
"/` 	c #BDC0C3",
"(` 	c #A7A093",
"_` 	c #816C25",
":` 	c #856535",
"<` 	c #7E603B",
"[` 	c #5F594D",
"}` 	c #96885F",
"|` 	c #847B63",
"1` 	c #6C5338",
"2` 	c #4A493B",
"3` 	c #967337",
"4` 	c #9E852C",
"5` 	c #AB9F85",
"6` 	c #A69462",
"7` 	c #A6A6A0",
"8` 	c #C8CECD",
"9` 	c #867E72",
"0` 	c #7B725A",
"a` 	c #8C8376",
"b` 	c #807863",
"c` 	c #ACAFA9",
"d` 	c #B2B2AC",
"e` 	c #847237",
"f` 	c #C7CFCE",
"g` 	c #CDC3B1",
"h` 	c #A18E53",
"i` 	c #B99A37",
"j` 	c #816D2C",
"k` 	c #9B9073",
"l` 	c #997E28",
"m` 	c #947534",
"n` 	c #3C4137",
"o` 	c #696250",
"p` 	c #3C4236",
"q` 	c #765B40",
"r` 	c #947533",
"s` 	c #A57F40",
"t` 	c #A28037",
"u` 	c #A18631",
"v` 	c #B8A362",
"w` 	c #AEB7B6",
"x` 	c #B5AA98",
"y` 	c #938C80",
"z` 	c #B7A56F",
"A` 	c #A89B7B",
"B` 	c #969488",
"C` 	c #999486",
"D` 	c #8D9088",
"E` 	c #969890",
"F` 	c #9B8C60",
"G` 	c #91782C",
"H` 	c #9A7A37",
"I` 	c #907333",
"J` 	c #8B6837",
"K` 	c #645C4E",
"L` 	c #887741",
"M` 	c #B7BBBC",
"N` 	c #989389",
"O` 	c #B29430",
"P` 	c #A99552",
"Q` 	c #BBA560",
"R` 	c #91835A",
"S` 	c #807658",
"T` 	c #9A927C",
"U` 	c #7A6F4D",
"V` 	c #D1D5D7",
"W` 	c #766736",
"X` 	c #BAC2BF",
"Y` 	c #A4A29B",
"Z` 	c #BBBCB6",
"`` 	c #978135",
"  .	c #A88D2F",
". .	c #82682E",
"+ .	c #8B712C",
"@ .	c #A69A7E",
"# .	c #A79A77",
"$ .	c #917B34",
"% .	c #A2915C",
"& .	c #B1A27B",
"* .	c #A88739",
"= .	c #79664B",
"- .	c #6C5236",
"; .	c #9E852D",
"> .	c #A89662",
", .	c #A69663",
"' .	c #AE9E71",
") .	c #AFA177",
"! .	c #938B7F",
"~ .	c #9DA9A1",
"{ .	c #917E3F",
"] .	c #9A8957",
"^ .	c #8E8D82",
"/ .	c #B9BBBF",
"( .	c #AFB5B1",
"_ .	c #9E8232",
": .	c #665137",
"< .	c #715738",
"[ .	c #AF9133",
"} .	c #897B52",
"| .	c #ACB5B2",
"1 .	c #8F7034",
"2 .	c #B19235",
"3 .	c #927D39",
"4 .	c #AB9447",
"5 .	c #AFA589",
"6 .	c #C6CBC7",
"7 .	c #8A8475",
"8 .	c #B6B6AD",
"9 .	c #ACA492",
"0 .	c #8C7F58",
"a .	c #D3D4D7",
"b .	c #ABAFAA",
"c .	c #99917C",
"d .	c #806D31",
"e .	c #8B7A43",
"f .	c #9C9385",
"g .	c #CED1CF",
"h .	c #AAA28E",
"i .	c #88712A",
"j .	c #B49732",
"k .	c #867333",
"l .	c #BBB3A1",
"m .	c #A89D7E",
"n .	c #9F8135",
"o .	c #876D2E",
"p .	c #755933",
"q .	c #7D6030",
"r .	c #948350",
"s .	c #A69668",
"t .	c #9A8E6A",
"u .	c #A19571",
"v .	c #CCD2D0",
"w .	c #B5BBBD",
"x .	c #8F8677",
"y .	c #A09F93",
"z .	c #9A8A5B",
"A .	c #A6945C",
"B .	c #9E8537",
"C .	c #8E7133",
"D .	c #886E2B",
"E .	c #B19C5A",
"F .	c #A49464",
"G .	c #9D822A",
"H .	c #AA9552",
"I .	c #8E825C",
"J .	c #A2AEA7",
"K .	c #A17F36",
"L .	c #524836",
"M .	c #686255",
"N .	c #9F8637",
"O .	c #96844F",
"P .	c #796527",
"Q .	c #887E66",
"R .	c #BBC3C1",
"S .	c #BFC6C0",
"T .	c #A5A298",
"U .	c #94875E",
"V .	c #91835E",
"W .	c #9C9585",
"X .	c #A69E8C",
"Y .	c #786320",
"Z .	c #998C67",
"` .	c #908778",
" ..	c #A8AAA2",
"...	c #9A8B62",
"+..	c #8F7D46",
"@..	c #9F9167",
"#..	c #857E74",
"$..	c #645039",
"%..	c #695136",
"&..	c #785B37",
"*..	c #A48D3F",
"=..	c #92835B",
"-..	c #7A756A",
";..	c #94855A",
">..	c #9D8536",
",..	c #98833F",
"'..	c #B3983C",
")..	c #9E8C56",
"!..	c #C3BBA8",
"~..	c #9F9168",
"{..	c #9C9482",
"]..	c #7D6131",
"^..	c #967C2D",
"/..	c #725F1F",
"(..	c #A7ACA6",
"_..	c #8A6D2F",
":..	c #525D54",
"<..	c #697067",
"[..	c #72634A",
"}..	c #67614F",
"|..	c #5C513E",
"1..	c #A29C8E",
"2..	c #C9CFCE",
"3..	c #8A816A",
"4..	c #9D9070",
"5..	c #968967",
"6..	c #847D6C",
"7..	c #59544C",
"8..	c #BCC5C0",
"9..	c #AEADA2",
"0..	c #8D8475",
"a..	c #AAADA8",
"b..	c #A79D8B",
"c..	c #938A72",
"d..	c #9C894E",
"e..	c #916E3C",
"f..	c #7B5E32",
"g..	c #6A5234",
"h..	c #9A802C",
"i..	c #7C6B34",
"j..	c #AFAEA7",
"k..	c #B5B8BA",
"l..	c #948D81",
"m..	c #A7ACA5",
"n..	c #A69F91",
"o..	c #927F42",
"p..	c #B5BAB7",
"q..	c #C8C9CB",
"r..	c #A39B8A",
"s..	c #A1793E",
"t..	c #73654E",
"u..	c #987639",
"v..	c #6E6452",
"w..	c #8B7326",
"x..	c #968C72",
"y..	c #8B8881",
"z..	c #958A6A",
"A..	c #B2A88F",
"B..	c #888171",
"C..	c #7F7A6D",
"D..	c #A78A2B",
"E..	c #957A2F",
"F..	c #9B7F31",
"G..	c #958658",
"H..	c #CACCCC",
"I..	c #D0D1D3",
"J..	c #A0A49E",
"K..	c #A68F46",
"L..	c #B49731",
"M..	c #856C2C",
"N..	c #756048",
"O..	c #68553F",
"P..	c #A6904B",
"Q..	c #CDD2D3",
"R..	c #8F8879",
"S..	c #A8B2AD",
"T..	c #A4A79E",
"U..	c #8D8676",
"V..	c #A7ACA4",
"W..	c #9E9170",
"X..	c #B69838",
"Y..	c #9B8031",
"Z..	c #B7BDB8",
"   .  +  @  #  $  %  &  *  =  -  ;  >  ,  '  )  !  ~  {  ]  ^  /  (  _  :  <  [  }  |  1  2  <  3  4  5  6  7  8  9  0  a  b  c  d  e  f  g  h  i  !  j  .  k  ]  l  m  n  o  p  h  h  q  r  s  t  u  t  u  v  w  x  y  z  p  A  B  C  D  E  F  G  H  I  J  K  L  M  N  O     P  Q  R  S  T  @  U  V  W  X  Y  Z  `   . .. +. @. #. $. %. ^  &. *. =. -. ;. >. ,. '. ). !. ~. {. ]. ^. /. (. _. ",
":. <. [. }. |. 1. 2. 3. 4. 5. 6. 7. 8. 9. 0. a. b. c. d. e. f. g. h. g. i. j. k. l.  . m. n. o. p. q. r. s. t. u. v. w. x. y. z. A. B. (  C. s  D. m  h  E. F. G. H. I. J. K. L. M. N. p  <. o  O. P. Q. R. S. Q. T. R. N. U. V. W. X. Y. Z. `.  + .+ ++ @+ #+ n  $+ %+ &+ *+ =+ /  -+ ;+ >+ >+ ,+ '+ )+ >+ !+ ~+ {+ ]+ ^+ /+ (+ _+ :+ <+ [+ _. }+ |+ 1+ 2+ 3+ 4+ 5+ 6+ 7+ 8+ 9+ 0+ a+ b+ c+ d+ ",
"e+ f+ g+ h+ i+ j+ k+ l+ m+ n+ o+ p+ q+ r+ s+ t+ u+ v+ w+ f. x+ y+ <. z+ A+ B+ C+ D+ E+ F+ G+ H+ I+ J+ K+ L+ M+ N+ O+ P+ Q+ R+ S+ T+ U+ V+ k  H. t  j  W+ l  !  X+ N. ]  Y+ Z+ s  M. Z+ !  `+  @ M  Y+ .@ !  s  +@ @@ #@ K. O  $@ H. %@ &@ *@ =@ -@ ;@ >@ ,@ K. '@ )@ z+ !@ ~@ t  _+ {@ ]@ ^@ /@ (@ _+ _@ :@ <@ [@ }@ |@ 1@ 2@ 3@ 4@ 5@ :. 6@ 7@ 8@ 9@ !+ 0@ a@ b@ c@ d@ e@ f@ g@ h@ i@ j@ k@ l@ ",
"m@ n@ o@ p@ q@ r@ s@ t@ u@ v@ w@ x@ y@ z@ A@ B@ C@ D@ E@ F@ G@ 6@ H@ I@ J@ K@ Y+ L@ M@ }+ N@ O@ P@ Q@ R@ S@ T@ U@ V@ W@ C. X@ Y@ Z@ Y+ `@  # s  ]  .# O. +# D. $@ Y+ I. @# o  ## $# %# &# *# N. O  =# R. H. -# ;# ># K@ D. $+  # ,# '# )# !# ~# {# ]# ^# /# Y@ (# _# :# <# [# }# |# 1# 2# 3# 4# $. 5# 6# @. 7# 8# 9# 0# a# b# c# d# e# _+ f# g# h# i# j# k# l# m# n# o# p# q# r# s# t# u# v# w# ",
"x# y# z# A# B# C# D# E# F# G# H# I# J# K# L# M# N# O# P# Q# R# }# A+ S# T# U# (. V# W# X# Y# Z# `#  $ .$ +$ @$ #$ $$ %$ &$ *$ z  ,# =$ -$  # z  Y@ M  F. =# u  n  ;$ >$ ,$ '$ P. )$ !$ ~$ {$ ]$ ^$ @# /$ ($ u  _$ :$ <$ ,# [$ }$ x  |$ 1$ 2$ 3$ 4$ 5$ 6$ 7$ 8$ 9$ 0$ a$ b$ c$ d$ e$ f$ }. g$ h$ i$ j$ k$ }  l$ m$ n$ o$ p$ q$ r$ &. s$ t$ u$ v$ w$ x$ y$ z$ A$ B$ C$ D$ E$ F$ G$ H$ I$ J$ K$ L$ ",
"M$ N$ O$ P$ Q$ R$ S$ T$ U$ I+ V$ W$ X$ Y$ j# Z$ `$  % .% +% @% #% d$ $% Z@ %% &% V# *% =% -% ;% >% ,% '% )% !% ~% {% ]% &$ ^% :$ N. Y+ V# /% P  (% ~@ _% ^% (# :% <% H. +# [%  # }% _% |% 1% x  2% O. @# 3% 4% R# :$ !  O  J. h. P. 5% 6% 7% 8% ]$ 9% 0% a% b% c% o. d% e% /+ f% g% 3# h% i% j% k% 5+ l% m% n% o% p% q% r% s% t% u% v% w% x% y% y% z% y$ A% B% C% D% E% F% G% H% I% J% K% L% M% ",
"N% O% P% Q% R% S% T% U% V% W% X% l+ Y% Z% `%  & .& +& k@ @& #& $& %& j  && *& :% =& -& ;& >& ,& '& )& !& ~& {& ]& ^& /& [% (& ,$ (. _&  # :& && <& [& `@ %% ># Z+ }& |& h. `+ '$ .# *$ J. _% =#  # K. 1& p  x  n  j  2& :$ x  h  D. 3& 4& 5& 6& }+  % 7& 8& 9& 0& a& b& c& d& e& F@ f& g& h& i& j& k& l& i# 3  m& n& o& p& q& r& s& t& S  {@ 7# #+ u& v& w& x& y& z& A& B& C& D& E& F& G& H& O% ",
"!& I& J& K& L& M& N& O& P& Q& R& S& +% T& U& V& W& X& Y& Z& <  `&  * .* +* @* #* $* %* &* ** =* -* ;* >* ,* '* )* l. !* z  V# ~* {* ]  ]* ^* _$ +# /* (* 2& s  E. D. _*  # R. s  ,$ O. :* _% H. O  x  [& Y@ Y+ Y+ T. u  ]* ,# ]  !  R. <* [* }* |* 1* 2* 3* 4* 5* 6* 7* 8* 9* 0* i% a* b* c* d* e* f* g* h* i* V@ j* k* l* T  x% m* :@ s% n* 3# J. o* p* q* r* s* t* u* v* w* e. Z@ s$ 8% x* y* ",
"z* A* B* C* D* E* F* G* H* I* J* K* L* M* N* O* R+ P* Q* R* 7@ S* T* U* V* Y+ W* X* Y* I+ Z* `*  = .= += @= #= $= y# %= &= o  *= {* W+ == (# I. Z+ -= ;= :* >= x  Y+ *$ ,= 2& x  ,$ `+ ]  :* _& [. Y@ '= )= != ~= {= S. n  :$ H. ## C. ]= ^= /= (= _= := <= [= }= |= 1= 2= f% 3= 4= ]% 5= 6= 7= 8= 9= 0= a= b= c= d= e= d# f= ,# g= ^  :@ Z@ }. R  i. h=  . ]+ i= j= k= l= m= n= o= p= q= r= s= ",
"t= u= v= w= x= y= z= A= B= C= D= E= F= G= H= I= <% J= K= L= M= N= O= P= Q= T* R= S= T= U= V= W= X= Y= Z= `=  - .- +- @- #- $- I@ %- 1& &- :& <% *- =- Y+ -- ## '= `@ ]  C. ;- >- ,- Y+ .# }% ,# ,$ t  ($ ]  $@ '- ]  ,# Y@ ^% W+ T. )- !- ~- {- ]- ^- /- (- _- 8* :- <- [- Y+ u& }- |- j+ 1- 2- 3- 4- 5- 6- 7- 8- 9- 0- a- !* b- c- u& J. d- o  e- f- g- h- i- j- k- l- m- n- o- p- q- r- s- t- ",
"u- -* v- w- x- y- z- A- B-  . C- e+ D- E- F- G- E. L@ H- )$ I- J- '= I- X+ K- L- M- N- O- P- Q- R- S- T- U- V- W- X- Y- Z- `-  ; .; [% W+ +; @; (. @* #; .# [& <. '$ $; %; &; *; =; -; .# =# n  ;; R. T. }% [% +@ R. n  >; o  ,; '; ); p* !; ~; {; ]; ^; o. /; ]@ (; _; :; *& <; :@ [; }; |; 1; 2; 3; 4; 5; 6; 7; 8; 9; 0; a; [- b; c; D@ d; -- e; f; g; h; i; j; k; l; m; n; o; p; q; r; s; t; ",
"u; v; w; x; m@ w  y; z; A; B; C; f  D; E; c# ^* F; O= G; H; I; J; u% K; L; M; N; O; P; j* Q; R; S; T; l- U; V; W; X; Y; Z; `;  > .> 1= +> @> +  W+ Z@ #> $> %> &> *> ^# => -> ;> >> ,> '> )> o  w  `+ 2& ^% !> ]  R. $@ ~> _$ '= {> _% ]> 4+ ^> f* /> (> _> :> <> [> [> -. }> |> 1> 2> 3> 4> 5> 6> 7> 8> 9> 0> a> b> c> d> 8@ e> f> g> h> i> j> k> 0; l> m> n> o> p> q> r> s> t> u> v> w> x> B- ",
"y> z> ,$ A> i  B> C> D> $% r  E> w$ F> G> H> I> 0- J> K> 1= L> }- <; #+ }. D. M> N> O> P> w+ Q> R> S> T> U> V> W> X> Y> Z> `>  , ., +, @, #, $, %, &, !  *, =, -, ;, >, ,, ', ), !, ~, ]+ 2= `@ {, [$ h  u  $@ S* l  I. /$ !  ], ^, /, (, _, :, <, [, }, |, 1, ^$ 2, 3, 4, )@ J; N  5, Q  6, 7, 8, 9, 0, a, b, c, d, e, f, g, h, i, j, V$ k, l, m, n, o, p, q, r, s, t, u, v, w, x, y, z, A, B, ",
"d- C, D, E, F, `@ G, (# |> H, I, J, a; K, ); L, M, N, 3  O, P, w+ Q, R, S, T, o  g, U, V, W, [& Z+ X, Y, 7= Z, `, !+ h#  ' .' +' @' #' $' %' &' *' U. }$ =' -' ;' >' ,' '' )' !' ~' O% {' ]'  # S. !  ^' Y@ o  j  [% /' B+ &$ (' _' :' <' [' }' R% |' 1' 2' 3' 4' 5' z> G, c& 6' ); 7' 8' %* 9' 0' a' b' c' d' e' f' g' h' i' j' k' l' m' n' o' p' q' r' s' t' u' v' w' x' y' z' A' B' C' D' x  ",
">$ >+ '@ )@ E' F' {@ G' H' I' <+ J' {% K' z> C> L' M' N' O' ;+ P' [. Q' `@ ,+ +% |* 8@ R' d; 5, 2& S' j# C; T' U' ]> V' W' X' Y' Z' `' S@  ) .)  ; (. +  +) @) #) $) %) &) *) =) -) ;) >) ,) m  S. Y+ ,# p  Y@ ') T. )) $@ !) ~) $% {) z= ]) ^) /) () _) :) <) c% [) 1> ]@ }) G, |) 1) 2) 3) K+ 4) 5) 6) 7) 8) 9) 0) a) b) c) d) e) f) g) h) i) j) k) l) m) n) o) p) q) r) s) t) u) v) w) x) c# ",
"p& C, }# d# y) z) A) 8' 8* B) D> C) |> 8* D) E) F) G) g- H) g$ {@ I) d$ 1# J) K) }+ d> L) M) N) I- O) :@ /* P) Q) R) S) T) U) V) W) X) Y) Z) `) J   ! .! +! @! #! $! %! &! *! =! -! ;! >! ,! u  '! N. v  )! [% S* B+ y  !! }$ ~! -= ^% 7$ T' {! ]! ^! /! (! _! :! <! [! a* )) }! |! I, 1! 2! 3! 4! 5! 6! 7! 8! 9! 0! a! b! c! d! e! f! g! h! i! j! k! l! m! n! o! p! q! r! s! t! #) u! %$ v! s& ",
"w! x! y! z! A! B! A) }- C! q$ u& I. Q. T* D! I, E! F! G! H! I! i% $& J! K! L! M! N! O! P! Q! R! S! x+ :& T! U! V! W! X! Y! Z! `!  ~ .~ +~ @~ #~ $~ A= %~ &~ *~ =~ -~ ;~ >~ ,~ '~ )~ !~ ~~ {~ u  Y@ ]~ ^~ /~ +# (~ Q. /& _~ <$ '; )) :~ E' y% <~ [~ }~ |~ 1~ 2~ 3~ 0- 4~ y) H- :~ 5~ 6~ 7~ 8~ 9~ 0~ K# a~ b~ c~ d~ e~ f~ g~ h~ i~ j~  @ k~ `) <  C- l~ m~ n~ o~ p~ q~ r~ s~ t~ ,, u~ v~ ^  w~ x~ ",
"y~ z~ A~ :' B~ C~ g$ D~ {@ E~ C) %. F~ G~ <; H~ >. I~ J~ K~ L~ L; M~ N~ O~ x# P~ Q~ R~ S~ T~ m. U~ V~ +* |. W~ X~ Y~ 0= Z~ `~  { .{ +{ @{ #{ ${ %{ &{ *{ G# ={ -{ ;{ >{ ,{ '{ ){ !{ ~{ {{ ]{ ^{ o  /@ ;$ /{ ({ _{ Q. :{ <{ [{ y) }{ |{ U  A; 1{ 2{ 3{  . 4{ 5{ 6{ 7{ K~ a* }) 8{ 8' 9{ 3  0{ d% a{ 8! b{ c{ d{ e{ f{ g{ h{ i{ j{ k{ l{ m{ n{ o{ -* p{ q{ r{ s{ t{ u{ v{ w{ x{ y{ z{ {~ <+ A{ B{ ",
"C{ D{ X  E= E= E{ a* *+ _+ F{ A! G{ H{ #+ t% I{ J{ K{ L{ I, M{ N{ I- _~ R, O{ P{ Q{ R{ S{ T{ U{ +% V{ .! W{ ). X{ Y{ Z{ `{  ] .] +] @] #] $] %] &] *] =] -] ;] >] ,] '] )] !] ~] {] ]] ^] /] (] _$ $@ {= _] t% :] <{ <] P  [] }] |] 1] L; 2] 3] 4] L, I) 5] 6] 7] I) C! U  U& 1] 2> F, 8] )@ 9] 0] a] b] c] d] e] f] g] h] i] j] g- k] )@ l] +  m] n] I+ o] p] O! W{ q] r] s] t] u] v] (& w] x] ",
"{@ ~> y] && z] A] B] C] D] )+ x+ A! E] I) 5~ g& I! 8' F] ^@ G] I! H] u& C, I] J] K] #- L] M] N] O] J@ {% P] Q] R] S] T] U] V] W] X] Y] I+ Z] #= `]  ^ .^ +^ @^ #^ $^ %^ &^ 4- *^ =^ -^ ;^ @~ >^ ,^ '^ K@ y  )! )^ !^ |! ~^ U. ], {^ (@ ]^ ^^ /^ +% K! 3= (^ H~ (; $& 5~ (; |> _^ )) 5~ I' 1# 8* :^ <^ [^ }^ |^ 1^ 2^ 3^ 4^ 5^ 6^ ;& 7^ 8^ 9^ 0^ a^ B@ b^ c^ d^ e^ f^ z- g^ h^ i^ j^ k^ ~> _+ l^ ",
"c. m^ F@ |# =& n^ o^ i% p& d; 3, g$ p^ 2, |) ); q^ I' r^ s^ t^ u^ v^ w^ m^ Y+ R; x^ y^ z^ A^ B^ o. C^ D^ q{ E^ F^ G^ H^ I^ J^ K^ W$ w. L^ M^ N^ O^ P^ Q^ R^ S^ T^ U^ V^ W^ X^ Y^ Z^ `^  / ./ M  r  p  c& U+ )) +/ ~^ @. >+ }! R; @/ #/ $/ %/ &/ */ F, ^@ U  =/ -/ ;/ I' J! I' U  R, :~ >/ I! ,/ I~ '/ )/ K# !/ ~/ {/ ]/ ^/ // (/ _/ :/ </ [/ }/ |/ 1/ 2/ 3/ 4/ 5/ 6/ 7/ 8/ 9/ c  0/ a/ _+ )@ 5, ",
"b/ l^ x+ 3# <+ ^  [+ c/ d/ e/ f/ M= f/ g/ h/ o^ g/ z+ i/ j/ k/ l/ m/ n/ o/ e% d* p/ q/ r/ s/ N> t/ u/ c  v/ w/ x/ y/ z/ A/ B/ C/ D/ E/ F/ G/ H/ +$ I/ J/ K/ L/ M/ N/ O/ P/ Q/ R/ +$ S/ $~ T/ M  u  v  U/ V/ W/ X/ Y/ Z/ `/  ( .( +( @( #( B= $( G~ }{ U  2, N~ 8* 5~ %( D) N~ w^ }) &( w^ *( *( |) ]= =( -( b^ ;( >( ,( '( )( !( ~( {( ]( t* ^( R% /( q' (( _( $  :( `  ;& <( [( }( u; |( R  1( ",
"o^ <+ 5, 2( N  3( 4( 2@ 5( 6( 7( 8( 9( 0( a( b( c( (; d( e( f( g( h( <  i( j( k( l( m( n( o( p( q( r( s( t( u( v( w( x( R+ J, y( z( A( B( C( D( ]; E( F( G( H( I( J( K( L( M( N( O( P( W+ }$ [% V# %% Q( M  R( S( T( U( S& V( W( X( Y( Z( `( N) 2, I! 8' i% I'  _ E) 1] 6@ I' }) &( ._ 3= 8' +_ @_ #_ $_ %_ &_ *_ =_ -_ ;_ >_ ,_ '_ )_ !_ ~_ {_ ]_ ^_ /_ (_ __ :_ <_ 8@ [_ z- j/ }_ n* N= D, #. ",
"|# |_ 1_ x+ l] 2_ 3_ 4_ 5_ 6_ 7_ 3* 8_ 9_ 0_ a_ b_ c_ d_ e_ `. f_ g_ h_ 7% i_ o@ j_ k_ l_ m_ n_ o_ p_ q_ j* h; r_ d> s_ *% H. t_ u_ v_ w_ x_ y_ 0~ z_ A_ B_ r# C_ D_ E_ F_ G_ H_ I_ J_ U+ K_ z+ I@ >$ z  M* 0( L_ M_ N_ O_ P_ Q_ X{ ^] R_ M, S_ T_ |_ @_ g/ N~ U  W  I) U_ U& c& :- g/ q$ g/ V_ C! F, W_ W! X_ Y_ Z_ `_ I+  : .: +: @: #: $: %: &: *: =: -: ;: >: ,: ': ): !: ~: c# c. x+ _. {: ",
"{: ~> _# A! c$ ]: ^: /: (: b^ _: 8! #= :: <: [: }: |: 1: 2: 3: 4: 5: 6: 7: 9# 8: 9: 6# 0: a: m. b: c: 1! j% d: e: f: g: h: ;$ i: O. j: k: l: m: n: o: p: q: r: s: t: u: v: Z{ w: B. ,$ ;$ Z+ .  H. x: U& p  y: z: z/ A: B: C: D: E: ). F: ]> G: K! D) H{ 8' H: I: [> }- R, F, B) ,/ 1> @_ J: I' z) K: L: 1> S; M: N: O: P: Q: R: S: T: K~ U: V: W: X: Y: c_ Z: 7^ `:  < .< +< d. :@ C, @< I- #< ",
"$< %< I- &< *< =< -< ;< >< ,< '< )< !< `. Z~ ~< {< E: ]< ^< /< (< _< :< << [< }< |< $; 1< 2< 7^ 3< 4< 5< 6< 7< M; F' 8< 9< 0< a< j~ b< c< d< e< f< g< h< i< j< k< l< m< n< o< p< q< r< >; (# ## S' >= G@ w  s< t< u< v< y/ w< x< y< z< A< E! $& s% F] u& 5~ }{ z) U  i% U  g/ N~ |] 1] ); D) c& B< |] z> (^ C< D< E< N^ F< G< H< I< V+ J< K< L< M< N< O< P< Q< R< B- {% 7# S< 5, m^ O  C, /  d. ",
"h& T< U< '* V< W< X< Y< Z< `< A*  [ A. .[ +[ @[ #[ $[ %[ &[ *[ =[ -[ ;[ >[ ,[ '[ )[ k. ![ ~[ {[ H~ <) ][ G* ^[ /[ _# ([ %; _[ :[ 4$ <[ [[ }[ |[ 1[ 2[ 3[ 4[ 5[ 6[ 7[ 8[ 9[ 0[ a[ b[ c[ d[ e[ (. %$ <$ w] f[ g[ h[ i[ j[ k[ l[ Q@ m[ n[ o[ p[ 5@ }> h% u& w+ ,/ D> K! D) (; U  F] }) 8* J{ 1> ~! R, G, [> q[ r[ 8= s[ t[ u[ v[ w[ v$ (_ x[ y[ z[ A[ B[ C[ D[ E[ F[ G[ H[ I[ J[ r  D{ *+ A! =& 3# ",
"<% j+ )[ K[ L[ M[ N[ O[ P[ Q[ R[ S[ x& T[ U[ V[ W[ X[ Y[ Z[ `[  } q{ .} +} @} #} $} %} &} i- *} =} 1  -} ;} >} ,} x) '} )} 7$ !} ~} {} ]} ^} /} (} _} :} <} W+ [} }} |} 1} 2} 3} 4} 5} 6} 7} M. U+ x) >. O{ 8} 9} 0} a} b} c} d} e} f} g} h} i} j} @. 4@ M{ o^ )) Q' 1] ;+ E] 2, U  g/ 8* 1# 3, a* B< C> k} l} P& Z{ m} K# Y( n} o} p} q} r} s} t} u} v} ]# w} x} y} z} k] %& A} ~: N  B} >) C} ",
"A= D} E} F} G} H} I} J} K} L} M} N} O} P} Q} R} S} T} U} V} W} X} Y} Z} `}  | .| +| @| I+ #| $| %| &| *| =| -| ;| >| ,| N> '| )| !| ~| {| ]| ^| /| (| _| :| <| [| }| +$ || 1| 2| 3| 4| 5| 6| ${ 7| o@ 8| 9| 0| ]$ N> I= a| ]^ d) b| ': C; i- c| d| e| f| T  c# |> %( g| (@ G~ G{ }{ ); $% D) @_ 8' }) _{ {^ ]^ h| i| j| k| V% l| m| n| o| p| q| r| s| t| u| v| [~ w| x| y| z| +) A| o@ B| &] C| ",
"D| E| t/ 6/ g! i$ F| @/ G| H| I| J| K| L| M| ,< N| O| P| Q| R| S| T| U| V| W| X| R% g{ Y| Z| `|  1 .1 4! +1 @1 g- #1 z- o. $1 %1 &1 5. *1 =1 -1 ;1 >1 ,1 B} '1 )1 !1 ~1 {1 ]1 ^1 /1 (1 _1 :1 <1 h# O& [1 }1 &| 5( A= |1 11 i$ 21 31 41 j/ 51 61 71 $* j> 81 :+ y) B] I, (; (; 91 G~ 01 g/ |) :~ 1# V_ C! a1 b1 c1 d1 `, +} K# e1 f1 g1 h1 i1 j1 k1 l1 m1 n1 o1 p1 l+ q1 I_ r1 s1 t1 O% u1 v1 w1 ",
"q@ x1 *+ y1 z1 A1 B1 -+ C1 D1 E1 F1 G1 H1 I1 J1 K1 L1 M1 N1 O1 P1 L_  % Q1 R1 S1 k& T1 U1 V1 W1 t. X1 ', Q@ W> Y1 Z1 `1 X.  2 .2 k& +2 @2 #2 $2 %2 &2 *2 =2 -2 ;2 >2 ,2 '2 )2 !2 ~2 {2 ]2 ^2 i< /2 (2 _2 U; :2 <2 [2 s< }2 |2 q* h# *< 12 22 32 42 52 62 0{ 72 5= 82 }! :~ a* }) &( c& a* 2, 1> }> U  :~ 92 02 M) 1> d* a2 0= R% b2 3* c2 d2 e2 f2 g2 h2 V} i2 o] j2 k2 l2 m2 H  n2 o2 p2 q2 r2 ",
"s2 t2 u2 -+ 5, U* 3# {@ v2 d* w2 x2 y2 z2 h< A2 B2 C2 ), D2 E2 F2 i~ 11 6/ G2 X! H2 I2 J2 K2 L2 M2 N2 O2 E< P2 Q2 R2 S2 =( T2 U2 V2 W2 X2 Y2 Z2 `2  3 .3 +3 @3 #3 y' $3 %3 &3 *3 =3 -3 .^ ;3 >3 ,3 '3 )3 T> :> 0^ !3 >; E| S( ~3 D[ N> ]$ )@ ^[ g! {3 ]3 /+ ^3 ~  /3 _^ K! w^ w^ {^ B! ~! $% w^ (3 M) _3 I' w^ V_ I[ :3 {+ <3 [3 <3 }3 |3 S@ ~; 13 23 33 43 0~ k& 53 63 73 83 93 03 a3 b3 c3 d3 ",
"e3 f3 #. $< #. t$    g3 h3 i3 j3 k3 l3 m3 n3 o3 p3 q3 c] r3 O( s3 1! t3 o. u3 v3 w3 ,, x3 y3 z3 A3 B3 C3 D3 E3 -( F3 G3 H3 I3 J3 K3 L3 M3 N3 O3 w' P3 Q3 R3 n+ S3 T3 U3 V3 W3 X3 Y3 Z3 J/ `3  4 .4 +4 5> @4 #4 $4 .  %4 &4 *4 =4 -4 0^ ;4 Q< >4 2_ ,4 :( 3  '4 )4 I; *+ R, !4 T  C) C) 8* 8' y) 8' 8' U  }! ~: ~4 z] ^# 2_ {4 ]4 ^4 /4 (4 _4 :4 <4 [4 k! m~ C' }4 ]! c  |4 14 24 34 44 54 64 Z^ ",
"74 84 c. A! l  }_ <+ t& f3 B1 94 04 a4 b4 c4 d4 e4 f4 g4 h4 i4 j4 k4 %* l4 w- m4 n4 o4 p4 _> __ u= q4 r4 u& s4 c% t4 u4 v4 w4 ,, x4 y4 z4 A4 B4 C4 D4 E4 F4 G4 H4 I4 J4 K4 L4 M4 N4 O4 P4 8! Q4 R4 S4 T4 5( G@ +) (# y% y# U4 V4 W4 X4 d> Y4 Z4 `4  5 I~ l. .5 +5 @5 C] #5 2, L; |) c& G, $5 ,/ %5 C) ); &5 *5 2_ =5 N> J} -5 p' t+ ;5 >5 s/ $* 7@ ,5 '5 -@ )5 !5 2/ I3 ~5 {5 ]5 ^5 /5 (5 _5 :5 ",
"<5 [5 .< l^ ~> b/ -+ C{ U  ~: }5 Z= |5 15 25 35 45 55 65 75 +~ 85 95 05 k= I+ a5 z- M' b5 ^@ -/ c5 d5 e5 f5 g5 $& G- g, h5 i5 i< j5 k5 l5 m5 n5 o5 p5 q5 r5 s5 t5 u5 )1 v5 w5 x5 k= Y< 45 i5 y5 z5 Q- A5 B5 >; !@ C5 D5 E5 F5 ~] () a[ G5 H5 I5 o@ J5 K5 L5 M5 J~ N5 O5 5= M) P5 R, ~! a* 5= G~ :~ A; K: |] Q5 f^ R5 S5 T5 U5 d  V5 W5 X5 Y5 Z5 =% `5  6 .6 +6 b^ @6 #6 d  ^> $6 %6 &6 O3 *6 =6 ",
"-6 /. ;6 |# )@ x+ h& >6 u2 f3 y1 ,6 B/ '6 )6 !6 ~6 {6 ]6 ^6 /6 (6 8# _6 :6 <6 [6 a: d( /[ b* }6 ], |6  * 16 '$ 26 36 46 -* ]+ 56 66 76 86 96 06 a6 b6 c6 d6 e6 f6 g6 h6 i6 N; j6 .5 g! k6 z5 m] f^ l6 m6 w  I@ ~* @  (# w  n6 o6 p6 q6 r6 s6 t6 `  )@ x: a* y1 O{ y# u6 2, q[ I! I{ M) F, C> 1# v6 w6 V# 8* x6 y6 z6 A6 B6 D/ C6 D6 E6 F6 G6 3& H6 I6 J6 K6 L6 M6 N6 O6 P6 Q6 R6 S6 T6 U6 V6 W6 ",
"V1 =; N  @  -+ X6 l] Y6 #. u& $. Z6 +$ `6  7 .7 +7 @7 #7 @( u$ q[ ]$ $7 %7 Q5 94 y( N  &7 i% *7 v; U_ B] =7 g. _& p  P  %- -7 0@ ;7 >7 ,7 '7 )7 !7 ~7 {7 ]7 ^7 /7 (7 _7 1, M, g- j% :7 <7 T' A5 :( 7^ [7 ]  #> +) }7 t& |7 17 Y( b^ 27 B6 37 y# d[ 47 )+ $& M@ m( '4 |) 8{ 57 C! K! B) |> y>    67 [! 77 C! 87 97 07 k= a7 b7 c7 d7 e7 f7 g7 a; h7 i7 j7 k7 d* f  l7 m7 n7 o7 p7 q7 r7 s7 t7 u7 ",
"v7 w7 S* w  F~ d; x7 @  /  l^ i. y7 z7 A7 B7 C7 D7 E7 F7 G7 H7 U  I7 3# J7 |> *7 K7 L7 =& s& |6 8' M7 v6 N7 O7 _+ /& y]  @ P7 F) Q7 R7 S7 T7 U7 V7 W7 X7 Y7 Z7 `7  8 .8 +8 @8 #8 $8 %8 &8 <' *8 =8 m6 .! -8 A| ;8 >8 ,8 w$ '8 )8 !8 ~8 {8 ]8 ^8 d. ^  c# /8 W, -. (8 a* _8 :+ :8 z> <8 [8 D) E, }{ }8 4' A] E! !2 |8 18 28 38 48 X: 58 68 #1 78 >. 88 98 @# 08 62 a8 Q% b8 +$ c8 d8 e8 f8 g8 h8 ",
"i8 j8 k8  @ @  =& u2 A! =# *. /{ d> l8 m8 n8 d  o8 p8 T| q8 r8 F, )) s8 z+ t8 M) u8 g. v8 w8 _~ j  &5 v% x8 {* U+ =7 y8 M* z8 A8 B8 [^ C8 D8 E8 F8 G8 H8 I8 J8 K8 L8 k&  / M8 N8 >$ O8 t  7^ P8 x& Q8 R8 h[ A5 x; S8 T8 U8 K} 11 V8 7/ W8 W+ d$ Q> F@ X8 K= d. M) ^@ E) Y8 Z8 _~ U  B) }) `8 C) M)  9 Z5 V< .9 +9 @9 #9 $9 %9 &9 *9 =9 -9 ;9 >9 e[ ,9 Z+ ;$ '9 )9 !9 ~9 K# {9 ]9 ^9 /9 (9 _9 :9 ",
"<9 [9 }9 >= p& q& |9 v6 19 29 39 i/ 49 e{ 59 69 79 v} 89 V_ 5~ C! _. 4~ )@ 99 09 -/ F@ |6 26 U_ _. a9 |6 b9 z  c9 /& d9 M7 e9 v$ f9 g9 h9 *: C' +$ i9 j9 k9 l9 m9 n9 o9 p9 -| q9 r9 O. s9 t9 u9 v9 w9 x9 y9 z9 A9 B9 C9 74 D9 E9 F9 0| w] A+ G9 C{ K! n/ H9 K: {  W, 3, -+ [$ '+ 3, ~: :~ @# K= && q^ I9 J9 Z* '% K9 L9 M9 N9 O9 P9 H1 D  Q9 R9 S9 x+ +# T. T9 E= U9 V9 W9 z* ]9 X9 Y9 Z9 `9  0 ",
".0 +0 @0 #0 $0 >$ %% B; %0 H@ )$ 82 &0 *0 =0 f; D+ A~ -0 B) ;0 *( }# E] I' |> ]  V# B< _{ :~ >0 ,0 +/ T# '0 )0 M* !0 :$ M* %- ~0 {0 ]0 ^0 /0 (0 _0 z* R% :0 <0 [0 }0 X1 |0 10 :^ 20 30 40 50 60 70 l. j/ 9< 80 90 00 a0 b0 c0 d0 S5 ]$ M; e0 f0 A! T* @. g0 H{ L~ M{ 91 (@ h0 v% U  i0 @. 8* I; D) 3, V_ j0 k0 K/ l0 m0 n0 H^ R% o0 p0 q0 r0 s0 !* t0 ]% T& ]^ u0 v0 w0 k= x0 y0 J2 z0 A0 B0 C0 ",
"D0 E0 F0 G0 H0 ;6 '= J7 +; b* I0 J0 K0 L0 N. M0 e! V@ h; N0 9< j_ 3# h0 #. L; I' w^ t& g| O0 ,! [% *= Q. X  v6 M7 ;$ ,^ @% P0 q* n4 Q0 R0 S0 u/ T0 U0 V0 W0 X0 Y0 Z0 `0  a .a +a @a #a d* ]= k+ $a %a &a *a =a -a ;a >a ,a z/ B. 94 'a #+ )a @  Q> A+ c& F] /  M; !a ~a {a C! }{ ;; -/ g/ B< :] @# ]a J[ ^a /a (a _a :a <a [a }a |a 1a 2a 1! 3a 4a J  #% 9< 5a 6a 7a 8a 9a Q6 43 W$ ]9 0a aa ba ",
"ca da ea x> fa ga ,$ L@ L~ _+ ha I@ U  K: 0* |) L} (, ia ja ka la ma K- na U  oa C! %% pa I' ,! T_ {* c9 V# /[ $& qa V# n  ra g! U9 sa O% ta A# ua va wa xa ya za Aa Ba Ca Da O$ x# `: v$ 11 6* Ea .= B- Fa Ga Ha Ia Ja Ka La C- Ma Q> z+ @  A+ G@ {  Na Oa L; )@ K! ~: Q  f= Pa 8* x: <; +* ## o  A) y; u  Qa +$ Ra Sa Ta Ua Va Wa Xa Ya $; Za V* `a  b f; ]+ Q} .b c0 +b @b #b S0 ;' $b %b &b ",
"*b =b :/ -b ;b >b }  z> %% !@ :~ s  s$ g. B) r$ ,b 'b )b !b @0 ~b 3  {b ]b ^b :~ /b z> !a v6 )0 -= (b p  +# _b M  @# B+ R. :b <b [b p0 ** }b |b 1b 2b 3b 4b 5b 6b 7b 8b 9b 0b ab =@ _! bb cb 3  db x& eb fb gb hb ib jb kb lb ~: x+ D, Q( t& mb P) nb V+ @  ob D{ A! J) t$ _+ I! I; T_ pb M  O= qb t& w] `@ rb sb tb ub vb wb xb yb ', -6 a; %5 [$ zb ]= Ab .5 Bb Cb Db 7& Eb Fb X# Gb Hb Ib Jb ",
"Kb Lb Mb Nb Ob Pb Qb Rb |& Z+ S# [. Sb Tb Ub i  Vb Wb Xb 8! !, Yb Zb `b  c .c %, C) E] +* M7 B+ K! /[ C{ >0 $@ +/ +c ($ T. @c 3  h* #c $c %c &c *c =c -c ;c >c ,c 'c .. )c !c ~c {c ]c L} o. m( i# ^c o~ /c (c _c :c <c [c }c |c g$ X  )+ 1c >+ X8 }- nb 2c 3c E, t$ C, H@ 4c 5c :* 6c 7c S# >; 7# X6 8c 01 i. 9c 0c ac bc cc dc ec fc gc hc R> n* ic l. jc kc lc mc nc N# oc pc qc rc sc tc uc ",
"vc wc xc yc zc Ac Bc Cc Dc Ec *- #; {  T* Fc Gc Hc Ic 5> Jc _) Kc Lc Mc G[ Nc Oc Pc Qc Fc H: r  Q, ,0 Rc _$ S. +/ ;$ '^ {* 4{ Sc R) Tc Uc @^ Vc Wc Xc Yc 4! Zc `c ~9  d .d +d @d 33 #d $d %d &d *d =d 3. -d ;d >d ,d 'd E1 )d -;    D5 R  /  >+ B1 {@ X8 |_ !d c. J! 3, R; ~d S  R. {d w+ Y+ d; {@ V  ]d E. M@ ^d 8! /d (d _d :d <d 4: [d }d |d 1d 0$ g! 2d 3d .= 4d |, d* 5d 0{ 6d 7d 8d 9d 0d ",
"ad bd cd dd &) ed << fd gd hd .  U  ,9 z> ~! |# y# b^ id jd kd ld x1 C- 9; md nd V& Q( od ~^ 1] -= pd X  i. L@ ,0 B+ T# P# qd *7 rd sd td ud vd wd xd yd zd Ad Bd Cd Dd Ed Fd Gd Hd Id @6 Jd Kd ea Ld Md Nd o7 5> Od Pd Qd C^ {+ <; Rd Sd I- Td Ud 7# t& o^ E) 7c b/ N= T_ w% Vd Wd y> && Pa R  [& (# x7 Xd Yd Zd Q@ `d ,,  e .e +e @e #e $e %e .9 &e R2 *e =e -e ;e 0| >e x7 _3 ,e v_ 'e -] 9d ",
")e !e ~e M, {e ]e ^e /e 6{ (e [$ !! ~d 47 *$ B~ g0 _e <' j* :e <e [e 22 f! A= T! g/ /8 b/ 5~ 5c `8 D. z  _$ r$ }e M{ g+ I~ |e [% ,0 >^ .5 3  1e 2e 3e 4e 5e 6e C/ 7e L+ 8e 9e 0e ae be f* ce N: de ee fe ge he ie je ke x> U9 le me ne oe pe qe 80 d# re od R  C] b/ U* >$ ^  d. s  q& >+ 3# se d. _& +/ [& te ue ve we xe ye ze Ae @( +b o$ Be Ce De Ee 8! A# Fe M' Ge k> He Ie D{ Je Ke 76 Le ",
"Me Ne gd Oe Pe Qe Re `0 u! Se M. :& Z+ 2& {  J. Te Ue {) y% Ve T_ We 6< Xe Ye /  7c od N  ') A! r$ V/ s$ M* f3 Ze T. T& t3 k^ `e ,^ !0  f >^ .f +f @f #f $f %f &f *f =f -f ;f >f ,f 'f )f !f ~f {f ]f ^f /f (f _f :f <f [f }f |f g} 1f M; 3  M, d/ %5 )a E, d$ c. ') :. !> 2f 3f !@ %5 &. R  Z@ x: M. <. !@ j* 4f 5f 6f 7f Ea j* `1 8f 9f ** 0f af bf cf 3. df ef Q* 3  %% bb 5$ 7^ Oe Z6 ff gf ",
"hf if jf kf lf mf nf of pf qf rf +) /8 sf K_ tf uf vf v! wf M; ') xf yf zf ~  Af }. Bf       +/ Ub ~> Cf g+ J@ ## Df *# Ef O, x6 A{ |{ o  _$ G, Xd M; 6< Ff ). Gf Hf If Jf Kf Lf Mf Nf Of Pf Qf Rf Sf Tf Uf Vf Wf Xf Yf Zf `f  g )# m( .g ^[ 9} +g s< C+ w% x+ ~  @g r  ~= z+ |_ G@ #g U* #* g. (& U* K. $g '| %g &g *g 2@ <e =g -g ;g ]9 >g ,g 'g )g t7 !g ~g 5& {g ]g ^g Y5 g- /g o@ 2_ F5 (g ",
"_g :g <g [g }g |g 1g 2g 3g 4g u6 5g x: 6g 7g 8g 1] !! {% /$ 9g M  _+ }. 0g Wd U+ ^  !a ag [& X8 A} _+ H9 d# Z@ @  |- M. _~ bg p= e$ x  R  _$ >$ I, e# d% cg dg eg Xb fg gg hg ig jg $) kg lg mg ng og pg qg rg sg tg ug vg wg xg a^ yg <)  . 8# d% 1= b& zg %5 y+ ~@ (. X+ u  >+ Ag c. _& g. )a G@ >; Bg 3  i~ 94 Cg Y+ Dg Eg ]+ Fg Gg Hg Ig Jg Kg Lg Mg Ng Og Pg Qg 9a Rg Sg z- O{ d> 21 Tg b8 ",
"Ug Vg Wg Xg Yg Zg `g  h .h +h @h 4% H@ #h K. $. $# $h K_ (' T# _$ (# _$ v6 d. 6c ($ ,# F@ F@ h& %h D] d. w  2c F. G] @% &h *h =h -h W+ I{ i. ;h >h ,h 'h )h !h ~h {h ]h ^h /h (h _h :h 27 <h [h }h |h 1h 2h 3h Gb 4h 5h 6h 7h 8h *{ 9h 0h F! 0$ ah 7$ bh h  I@ H@ ch x8 .  pb dh %5 eh y+ Z@ G@ vf g. n% F! 0; fh #; [& gh hh ih y/ S@ jh kh lh mh nh oh ph qh rh sh th 3/ uh vh wh xh l: yh zh ",
".4 Ah Bh Ch Dh #; Eh Fh Gh R. Hh 9g .# Sd ># X+ se !  Ih Jh Kh Lh I@ Mh S. +# *. O= x+ v6 $@ T# O= n* se =& Nh i. O= {% w$ `: Oh  ; .  Ph Qh :' Rh U+ >. 8= ;c Sh 42 ~} H4 Th Uh Vh Wh Xh t- Yh r{ Zh `h  i .i +i @i i9 ]! >7 #i U; $i %i &i *i A= >. v~ =i #@ {* -i M  @* r  &% Y+ y] D. %& U* Z@ 2& ;i >i d: ,i Y@ pb r  'i )i !i ~i {i ]i ^i {2 /i (i _i :i <i [i }i D/ .} |i 1i 2i 3i q{ d@ ",
"4i 5i d+ S< ); ]  /  $# <. K. 6i 7i 8i F. !! 9i 0i ai %{ #- k. bi ci di +< [& Se _+ ei .# f3 A+ -+ fi j  F@ /{ (  L. gi }= D[ g} hi s& F] n   * ii H{ ji =0 ki <7 i( R[ li xd mi ni oi pi qi ri Y_ si ti ui vi wi xi yi Q6 2b zi Ai Bi Ci Di Ei 6{ Fi Gi Bh &> 1c Hi u  J[ s$ I- c. P) D. D5 K= 47 >; Df 4% Ii Ji Ki V* $# 5( Li Mi Ni Oi Pi Qi Ri Si Ti Ui Vi Wi Xi Yi Zi `i  j .j 8= P+ +j @j ",
"<b $; #j g/ ;+ *7 Z+ %% K_ ei >$ s$ (# *$ ;$ $j 0| %j %f &j *j =j -j ;j a( >j !0 M; f3 x  K@ >+ #. u  V/ -& Z@ *- (# 4, T! ,j +g Cg |] _. 8{ w^ V* 4@ 19 2> 'j sd f^ )j !j ~j {j ]j $  a5 ^j 8= /j (j _j :j <j [j }j 8! #= O@ |j _g 1j 2j 3j 4j 5j 6j 7j 8j 9j .# %% {  E. }. v  0j +  h. #g z+ aj A+ gh K. y+ 6~ bj P. z| cj dj l| x, ^] ej >7 fj gj >' S@ hj ij jj kj 8! lj ej mj := N% nj oj ",
"pj K_ .# $# @. Z+ ]  T. qj && -$ F. ~* F. Y@ rj ]$ sj tj uj vj wj xj yj zj Aj y( )0 !  @# g. =# D, ]* Bj Cj %5 Dj U* E) E, Ej Fj g+ ^  g/ (. '$ z> C) Gj C! X  *& Hj R< Ij -* &@ Jj <e Kj c  Lj Mj Nj Oj Pj Qj r7 Mi .$ lj J2 Rj Sj  ^ Tj Uj Vj Q2 Wj Xj Qd Yj u  Q. ~d h. W+ _@ Df %5 Zj `j g. c. ]~ 0g  k >; w  .k +k -| @k #k $k %k &k *k =k k! R% -k ;k k| >k Q6 !i ,k 2/ 'k 8% )k !k ~k {k ",
"94 [% s$ ]k S. i  +/ }. _@ pb t  Wd -- Z@ #j ^k /k (k _k z0 :k <k [k }k |k 1k fh p  }. ~  U* !! O. Z@ x: l^ M; 7# c. (# J- R  %% oe ;= ch g. ># I@ N{ 2( F. K~ u  2k -/ |> 3k 4k [_ 5k 6k 7k 8k 9k 0k ak bk ck dk 1j N< rc ek fk gk hk ik jk kk ea b^ lk f> %; mk nk `e v6 ($ d# Z@ G@ E, v! !@ >; Df '0 X+ p  g+ Ie ok H= t3 C- pk ;c >' R% 66 qk rk A* sk tk uk `_ vk .4 wk b[ xk 8@ yk zk O& ",
"'> u  E, [. +*  # }. O= Y+ pb W+ c# %& [% R. (# Ak Bk Ck Dk gf Ek Fk Gk Hk Ik Jk `j }% ;= s$ f= A+ d$ y  Kk y+ J- aj M; !! g. ,$ G@ /  Lk *$ C) Mk -$ e$ Nk 1# 1# I@ Ok )) 1# Pk <) Qk Rk Sk Tk Uk Vk Wk Xk Yk Zk `k  l .l +l @l #l $l %l &l ]9 *l >1 Q% gc F9 =l -l ;l f0 >l Z@ g. ch ]  47 w% [& ,l && (# (# ch 2& !d t6 $* 'l )l r{ |0 +0 !l ~l {l J+ ]l S@ 4! +6 q6 ^l /l $~ O  (l _l :l <l ",
"[l u  n* }l |l ($ :. t  [& 7c Z+ 1l I@ }. -. n* J, 2l 3l (g @9 4l 5l 6l S& 7l (' m  X6 /{ #% >+ Dj Q> g. {  Q( G@ !@ e. l^ *- y+ ,$ 8l &0 N. %5 |> _% s& && >$ V+ s& $& n* J{ >) U{ 9l 0l al bl O( cl dl el fl gl hl il jl kl ll ml nl ol pl ql rl |a sl tl ul 1= >; s$ /{ /{ Wd f= :* M> P) f= H. I@ =# vl [& =# wl g. xl yl zl ,c Al Bl Cl x{ Dl El Fl Gl Hl O6  ~ Il Jl Kl p4 ok 2@  % Ll Ml ",
"Nl t&  # Ol {  pb D. `j h  _b Pl Z+ Ql {~ :# Rl i$ %8 Sl 4* ^> rc Tl Ul Vl Wl F; #% @* w  Xl !! O= }7 fi g. c. +* G@ 47 Yl {  +* Ki Zl `l (* K= %%  m H. mb >+ ]  c& 02 y> .m y$ +m @m #m X# $m O@ %m Hd &m *m =m -m ;m >m ,m 'm )m !m ~m {m ]m ^m /m ^] (m _m Bh $@ J- r  T* M; d$ [% Y@ }. $> 19 .  s$ d$ ]k g+ R# A| E! %~ :m <m [m +]  a }m ea o~ |m 1m 2m 3m 4m 5m 6m 7m u0 8m 9m d> 0m 7$ ",
"am ^* m  c. !@ bm $4 <. F. +# ![ cm H= 0$ 5( 2@ dm ]> em Kl fm  ' >k ;c 83 gm Eh !! A+ .  Td 47 ^  47 /{ >; I@ vl .  ,+ hm 7# &i im jm km %$ |] lm h. mm _$ A} ~^ x8 5, S, Pa I> nm Ai om q* pm qm rm sm tm um p' vm ]! ~i wm xm r} ym zm Am Bm Cm Dm Em Fm Gm Hm Im d$ }. )a ($ P. v6 @< Ub Q. $@  @ J@ '= V* X6 Jm x; m( <7 Km Lm Mm Nm Om Pm Qm Rm Sm Tm P$ Um Vm Wm Xm Ym Zm `m M|  n <  Z5 ",
")  E, ]  o  Y@ Z@ x+ Ok -i A! .n 6* +n @n 95 #8 5( !+ 7| j/ 6< #n ^_ 0/ $n &i d$ Q> x  )$ w  Q> 19 F@ }. `j %n {  G@ .  ]~ ~d j~ N> h# &n c. {  *n =n )^ E. ~! Z@ 5@ h  d. C] -n D3 ;n >n F! 7/ ,n 'n )n !n S@ ~n {n ]n ^n /n (n _n :n <n [n }n |n 1n 2n 3n 4n 84 x) 5n 6n %5 ^~ D5 !! [8 T. @% S. ^   @ s  F@ +) Z+ 6~ 7n :( 8n 9n 0n an bn cn +9 (m dn en fn gn hn in jn kn ln Ym mn nn on t3 ",
"pn qn Ec rn @< J[ t& i. .# h. sn tn un .h vn wn xn j* c% w$ 8@ yn zn An 0{ ]  ~d ^  Za `j I@ V/ e. Bn {  G@ X8 (& {  g0 D, G@ F; oe Nh U* [$ f3 Cn se %5 .  J; ~> `j :+ (; Nk T! `$ Dn En *; Fn Gn Hn In >* u5 Jn Kn Ln Mn ln Y} Nn On Pn Qn Rn Sn Tn Un Vn Wn Xn %- 9j 3c q& ,# .# g+ l  Yn s  )$ :$ %0 U* K_ +# }& 1l '| m( Zn `n  o I1 .o +o Q@ h{ @o #o xa $o %o &o *o =o -o ;o >o ,o D# 'o ",
")o !o ~o m  +# u  !a ^  M  {o q^ 19 ]o ^o _e nc /o F! (o $# |- _o `$ :o <o {@ [o U* ,# <+ g. Lk >l M; hm R  D5 47 @< d# aj }o M; e. F@ :. Wd E, X8 !  )a 47 {@ I' x] Y+ $> h% |o l_ 1o 7@ d: 2o 3o 8k F5 O: 4o 5o 6o 0~ 7o 8o 9o 0o ao bo co do eo fo }f `$ :* p  go u; %$ .  E, D. H. O= >; A{ s  s  .# o  u  %- i6 ;h Ea Zn ho io jo ko m. lo mo no oo po ;1 qo ro so to Fe uo vo wo xo yo zo ",
"Ao Bo >) Co X6 #+ D5 %5 W+ ') K. Do t& x+ Eo Fo h* {[ k  _. A! ~  7| Go 0: Ho <% Yn P) J@ ~d D5 7# X8 D5 A} h. Io Z@ K= ;; x+ 7c 7c B1 ]d ~  && O. Jo g. !@  @ [% z> q^ _b m^ ^* Ko U_ w8 Lo Mo No Oo Po 7e Qo Ro So o~ g{ %k To Uo Vo Wo Xo Yo Zo `o  p k> 5g .p +p @p #p ]  ]* $p Z+ _$ _+ v  ^k V# %p &p *p 4' =g :' =p -p ;p >p ,p F! '} 'p )p !p ~p {p ]p ^p /p (p _p :p <p [p }p |p 1p 2p ",
"3p 4p <b (' pb <% R  z+ re ]d 5p Do @@ B1 =& 6p I~ d/ 4@ od Df U* 7p E! (# 8p Hi O= 9p O= {  !@ Td A+ Cf {  >; /{ pb ob c. Yl /  ,9 Ko T. R# N  0p ^% ^k (# =# `j ~= H:  * v6 I- v  K! R# d# K@ ap j0 c% 6/ ]= bp I} cp l3 kj dp ep fp gp hp ip Aa jp kp Go lp ^[ |+ mp Q> Ol #; np <{ op O= Q. pp `+ 0| f^ n4 qp rp sp ;' j; 4o tp up vp wp `1 xp yp zp Ap Bp Cp Dp Ep Fp Gp Hp Ip Jp Kp Lp Mp ",
"Np Op Pp v5 ,$ b/ 47 %5 Qp #j _@ ch i# 2@ n. =, Rp Sp Tp Up )a ~= =& !! %& d$ ^k n  wf }. ') F@ A+ )a (. A+ D5 qb K. Bj u  i. !@ ~* Vp s  se H@ %5 ,$ J[ h% .# 6@ H9 d;  k m^ $@ Nk T, Wp |_ J. P) _~ Xp Yp 7^ j*  5 Zp F/ `p  q .q +q @q #q $q %q 4  pj &q *q V' Q> hm g& ,# '$ ]  s  D.  # ^% s  3f M, 6< =q -q ;q >q ,q 'q )q !q ~q {q ]^ *< ]q ^q P$ /q (q _q Gb :q <q [q }q |q 1q 2q 3q 4q ",
"5q 6q Y] 7q &, B1 e. && (# G@ *. $+ 8q 9q 0q !b aq bq U~ !* cq -. g} +) gh c. =& i0 I@ ]d N  Dj +* }. d# dq I@ eq fq o  != gq hq I@  # H@ s  iq x  -$ /  x: Y+ #+ z+ !> z+ M  [& b9 8{ Z@ 6@ +# {* S< Q  A! 0j jq /, kq Lc 9= n+ lq mq nq oq pq qq =g ^+ rq Nh Ho ^% x8 <. M; ~d E, v  M  Cj sq u  &i z$ tq uq +b vq wq xq yq j, zq Aq Bq `: Cq Dq Eq Fq .| `] G< cn t~ Gq Hq Iq Jq Kq Lq Mq Nq ",
"Oq Pq %e Qq Rq Sq Tq O.  @ _+ Uq t& Vq Wq Xq Yq Zq `q Ll  r .r +r @r #r I- 7i %& od Wd K= A+ $r c. 7i ]  pb T. Y+ %r s  &r x; [2 K. 1c O  ]~ '^ !  %& [& [& >$ Wd -# ^k d# T_ I- _b e5 u  R. '$ m  *r d$ o  %% ~^ N; =r -r ;r >r ,r 'r )r ~] yd !r ~r <) {r ]r -+ v6 ,^ b/ f$ K@ V# $@ ;$ x  ;$ `@ ^r 62 /r (r Ao c^ t+ _r n. b: :r [_ 0h ^+ C< m( 3  <r [r M$ }r yh ), #7 |r 1r 2r 3r 4r 5r 6r ",
"7r 8r 9r bb 0r ar br cr I@ Yl ]~ Nk dr Z% er fr gr 0@ hr ir jr ;. kr lr mr nr or _@ Zj 3c m* z+ Y+ ]* K= d# *- $+ ## N. x  K> pr h. A} %5 g+ gh ## qr X6 [. h. Z+ *& I@ W+ u8 rr sr Ze {  |_ a< g+ !@ _. tr F= ur vr wr xr ae yr zr Ar Br kb Cr $~ Dr Er Fr Gr _+ Wp q& [& ~= C, V# Hr z  $@ w] p  [% T. Ir >. Jr Kr 8& Lr l. Mr Nr j# .5 Or Pr v6 #j Qr R# Rr G| Sr J2 Tr Ur Vr Wr Xr H= Yr Zr ",
"`r  s l- .s :( +s @s D@ 9p w  #s c_ rr $s |8 A# %s Wp O0 5c ~d N, Kc &s /> *s 0r Im ## /  %& 7# ~d S  P) %% (#  @ O. s$ s  =s l^ O. :& Y+ s  [$ dh !  x] +# g. X+ E) )+ -s x  _> ;s >s ,s U+ 's ;# s  )s rd y+ !s _! ~s B0 {s ]s uk ^s Hq /s @6 (s _s _) :s <s =+ [+ ,# v  T. -& x  47 T. m  `@ E. v6 )! p  [s }s #= |s 1s 2s 3s g- 4s c[ 5s t  F{ }. 6s 7s ;$ 8s Ak 9s 0s ~i R@ as bs cs ds n. ",
"es fs O@ gs hs is 1, %- C. js 4$ ks ls $a ms p7 |0 ns %$ 4@ os ps qs ;' k| Ao rs a; ss c. '$ K= A+ X@ !! (# [& >; !0 d$ T. x] Y+ I@ _+ E. %$ e. ts Ol E, [% && )@ ]  N. [% us j/ vs ws xs S. ys M  l  {* zs As Bs Cs Ds T% Es Fs Gs t- >* Hs Is Js k& 1a 2/ Ks v~ T. Y@ N. =$ d. [8 Y@ s  /@ )$ x  T# )$ p  ($ s{ 9n 9= Ls Ms 1. >e Ns Os k] Ps qa -$ ^* ^  5g Y@ O& Qs M2 Rs m~ Ss Ts g: Cs Us ",
"k; !< Vs Ws c^ Xs Ys 1= Zs Y' `s  t .t +t @t T0 M2 #t i$ $t D- %t _, .+ Z~ &t *t on =t -t 0g !@ h. !@ %% I@ Z+ h3 gh I@ r  N. pa '$ K@ ;; gh E, y+ M. r  z+ [& #. +  h  ;t >t 7| z] 0| ,t V  't )t J[ ($ j# __ !t ~t k! 0~ {t -' ]t ^t 0! J+ /t (t _t :t <t 5o 4s %> `@ +# [t o  u  =# o^ T. =# 2& ^* T. $@ /[ E= L& R@ M+ }t |t b^ 1t 2t 3t a& 4t Lo 8p z  %- 5t 6t X< 7t 8t R% j; 9t 0t at bt ",
"ct dt Db #) et ft 6^ li gt ht it jt kt lt mt t~ nt ot 6& pt db qt rt st Hg tt ut vt ^+ wt f% >+ xt Z+ X+ T& $# -$ x  `@ A{ (  u  $# m  F. z+ t  H. +) && dh x7 ]~ [& Y+ $@ %> yt l_ zt At Bt [! R# Ct k. Dt Z; 9n *: l| S& 45 Et Ft I1 ^> Gt Ht It Jt 7j Kt Lt z= $. Mt 2f `+ e# ]* $@ A} Nt S. [% ^% x  !  Ot Pt Qt 'f Rt St Tt Ut Vt Wt Xt Yt Zt `t qd  u %; 8@ .u +u -@ @u #u xi $u %u &u *u ",
"=u -u ;u >u ,u Ci 'u )u !u ~u {u ]u ^u /u (u St _u :u Zr 6, <u P( [u s] }u |u p< 1u 2u 3u s< 4u gh z+ E~ x7 @< R  O  [& $@ F= .# '- .# 2& p  :[ x  t  <$ 5u K_ 6u K@ '$ 7u 8u sd J> 9u 0u 6* 94 o@ bb au Gt bu 8! cu du R% eu fu s~ gu (g hu iu b^ rc ju {% z| r  z  x  -# s  [8 L@ x  o  N. ^% p  }% u  '! ku lu mu nu ou gg pu qu ru su tu Z] uu 7@ vu sd 8@ wu xu k@ yu zu Au Bu Cu Du 7- Eu ",
"Fu Gu @6 Hu Iu Ju Ku Lu Mu Nu Ou Pu Qu Ru Su Tu 2t O% 7& Uu Vu T4 Wu Xu Yu Zu ,* `u  v .v d& +v @v }% c. ^  #v _& #. c. 1& z+ u  T/ %& D. $@ +) h. >$ X+ `@ $v .# s  $0 %v b_ &v *v =v -v <  '& ;v X. >v Di <, ,v l+ k! 'v )v !v ~v uk eg {v `_ N- ]v A= ^v $> +* !@ =# o  /v ~= Y+ l^ (  :& '= D. ># >^ (v ]: _v Gb :v <v [v }v |v 1v 2v 3v 4v  % 5v a; 6v {* ~^ 7v 8v 9v 0v av bv cv O( 8! p' ",
"dv tj ev fv gv hv iv jv kv lv mv nv ov pv qv rv sv tv uv vv wv xv yv zv Av Bv Cv Dv Ev Fv Gv Hv Iv 80 $8 F. F= K. .f f% >+ v  $+ D. _@ .# t  W+ [. 9g se N. F. vf && $@ Jv Kv Lv w& Mv $* )} Nv >l ^[ )< Ov ,* Pv Qv k= Rv Sv Tv Uv s~ Vv Cu gu Wv Xv w_ )} #* L@ S. )@ w  >+ w! o  >; .@ S+ pb ;$ |  8u Yv Zv h) O( `v  w .w +w @w #w $w %w &w *w =w -w ;w V# z  >w ,w S% x0 Q% 'w )w 5> rl Ai ",
"!w ~w {w ]w ^w /w (w _w :w <w [w }w __ |w 1w 2w 3w 4w 5w 6w 7w 8w 9w 0w aw bw cw dw ew fw gw hw iw jw kw i: ^  W+ .. s8 ,$ h% Y@ >; Ph u  <. h. 1l W+ ei k  ]  '$ Z+ lw +! mw nw M> x  s  x% +* /@ '/ ow pw U; qw rw sw -@ I+ 4! tw uw vw >c Hf r. ww xw yw zw H. '= b/ #v !> |{ O= ,# }. Z@ +# $@ Aw Z5 Bw h~ Cw Dw Ew Ui Fw Gw Hw Iw Jw Kw 6j Lw U+ Mw Nw u  (~ /& Ow Pw Qw ;c Rw  4 Sw Tw Uw ",
"Vw Ww Xw Yw $^ Zw `w  x .x +x @x #x $x %x &x *x Fn =x -x ;x >x ,x 'x {o )x !x ~x {x ]x ^x /x (x _x :x Bh K@ '$ w  <x E{ [x }x :% S* $@ .  |x S* '$ M. Z+ W+ F. i  :$ `@ ,$ 1x 2x _$ x  3x F@ i  9| 4x 5x p' O9 6x 7x 8x t~ 9x c^ u5 0x Z! b^ ax |a bx cx dx b. ]d 9g (# A! s  !@ M  1) ex :& =# '= xf m@ fx gx Fe {n hx ix jx kx lx mx nx Y* ox px 5, z  d; /& 7# qx Zj |  rx sx tx ux vx wx xx ",
"yx zx Ax Bx Cx Dx Ex Fx Gx Hx Ix Jx Kx Lx Mx u! .p Nx }! Ox Px Qx Rx .m Sx Tx Ux Vx Wx K4 Xx Yx Zx `x |*  y {% .y x1 Cq +y P( =g @y #y n= 7$ v5 3f 2& >$ K. Xd <. [& K. [$ (' $y m/ %- T# +  %y 5v &y *y =y b@ q6 -y ;y >y ,y W) 'y )y !y ~y 9) 6k {y 5% Ll {+ y( v~ ]y ^y $@ /y (y rd _y ^% R. @@ :y n@ <y [y }y *9 |y 1y 2y l: 3y B@ Di C' 4y 5y 6y w  h3 9g {: qa e# !@ -$ <o wr 7y 8y 9y 0y ",
"ph ay by cy dy ey fy gy hy iy I9 jy ky ly my ny oy T  py qy ry sy ty uy vy wy xy yy zy Ay o.  . P* 8% By Cy Dy Ey Fy Gy Hy Iy Jy Ky J} 8@ g} Ly My -; +. E= Ny Lw O. !  [% t  C; P( +% Oy Py Gm Qy Ry Du Sy Ty Uy |5 Vy Wy %k Xy e) 0% Yy Od pt Zy `y G| H=  z _e 8# .z +z @z :3 Go ps Z% Ze @@ '- S* #z w& $z %z d@ @| &z *z =z h# -z ;z rk J1 >z ,z 'z ~^ !0 #. n* V/ '$ S, $* )z j2 !z ~z {z ",
"]z ^z /z (z _z Np :z <z [z }z |z 1z 2z Pm 3z 4z 5z '+ Ho :@ f3 6z 7z 8z 9z 0z az bz cz dz O{ 30 ez fz hr {% S( L} gz I& 8_ o0 gu hz iz f! jz kz lz n_ mz nz oz pz W@ qz rz 9: bb sz tz uz 0^ vz f* l| b2 wz xz yz zz Az dn Fe Bz C- Cz Dz Ez Fz R= f^ 5$ J  [& Gz vr :^ 9| #; '= x1 (( Hz y# Iz 5t 0$ j* f! %{ ^1 Jz ^] Kz Lz Mz Nz %= 8~ Oz li 5t Gc Pz qa p& {* _8 |_ T. w+ i} Qz ;c Rz <k Sz ",
"Tz Uz }a Vz Je Wz Xz Yz Zz `z  A .A T0 +A @A #A $A %A &A *A u& D{ J5 =A -A ;A >A ,A 'A )A *0 #j W@ s% 1& p& '! !A ~A )5 P$ {A ]A ua 61 .o ^A -* /A (A p' d  _A :A @r <A fr [A }A |A 8_ 1A 2A 3A 4A 5A }a 6A 22 0( 7A 'e 8A 9A 8# 0A O{ f! aA bA Xs m$ cA >) 7$ dA I5 49 r< W+ #% 7^ eA fA gA __ A~ j: :( 8# hA iA jA ea kA lA mA i< nA oA pA V' 3  qA rA #+ E, >+ B1 sA r  i  N; tA uA vA wA xA ",
"yA zA AA BA CA DA EA FA GA HA IA X$ ]t [6 4n JA KA LA MA NA OA PA QA RA SA TA UA 9= VA WA /@ aj T. '- Y@ S, XA YA ZA o0 `A  B .B W$ n' n' (A Kl +B @B #B +- $B m$ %B &B *B Pv =B ~] D/ 9= -B jx ]9 ;B O9 >B ,B `d 'B bu )B m& 7| !B >t ~B k6 {B ]B ^B /B i~ =g r9 (B <. 7c $< hm _B :B <B q0 +8 [B Z5 f! 7$ }B |B 1B 2B 3B 4B 5B 6B 7B t+ 8B m( d: d: <+ 9B bh Nr A} x+ H- I@ '| 0B aB N9 bB cB ",
"dB eB fB gB |v hB iB x{ x{ jB kB lB 1d mB $4 C] nB oB pB qB Fd rB sB tB uB vB ]9 Z; Gy %; -. /@ +# -= Q. +# 7c 1d 8# wB P% xB yB zB AB BB B[ CB DB EB FB M  GB 1% j0 J9 U' :( HB IB 8o &t JB KB ]! LB R7 MB =  `~ NB OB PB QB RB 0$ -8 Xd ;. SB j; w7 6/ ]$ TB 1d I@ [% M  Eo j% UB VB WB XB Z; YB T! ZB `B q*  C 6o .C +C @C #C $C rh %C &C *C 7@ )  g& Z@ +* Bf N. [$ ~d Q> 'h =C -C $o ;C >C ",
",C 'C )C !C ~C {C I& k2 ]C 0- ^C 2& L. /C y] (# (C ds _C Zh :C <C [C }C |C 1C 2C 3C *0 !} 80 #* *r ($ +# && =# 4C 5C A8 6C 6B zi r6 Xq -k 7C 8C `: ,9 o  -$ Y+  # 5g :& x  9C wh 0C J2 aC bC cC dC eC fC gC M+ hC iC jC kC lC a[ mC U~ h. N. nC oC pC U, N, .= g} Ze %% Y+ Sc qC T> rC sC zh O% tC Xd @* M@ al uC vC wC xC yC zC AC Mi v4 Y- BC S- CC D{ DC +* EC FC GC HC IC JC ^l KC LC MC NC ",
"OC PC QC RC SC TC 7j UC VC -$ g. ~^ G- q^ (# F@ c# WC =% Xq b^ XC YC ZC `C D  >) 8@ f!  D .D +D 6v @D #D +# @* $D %D Ll &D *D ;' =D -D ;D >D ,D 'D u  ;; u  !  -- W+ xf )D -| !D O: ~D {D ]D ^D /D (D _D $o :D ^m <D [D }D |D 1D 2D 3D 4D ^* @% ^k ]^ d: `$ [' 5D 6D .# /& 7D 8D 9D 0D aD bD i[ cD i: dD Qb D* Yh eD fD R% gD hD iD jD kD PB (m lD k6 Py mD /, 8@ g; /2 nD !D oD +$ sl pD qD rD ",
"sD tD uD vD wD ae u/ xD g0 ,9 W+ ~> z  yD g0 <& 4@ A} zD AD BD CD DD B$ ED FD TB #8 I} GD I& HD ID JD KD Z+ LD J, MD yq ND OD |0 PD t9 f! QD e= go +# '^ `@ U/ ,$ O  RD SD TD :6 UD VD ;A WD XD YD ZD `D  E vC .E +E m} @E }b #E $E L! 8$ Ze -$ && q  %E &E e] *E ^* D5 B1 [. =E -E ;E Ni F< >E 22 ,E 'E on 8= fw >y *l ce e] @C n9 )E J2 `^ Z! !E )A ]>  . d> _- ~E {E ]E ^E /E (E _E :E <E [E ",
"}E |E 1E 2E y. 3E p$ 4E >l +# x8 5E _b h. gh A} K= O. f3 62 z1 6E 7E 8E Z! 9E 0E aE wr b@ bE pq cE 4' J   % No dE 2_ j# eE fE 0= gE hE ps Z5 iE jE kE U/ j  P. .# t  lE mE nE J1 oE pE R} qE rE sE tE uE vE ,v wE S% xE yE zE +] Rm AE BE '= Y+ ;$ ^* CE 0@ ;' DE Bh w+ {: EE FE GE vm Z] Zq %* HE 5g IE sd JE >1 n$ KE X# LE @E M+ ME NE qE D/ %1 .u l_ g! vt OE PE QE RE SE TE UE VE WE XE YE ",
"ZE `E  F .F +F @F 22 #F wf {* $# y+ z+ n  d# /@ %$ ,b $F y( $* %F &F Zp yd *F =F -F M2 =  ;' Rm ;F >F 5v ,F 'F )F -* h# K) @' !F ~F {F j: x# S( ]F ^F /F X6 W@ z  F. :$ 0@ E1 (F _F 4g :F ;c `v <F [F }F |F 1F 2F =( 3F f] 4F 5F um +s 1= !- 2& *r 2& i. 6F Hl 7F 8F +c 47 9F 0F aF bF cF dF 6* ,/ eF M) ,/ 3+ fF gF W& -* 6, hF iF >* () l- jF kF g- `: lF mF L} `, nF oF pF qF rF sF r# tF uF ",
"vF N| wF xF yF ;D O{ zF V+ b/ 1l (. o  $@ B1 Jm l. l. #/ E= {$ f  AF BF CF DF EF FF GF HF IF 8! JF k+ KF LF MF NF OF PF sd 3< %] QF 3   . N, RF SF TF UF ]~ <$ o  n  M  VF 5i WF )A XF YF $f ZF `F  G qg .G 4$ go '$ q_ +G @G z< -5 6/ {~ p  Z+ ~= /@ #G 6, Z6 B- $G %G s$ &G *G =G -G ;G -9 >G #% E) u% x% r  0j ,G 4d N, Sc <' m& 'G )G Zi !G ~G {G %= vu uf G| 11 L- ]G 3l ^G /G (G _G :G <G ",
"[G 7t I3 }G S& |G S5 .f C{ :% +/ ## O. <+ h; j6 1G 2G 3G x& f^ 4G 6, 5G 6G 7G  C T) 8G Vr R% #= 9G ]j Gt M+ 0G aG #d bG n@ Z5 4$ cG *% w9 U, U5 &C dG eG Nl ]  P. M  (~ 6/ 4$ fG gG hG iG jG kG lG mG nG oG -= pG _$ p  qG Hc rG sG O# tG u  =# ~  .# T! y$ uG vG s& h. ~= +/ 98 wG N] xG yG zG Kk !> ch L@ '+ !@ =& q$ AG ,$ y: Lz  . )v BG CG DG 5o I  EG FG GG HG bi IG Hf /9 JG KG LG MG NG ",
"OG PG QG RG SG TG UG ;& VG WG }. C} d& XG YG (A ZG `G  H .H +H @H #H $H %H &H O& 0@ *H P$ =H -H ;H ,v >H ,H 83 -6 c^ 63 I~ 'H )H !H ~H _- {H ]H __ t3 ^H /H :% h  P. +/ (H ps _H :H <H [H }H |H 1H 2H 3H f! [t K. M  Y@ 4H &i :% M* D. '- x  @@ (' F. 5H 4a 6H 7H h  l^ M{ e. }] :+ 8H :( H= y) )) 91 _. o^ $# ~  %5 9H w+ ~> $& 6@ 8{ 0H aH W| s( ,* bH p' G/ cH dH eH fH gH ZF hH iH jH kH lH ",
"mH nH oH pH W] it qH 5k __ rH A~ sH E2 tH uH vH wH xH yH zH |0 Vu AH  ; ~H BH E= CH DH K# EH .4 bu s[ FH GH HH  ~ IH JH KH x  ]% s  +@ LH ;. MH NH iE p  @# +@ {* _$ @@ ,# U!  . 6, OH PH QH RH sD SH Ns on A| ~= U+ ~= $@ ~* H. ;; O  $@ }l ]  [% TH  . i# i- UH h. D~ w  qb y+ <] 31 g; VH o^ WH XH $< Q  c# %$ YH ZH /. *$ v& z+ }. d$ 62 (> 6_ `H  I L& .I $a +I @I #I $I +$ %I &I *I =I -I ",
";I >I ,I :g 'I N< )I j; !I ~I {I ]I Zm ^I Ao /I (I _I C2 :I <I kz n, [I |* }I Q- |I e~ 1I tj yE 2I 3I 4I 5I 6I 7I V( 4s F; }& :& 8I Ol p  U+ F. H. $@ '$ ^% 2& Y+ (' 1& B+ B+ 9I 0I bb aI bI cI dI [j eI fI gI *7 [% !0 ## [% #j pb p  #j #+ +@ :@ v$ v$ +z hI iI jI l. A= {% d/ 0*  = k* kI C, lI /r v% -. 0: 84 mI nI oI pI ;+ r$ Q, qI rI `( sI tI ), uI vI '* wI xI yI zI AI ,c gf BI CI DI ",
"EI FI GI HI r= II JI bu KI uy ]3 LI 53 -k 1a MI NI OI Kr PI ad )h QI RI U- R+ z$ 2F SI k= TI UI Uy VI WI XI YI -y 5+ ZI ^* &$ N. Z+ ($ $@ +# E. `I -- 1& *= U+ F. n  z  M  v6 -= ($ [% k~  J gk .J )E 5+ +J &n ]~ {= !  [& ,# Y@ $@ :* `@ t  pa $> o. 4e 8# w& x) @J #J $J %J &J f= C) [+ ]  N  *J v5 nr =J H= #1 vn nj o@ w$ -J *. ;J m] >J 6{ v. p] ,J n6 'J N> `1 )J q* !J ~J {J 6v 3t ]J ^J ",
"%I u> /J (J _J :J <J [J }J |J 1J ]9 2J ,* ]- c  3J 9n 4J 5J 6J M[ 7J x= L$ uq 8J 9J 0J aJ bJ 1H cJ dJ eJ [f fJ If :, gJ hJ iJ ^% #g _% *r A) %% X8 qa S. $@ z> /@ ## x8 O. [& e. [% U/ +n jJ |[ kJ tl fd lJ mJ nJ $@ k  S* u  U+ <. p  K. .  l  oJ 5$ pJ 7@ ,4 P- qJ rJ j; sJ tJ O  ;+ )$ uJ H] -. nC {+ j% vJ wJ h# xJ 8@ '4 Pz yJ g} ,4 0) zJ AJ BJ V= CJ 3+ 0@ DJ EJ FJ Rb <A :( Ab ^B GJ HJ ",
"IJ JJ KJ LJ MJ NJ OJ PJ QJ RJ P6 SJ TJ 9= UJ ^> @( 2/ ze VJ WJ c% XJ YJ ZJ 5( `J 5(  K q0 .K +K @K #K $K 1^ ;c %K &K *K uz *# ^% 2& pb Kk j  p  ($ x  ,$ #_ Lo =K l  >0 :$ z  t  +# >0 M* 8# -K ;K 4F += @8 M7 J. |{ +# 1l L  2& w] 6D ## (  (  %8 0| d: ^[ X. em -* >K ,K 'K  C )K S  ># S  i. !K ~K j* g! {K ]K ^K /K '4 (K _K .m 3# :K q* <K [K %k .G }K |K 1K  C 2K <; 3K  . {+ 4K t3 sd 66 ",
"5K 6K 7K 8K 9K 0K aK bK cK dK :I eK fK gK WB hK iK Q@ .} jK kK <) lK o@ #H i* M. mK 4$ nK oK pK qK c^ rK c  sK tK uK De t* vK 3f :$ $@ #5 W+ T. >0 #j [. o  .   # o  +/ w^ 9] l  rd p  wK xK ^B yK zK n[ Y/ AK T# [8 n  n  Ph =# ,$ S. $> dr qn 5{ q* ]> BK 8# 8u l. CK ${ B- E= DK F@ C, '$ =- EK FK d> GK E= HK IK JK KK I! %. T_ r$ s& y$ M} Q4 LK MK NK a. }1 OK PK 2( Td #. O# D[ Yy QK RK ",
"SK TK UK VK WK XK YK f< b~ =] ZK `K  L .L +L @L #L $L M1 %L &L :^ $> o  [% <% Ph M@ Z5 >p *L =L ME :F -L ;L f, >L ,L 'L )L !L p  ~L *r O. 47 [% b* {L 0j <; ]L K~ B+ G, w] B+ ^L /L (L o  Z+ 7p _L 7n 3  g; :L v~ fa M  [$ [& h  [& =# <$ N> >) o. bb !+ !o <L ]> n. GC 6v T. o  [& .  [L fa A~ }= A% )F .h 4$ }L |L R< Ko E) 6@ F~ J- )@ S, 1L 2L 3L 4L 5L eH 6L 7L Q> v% l^ d# 8L 9L fd 0L hn ",
"aL bL cL dL eL fL gL hL iL jL kL lL mL nL oL pL qL rL k| sL tL uL vL $@ +# se #; Vq f^ ^[ __ wL -@ xL Lv ^[ yL I~ 8# Ro T> zL d[ nb Q. `@ %% *$ 1l K! -/ C] 2& n  @  a* *7 K: AL p  +/ [% T. u  T. H. `+ BL CL A= 94 DL %% P. Y@ EL FL ;& GL HL IL 0h ps JL  % y$ 3u KL x  )$ LL !! =# N8 y- ML NL OL Z( PL J~ QL h& %5 ); $@ a* M{ x+ Q' Tb RL SL QE TL UL d* y# js _~ VL g$ l] o. WL XL YL ZL ",
"`L  M .M +M @M #M $M %M &M &9 *M =M -M ;M >M ,M DA 'M ;c )M !M ~M {M e= ]M @p ^M 7^ |K /M (M q0 c0 ]C _M :M >: )} nw ^# e> <M y( '+ [M x+ }M d; -/ P. h0 *r F@ @# 8* &( 1# l  /3 |M c& tr 1M t_ x6 2M 3M 4M 5M d* 6M {% x  3f )# +~ 7& 7M 4> t. c0 8M 9M ,$ 2& l* [& Y+ qr $# DC x: ]  S' 9} 0M |[ aM JF DE bM cM C{ dM Q, eM 3K ;+ _~ E) fM B] gM hM iM l( D{ jM n* X  )+ l^ kM 21 lM .l mM nM ",
"4! oM pM qM rM sM tM hj uM vM wM +E xM yM zM AM BM ^6 U; CM V' -6 U; DM E{ EM FM GM ^j e] HM Jc 8G IM .v 8$ +! JM KM 8@ a: K| m% !^ 2& a* i% s  o^ 2> 1& D> w6 |> |! I7 LM dh L7 %% g/ )) /  MM j# 5t Y, j/ w& 9} NM OM PM QM Y& RM {c SM TM UM VM c> c$ D. ## Y+ !  C. pb K. ~= ~= && N. r4 WM J+ X% XM YM ZM o@ O8 ^  S< {@ 3, {@ :. _. 5@ 3# [! `M y#  N #+ P) /v VL Ok }! .N |* +N @N A* t- ",
"#N fw $N %N Np &N *N kj .4 =N -N s] ;N >N ,N 'N )N |/ !N ~N {N ^] ie 'A 7j M+ ]N ^N /N (N _N :N <N [N  , Fr N> }N |N 1N 2N 3N {$ h  p     R  +# !@ ;/ 4N h. :@ C! i  5N T. ); F@ B] L7 C) @* 6N Z, 7N 8N ^H 9N M, 0N h= aN Ei bN cN dN q0 p0 66 ;y eN fN I. -- T. x  h  Z+ %% u  O. gN 9} `J hN Gb ck iN W$ Rg ${ !d c# K! h% H- 2, h& 3c ~  #. *+ jN kN E~ lN B1 @g mN F] ^  N> U, nN oN pN Um ",
"qN r{ b@ rN sN tN uN vN wN xN yN zN AN BN CN n9 !, DN EN p< FN GN WE HN IN 1J JN Uo KN LN MN NN ON PN QN nA RN b! SN TN UN VN WN 6y n^ XN -/ T. n  =/ +# #_ YN ]@ |> t_ c# |> L0 ); F' _+ 6u 0{ ZN d* j( 0N `N  O v| .O +O @O V6 #O $O %O &O *O =O -O ;O |x #* N. {+ Go >O 2& *- ,O 'O n. )O 3* !O l| ;E S& {H s  x] Y+ ~O -# I- #. {O ]O ~  ^O d; |_ /O Wp F, d# ^  (O #. l^ %4 >: _O :O .4 ME ",
"<O [O }O |O 1O 2O 3O 4O l> 5O F# 6O Tk 7O t~ p' 3* 8O 9O 0O aO 4^ bO cO dO eO fO gO hO iO jO kO lO mO ,' nO ^6 &k vM oO pO qO rO gd sO o  {* ;# tO Q.  # uO vO $# R  wO I, ); F' 1# G, c9 f$ xO yO `J zO Z6 AO BO CO DO EO FO GO HO IO JO KO LO MO NO OO PO QO %= Xj RO SO cr %& TO A8 UO VO @9 WO 'e `. XO (> O. O. [8 :- H@ YO ZO `O  P kM `t .P B1 [+ }- Ko <+ (; g$ /3 4@ 7| ^& 5v +P @P Gy ",
"#P $P %P &P *P =P -P ;P >P ;g R0 ,P c  'P Hf W$ ft )P !P ~P {P ]P Od ^P /P (P _P :P <P (J [P }P |P Qt 1P eL 2P +] z0 ~i +$ 3P ]B 0u h; j# u^ i0 t  >l 26 x  G- =K G- :$ &5 )) &7 I7 r  O  o= j: 4P 5P 6P 7P 8P 9P 0P aP bP cP dP eP fP gP hP iP jP kP M1 lP !; gc mP nP oP pP @@ /& 08 f! DH qP rP ]s sP z- T+ `+ J. +# U  tP bb uP g- .m %% e= 98 #. :. q^ %. 3K e; d. =& I- /, $* vP wP Fr A= ",
"xP yP zP AP BP CP +| L2 DP >@ 9} r{ EP Fm tl FP GP HP IP JP s  y+ nc KP LP MP NP OP PP QP RP `. U1 +b SP TK TP UP b7 f* L2 VP WP XP sJ YP @a ZP <| `P $@ #. Cf 1l /& &- +/  Q W  Dj ~! .Q 11 +Q @Q j; J+ #Q $Q %Q &Q *Q =Q -Q ;Q >Q ,Q 'Q )Q <$ !Q ~Q _: {Q ]Q ^Q /Q (Q _Q :Q ^{ W@ <Q w} [Q l[ }Q |Q 1Q CC )$ Hi `+ Yn Eh Ea 2Q 3Q #8 {a O) -+ p& @  g$ $. 5, 2, V+ J0 b/ ~> j* 4Q 5Q 6Q 7Q 8Q ",
"9Q 0Q aQ bQ cQ dQ vC eQ fQ Q~ gQ hQ iQ Q4 N^ ^] hB jQ n^ $. c. E. 39 kQ lQ mQ Z{ nQ oQ pQ qQ .4 rQ Gb sQ tQ uQ vQ wQ xQ ea yQ ^} zQ AQ |0 BQ CQ #+ x8 K= 5c >0 `8 DQ /v 2c p  ~> EQ ks FQ -b GQ S% HQ IQ JQ KQ LQ MQ NQ 0P OQ PQ QQ RQ SQ TQ UQ VQ Wi r{ WQ XQ YQ @E R} b) ZQ )4 %. 3& O9 `Q  R .R 4* +R <# %n r  !0 W@ 9| __ @R Cw g; #R $R |- %R _# e# f$ &R T* {@ D) *R mN =R o. )O .} @( -R ",
";R >R ,C ,R 43 EH 'R )R Di 5> Ld Wh gC J2 !R ~R YK {R ') ]R 19 3# ~: ^R /R (R _R :R <R [R }R |R K# L& 1R 2R 3R 4R 5R 6R 7R 8R 9R 0R JF (A ~N 6{ $@ @# y+ *+ dh /@ aR bR *r p& E> cR dR +b eR fR gR hR iR jR K2 kR lR mR nR oR pR qR rR sR tR uR /G ){ vR 76 b^ yd ;c wR xR yR P( <! zR AR BR CR DR ER FR GR Y+ O. ,9 I. !@ e+ HR |* 1, M' 8u +% IR JR KR LR g$ 2c eM U  T_ a1 ,/ 49 MR NR OR PR ",
"q} QR RR SR TR UR VR WR Yh B/ D  XR YR ME >' _) ZR `R  S b/ B]  k ^K .S +S @S #S $S %S &S X( T1 *S pD =S -S ;S >S ,S 'S )S !S Lg {A Q7 ~S {S C+ !0 D. L7 ]S h0 i% w] -= ^S /@ <. i$ /S (S _S :S <S zH [S m~ }S |S 1S w/ 2S 3S Dp 4S 5S 6S 7S 8S ~R J2 b^ Q4 9S 0S U= aS bS cS dS eS fS gS hS iS =b jS kS J  W+ ($ ;$ ]% 'H lS EF lB mS :^ nS oS pS nj >) 7# Uq o^ <+ B1 |_ qS rS GK sS tS uS vS ",
"wS xS yS A$ zS k! )< AS 4- BS CS #6 DS ES ce k| FS GS HS D. O= r  ws IS tc JS KS LS MS NS hQ OS PS QS RS SS TS US VS WS XS YS ZS (: h_ )  != *r +/ M  5, K= K  i% 6c `S Z8 Ze  T F1 sK .T +T @T #T $T B6 P$ Yh x/ %T &T *T =T -T ;T >T <G ,T 'T ]9 43 ~i &[ )T vd l[ p' !T ~T {T ]T ^T /T (T _T :T <T >D qn qa /& _$ [% [% 4_ [T }T `$ BF |T 1T 2T 3T {b 4T $& Pa O) }! T_ 2& /v BL 5T 6T 7T 8T ",
"9T 0T aT M[ k( jb bT cT hl _1 dT Vv B' fd eT J2 #K fT gT !e hT t& T& iT jT 8. kT lT mT nT oT pT qT rT sT tT k; uT #^ vT wT xT yT B. zT -h +@ /& :@ ~> C{ iq Ze Q. X6 ~d E) d& AT a+ BT ve CT DT ET FT 'P c@ GT HT IT JT KT LT MT NT OT PT QT RT IN e, ST DR TT sm UT VT WT XT YT ZT `T  U .U X] +U @U {% #U [% U+ A+ h. j. sx $U %U &U *U Hf =U -U -O ;U >U P' O= (; |> K! y> 3= ,U l: ZF Gk 'U ",
")U PC !U cg ~U 7J {U ]U ^U /U (U ^> _U ea x0 K2 :U {D <U [U }U hs |U xb 1U Me #K 2U 3U 4U 5U 6U 7U 8U 9U 0U Y_ M& XO C% aU uH bU FC K= xf L  6c cU qx _b t_ h$ dU m^ p& eU fU gU hU iU jU kU lU mU nU A* vd oU pU qU rU sU tU uU vU wU xU yU P$ ^] zU AU BU CU DU EU FU GU HU IU JU KU LU MU Yh NU ]^ OU C. z  x: S. V* s< F) '4 PU )3 3l 8! QU RU !b 5y w+ O~ zs T, V  fM U& 3= qb SU TU 0o UU ",
"VU WU XU YU ]h ZU `U  V .V +V 'g @V #V $V tm C0 %V &V *V =V -V dL ;V >V ,V 'V )V !V ~V k& {V ]V ^V /V 1a Eu (V r4 6< U$ v| _V m$ Je zT xf :V Q. E~ ]$ <V #/ ,4 c% rH Z% 0| [V }V |V 1V 2V 3V 4V 5V 6V 7V 8V =U y[ 9V 0V aV bV cV dV eV fV gV r{ hV iV jV kV lV mV nV oV pV qV rV sV tV uV vV wV xV yV /@ y+ !  F. T. f= %% H- 0: j/ o. K+ #= zV AV BV 3  t$ ;+ K! s% )+ g$ ;= (; .. CV I+ DV EV ",
"FV GV HV IV ,' JV KV LV MV NV OV NS PV JT QV RV SV TV UV VV WV XV YV sg ZV `V  W .W +W >y R6 @W #W 1a 7j $W !o  z (~ pG _! 6< bb %W J@ A! *7 b/ &W P# %~ ^# {b *W =W -W f_ ;W >W ,W 'W )W !W Xk ~W {W ]W ^W /W (W _W _~ .m f/ :W <W [W }W |W rL 1W 2W 3W 4W 5W 6W 7W 38 8W 9W 0W aW bW T1 cW O$ %; dW :$ *$ >= N  h  |_ +_ ]% =# #* M, eW >* fW |^ gW J~ [! c# T  hW +  4@ ], <| iW z] jW kW ms ",
"lW mW nW oW pW qW w} +* <= rW sW tW 86 uW vW wW xW yW zW AW BW CW DW EW L| FW GW Ld HW IW JW KW LW L& $n :( -& :% g& S' 9} MW {S T_ h& g% d$ /@ u  >e %{ NW OW ;' ;' Xj ^j PW QW RW SW |5 TW VV `A Vr UW VW WW XW h  B] M  v6 c& YW ZW `W  X .X +X @X #X $X %X &X *X =X -X ;X >X ,X 'X #C Al )X [2 |& `+ I- >; *# G@ (# op ;; S+ U+ =x Ez ~9 !X I& ~X MW fq b. {X i. Pa ]X )@ O0 T, 'a ^X /X (X ",
"xN {4 _X :X <X [X }X |X ;J 1X 2X 3X 4X 5X 6X 7X S] iu 6d >) }* 3  Ie F& 3f 8X 9X 0X aX SU bX  J cX dX 94 kM -= [8 {~ ZH >. ok eX t$ ^* )+ =# ~d &7 Ze d* fX O@ l| gX hX iX jX -b G/ kX I+ lX mX nX Eu Q% oX pX qX rX ,9 t& M. 87 sX tX uX vX wX xX yX &_ zX AX BX CX ]9 DX EX FX GX HX IX JX KX }9 }! g$ F] r  #+ _+ T_ :@ LX MX x] %% O8 d} NX 8= HF S~ OX PX 7l QX Uq *( RX _3 ts A! _$ S, SX ",
")  q4 Q* TX UX VX WX XX )a YX ZX 93 `X  Y .Y Xk )' Be N$ 08 _y @g +Y +@ U. =' 0; ]$ %* Z5 @Y .h #Y s/ 1d |# d# $Y %Y ]$ &Y j/ *Y S* =Y s$ N= :{ B1 _. -Y ;Y >Y l[ f_ o~ ,Y j; 'Y )Y Ez C_ !Y ~Y [K {Y `. ]Y et ~w ^Y /Y '+ h% J0 O& (Y _Y :Y <Y [Y rd Ah }Y |Y 1Y 2Y _, 3Y 4Y 5Y 6Y 7Y 8Y 9Y 0Y tJ F, M; aY Y+ 91 I@ s% ;; bY Y+ @@ X+ VF cY x2 7_ Z0 O( dY k2 eY J  :+ !a s8 T  C] fY 1> L; gY ",
"hY i  t_ iY jY 9) kY lY !J mY nY Hq oY pY _a qY rY u) sY dD ,# Wd ~^ u2 8c tY 8# uY #/ vY Cj wY I~ 62 x9 `@ A} e% xY x+ 1, yY 0r T* <. /v u% zY O  ^  _+ AY Z6 BY {7 CY LV DY EY FY GY x; HY n4 IY JY KY LY MY NY OY PY QY M{ E~ N= #~ w$ RY SY Cs TY UY VY rV WY /Q XY G/ YY ZY 4h `Y  Z .Z +Z Yj M; 9p N= >+ zg *. '+ L@ ;6 nb H@ }e }= +H @Z #Z I3 $Z %Z &Z *Z CC =Z Pa m^ :+ C, -Z v%  k ;Z ",
"3# &R C{ 0g 9B >Z ,Z 'Z q: )Z !Z ~Z {Z ]Z ^Z /Z (Z I1 l: _Z =# _b G- x8 :Z g- 62 <Z Nt 3# [Z }Z |Z $> 1Z 2Z O, 6< D- +c x1 3Z Ue 4Z R  x+ u  v  qa _+ 5Z 6Z 7Z 7N )v d: 8Z 6i 11 9Z 0Z aZ ]{ bZ cZ }f 8B dZ eZ fZ gZ hZ iZ jZ n= kZ lZ mZ nZ oZ pZ qZ rZ xd sZ tZ N9 uZ vZ e1 wZ xZ 'A yZ a[ zZ ~) K! <. ~> n^ Tb AZ B1 x  W+ ~  Y+ F. 5$ BZ Dl CZ X1 DZ /7 EZ FZ g- y( GZ .m Y+ 8{ ex '+ :V #+ ",
"M  E, }# != F@ ]$ HZ IZ JZ KZ LZ MZ NZ OZ lW PZ QZ RZ D- u  ## =7 z  *$ E~ T# `@ +/ #j AL :{ '> nb hm @D v6 SZ sd TZ I. 9} 9| {b UZ VZ J[ WZ =# D. XZ oe 4n YZ 6j ZZ O#  % 1d y$ `Z 'A := ^_  ` }K .` +` @` #` ]! $` %` &` *` =` -` ;` >` ,` '` )` nQ !` ~` *9 S% {` #8 }+ ]n 'T l- ]` z- W{ ^` /+ K! J! i% && D5 /` _+ V/ 47 c. {@ D{ (` 66 _` ;E :` <` [` !( Ym }` |` b. 5c o^ Ho +* 5@ :+ 6i ",
"a* d# _+ `@ Q' 7D 6k 1` 2` 3` 4` Gb +} G3 5` ^# 6` J} 7` dh ,# ~= o  ,^ A+ }$ b9 V* qa o  8` !o 9` 0` UF &, u  .! a` K. z1 d: vu K) b` 6{ =; c` w8 R. d` A8 V8 e` -| f` ZH g` ;q h` i` u[ Q4 j` k` 9m Tm l` -@ `_ b^ m` %^ n` o` p` q` !. r` s` t` {9 g{ u` v` QF w` x` y` z` p0 U; A` B` n^ C` c_ D` _# B1 _+ h3 u% Z+ B1 ~d z9 $& E` F` G` H` ]2 I` @9 J` K` ,A o0 L` rH M{ K! _8 ~  M` *+ u& ",
")+ T_ v  c# H@ N` O` iX n9 >u P` Q` Tm R` S` Yv 1B gh !@ #; /{ ($ ^~ ,# K= *7 U+ S. 36 8i d* 3+ T` U` Z% ez Gr V` 0i u; ;: ;. y7 W` 5y Ie X` Y` ,# .# I7 8^ g- em Yv x; Z` h# ^; ``   .. .+ .l+ @ .{$  . # .$ .% .& .-< * .z[ = .- .l[ vM %k ; .> ., .|w ' .) .! .`P ~ .0} w5 { .] .l. ^ ./ .R# *A J~ 9< u; rA $y Gr XA wf e$ ]o ( .Y> #` _ .: .< .[ .Q6 Cl .~ ^) m2 Di } .| .D~ @  tr K! <; 3K ",
"b/ SZ )@ py && TZ `p et 1 .2 .ut 3 .4 .Ld 5 .n@ _- A+ X8 (~ ~d *r v  6 .]d '^ K_ ^k 7 .8 .9 .0 .5P f^ 9} 62 T# a .b .Ef %8 c .d .e .f .+  %& ~> N. d; ]S H. w8 62 U' g .Kh }% 6< h .;c i .j .k .`: #j U+ D< <) l .m ._V g{ K/ n .o .C' xi p .q .'p r .s .t .u .Q# v .6 .s& h$ C] w .2, N= #. F] oa rr N; x .fq i$ O, {@ >+ y .0| z .A .B .#6 C .D .E .F .G .3o H .JA c^ I .qq J .|# g& l] A+ %. ",
"(. ;; x+ ^% @@ V' -@ K .YC L .M .2- N .O .P .Q .R .)! 9g )! 9g 1l S .d# 47 <{ 5u _b `e T .]> U .V .bb W .$; Y+ /@ qj pp X .Y .:/ Z .#4 ^k pb S. y  R# ]~ -# D. !B ` .ap @# s   ..EF  | ...+..49 U/ vf I. ($ 6D YJ @..#..qm bv kk fs $..%..&..#7 *..7d 5j =..*0 j# -..@. -+ 5@ L~ g& U& p& }! _~ J{ eM (; )@ '+ B~ }. G@ S, c_ Mv ;..Pd >..,..'..)..!..bb y- ~..{..P[ ]..^../..#- (..y+ S  g% B1 ",
"`@ Y+  k [& gh /k _..:..<..[..}..|..#! 9q -p 1..2..t% c. -& @* T* U* =7 Z+ &5 V* J. M  V# Q) 3..4..<' 7^ My eh 7s (~ @f c  #= c^ 5..6..7..8..x8 Se l  @< :* ;$ #g 2& !  T. R# u  :b 9..0..a..19 D. Ud `+ [% B+ S+ b..*p `1 c..d..,k e..f..|P g..u7 c  h..i..N> j..I@ &7 x+ pp }. R, .< :+ J7 *. k.._3 lN *. d# d; ~  C] -; 9 .N* @r >) o. `J l..2N K] m..T .z- n..O` C' ^E o..A= %; u^ H: *& u  ",
"y+ p..!  q..x+ r..hj s..t..u..bE v..g] w..x..y..0j 4@ !@ ~d B1 ,9 A+ W+ [M P# UH @# _$ R. xK <) 0^ z..A..B..UZ C..Z/ D..6h E..F..]E !, G..[) :3 Y+ N.  #  # X6 #j s  m  C. O  [% u  H..I..$@ $+ ($ f: ;$ V# s  M  ;$ ;$ !- J..e( K..L..S@ M..N..O..#) P..SU Q..]~ E~ !0 A+ @  >; !a o^ -. d. T, c. Q> Q' s& _~ d# C{ ;. R..S..qb J= q^ z9 T..2# Z& ;. U..v; V..W..X..]s Y..oi &@ 8# qn h. Z..N= "};
