/* XPM */
static char * emonacho_128_xpm[] = {
"128 128 13648 3",
"   	c #FFFFFF",
".  	c #FEFFFE",
"+  	c #D1E9ED",
"@  	c #FEFFFF",
"#  	c #EAFBFE",
"$  	c #CDEAF3",
"%  	c #AFCED7",
"&  	c #7F9294",
"*  	c #707467",
"=  	c #50564D",
"-  	c #333F3F",
";  	c #434F4E",
">  	c #67736F",
",  	c #79857D",
"'  	c #6D6F58",
")  	c #696948",
"!  	c #828469",
"~  	c #90937B",
"{  	c #7C8367",
"]  	c #75815E",
"^  	c #78805D",
"/  	c #888D6E",
"(  	c #9FA394",
"_  	c #9EA59D",
":  	c #98A29A",
"<  	c #959D96",
"[  	c #83897F",
"}  	c #737859",
"|  	c #626846",
"1  	c #616641",
"2  	c #626841",
"3  	c #72744D",
"4  	c #747A4B",
"5  	c #737E66",
"6  	c #7C8A87",
"7  	c #A5AEB9",
"8  	c #9EA8B4",
"9  	c #8E9FAC",
"0  	c #99B1CA",
"a  	c #A3B7CD",
"b  	c #9AA9B9",
"c  	c #888C90",
"d  	c #7F8789",
"e  	c #86939B",
"f  	c #858F93",
"g  	c #8699A4",
"h  	c #84A4B8",
"i  	c #8097A7",
"j  	c #74827F",
"k  	c #6D7955",
"l  	c #787D57",
"m  	c #808660",
"n  	c #8D8F73",
"o  	c #999885",
"p  	c #9FA293",
"q  	c #A4AC9F",
"r  	c #ADBEBA",
"s  	c #B9D1D4",
"t  	c #C4DEE4",
"u  	c #CAE4ED",
"v  	c #D8E9EB",
"w  	c #CFCFCE",
"x  	c #8B886F",
"y  	c #96A7A7",
"z  	c #9EB5B7",
"A  	c #F4F9F9",
"B  	c #ECF8FA",
"C  	c #A7C4CD",
"D  	c #E9F3F6",
"E  	c #F3FAFD",
"F  	c #BAD6DC",
"G  	c #E5EFEE",
"H  	c #F5FBFD",
"I  	c #6F868A",
"J  	c #4C503F",
"K  	c #4A4F42",
"L  	c #A0B2B0",
"M  	c #FDFEFE",
"N  	c #DDEEF3",
"O  	c #709298",
"P  	c #9BABA8",
"Q  	c #C9D5D1",
"R  	c #CCDCDC",
"S  	c #93ABA8",
"T  	c #65766F",
"U  	c #323827",
"V  	c #3C3B32",
"W  	c #97A8AF",
"X  	c #C5D5EA",
"Y  	c #B7C7DD",
"Z  	c #6F858B",
"`  	c #585A46",
" . 	c #3C432C",
".. 	c #2D321D",
"+. 	c #373C26",
"@. 	c #323822",
"#. 	c #2E3622",
"$. 	c #71827C",
"%. 	c #FCFDFD",
"&. 	c #FBFEFE",
"*. 	c #AFCCD9",
"=. 	c #98B5BD",
"-. 	c #FDFEFF",
";. 	c #C4DDE5",
">. 	c #FCFEFE",
",. 	c #FDFFFF",
"'. 	c #F9FEFE",
"). 	c #E1F8FC",
"!. 	c #B9D3D5",
"~. 	c #7E8B7D",
"{. 	c #4B5748",
"]. 	c #343F3D",
"^. 	c #313D3D",
"/. 	c #42504F",
"(. 	c #677570",
"_. 	c #7D8982",
":. 	c #777D6B",
"<. 	c #6A6B49",
"[. 	c #7A7A57",
"}. 	c #7C8168",
"|. 	c #7F8D82",
"1. 	c #818E80",
"2. 	c #788263",
"3. 	c #777E5A",
"4. 	c #949474",
"5. 	c #A6A594",
"6. 	c #9DA399",
"7. 	c #959B94",
"8. 	c #858B82",
"9. 	c #777E61",
"0. 	c #656845",
"a. 	c #666A44",
"b. 	c #656A42",
"c. 	c #73724B",
"d. 	c #777B52",
"e. 	c #808570",
"f. 	c #89928E",
"g. 	c #A5AEB7",
"h. 	c #A0ACBA",
"i. 	c #99A7B2",
"j. 	c #9BA7B7",
"k. 	c #9DA4AE",
"l. 	c #92A0A5",
"m. 	c #92A6B9",
"n. 	c #97ADC5",
"o. 	c #96B0C4",
"p. 	c #92A6B6",
"q. 	c #8DA7B9",
"r. 	c #8DA7BC",
"s. 	c #84A1B5",
"t. 	c #7E91A3",
"u. 	c #7D878C",
"v. 	c #7D7F67",
"w. 	c #787E53",
"x. 	c #868870",
"y. 	c #92948B",
"z. 	c #8F9583",
"A. 	c #939887",
"B. 	c #909C90",
"C. 	c #99B0AC",
"D. 	c #B2CCD2",
"E. 	c #C0D3DA",
"F. 	c #A7ADA4",
"G. 	c #908C6D",
"H. 	c #7E8E83",
"I. 	c #F1F8FB",
"J. 	c #E3F0F7",
"K. 	c #C9E4EB",
"L. 	c #FBFDFE",
"M. 	c #BFDBE0",
"N. 	c #D0DFDD",
"O. 	c #CFDCDA",
"P. 	c #6F7B76",
"Q. 	c #484C3B",
"R. 	c #46483B",
"S. 	c #728688",
"T. 	c #EFF9FB",
"U. 	c #F7FCFE",
"V. 	c #B9D2DC",
"W. 	c #395C67",
"X. 	c #283734",
"Y. 	c #293935",
"Z. 	c #404C45",
"`. 	c #4A5045",
" + 	c #303425",
".+ 	c #2F352A",
"++ 	c #B5C3C8",
"@+ 	c #ECF5FF",
"#+ 	c #E0EEFD",
"$+ 	c #9DB1B8",
"%+ 	c #545741",
"&+ 	c #3D432B",
"*+ 	c #2B311D",
"=+ 	c #353823",
"-+ 	c #2D3421",
";+ 	c #314035",
">+ 	c #D8DEDB",
",+ 	c #E5F3F9",
"'+ 	c #EEF8F8",
")+ 	c #FBFEFF",
"!+ 	c #FFFFFE",
"~+ 	c #FAFEFF",
"{+ 	c #D8ECEA",
"]+ 	c #93A397",
"^+ 	c #4F5D49",
"/+ 	c #505A4D",
"(+ 	c #4D544A",
"_+ 	c #53574D",
":+ 	c #666D61",
"<+ 	c #7A867B",
"[+ 	c #879289",
"}+ 	c #858C81",
"|+ 	c #747253",
"1+ 	c #7A7856",
"2+ 	c #878C78",
"3+ 	c #8E9B91",
"4+ 	c #8B998D",
"5+ 	c #7E8974",
"6+ 	c #787B58",
"7+ 	c #868767",
"8+ 	c #868C71",
"9+ 	c #888C7C",
"0+ 	c #7B8175",
"a+ 	c #71775E",
"b+ 	c #6A6844",
"c+ 	c #64633D",
"d+ 	c #64663F",
"e+ 	c #736B43",
"f+ 	c #75764E",
"g+ 	c #81826A",
"h+ 	c #8C8B82",
"i+ 	c #9BA0A3",
"j+ 	c #9CA2AA",
"k+ 	c #919594",
"l+ 	c #8F979D",
"m+ 	c #98A8B7",
"n+ 	c #9CB6CE",
"o+ 	c #A2BED4",
"p+ 	c #9EBACF",
"q+ 	c #96B0C2",
"r+ 	c #8BA0AE",
"s+ 	c #8AA1B2",
"t+ 	c #85A1B1",
"u+ 	c #859AAB",
"v+ 	c #8594A1",
"w+ 	c #8E9095",
"x+ 	c #888481",
"y+ 	c #868272",
"z+ 	c #888973",
"A+ 	c #AAADAD",
"B+ 	c #AFB2BC",
"C+ 	c #A6B0B4",
"D+ 	c #A4B8BC",
"E+ 	c #BBCFD6",
"F+ 	c #C3DCE0",
"G+ 	c #BFD1D3",
"H+ 	c #B9C0C8",
"I+ 	c #878E6A",
"J+ 	c #8EA197",
"K+ 	c #F3F9F7",
"L+ 	c #F7FDFD",
"M+ 	c #F7FEFE",
"N+ 	c #DDEDF0",
"O+ 	c #8FACB4",
"P+ 	c #6B756F",
"Q+ 	c #4C5345",
"R+ 	c #45483B",
"S+ 	c #6C7E7D",
"T+ 	c #F7FCFB",
"U+ 	c #DBEBEF",
"V+ 	c #7A9BA7",
"W+ 	c #253D3D",
"X+ 	c #20281F",
"Y+ 	c #313528",
"Z+ 	c #2E3323",
"`+ 	c #353929",
" @ 	c #A4B1AE",
".@ 	c #E9F1FC",
"+@ 	c #DFECFA",
"@@ 	c #899999",
"#@ 	c #5F5F4D",
"$@ 	c #444A34",
"%@ 	c #2A301B",
"&@ 	c #343522",
"*@ 	c #333722",
"=@ 	c #2B3321",
"-@ 	c #2B3223",
";@ 	c #879085",
">@ 	c #F5FAFA",
",@ 	c #FAFEFE",
"'@ 	c #D1E7EC",
")@ 	c #F0F7F7",
"!@ 	c #EEF7F7",
"~@ 	c #DDEEEA",
"{@ 	c #9AB2A9",
"]@ 	c #728A90",
"^@ 	c #61796E",
"/@ 	c #717C5D",
"(@ 	c #727658",
"_@ 	c #5D6547",
":@ 	c #6F7554",
"<@ 	c #898D70",
"[@ 	c #9B9E8B",
"}@ 	c #9B9E8E",
"|@ 	c #828168",
"1@ 	c #7A7652",
"2@ 	c #87886C",
"3@ 	c #8E998E",
"4@ 	c #89968B",
"5@ 	c #838D80",
"6@ 	c #7E877B",
"7@ 	c #737B68",
"8@ 	c #697154",
"9@ 	c #727959",
"0@ 	c #878B77",
"a@ 	c #80837B",
"b@ 	c #666C63",
"c@ 	c #505541",
"d@ 	c #4F5538",
"e@ 	c #64643F",
"f@ 	c #5F5C39",
"g@ 	c #6C6B4C",
"h@ 	c #89836E",
"i@ 	c #847B6A",
"j@ 	c #7A735D",
"k@ 	c #7E827A",
"l@ 	c #929CAA",
"m@ 	c #9EADC6",
"n@ 	c #A6BED8",
"o@ 	c #A6C2D7",
"p@ 	c #A0B6C6",
"q@ 	c #96A6B3",
"r@ 	c #949296",
"s@ 	c #908685",
"t@ 	c #8F8482",
"u@ 	c #8E837F",
"v@ 	c #837772",
"w@ 	c #85766C",
"x@ 	c #897C75",
"y@ 	c #8A7A77",
"z@ 	c #8E7C74",
"A@ 	c #918377",
"B@ 	c #998679",
"C@ 	c #947C72",
"D@ 	c #856F66",
"E@ 	c #766659",
"F@ 	c #6B5B4E",
"G@ 	c #625145",
"H@ 	c #71675E",
"I@ 	c #757469",
"J@ 	c #72725B",
"K@ 	c #858B75",
"L@ 	c #B7C5C4",
"M@ 	c #F8FCFC",
"N@ 	c #EFFAFD",
"O@ 	c #F9FDFE",
"P@ 	c #D2E4EA",
"Q@ 	c #A3BAC8",
"R@ 	c #5C6869",
"S@ 	c #4D554D",
"T@ 	c #CBD7D5",
"U@ 	c #BBD6E1",
"V@ 	c #507379",
"W@ 	c #2A352C",
"X@ 	c #363B2A",
"Y@ 	c #484A32",
"Z@ 	c #6B745F",
"`@ 	c #CBD3D7",
" # 	c #C5D2DE",
".# 	c #5D635B",
"+# 	c #786E64",
"@# 	c #605E4E",
"## 	c #2C321D",
"$# 	c #303020",
"%# 	c #3B3D2A",
"&# 	c #2C3020",
"*# 	c #272B1D",
"=# 	c #373D30",
"-# 	c #B8C2BB",
";# 	c #FDFEFD",
"># 	c #F1F9FD",
",# 	c #C6D8DB",
"'# 	c #D4DFE3",
")# 	c #83938E",
"!# 	c #E4F2F5",
"~# 	c #F5FBFC",
"{# 	c #F6FAF9",
"]# 	c #D6E9E8",
"^# 	c #BDD9DF",
"/# 	c #BCD9E6",
"(# 	c #A1C3CE",
"_# 	c #6D8881",
":# 	c #767E5B",
"<# 	c #7F8360",
"[# 	c #646F4E",
"}# 	c #55603B",
"|# 	c #636E47",
"1# 	c #7A835B",
"2# 	c #959676",
"3# 	c #919179",
"4# 	c #7C7B56",
"5# 	c #868462",
"6# 	c #909788",
"7# 	c #939D95",
"8# 	c #949E96",
"9# 	c #919B92",
"0# 	c #858F83",
"a# 	c #77846D",
"b# 	c #7E856E",
"c# 	c #7C8075",
"d# 	c #636B64",
"e# 	c #444E42",
"f# 	c #51563E",
"g# 	c #69694A",
"h# 	c #666450",
"i# 	c #756E5C",
"j# 	c #908572",
"k# 	c #8B806F",
"l# 	c #877E74",
"m# 	c #8D93A0",
"n# 	c #A3AEBF",
"o# 	c #9FABBF",
"p# 	c #A3ADBF",
"q# 	c #969CA3",
"r# 	c #827A75",
"s# 	c #827267",
"t# 	c #846D61",
"u# 	c #876B61",
"v# 	c #8D6E5F",
"w# 	c #8F705F",
"x# 	c #8D7163",
"y# 	c #866A5A",
"z# 	c #876D5E",
"A# 	c #876C61",
"B# 	c #84685A",
"C# 	c #927265",
"D# 	c #99776B",
"E# 	c #A08073",
"F# 	c #92756B",
"G# 	c #83695E",
"H# 	c #785F52",
"I# 	c #665247",
"J# 	c #655246",
"K# 	c #5D4D44",
"L# 	c #54443E",
"M# 	c #493E39",
"N# 	c #615C58",
"O# 	c #8F908F",
"P# 	c #B7B7B5",
"Q# 	c #DBDBDA",
"R# 	c #FFFEFE",
"S# 	c #DBEDEF",
"T# 	c #EEF8FA",
"U# 	c #F6FBFD",
"V# 	c #8FA7AE",
"W# 	c #444A3C",
"X# 	c #727E76",
"Y# 	c #CAD5D2",
"Z# 	c #95ABA6",
"`# 	c #A9B7AF",
" $ 	c #D9E5E0",
".$ 	c #E7F4F8",
"+$ 	c #C0E0EA",
"@$ 	c #8DB2BA",
"#$ 	c #5B716D",
"$$ 	c #4B4D33",
"%$ 	c #4B4E33",
"&$ 	c #696E5C",
"*$ 	c #677067",
"=$ 	c #474334",
"-$ 	c #776B61",
";$ 	c #6C6A5E",
">$ 	c #323925",
",$ 	c #313120",
"'$ 	c #3B3A28",
")$ 	c #3B3C2D",
"!$ 	c #2E3024",
"~$ 	c #292F20",
"{$ 	c #414436",
"]$ 	c #9AA4A0",
"^$ 	c #B5C1C4",
"/$ 	c #86857C",
"($ 	c #7C7E7A",
"_$ 	c #5D624E",
":$ 	c #D9E9EA",
"<$ 	c #BDC8BE",
"[$ 	c #A9C1B8",
"}$ 	c #E6F4FA",
"|$ 	c #F2FCFF",
"1$ 	c #DCF5FB",
"2$ 	c #A5C9D2",
"3$ 	c #647F7E",
"4$ 	c #687353",
"5$ 	c #7B815B",
"6$ 	c #7B8160",
"7$ 	c #666F54",
"8$ 	c #566340",
"9$ 	c #5F6C43",
"0$ 	c #70784E",
"a$ 	c #7C805B",
"b$ 	c #767852",
"c$ 	c #83805B",
"d$ 	c #90927D",
"e$ 	c #949C94",
"f$ 	c #959F97",
"g$ 	c #96A098",
"h$ 	c #98A098",
"i$ 	c #949D93",
"j$ 	c #8D9386",
"k$ 	c #848878",
"l$ 	c #737568",
"m$ 	c #696A5A",
"n$ 	c #6D6D58",
"o$ 	c #7E755E",
"p$ 	c #8E8065",
"q$ 	c #91836F",
"r$ 	c #948774",
"s$ 	c #8F8979",
"t$ 	c #85836D",
"u$ 	c #908F83",
"v$ 	c #9A9896",
"w$ 	c #928581",
"x$ 	c #836D65",
"y$ 	c #7F6A5F",
"z$ 	c #826960",
"A$ 	c #80695D",
"B$ 	c #795F53",
"C$ 	c #705749",
"D$ 	c #745747",
"E$ 	c #735647",
"F$ 	c #755947",
"G$ 	c #755846",
"H$ 	c #755644",
"I$ 	c #765646",
"J$ 	c #836553",
"K$ 	c #906D61",
"L$ 	c #9D786D",
"M$ 	c #917266",
"N$ 	c #927368",
"O$ 	c #886C60",
"P$ 	c #7A5F53",
"Q$ 	c #634E44",
"R$ 	c #544238",
"S$ 	c #51433B",
"T$ 	c #3E2F29",
"U$ 	c #372B27",
"V$ 	c #413631",
"W$ 	c #443A38",
"X$ 	c #433C3A",
"Y$ 	c #4E4B4E",
"Z$ 	c #9D9D97",
"`$ 	c #DEE6E3",
" % 	c #C0CDCF",
".% 	c #BDD0D7",
"+% 	c #A2B7B4",
"@% 	c #A0B3AF",
"#% 	c #BECBC9",
"$% 	c #F0F6F3",
"%% 	c #FEFEFF",
"&% 	c #C8DEE5",
"*% 	c #445348",
"=% 	c #3F4833",
"-% 	c #4F5842",
";% 	c #525842",
">% 	c #495342",
",% 	c #4D5C4B",
"'% 	c #91A797",
")% 	c #C4DFDC",
"!% 	c #CBE3EA",
"~% 	c #8DA3A2",
"{% 	c #4A4E34",
"]% 	c #494B30",
"^% 	c #40422C",
"/% 	c #3C3B29",
"(% 	c #706C64",
"_% 	c #79766F",
":% 	c #65685D",
"<% 	c #3D4331",
"[% 	c #343321",
"}% 	c #3A382B",
"|% 	c #4E534E",
"1% 	c #555857",
"2% 	c #3A3D32",
"3% 	c #43402E",
"4% 	c #56503F",
"5% 	c #514E3D",
"6% 	c #565444",
"7% 	c #515440",
"8% 	c #6E6B5B",
"9% 	c #ECF6F6",
"0% 	c #929C8D",
"a% 	c #869580",
"b% 	c #CFE5DC",
"c% 	c #EBFAFD",
"d% 	c #DBF5FA",
"e% 	c #A2C7D0",
"f% 	c #587378",
"g% 	c #535F4B",
"h% 	c #6C754E",
"i% 	c #7B845C",
"j% 	c #7E8566",
"k% 	c #737E6B",
"l% 	c #6E7766",
"m% 	c #6B7759",
"n% 	c #737650",
"o% 	c #807B55",
"p% 	c #8E8D71",
"q% 	c #939B93",
"r% 	c #94A198",
"s% 	c #96A198",
"t% 	c #99A199",
"u% 	c #9AA199",
"v% 	c #959C93",
"w% 	c #8F9382",
"x% 	c #898771",
"y% 	c #7E7761",
"z% 	c #79715D",
"A% 	c #695F50",
"B% 	c #7B7159",
"C% 	c #80785F",
"D% 	c #847C6F",
"E% 	c #8E8D88",
"F% 	c #948D8D",
"G% 	c #7E6F60",
"H% 	c #705A4D",
"I% 	c #7B6156",
"J% 	c #7B6055",
"K% 	c #7D6358",
"L% 	c #7D6258",
"M% 	c #7C6056",
"N% 	c #72574E",
"O% 	c #796054",
"P% 	c #776254",
"Q% 	c #7B5E51",
"R% 	c #7A5B4A",
"S% 	c #7B5D4B",
"T% 	c #836454",
"U% 	c #856454",
"V% 	c #906D5B",
"W% 	c #A78176",
"X% 	c #9F7B6F",
"Y% 	c #937463",
"Z% 	c #947467",
"`% 	c #87665C",
" & 	c #755A4C",
".& 	c #78645C",
"+& 	c #725F56",
"@& 	c #5E4C41",
"#& 	c #534238",
"$& 	c #50433A",
"%& 	c #473A32",
"&& 	c #473A37",
"*& 	c #433935",
"=& 	c #403433",
"-& 	c #433A39",
";& 	c #54504D",
">& 	c #82827E",
",& 	c #C7D1D4",
"'& 	c #E9F4F7",
")& 	c #89A6AE",
"!& 	c #627267",
"~& 	c #606F5D",
"{& 	c #718479",
"]& 	c #D4DEDE",
"^& 	c #E0EEFA",
"/& 	c #98AEBA",
"(& 	c #495749",
"_& 	c #494D36",
":& 	c #52563D",
"<& 	c #A2ABB9",
"[& 	c #7A8E91",
"}& 	c #51583D",
"|& 	c #9AA793",
"1& 	c #AFBAB1",
"2& 	c #757E6E",
"3& 	c #464A2F",
"4& 	c #474A2F",
"5& 	c #44462F",
"6& 	c #494833",
"7& 	c #978D8A",
"8& 	c #ABA3A1",
"9& 	c #8C8B7C",
"0& 	c #5F604A",
"a& 	c #414129",
"b& 	c #60665E",
"c& 	c #98969F",
"d& 	c #89848D",
"e& 	c #646156",
"f& 	c #4F4C3A",
"g& 	c #40412D",
"h& 	c #363925",
"i& 	c #2A2F1C",
"j& 	c #373C25",
"k& 	c #605A47",
"l& 	c #BCCCCA",
"m& 	c #8D8E7A",
"n& 	c #8B947C",
"o& 	c #B8CCC5",
"p& 	c #CCE4EA",
"q& 	c #9FC4CD",
"r& 	c #536E73",
"s& 	c #3D4843",
"t& 	c #555F43",
"u& 	c #6E794F",
"v& 	c #7C855F",
"w& 	c #878D73",
"x& 	c #889085",
"y& 	c #879088",
"z& 	c #788271",
"A& 	c #6D7758",
"B& 	c #74744F",
"C& 	c #898361",
"D& 	c #949785",
"E& 	c #93A097",
"F& 	c #99A098",
"G& 	c #9CA298",
"H& 	c #9D9C8E",
"I& 	c #969481",
"J& 	c #807C66",
"K& 	c #575646",
"L& 	c #484840",
"M& 	c #43433F",
"N& 	c #5F5E4B",
"O& 	c #73715E",
"P& 	c #726D60",
"Q& 	c #7E756D",
"R& 	c #796B68",
"S& 	c #6A554E",
"T& 	c #6E574D",
"U& 	c #6E544B",
"V& 	c #685149",
"W& 	c #6D524C",
"X& 	c #644D47",
"Y& 	c #62493F",
"Z& 	c #61473E",
"`& 	c #694E43",
" * 	c #6C5247",
".* 	c #6B4E42",
"+* 	c #715241",
"@* 	c #7D5C4B",
"#* 	c #876756",
"$* 	c #946F5F",
"%* 	c #9F7668",
"&* 	c #AA8277",
"** 	c #AC887C",
"=* 	c #9B7969",
"-* 	c #A28375",
";* 	c #8F6F62",
">* 	c #7F6456",
",* 	c #795D4E",
"'* 	c #664D40",
")* 	c #584438",
"!* 	c #56453B",
"~* 	c #514239",
"{* 	c #4A3B34",
"]* 	c #54453E",
"^* 	c #584C45",
"/* 	c #4E4340",
"(* 	c #4B403E",
"_* 	c #443C39",
":* 	c #453E39",
"<* 	c #494241",
"[* 	c #82807E",
"}* 	c #CBCBCB",
"|* 	c #F9F8F9",
"1* 	c #F7FCFD",
"2* 	c #BED6DC",
"3* 	c #607C79",
"4* 	c #647B74",
"5* 	c #CDDEE2",
"6* 	c #EAF5FD",
"7* 	c #C7D3E4",
"8* 	c #6B7971",
"9* 	c #4C4F39",
"0* 	c #4F5237",
"a* 	c #ABAFB5",
"b* 	c #8A9795",
"c* 	c #5A5940",
"d* 	c #6C684C",
"e* 	c #656148",
"f* 	c #3D402B",
"g* 	c #3E4228",
"h* 	c #44462C",
"i* 	c #474931",
"j* 	c #51564C",
"k* 	c #686959",
"l* 	c #938C80",
"m* 	c #76775C",
"n* 	c #58593A",
"o* 	c #4D4C2E",
"p* 	c #5D5F4B",
"q* 	c #706F66",
"r* 	c #6D6C5A",
"s* 	c #A08F8B",
"t* 	c #776F66",
"u* 	c #363926",
"v* 	c #262A1B",
"w* 	c #252917",
"x* 	c #343720",
"y* 	c #3A3E25",
"z* 	c #F1F8F9",
"A* 	c #9EAAA0",
"B* 	c #8E8E72",
"C* 	c #868D70",
"D* 	c #98ABA1",
"E* 	c #91AFB6",
"F* 	c #51696F",
"G* 	c #343E3B",
"H* 	c #3C443A",
"I* 	c #555E40",
"J* 	c #71784F",
"K* 	c #808768",
"L* 	c #8A9486",
"M* 	c #8F9990",
"N* 	c #8C9990",
"O* 	c #828E83",
"P* 	c #78806D",
"Q* 	c #797D5E",
"R* 	c #878A6F",
"S* 	c #919C90",
"T* 	c #93A096",
"U* 	c #9A9F94",
"V* 	c #9C9D8F",
"W* 	c #9D9887",
"X* 	c #97917B",
"Y* 	c #807B66",
"Z* 	c #5D6053",
"`* 	c #43453F",
" = 	c #434540",
".= 	c #444641",
"+= 	c #5F584B",
"@= 	c #746858",
"#= 	c #53463A",
"$= 	c #5A483E",
"%= 	c #675149",
"&= 	c #675048",
"*= 	c #614A41",
"== 	c #634E46",
"-= 	c #6C554D",
";= 	c #664E47",
">= 	c #5D4841",
",= 	c #654E46",
"'= 	c #674E45",
")= 	c #674B40",
"!= 	c #6A5144",
"~= 	c #72574A",
"{= 	c #7D6054",
"]= 	c #856355",
"^= 	c #967162",
"/= 	c #A17B6E",
"(= 	c #AB8478",
"_= 	c #B48C7E",
":= 	c #AF8B7C",
"<= 	c #B5948A",
"[= 	c #9C796A",
"}= 	c #8E6A5D",
"|= 	c #856250",
"1= 	c #7A5C4C",
"2= 	c #6B5145",
"3= 	c #574235",
"4= 	c #503E33",
"5= 	c #4A3B32",
"6= 	c #4F3F38",
"7= 	c #504039",
"8= 	c #4D423A",
"9= 	c #504541",
"0= 	c #453A36",
"a= 	c #433B36",
"b= 	c #3D3632",
"c= 	c #413937",
"d= 	c #484342",
"e= 	c #616065",
"f= 	c #6F6F77",
"g= 	c #CDCCCD",
"h= 	c #D8EAF0",
"i= 	c #A8C4C8",
"j= 	c #FCFEFF",
"k= 	c #BDCFD5",
"l= 	c #646C5D",
"m= 	c #4E513B",
"n= 	c #4B4D35",
"o= 	c #4C513E",
"p= 	c #474C3A",
"q= 	c #484B34",
"r= 	c #454830",
"s= 	c #363D27",
"t= 	c #2F3420",
"u= 	c #484B36",
"v= 	c #44492F",
"w= 	c #4A4D34",
"x= 	c #818185",
"y= 	c #4E5D59",
"z= 	c #484B30",
"A= 	c #4C4D33",
"B= 	c #535234",
"C= 	c #4D4D2F",
"D= 	c #4D4F31",
"E= 	c #696850",
"F= 	c #807B61",
"G= 	c #A49688",
"H= 	c #63614D",
"I= 	c #313521",
"J= 	c #343824",
"K= 	c #313520",
"L= 	c #353921",
"M= 	c #383B24",
"N= 	c #E2EEEF",
"O= 	c #9AA291",
"P= 	c #8F8F71",
"Q= 	c #818768",
"R= 	c #74827B",
"S= 	c #515F61",
"T= 	c #313A39",
"U= 	c #2D3532",
"V= 	c #3B4339",
"W= 	c #535D41",
"X= 	c #6E7A53",
"Y= 	c #868F79",
"Z= 	c #8E988D",
"`= 	c #8F9A91",
" - 	c #909A92",
".- 	c #8E978F",
"+- 	c #868F81",
"@- 	c #888B74",
"#- 	c #8F927E",
"$- 	c #939682",
"%- 	c #969681",
"&- 	c #989787",
"*- 	c #949788",
"=- 	c #888B7B",
"-- 	c #777970",
";- 	c #696D66",
">- 	c #50524D",
",- 	c #474844",
"'- 	c #4D463F",
")- 	c #726059",
"!- 	c #67514B",
"~- 	c #6F5B55",
"{- 	c #5D4940",
"]- 	c #5C4940",
"^- 	c #503D35",
"/- 	c #5C483F",
"(- 	c #634F48",
"_- 	c #6C524C",
":- 	c #6B554E",
"<- 	c #614C46",
"[- 	c #57413A",
"}- 	c #523D35",
"|- 	c #634B3F",
"1- 	c #6C5245",
"2- 	c #795B4F",
"3- 	c #8A675A",
"4- 	c #A17B6C",
"5- 	c #B2897C",
"6- 	c #BF9990",
"7- 	c #BC958C",
"8- 	c #C09C90",
"9- 	c #C09E93",
"0- 	c #A47D70",
"a- 	c #906A5C",
"b- 	c #886556",
"c- 	c #7B5C4E",
"d- 	c #705447",
"e- 	c #6F584C",
"f- 	c #614C41",
"g- 	c #56453C",
"h- 	c #54433B",
"i- 	c #5E5047",
"j- 	c #51463E",
"k- 	c #3B2F2A",
"l- 	c #403531",
"m- 	c #423A35",
"n- 	c #433C37",
"o- 	c #433C38",
"p- 	c #403B38",
"q- 	c #3C3835",
"r- 	c #443F40",
"s- 	c #524F55",
"t- 	c #BDBDBC",
"u- 	c #F1FAFA",
"v- 	c #98B1B1",
"w- 	c #E6EEF1",
"x- 	c #F5FAFD",
"y- 	c #ADBDBF",
"z- 	c #515743",
"A- 	c #42462E",
"B- 	c #474A31",
"C- 	c #525A4B",
"D- 	c #5A6F6D",
"E- 	c #39432E",
"F- 	c #353B26",
"G- 	c #4A5D57",
"H- 	c #627272",
"I- 	c #616C65",
"J- 	c #5D6865",
"K- 	c #474B33",
"L- 	c #89878A",
"M- 	c #606F6A",
"N- 	c #4D5131",
"O- 	c #606240",
"P- 	c #5E5E3E",
"Q- 	c #5A5B3B",
"R- 	c #565B39",
"S- 	c #676B47",
"T- 	c #636842",
"U- 	c #5D623C",
"V- 	c #515734",
"W- 	c #4A4D2E",
"X- 	c #515234",
"Y- 	c #4A4A30",
"Z- 	c #363A22",
"`- 	c #40402B",
" ; 	c #F1FAFB",
".; 	c #CAE0E1",
"+; 	c #D6E5E4",
"@; 	c #999D86",
"#; 	c #8E8D6E",
"$; 	c #7B7E62",
"%; 	c #5A6155",
"&; 	c #343B39",
"*; 	c #29322F",
"=; 	c #2B3431",
"-; 	c #455148",
";; 	c #616C57",
">; 	c #7D866D",
",; 	c #8E9688",
"'; 	c #909A91",
"); 	c #929B92",
"!; 	c #949A91",
"~; 	c #939284",
"{; 	c #868771",
"]; 	c #8A8B7C",
"^; 	c #91988D",
"/; 	c #90988D",
"(; 	c #8D9084",
"_; 	c #787B73",
":; 	c #676962",
"<; 	c #5F5A54",
"[; 	c #63554F",
"}; 	c #5C4A41",
"|; 	c #6A564D",
"1; 	c #5F4641",
"2; 	c #56413A",
"3; 	c #513E37",
"4; 	c #503E36",
"5; 	c #56443D",
"6; 	c #55423B",
"7; 	c #513D37",
"8; 	c #5A4841",
"9; 	c #5F4C46",
"0; 	c #694E48",
"a; 	c #654A42",
"b; 	c #6D554B",
"c; 	c #705145",
"d; 	c #7C5B4F",
"e; 	c #8C6858",
"f; 	c #A67C6F",
"g; 	c #BA9483",
"h; 	c #CDA89D",
"i; 	c #D5ADA3",
"j; 	c #D0A99E",
"k; 	c #D4ADA2",
"l; 	c #B99387",
"m; 	c #AD857C",
"n; 	c #AF897E",
"o; 	c #A78374",
"p; 	c #937466",
"q; 	c #826356",
"r; 	c #715244",
"s; 	c #66473B",
"t; 	c #593E33",
"u; 	c #574236",
"v; 	c #524136",
"w; 	c #504238",
"x; 	c #40342F",
"y; 	c #352A29",
"z; 	c #2F2725",
"A; 	c #39322D",
"B; 	c #37312D",
"C; 	c #383330",
"D; 	c #3D3936",
"E; 	c #3E3937",
"F; 	c #453E3F",
"G; 	c #565257",
"H; 	c #C2BEBF",
"I; 	c #F9F8F8",
"J; 	c #EAF7FA",
"K; 	c #C9E2E9",
"L; 	c #BED2D3",
"M; 	c #88A098",
"N; 	c #6E796A",
"O; 	c #A0A9A1",
"P; 	c #9EABAA",
"Q; 	c #4E5B4C",
"R; 	c #4E533D",
"S; 	c #444830",
"T; 	c #474932",
"U; 	c #848B84",
"V; 	c #BBC6D9",
"W; 	c #666E58",
"X; 	c #7E7C66",
"Y; 	c #94A4A4",
"Z; 	c #889B9E",
"`; 	c #84989C",
" > 	c #B0BBCC",
".> 	c #788088",
"+> 	c #817E76",
"@> 	c #656A5A",
"#> 	c #555838",
"$> 	c #606341",
"%> 	c #676944",
"&> 	c #616542",
"*> 	c #4C5533",
"=> 	c #454E29",
"-> 	c #444C26",
";> 	c #3F4622",
">> 	c #434825",
",> 	c #515332",
"'> 	c #565738",
")> 	c #5A583A",
"!> 	c #3D4026",
"~> 	c #2E3119",
"{> 	c #CEE2E3",
"]> 	c #C1D4D3",
"^> 	c #C2D7D4",
"/> 	c #999B7E",
"(> 	c #8D8D6B",
"_> 	c #73785D",
":> 	c #424A40",
"<> 	c #29312E",
"[> 	c #2A3230",
"}> 	c #46524C",
"|> 	c #68756C",
"1> 	c #7E8A7B",
"2> 	c #929886",
"3> 	c #94998A",
"4> 	c #98998F",
"5> 	c #9A988C",
"6> 	c #9B968C",
"7> 	c #97968C",
"8> 	c #929792",
"9> 	c #989D99",
"0> 	c #9AA09C",
"a> 	c #979D96",
"b> 	c #949991",
"c> 	c #8E9186",
"d> 	c #797971",
"e> 	c #695F57",
"f> 	c #5F4F47",
"g> 	c #5E4D46",
"h> 	c #524039",
"i> 	c #523F38",
"j> 	c #46332D",
"k> 	c #503D37",
"l> 	c #4F3D36",
"m> 	c #4B3A33",
"n> 	c #4D3C35",
"o> 	c #5B4740",
"p> 	c #624D46",
"q> 	c #6B544A",
"r> 	c #735C51",
"s> 	c #71574D",
"t> 	c #7A5B4F",
"u> 	c #7E5D4F",
"v> 	c #846053",
"w> 	c #987162",
"x> 	c #9F7969",
"y> 	c #B38678",
"z> 	c #C49A8A",
"A> 	c #CCA396",
"B> 	c #DAB2A6",
"C> 	c #DEB5A9",
"D> 	c #D9AFA1",
"E> 	c #CCA495",
"F> 	c #CBA293",
"G> 	c #C99D90",
"H> 	c #B98D7E",
"I> 	c #B48878",
"J> 	c #B08373",
"K> 	c #987261",
"L> 	c #815E4E",
"M> 	c #6A4B3E",
"N> 	c #5D4337",
"O> 	c #524032",
"P> 	c #4F3D33",
"Q> 	c #4E3C36",
"R> 	c #3F322F",
"S> 	c #362C2A",
"T> 	c #302A27",
"U> 	c #272321",
"V> 	c #2D2927",
"W> 	c #302C29",
"X> 	c #3D3836",
"Y> 	c #474241",
"Z> 	c #403A3A",
"`> 	c #534D4F",
" , 	c #7D7879",
"., 	c #DEDDDB",
"+, 	c #FAFDFE",
"@, 	c #A0BBC0",
"#, 	c #7A8C87",
"$, 	c #6B6D5E",
"%, 	c #6B6F60",
"&, 	c #7D8F90",
"*, 	c #809097",
"=, 	c #4B5345",
"-, 	c #444930",
";, 	c #5B644F",
">, 	c #7E8880",
",, 	c #666446",
"', 	c #797558",
"), 	c #7C887A",
"!, 	c #8B9895",
"~, 	c #9FAEB2",
"{, 	c #9AA19A",
"], 	c #70766B",
"^, 	c #4E4E32",
"/, 	c #555539",
"(, 	c #535537",
"_, 	c #565939",
":, 	c #535637",
"<, 	c #565E3A",
"[, 	c #3F4A29",
"}, 	c #464C30",
"|, 	c #515537",
"1, 	c #4C522E",
"2, 	c #414722",
"3, 	c #565834",
"4, 	c #595939",
"5, 	c #494B2C",
"6, 	c #42452A",
"7, 	c #393C22",
"8, 	c #ACC6C7",
"9, 	c #D5E4E3",
"0, 	c #ECFAFB",
"a, 	c #B9CCC8",
"b, 	c #9A9C7D",
"c, 	c #8A8B6B",
"d, 	c #5A6250",
"e, 	c #2D3430",
"f, 	c #49554F",
"g, 	c #6C7970",
"h, 	c #848E83",
"i, 	c #959581",
"j, 	c #9A937A",
"k, 	c #9C9585",
"l, 	c #9C9792",
"m, 	c #9A9B9A",
"n, 	c #9B9E9E",
"o, 	c #9CA0A1",
"p, 	c #9DA1A1",
"q, 	c #9EA2A0",
"r, 	c #A1A3A3",
"s, 	c #A1A2A2",
"t, 	c #90908B",
"u, 	c #737064",
"v, 	c #57463C",
"w, 	c #58473C",
"x, 	c #40322A",
"y, 	c #48362F",
"z, 	c #47342D",
"A, 	c #4A3932",
"B, 	c #55423C",
"C, 	c #48352E",
"D, 	c #56433C",
"E, 	c #5D4A44",
"F, 	c #5F4D47",
"G, 	c #5D453E",
"H, 	c #58423A",
"I, 	c #574338",
"J, 	c #64463D",
"K, 	c #755346",
"L, 	c #835E4E",
"M, 	c #906A5B",
"N, 	c #9D7464",
"O, 	c #AE8475",
"P, 	c #C19B8D",
"Q, 	c #CDA496",
"R, 	c #CCA395",
"S, 	c #CFA599",
"T, 	c #D8AEA2",
"U, 	c #D4A89A",
"V, 	c #DEB2A4",
"W, 	c #DCB1A3",
"X, 	c #D7AC9D",
"Y, 	c #CDA191",
"Z, 	c #C89A8B",
"`, 	c #B68A7C",
" ' 	c #B38978",
".' 	c #AF8475",
"+' 	c #977262",
"@' 	c #8C6B58",
"#' 	c #745A49",
"$' 	c #5A4439",
"%' 	c #4D3B31",
"&' 	c #41312D",
"*' 	c #3D2E2B",
"=' 	c #322826",
"-' 	c #312A28",
";' 	c #2D2926",
">' 	c #282421",
",' 	c #26221F",
"'' 	c #262221",
")' 	c #322D2C",
"!' 	c #393333",
"~' 	c #3F393A",
"{' 	c #444142",
"]' 	c #5E5C61",
"^' 	c #BEBABD",
"/' 	c #FCFCFC",
"(' 	c #C8DAE1",
"_' 	c #828B7F",
":' 	c #868875",
"<' 	c #AFB8B2",
"[' 	c #C6CFDF",
"}' 	c #6F807A",
"|' 	c #424930",
"1' 	c #394229",
"2' 	c #3A493E",
"3' 	c #3A4625",
"4' 	c #67795E",
"5' 	c #96A2A2",
"6' 	c #727964",
"7' 	c #686D52",
"8' 	c #575437",
"9' 	c #363923",
"0' 	c #353922",
"a' 	c #464A2C",
"b' 	c #505535",
"c' 	c #535739",
"d' 	c #4B503E",
"e' 	c #6A7069",
"f' 	c #666C5C",
"g' 	c #6B6D50",
"h' 	c #626447",
"i' 	c #585C38",
"j' 	c #7D795F",
"k' 	c #887F66",
"l' 	c #6E6951",
"m' 	c #474B2D",
"n' 	c #3A3E24",
"o' 	c #363922",
"p' 	c #F3FAFA",
"q' 	c #A0BEBD",
"r' 	c #EEF5F4",
"s' 	c #F4FEFF",
"t' 	c #D3EDF2",
"u' 	c #A4B4A9",
"v' 	c #76795E",
"w' 	c #394138",
"x' 	c #2A3331",
"y' 	c #4D5850",
"z' 	c #767D70",
"A' 	c #8E8E7E",
"B' 	c #95907A",
"C' 	c #928F7E",
"D' 	c #969799",
"E' 	c #999BA0",
"F' 	c #9B9EA2",
"G' 	c #A0A2A5",
"H' 	c #A1A3A6",
"I' 	c #9FA1A5",
"J' 	c #A3A4A7",
"K' 	c #A2A3A3",
"L' 	c #817C76",
"M' 	c #4D4035",
"N' 	c #413229",
"O' 	c #4B382F",
"P' 	c #493931",
"Q' 	c #4A3830",
"R' 	c #5A4C45",
"S' 	c #43312A",
"T' 	c #4F3C35",
"U' 	c #503E37",
"V' 	c #40312C",
"W' 	c #3D2E26",
"X' 	c #412E27",
"Y' 	c #3D2C23",
"Z' 	c #443029",
"`' 	c #64453F",
" ) 	c #734E42",
".) 	c #8A6151",
"+) 	c #A17769",
"@) 	c #B88D80",
"#) 	c #C39989",
"$) 	c #CDA596",
"%) 	c #CFA395",
"&) 	c #D8AFA2",
"*) 	c #D9AEA1",
"=) 	c #D9AB9C",
"-) 	c #D8A899",
";) 	c #E1B2A3",
">) 	c #E4B6A7",
",) 	c #DFB3A5",
"') 	c #DDB09F",
")) 	c #D7A896",
"!) 	c #CEA08F",
"~) 	c #CA9E8D",
"{) 	c #C39487",
"]) 	c #BD9180",
"^) 	c #AB806E",
"/) 	c #97735F",
"() 	c #876553",
"_) 	c #6D4F43",
":) 	c #564138",
"<) 	c #483732",
"[) 	c #372C2A",
"}) 	c #2D2623",
"|) 	c #2B2623",
"1) 	c #2F2927",
"2) 	c #39312F",
"3) 	c #3D3734",
"4) 	c #3A3230",
"5) 	c #2F2A29",
"6) 	c #3A3535",
"7) 	c #423D3D",
"8) 	c #413B3C",
"9) 	c #4D4B4D",
"0) 	c #9D9B9C",
"a) 	c #F8F7F7",
"b) 	c #ECF7FB",
"c) 	c #E1EFF4",
"d) 	c #C3D5D9",
"e) 	c #99B0B3",
"f) 	c #748E89",
"g) 	c #626B58",
"h) 	c #515742",
"i) 	c #515B49",
"j) 	c #89929C",
"k) 	c #526154",
"l) 	c #4B5A3F",
"m) 	c #757F65",
"n) 	c #646A4B",
"o) 	c #5B6039",
"p) 	c #474F2C",
"q) 	c #2E391F",
"r) 	c #263119",
"s) 	c #29341A",
"t) 	c #31381F",
"u) 	c #3D412A",
"v) 	c #75756A",
"w) 	c #7F8178",
"x) 	c #61674F",
"y) 	c #4A522E",
"z) 	c #46502A",
"A) 	c #756E50",
"B) 	c #988D7B",
"C) 	c #78745C",
"D) 	c #6F6952",
"E) 	c #6E6D5A",
"F) 	c #484C36",
"G) 	c #4E5039",
"H) 	c #EAF3F3",
"I) 	c #A4C5C2",
"J) 	c #F8FDFC",
"K) 	c #F5FEFF",
"L) 	c #D4F0F5",
"M) 	c #9BB9BB",
"N) 	c #818671",
"O) 	c #7F7E61",
"P) 	c #535647",
"Q) 	c #4E4E42",
"R) 	c #73715F",
"S) 	c #86846F",
"T) 	c #888A77",
"U) 	c #8A9181",
"V) 	c #959894",
"W) 	c #999DA1",
"X) 	c #9C9FA4",
"Y) 	c #9C9FA7",
"Z) 	c #9CA0A8",
"`) 	c #A1A4AB",
" ! 	c #A0A2A9",
".! 	c #A3A3A8",
"+! 	c #9D9BA1",
"@! 	c #8A8480",
"#! 	c #5A4C43",
"$! 	c #524138",
"%! 	c #56433A",
"&! 	c #5A433C",
"*! 	c #5F4A42",
"=! 	c #6C5349",
"-! 	c #59423A",
";! 	c #5B4841",
">! 	c #58453B",
",! 	c #493730",
"'! 	c #59403B",
")! 	c #6F5047",
"!! 	c #816056",
"~! 	c #9A6E63",
"{! 	c #AC7E77",
"]! 	c #B2867B",
"^! 	c #C79A92",
"/! 	c #CCA29B",
"(! 	c #CFA79A",
"_! 	c #D3A89B",
":! 	c #DCB0A6",
"<! 	c #DFB4A6",
"[! 	c #DCB0A1",
"}! 	c #DDAFA0",
"|! 	c #E7B9A9",
"1! 	c #EABBAC",
"2! 	c #EDBEAF",
"3! 	c #E7B9AC",
"4! 	c #E9BEAE",
"5! 	c #DFB3A2",
"6! 	c #DAAA9A",
"7! 	c #D4A596",
"8! 	c #D6A999",
"9! 	c #C99D8D",
"0! 	c #C09483",
"a! 	c #A67A6A",
"b! 	c #956C59",
"c! 	c #876353",
"d! 	c #715547",
"e! 	c #4F3E37",
"f! 	c #463732",
"g! 	c #433733",
"h! 	c #3C332F",
"i! 	c #3E3331",
"j! 	c #3F3634",
"k! 	c #332A28",
"l! 	c #382F2D",
"m! 	c #322929",
"n! 	c #332D2D",
"o! 	c #3B3635",
"p! 	c #403C3B",
"q! 	c #46444A",
"r! 	c #959497",
"s! 	c #FAF9FA",
"t! 	c #E6F3F6",
"u! 	c #DEE7E6",
"v! 	c #FAFCFC",
"w! 	c #EFF8FC",
"x! 	c #859A9C",
"y! 	c #6D7B72",
"z! 	c #C5D8DB",
"A! 	c #D2E3EA",
"B! 	c #A5C3CA",
"C! 	c #8DA2A5",
"D! 	c #717B64",
"E! 	c #7B8D86",
"F! 	c #94AFB7",
"G! 	c #6B8587",
"H! 	c #42513C",
"I! 	c #39452B",
"J! 	c #394129",
"K! 	c #2F3720",
"L! 	c #2A301D",
"M! 	c #383F29",
"N! 	c #28351F",
"O! 	c #27351B",
"P! 	c #34411C",
"Q! 	c #5A5E3A",
"R! 	c #7A7458",
"S! 	c #4F513A",
"T! 	c #28311A",
"U! 	c #615D43",
"V! 	c #928977",
"W! 	c #7A7766",
"X! 	c #656647",
"Y! 	c #DDECED",
"Z! 	c #D2EBE9",
"`! 	c #F3FEFF",
" ~ 	c #D1EFF4",
".~ 	c #8EB1B9",
"+~ 	c #556362",
"@~ 	c #6E6E57",
"#~ 	c #757056",
"$~ 	c #6D6952",
"%~ 	c #747561",
"&~ 	c #757E6B",
"*~ 	c #848D81",
"=~ 	c #8E978E",
"-~ 	c #959A97",
";~ 	c #989CA0",
">~ 	c #999DA5",
",~ 	c #989CA7",
"'~ 	c #989CA8",
")~ 	c #969BA7",
"!~ 	c #9699A3",
"~~ 	c #9B9A9E",
"{~ 	c #8E8484",
"]~ 	c #6B5651",
"^~ 	c #524038",
"/~ 	c #5A463E",
"(~ 	c #5B453B",
"_~ 	c #634B43",
":~ 	c #624F48",
"<~ 	c #4A342B",
"[~ 	c #48342C",
"}~ 	c #42322D",
"|~ 	c #4C3C36",
"1~ 	c #40312B",
"2~ 	c #563F36",
"3~ 	c #6A4F43",
"4~ 	c #78524C",
"5~ 	c #916C61",
"6~ 	c #9C756F",
"7~ 	c #A97F75",
"8~ 	c #B98D85",
"9~ 	c #C39990",
"0~ 	c #D4A6A0",
"a~ 	c #D1A398",
"b~ 	c #D5A59D",
"c~ 	c #DCAD9F",
"d~ 	c #E0B0A2",
"e~ 	c #E3B6A8",
"f~ 	c #E3B6A9",
"g~ 	c #E4BBAB",
"h~ 	c #E8C1B1",
"i~ 	c #EFC1B2",
"j~ 	c #EEC2B2",
"k~ 	c #EDBDAD",
"l~ 	c #EBBEAD",
"m~ 	c #E4BAA7",
"n~ 	c #D5A596",
"o~ 	c #D0A393",
"p~ 	c #CFA495",
"q~ 	c #C49886",
"r~ 	c #BF9282",
"s~ 	c #BE9485",
"t~ 	c #AE8374",
"u~ 	c #9D7669",
"v~ 	c #906C5C",
"w~ 	c #84614D",
"x~ 	c #70584B",
"y~ 	c #473834",
"z~ 	c #332926",
"A~ 	c #372E2C",
"B~ 	c #342827",
"C~ 	c #362C2B",
"D~ 	c #342E2B",
"E~ 	c #342D2B",
"F~ 	c #3A3432",
"G~ 	c #3D3A37",
"H~ 	c #373232",
"I~ 	c #413F42",
"J~ 	c #939393",
"K~ 	c #FCFCFB",
"L~ 	c #FAFDFD",
"M~ 	c #90B3BF",
"N~ 	c #6B8382",
"O~ 	c #BBC5C1",
"P~ 	c #B7C2BD",
"Q~ 	c #6B736B",
"R~ 	c #A9B3AA",
"S~ 	c #F2FCFE",
"T~ 	c #A9C1BF",
"U~ 	c #6A7A63",
"V~ 	c #B2C5CB",
"W~ 	c #CFE4F2",
"X~ 	c #A4BBBF",
"Y~ 	c #939B9E",
"Z~ 	c #777F7C",
"`~ 	c #434B35",
" { 	c #2D351F",
".{ 	c #303A2B",
"+{ 	c #626C70",
"@{ 	c #75828A",
"#{ 	c #62716A",
"${ 	c #434F28",
"%{ 	c #494F2D",
"&{ 	c #515337",
"*{ 	c #3E4733",
"={ 	c #54594D",
"-{ 	c #5B6153",
";{ 	c #82806C",
">{ 	c #817E67",
",{ 	c #575D3B",
"'{ 	c #EBFAFA",
"){ 	c #F4FEFE",
"!{ 	c #F2FEFF",
"~{ 	c #D0EDF4",
"{{ 	c #8FB1BA",
"]{ 	c #6A736C",
"^{ 	c #696755",
"/{ 	c #63624A",
"({ 	c #595E48",
"_{ 	c #616B57",
":{ 	c #748073",
"<{ 	c #869088",
"[{ 	c #8F9891",
"}{ 	c #969C99",
"|{ 	c #9A9DA1",
"1{ 	c #9C9EA6",
"2{ 	c #9B9EA8",
"3{ 	c #9899A2",
"4{ 	c #9598A0",
"5{ 	c #908C8C",
"6{ 	c #63514A",
"7{ 	c #5F4A41",
"8{ 	c #665346",
"9{ 	c #5E4A41",
"0{ 	c #513D33",
"a{ 	c #59453C",
"b{ 	c #6C5551",
"c{ 	c #4B3733",
"d{ 	c #402E2A",
"e{ 	c #614F4E",
"f{ 	c #967673",
"g{ 	c #AE8D89",
"h{ 	c #B89290",
"i{ 	c #C49C96",
"j{ 	c #C59890",
"k{ 	c #D9AAA2",
"l{ 	c #DDB0AA",
"m{ 	c #E4B7AD",
"n{ 	c #E9BFB4",
"o{ 	c #EDBEB2",
"p{ 	c #ECBDB0",
"q{ 	c #EBBAAD",
"r{ 	c #EDBEB4",
"s{ 	c #EDBDB0",
"t{ 	c #EEBFB0",
"u{ 	c #EEC3B3",
"v{ 	c #EAC1B4",
"w{ 	c #EEC6B5",
"x{ 	c #F3C7B7",
"y{ 	c #F3C6B6",
"z{ 	c #F0C1B1",
"A{ 	c #E9B7A6",
"B{ 	c #E4B4A5",
"C{ 	c #E5B7A5",
"D{ 	c #E3B3A4",
"E{ 	c #DEAE9F",
"F{ 	c #DCAC9E",
"G{ 	c #D7AA9A",
"H{ 	c #D6AA9C",
"I{ 	c #D1A495",
"J{ 	c #CFA291",
"K{ 	c #CFA393",
"L{ 	c #BB9484",
"M{ 	c #A07869",
"N{ 	c #906759",
"O{ 	c #7B5B4E",
"P{ 	c #6D544D",
"Q{ 	c #4B3C35",
"R{ 	c #3D322C",
"S{ 	c #3B302B",
"T{ 	c #423632",
"U{ 	c #3A2F2D",
"V{ 	c #3E3430",
"W{ 	c #332927",
"X{ 	c #443B38",
"Y{ 	c #453E3C",
"Z{ 	c #393332",
"`{ 	c #3D3B3B",
" ] 	c #403F40",
".] 	c #A4A4A1",
"+] 	c #FEFDFC",
"@] 	c #84A4AD",
"#] 	c #34483D",
"$] 	c #374635",
"%] 	c #687261",
"&] 	c #CED7D1",
"*] 	c #F2F9F8",
"=] 	c #EBF8FC",
"-] 	c #91AAA3",
";] 	c #71806C",
">] 	c #C0D1D8",
",] 	c #B4D2D3",
"'] 	c #B3C1C8",
")] 	c #C9CCDA",
"!] 	c #969D9E",
"~] 	c #464E39",
"{] 	c #54584A",
"]] 	c #7F827A",
"^] 	c #B1B1B8",
"/] 	c #9B9EA0",
"(] 	c #55634C",
"_] 	c #38441F",
":] 	c #393F22",
"<] 	c #414732",
"[] 	c #969891",
"}] 	c #B4B0B0",
"|] 	c #B6AFAF",
"1] 	c #9F9A92",
"2] 	c #75735C",
"3] 	c #464C2C",
"4] 	c #ECFBFE",
"5] 	c #D1EAEF",
"6] 	c #A1B3B3",
"7] 	c #818274",
"8] 	c #757762",
"9] 	c #656852",
"0] 	c #4E5645",
"a] 	c #566155",
"b] 	c #727E74",
"c] 	c #879189",
"d] 	c #909891",
"e] 	c #979C99",
"f] 	c #9FA0A2",
"g] 	c #9F9FA3",
"h] 	c #9C9A9F",
"i] 	c #98969B",
"j] 	c #989598",
"k] 	c #8F8584",
"l] 	c #655447",
"m] 	c #564236",
"n] 	c #513C33",
"o] 	c #47352C",
"p] 	c #433027",
"q] 	c #49372D",
"r] 	c #4B3931",
"s] 	c #604948",
"t] 	c #8E7676",
"u] 	c #BEA29E",
"v] 	c #DEB9B2",
"w] 	c #E2B9B1",
"x] 	c #E0B7AD",
"y] 	c #E6BEB5",
"z] 	c #E7C1B8",
"A] 	c #EDC5BD",
"B] 	c #EEC1B9",
"C] 	c #EEC4B9",
"D] 	c #F1C5BA",
"E] 	c #F2C8BB",
"F] 	c #F6C7BB",
"G] 	c #F4C6B9",
"H] 	c #F6C7B9",
"I] 	c #F4C7B7",
"J] 	c #F5C7B9",
"K] 	c #F6C8B8",
"L] 	c #F5C7B7",
"M] 	c #F2C5B8",
"N] 	c #EAC2B2",
"O] 	c #EDBFB0",
"P] 	c #F4C8B7",
"Q] 	c #F4C3B4",
"R] 	c #EDBDAC",
"S] 	c #ECBDAC",
"T] 	c #ECBCA9",
"U] 	c #EEBFAE",
"V] 	c #ECBDAB",
"W] 	c #EABDAC",
"X] 	c #E3B8A8",
"Y] 	c #E0B4A5",
"Z] 	c #E1B4A2",
"`] 	c #DEB0A1",
" ^ 	c #DBAC9C",
".^ 	c #D7A89A",
"+^ 	c #DAAD9D",
"@^ 	c #D6AB9B",
"#^ 	c #CA9F8D",
"$^ 	c #B08777",
"%^ 	c #A68071",
"&^ 	c #856556",
"*^ 	c #61493D",
"=^ 	c #544038",
"-^ 	c #4A3D37",
";^ 	c #4C3F39",
">^ 	c #3D302D",
",^ 	c #413532",
"'^ 	c #37322F",
")^ 	c #35312F",
"!^ 	c #383536",
"~^ 	c #565253",
"{^ 	c #BDBDBA",
"]^ 	c #D5E8ED",
"^^ 	c #557D83",
"/^ 	c #39534E",
"(^ 	c #2D3924",
"_^ 	c #323E27",
":^ 	c #434F3B",
"<^ 	c #809180",
"[^ 	c #B1C1B9",
"}^ 	c #819185",
"|^ 	c #6F7969",
"1^ 	c #ACC0C0",
"2^ 	c #BCCFD9",
"3^ 	c #D0DAE8",
"4^ 	c #AFBABD",
"5^ 	c #7C7F73",
"6^ 	c #79786F",
"7^ 	c #878076",
"8^ 	c #989387",
"9^ 	c #9A978F",
"0^ 	c #576247",
"a^ 	c #2E3D1D",
"b^ 	c #313E1F",
"c^ 	c #576050",
"d^ 	c #787C73",
"e^ 	c #B4AFA9",
"f^ 	c #BDB7B5",
"g^ 	c #AEAAA0",
"h^ 	c #8B8978",
"i^ 	c #4B533B",
"j^ 	c #DEF0F0",
"k^ 	c #B7C7BF",
"l^ 	c #939C96",
"m^ 	c #7E8170",
"n^ 	c #656A55",
"o^ 	c #44493C",
"p^ 	c #2F3733",
"q^ 	c #525C55",
"r^ 	c #727E75",
"s^ 	c #919992",
"t^ 	c #969A98",
"u^ 	c #9E9D9F",
"v^ 	c #9D9497",
"w^ 	c #998F8E",
"x^ 	c #92847F",
"y^ 	c #705B51",
"z^ 	c #5D4538",
"A^ 	c #4D3A2F",
"B^ 	c #45322B",
"C^ 	c #3C2B23",
"D^ 	c #3F2D25",
"E^ 	c #42312C",
"F^ 	c #8B7778",
"G^ 	c #D0AFAA",
"H^ 	c #E6C1B9",
"I^ 	c #EBC3B9",
"J^ 	c #EDC3BA",
"K^ 	c #E9BDB4",
"L^ 	c #ECC1B9",
"M^ 	c #EEC4BC",
"N^ 	c #F2CCC0",
"O^ 	c #F3CBBC",
"P^ 	c #F3C9BA",
"Q^ 	c #F6CCBD",
"R^ 	c #F6CCC0",
"S^ 	c #F8CDC2",
"T^ 	c #F7C8BA",
"U^ 	c #F8CABB",
"V^ 	c #F9CBBE",
"W^ 	c #FACABB",
"X^ 	c #FACABC",
"Y^ 	c #F9CBBC",
"Z^ 	c #F6CCBC",
"`^ 	c #F5CABC",
" / 	c #F3CABB",
"./ 	c #F2C4B6",
"+/ 	c #F1C2B2",
"@/ 	c #F0C0B0",
"#/ 	c #EEBFAD",
"$/ 	c #EBBEA9",
"%/ 	c #EDBFAE",
"&/ 	c #ECC1B0",
"*/ 	c #E9BCA9",
"=/ 	c #E4BAA8",
"-/ 	c #E8BDAD",
";/ 	c #ECBFAC",
">/ 	c #EABEAB",
",/ 	c #E9BBAB",
"'/ 	c #EABAAA",
")/ 	c #EABAA9",
"!/ 	c #E5B7A7",
"~/ 	c #D4A899",
"{/ 	c #C4988A",
"]/ 	c #B6897A",
"^/ 	c #A37E73",
"// 	c #8B6D61",
"(/ 	c #806359",
"_/ 	c #533F38",
":/ 	c #463735",
"</ 	c #453634",
"[/ 	c #443B36",
"}/ 	c #302B28",
"|/ 	c #2E2A27",
"1/ 	c #3B3636",
"2/ 	c #3B3839",
"3/ 	c #4C4A50",
"4/ 	c #E3E3E4",
"5/ 	c #F3FAFB",
"6/ 	c #BED4DD",
"7/ 	c #3C4F4A",
"8/ 	c #334238",
"9/ 	c #333D26",
"0/ 	c #485134",
"a/ 	c #646B51",
"b/ 	c #585F4C",
"c/ 	c #8BA09E",
"d/ 	c #A1BDC0",
"e/ 	c #A8BBBD",
"f/ 	c #99AAA5",
"g/ 	c #5C6A51",
"h/ 	c #727458",
"i/ 	c #6D6E55",
"j/ 	c #4A4D31",
"k/ 	c #545B37",
"l/ 	c #4A582F",
"m/ 	c #31421D",
"n/ 	c #2E4024",
"o/ 	c #777971",
"p/ 	c #AAAAAF",
"q/ 	c #B2B0B6",
"r/ 	c #97958C",
"s/ 	c #918E7C",
"t/ 	c #A8A59B",
"u/ 	c #A2A0A0",
"v/ 	c #646754",
"w/ 	c #989384",
"x/ 	c #D0E7EC",
"y/ 	c #AEC0BF",
"z/ 	c #89958E",
"A/ 	c #586353",
"B/ 	c #333D36",
"C/ 	c #28312C",
"D/ 	c #2C3531",
"E/ 	c #566058",
"F/ 	c #6F7F75",
"G/ 	c #919893",
"H/ 	c #969B99",
"I/ 	c #989C9D",
"J/ 	c #959492",
"K/ 	c #8F8885",
"L/ 	c #90807A",
"M/ 	c #796659",
"N/ 	c #584238",
"O/ 	c #402E26",
"P/ 	c #47362E",
"Q/ 	c #4F3D35",
"R/ 	c #88726F",
"S/ 	c #CAADAA",
"T/ 	c #E6C2BB",
"U/ 	c #EAC4BA",
"V/ 	c #E9C1B4",
"W/ 	c #E7BEB3",
"X/ 	c #ECC1B7",
"Y/ 	c #F0C4BB",
"Z/ 	c #F1C6BE",
"`/ 	c #F3CBC1",
" ( 	c #F4CEBF",
".( 	c #F5CDBF",
"+( 	c #F6CDBF",
"@( 	c #F5CCBC",
"#( 	c #F5CBBD",
"$( 	c #F4C7B9",
"%( 	c #F8CBBD",
"&( 	c #F6C9BA",
"*( 	c #F8CABC",
"=( 	c #F7C9BB",
"-( 	c #F9CBBD",
";( 	c #F9CCBD",
">( 	c #F5CBBC",
",( 	c #F2CABB",
"'( 	c #F4C9BA",
")( 	c #F6C7B8",
"!( 	c #F4C4B3",
"~( 	c #F2C4B4",
"{( 	c #F0C3B1",
"]( 	c #F0C7B3",
"^( 	c #EEC5B1",
"/( 	c #EFC4B1",
"(( 	c #EDC2AF",
"_( 	c #EDC0AE",
":( 	c #ECBEAE",
"<( 	c #EFBFAB",
"[( 	c #EFC0AF",
"}( 	c #EFC1B0",
"|( 	c #ECC1AE",
"1( 	c #EDBDAE",
"2( 	c #E5B6A6",
"3( 	c #DBB0A0",
"4( 	c #D6AC9B",
"5( 	c #CBA393",
"6( 	c #C29A8B",
"7( 	c #B78E7C",
"8( 	c #AF8B7B",
"9( 	c #9A7769",
"0( 	c #8A6B61",
"a( 	c #6B5856",
"b( 	c #372D2C",
"c( 	c #2F2A27",
"d( 	c #312C29",
"e( 	c #2F2B28",
"f( 	c #2A2827",
"g( 	c #373538",
"h( 	c #868586",
"i( 	c #E1EFF1",
"j( 	c #A0ADB8",
"k( 	c #8D98AD",
"l( 	c #313F2C",
"m( 	c #495340",
"n( 	c #61654D",
"o( 	c #5F6C59",
"p( 	c #C1D5D7",
"q( 	c #D0EAF4",
"r( 	c #ADC9D2",
"s( 	c #849396",
"t( 	c #6C7768",
"u( 	c #666D55",
"v( 	c #6C725C",
"w( 	c #5F6851",
"x( 	c #4B5930",
"y( 	c #3E4D24",
"z( 	c #2E411F",
"A( 	c #687671",
"B( 	c #A9A5B0",
"C( 	c #B2B1B9",
"D( 	c #A0A19C",
"E( 	c #938D85",
"F( 	c #A79C8F",
"G( 	c #C9C0BD",
"H( 	c #AEACA8",
"I( 	c #9A9581",
"J( 	c #F4FCFE",
"K( 	c #D2EBEC",
"L( 	c #A6C2C8",
"M( 	c #758D94",
"N( 	c #404E4F",
"O( 	c #2A3330",
"P( 	c #28312E",
"Q( 	c #2D3632",
"R( 	c #576159",
"S( 	c #708076",
"T( 	c #87928A",
"U( 	c #929994",
"V( 	c #979B9A",
"W( 	c #919493",
"X( 	c #8A8986",
"Y( 	c #857972",
"Z( 	c #7C695D",
"`( 	c #5E4A3B",
" _ 	c #503C32",
"._ 	c #57463F",
"+_ 	c #5E4640",
"@_ 	c #B69893",
"#_ 	c #E6C3BC",
"$_ 	c #EDC8C1",
"%_ 	c #ECC7BE",
"&_ 	c #EAC3B9",
"*_ 	c #ECC4B8",
"=_ 	c #EEC7BA",
"-_ 	c #EFC7BB",
";_ 	c #F2C7BB",
">_ 	c #F4CABF",
",_ 	c #F6CBC1",
"'_ 	c #F4CCC0",
")_ 	c #F6CEC4",
"!_ 	c #F8CFC3",
"~_ 	c #F7CEBF",
"{_ 	c #F7CEC4",
"]_ 	c #FACCC0",
"^_ 	c #F8CDC0",
"/_ 	c #F8CEBF",
"(_ 	c #F9D1C4",
"__ 	c #FACFC1",
":_ 	c #F8CFC2",
"<_ 	c #F5CFC1",
"[_ 	c #F3CDBF",
"}_ 	c #F6CDBD",
"|_ 	c #F6C8B7",
"1_ 	c #F2C6B3",
"2_ 	c #F3C7B5",
"3_ 	c #EEC3B1",
"4_ 	c #EFC6B4",
"5_ 	c #EFC2B2",
"6_ 	c #F1C3B2",
"7_ 	c #F0C1B0",
"8_ 	c #EFC1AD",
"9_ 	c #EFBFAC",
"0_ 	c #F1C1B0",
"a_ 	c #F1C0AF",
"b_ 	c #F1C2B0",
"c_ 	c #EFC1AE",
"d_ 	c #EDBEAC",
"e_ 	c #ECBEAC",
"f_ 	c #E6B7A4",
"g_ 	c #E3B4A2",
"h_ 	c #DDB2A0",
"i_ 	c #DAB19E",
"j_ 	c #D3AB99",
"k_ 	c #CDA695",
"l_ 	c #CAA491",
"m_ 	c #CAA694",
"n_ 	c #C7A597",
"o_ 	c #A78C81",
"p_ 	c #534642",
"q_ 	c #332E2B",
"r_ 	c #2E2926",
"s_ 	c #302D2A",
"t_ 	c #2C2A2A",
"u_ 	c #454245",
"v_ 	c #C6C6C6",
"w_ 	c #DFEDEF",
"x_ 	c #88938A",
"y_ 	c #7C8981",
"z_ 	c #859998",
"A_ 	c #B7C6D3",
"B_ 	c #5D6757",
"C_ 	c #464D39",
"D_ 	c #A4B8AE",
"E_ 	c #D5EBF5",
"F_ 	c #D9EDF7",
"G_ 	c #CEDAE7",
"H_ 	c #C2C6CD",
"I_ 	c #B8B6B6",
"J_ 	c #A8A6A4",
"K_ 	c #858A76",
"L_ 	c #4C5E33",
"M_ 	c #33421B",
"N_ 	c #47513E",
"O_ 	c #95979D",
"P_ 	c #989A9B",
"Q_ 	c #ABA6A3",
"R_ 	c #A49D90",
"S_ 	c #BCB1A8",
"T_ 	c #D1C6C1",
"U_ 	c #ACA89E",
"V_ 	c #87857F",
"W_ 	c #83826A",
"X_ 	c #F1FCFD",
"Y_ 	c #D8F1FA",
"Z_ 	c #C3E1EA",
"`_ 	c #7EA0A8",
" : 	c #3E4D4F",
".: 	c #262F2C",
"+: 	c #555F57",
"@: 	c #758179",
"#: 	c #889289",
"$: 	c #929993",
"%: 	c #989B98",
"&: 	c #909392",
"*: 	c #84827C",
"=: 	c #7F6F65",
"-: 	c #665043",
";: 	c #433026",
">: 	c #46332B",
",: 	c #412F28",
"': 	c #624A45",
"): 	c #B99A95",
"!: 	c #EBC5BD",
"~: 	c #EAC3BC",
"{: 	c #F0C9BD",
"]: 	c #F0C9BE",
"^: 	c #EDC7BD",
"/: 	c #EDC5BB",
"(: 	c #EFC8BC",
"_: 	c #F1CABE",
":: 	c #F3CABF",
"<: 	c #F4CDC3",
"[: 	c #F4CBBE",
"}: 	c #F6CEC3",
"|: 	c #F7CEC6",
"1: 	c #FAD2CA",
"2: 	c #FAD2CB",
"3: 	c #FCD2CA",
"4: 	c #FBD2CA",
"5: 	c #FBD2C8",
"6: 	c #FAD2C7",
"7: 	c #F8D2C3",
"8: 	c #F7CFC3",
"9: 	c #F7CEC1",
"0: 	c #F5CEC0",
"a: 	c #F8CEBE",
"b: 	c #F8CDBD",
"c: 	c #F5C9BA",
"d: 	c #F2C7B5",
"e: 	c #F1C6B5",
"f: 	c #F0C4B3",
"g: 	c #EEC4B1",
"h: 	c #F1C3B1",
"i: 	c #F2C3B1",
"j: 	c #EFBEAB",
"k: 	c #F0BFAE",
"l: 	c #F2C2B0",
"m: 	c #F1C2AF",
"n: 	c #F0C2B0",
"o: 	c #EFC1AF",
"p: 	c #ECBEAB",
"q: 	c #EABAA6",
"r: 	c #E7B8A6",
"s: 	c #E2B7A4",
"t: 	c #E0B6A2",
"u: 	c #DBAF9B",
"v: 	c #D4AD9B",
"w: 	c #D0AA97",
"x: 	c #D0A896",
"y: 	c #D1AD9B",
"z: 	c #CFAB99",
"A: 	c #B9988A",
"B: 	c #7C645B",
"C: 	c #463935",
"D: 	c #393531",
"E: 	c #373534",
"F: 	c #3F3C3D",
"G: 	c #717171",
"H: 	c #CBDAD9",
"I: 	c #59675A",
"J: 	c #99A9AA",
"K: 	c #EBF1F7",
"L: 	c #D5E5EA",
"M: 	c #889EA7",
"N: 	c #414938",
"O: 	c #5B6657",
"P: 	c #BCD0D1",
"Q: 	c #D9EAF3",
"R: 	c #D9E3EC",
"S: 	c #D7D7DB",
"T: 	c #CDC9CA",
"U: 	c #A0A598",
"V: 	c #5A6644",
"W: 	c #445230",
"X: 	c #474E39",
"Y: 	c #464B32",
"Z: 	c #787B75",
"`: 	c #999DA7",
" < 	c #B7B7C0",
".< 	c #AAAAA8",
"+< 	c #767B67",
"@< 	c #B7B4B4",
"#< 	c #C2BEBC",
"$< 	c #9E9E99",
"%< 	c #AEACAF",
"&< 	c #858981",
"*< 	c #E9FBFF",
"=< 	c #C4E5EB",
"-< 	c #7B9EA5",
";< 	c #3D4B4D",
">< 	c #2A3332",
",< 	c #27302D",
"'< 	c #2E3733",
")< 	c #545E56",
"!< 	c #768078",
"~< 	c #8B958D",
"{< 	c #929A93",
"]< 	c #979A97",
"^< 	c #8F9391",
"/< 	c #847F77",
"(< 	c #725F53",
"_< 	c #4E392E",
":< 	c #47352B",
"<< 	c #49362D",
"[< 	c #6E564D",
"}< 	c #AC8C86",
"|< 	c #ECC4BA",
"1< 	c #EFC8BF",
"2< 	c #F0C9BB",
"3< 	c #F0CABF",
"4< 	c #EDC5BC",
"5< 	c #EEC6BC",
"6< 	c #F0CAC0",
"7< 	c #F3CCC2",
"8< 	c #F4CCC3",
"9< 	c #F4CDC0",
"0< 	c #F6CEC2",
"a< 	c #F8D2C8",
"b< 	c #FBD6CE",
"c< 	c #FCD9D1",
"d< 	c #FCDCD5",
"e< 	c #FDD9CF",
"f< 	c #FCD9D0",
"g< 	c #FDD8D0",
"h< 	c #FCD7CE",
"i< 	c #FBD4CB",
"j< 	c #FAD4CB",
"k< 	c #F7D3C9",
"l< 	c #F3CEC4",
"m< 	c #F6CCBE",
"n< 	c #F4CCBC",
"o< 	c #F4CBB9",
"p< 	c #F4CAB9",
"q< 	c #F3C8B7",
"r< 	c #F4C6B6",
"s< 	c #F1C5B1",
"t< 	c #F1C3B0",
"u< 	c #F1C4B1",
"v< 	c #F3C5B1",
"w< 	c #F3C4B0",
"x< 	c #F2C4B1",
"y< 	c #F0C2AE",
"z< 	c #F1C1AE",
"A< 	c #F1C0AE",
"B< 	c #F0BFAF",
"C< 	c #EEBEAD",
"D< 	c #EDBFAC",
"E< 	c #EBBCAA",
"F< 	c #E8B9A7",
"G< 	c #E5B8A5",
"H< 	c #E3B5A1",
"I< 	c #DFB49F",
"J< 	c #D4AE9B",
"K< 	c #D1A998",
"L< 	c #D2A998",
"M< 	c #D0AB98",
"N< 	c #CEAA97",
"O< 	c #C6A294",
"P< 	c #9D8175",
"Q< 	c #5E4943",
"R< 	c #2D2624",
"S< 	c #2B2828",
"T< 	c #2D2E30",
"U< 	c #C9C9C8",
"V< 	c #FEFEFE",
"W< 	c #D1DFDC",
"X< 	c #6A7970",
"Y< 	c #607067",
"Z< 	c #E7EEF0",
"`< 	c #D5E8F4",
" [ 	c #C1D6DF",
".[ 	c #607775",
"+[ 	c #394535",
"@[ 	c #788878",
"#[ 	c #C7CFD0",
"$[ 	c #DBE0E8",
"%[ 	c #D7D5D9",
"&[ 	c #C8C2C2",
"*[ 	c #727D64",
"=[ 	c #425028",
"-[ 	c #606650",
";[ 	c #797875",
">[ 	c #5C615B",
",[ 	c #666B60",
"'[ 	c #A7ABB7",
")[ 	c #AFB5C1",
"![ 	c #747E7B",
"~[ 	c #737974",
"{[ 	c #B7B6BC",
"][ 	c #ADAFB3",
"^[ 	c #959A99",
"/[ 	c #B2B6BC",
"([ 	c #9EA4AB",
"_[ 	c #FBFFFF",
":[ 	c #E8FBFF",
"<[ 	c #C2E4E9",
"[[ 	c #789CA4",
"}[ 	c #3A4A4E",
"|[ 	c #2E3735",
"1[ 	c #59625B",
"2[ 	c #78827A",
"3[ 	c #889089",
"4[ 	c #939993",
"5[ 	c #989B97",
"6[ 	c #91928E",
"7[ 	c #86796E",
"8[ 	c #5F4C3E",
"9[ 	c #4E3A2F",
"0[ 	c #4B3930",
"a[ 	c #5A453A",
"b[ 	c #9A7B73",
"c[ 	c #DAB3AC",
"d[ 	c #ECC3B9",
"e[ 	c #F1C5BF",
"f[ 	c #F2CAC0",
"g[ 	c #F1C9BF",
"h[ 	c #EFC7BD",
"i[ 	c #F0C8BF",
"j[ 	c #F0C8C0",
"k[ 	c #F2CCC3",
"l[ 	c #F5CFC4",
"m[ 	c #F3CCC3",
"n[ 	c #F6CEC5",
"o[ 	c #F7CFC7",
"p[ 	c #FBD7CE",
"q[ 	c #FDDAD3",
"r[ 	c #FDDCD4",
"s[ 	c #FEDDD4",
"t[ 	c #FDDDD5",
"u[ 	c #FDD9D1",
"v[ 	c #FCD8D1",
"w[ 	c #FCD4C9",
"x[ 	c #FCD5CD",
"y[ 	c #FAD5CC",
"z[ 	c #FAD5C7",
"A[ 	c #F7D2C7",
"B[ 	c #F5D0C4",
"C[ 	c #F5CDBD",
"D[ 	c #F5CBB9",
"E[ 	c #F2CCBC",
"F[ 	c #F3C9B9",
"G[ 	c #F3C6B5",
"H[ 	c #F5C7B5",
"I[ 	c #F4C7B4",
"J[ 	c #F3C4B3",
"K[ 	c #F2C5B1",
"L[ 	c #F3C6B2",
"M[ 	c #F1C2AE",
"N[ 	c #F0C2B1",
"O[ 	c #EFC2B1",
"P[ 	c #EEC1B0",
"Q[ 	c #EDC1AE",
"R[ 	c #EBBEAC",
"S[ 	c #E7BAA8",
"T[ 	c #E5B9A6",
"U[ 	c #E3B3A0",
"V[ 	c #E1B5A3",
"W[ 	c #DEB29F",
"X[ 	c #D8B19E",
"Y[ 	c #D1AA98",
"Z[ 	c #D0AB96",
"`[ 	c #CFAA98",
" } 	c #C9A699",
".} 	c #9D7E75",
"+} 	c #58443B",
"@} 	c #2D2C2B",
"#} 	c #61605E",
"$} 	c #F1F2F0",
"%} 	c #BECECB",
"&} 	c #667669",
"*} 	c #62695B",
"=} 	c #505E50",
"-} 	c #D7E0E1",
";} 	c #E2F1FB",
">} 	c #DFEBF7",
",} 	c #AFC9C5",
"'} 	c #ACCBD0",
")} 	c #86A5A8",
"!} 	c #50655A",
"~} 	c #939689",
"{} 	c #D4D5D6",
"]} 	c #D8D4D8",
"^} 	c #C4BFBE",
"/} 	c #617057",
"(} 	c #495031",
"_} 	c #787D70",
":} 	c #A4A5AE",
"<} 	c #9CA2B2",
"[} 	c #5D6B6E",
"}} 	c #787C71",
"|} 	c #85908F",
"1} 	c #4B5343",
"2} 	c #979999",
"3} 	c #B5B8BD",
"4} 	c #9B9FA3",
"5} 	c #999FA1",
"6} 	c #B1B8BD",
"7} 	c #ADB2B8",
"8} 	c #F9FFFF",
"9} 	c #E5FBFE",
"0} 	c #C1E2E9",
"a} 	c #759AA1",
"b} 	c #37494B",
"c} 	c #293230",
"d} 	c #393F3A",
"e} 	c #616860",
"f} 	c #78837B",
"g} 	c #8E948D",
"h} 	c #939892",
"i} 	c #969793",
"j} 	c #8F8D86",
"k} 	c #79685B",
"l} 	c #4D3A2E",
"m} 	c #46342B",
"n} 	c #7E6255",
"o} 	c #C39F97",
"p} 	c #E7C2B9",
"q} 	c #EFC6BF",
"r} 	c #F1C8C1",
"s} 	c #F0C6BD",
"t} 	c #F0C7BE",
"u} 	c #F1C8BF",
"v} 	c #F2CCC4",
"w} 	c #F3CDC4",
"x} 	c #F3CEC5",
"y} 	c #F5CEC5",
"z} 	c #F7D1C8",
"A} 	c #F9D3CA",
"B} 	c #F9D5CC",
"C} 	c #FBD8CF",
"D} 	c #FDD9CE",
"E} 	c #FDD8CE",
"F} 	c #FDD7CD",
"G} 	c #FDD8CF",
"H} 	c #FDD6CD",
"I} 	c #FBD5CA",
"J} 	c #FBD5CB",
"K} 	c #FAD4C5",
"L} 	c #F7D2C4",
"M} 	c #F4CFC2",
"N} 	c #F2CDBE",
"O} 	c #F3CBB9",
"P} 	c #F1CBB9",
"Q} 	c #F4CABA",
"R} 	c #F6C6B6",
"S} 	c #F5C4B3",
"T} 	c #F3C7B4",
"U} 	c #F4C6B5",
"V} 	c #F2C6B2",
"W} 	c #F3C4B1",
"X} 	c #F2C5B2",
"Y} 	c #F1C4AF",
"Z} 	c #EFC3B2",
"`} 	c #ECC4B1",
" | 	c #ECC3B1",
".| 	c #EBC2B0",
"+| 	c #EBBEAE",
"@| 	c #E3B5A2",
"#| 	c #E0B3A2",
"$| 	c #D7B09D",
"%| 	c #D5AF9C",
"&| 	c #D3AC99",
"*| 	c #D1AB99",
"=| 	c #D1AC9B",
"-| 	c #BC978C",
";| 	c #7F6259",
">| 	c #57453A",
",| 	c #2F2B2A",
"'| 	c #2E2B2C",
")| 	c #60635D",
"!| 	c #6D786F",
"~| 	c #7C8480",
"{| 	c #65736D",
"]| 	c #4A5D50",
"^| 	c #A8B9BB",
"/| 	c #DAE8F9",
"(| 	c #BDCCD8",
"_| 	c #97B2AA",
":| 	c #CDEAEB",
"<| 	c #CBE8EF",
"[| 	c #ABC9D1",
"}| 	c #7A918B",
"|| 	c #B8B4AB",
"1| 	c #D2CACC",
"2| 	c #B4ACA7",
"3| 	c #5D614A",
"4| 	c #494F33",
"5| 	c #959891",
"6| 	c #B9BBC5",
"7| 	c #AEB5C5",
"8| 	c #93A0B0",
"9| 	c #4A5451",
"0| 	c #3F462F",
"a| 	c #797465",
"b| 	c #B7B4B2",
"c| 	c #BCBBBB",
"d| 	c #9A9D98",
"e| 	c #B0B1AE",
"f| 	c #BDBFC0",
"g| 	c #ADAEAF",
"h| 	c #F9FCFE",
"i| 	c #E6F3F8",
"j| 	c #F3FBFE",
"k| 	c #F8FFFF",
"l| 	c #BEE1E7",
"m| 	c #72969D",
"n| 	c #374648",
"o| 	c #2E3632",
"p| 	c #50544D",
"q| 	c #646962",
"r| 	c #7C867E",
"s| 	c #8B938B",
"t| 	c #999A98",
"u| 	c #89837D",
"v| 	c #655245",
"w| 	c #423027",
"x| 	c #372820",
"y| 	c #624E45",
"z| 	c #A48374",
"A| 	c #D9B4AC",
"B| 	c #ECC8BF",
"C| 	c #F2CBC2",
"D| 	c #F0C9C1",
"E| 	c #F1C8BE",
"F| 	c #EFC7BF",
"G| 	c #F3CCC4",
"H| 	c #F2CDC5",
"I| 	c #F2CDC4",
"J| 	c #F4CEC5",
"K| 	c #F5CFC6",
"L| 	c #F5CEC3",
"M| 	c #F6CFC5",
"N| 	c #F8D0C8",
"O| 	c #F8D1C9",
"P| 	c #F9D1C7",
"Q| 	c #F9D2CA",
"R| 	c #FCD6CC",
"S| 	c #FCD4C8",
"T| 	c #FCD6CB",
"U| 	c #FAD4C9",
"V| 	c #F8D1C7",
"W| 	c #F9D1C5",
"X| 	c #F7D1C1",
"Y| 	c #F8CFC0",
"Z| 	c #F3CDBD",
"`| 	c #F1CCBF",
" 1 	c #EFC9B7",
".1 	c #F0CAB8",
"+1 	c #F2C9B7",
"@1 	c #F3C5B3",
"#1 	c #F2C4B2",
"$1 	c #F2C4B0",
"%1 	c #F0C4B1",
"&1 	c #EFC2AF",
"*1 	c #EFC0AA",
"=1 	c #F2C3B0",
"-1 	c #F2C3AF",
";1 	c #EDC6B3",
">1 	c #EEC6B4",
",1 	c #EDC4B3",
"'1 	c #EAC2B1",
")1 	c #EAC0AE",
"!1 	c #E7BDAB",
"~1 	c #E6B9A8",
"{1 	c #E0B6A4",
"]1 	c #DDB19F",
"^1 	c #D9B09E",
"/1 	c #D4AF9B",
"(1 	c #D4AC99",
"_1 	c #D5AD9A",
":1 	c #D4AC9A",
"<1 	c #D0AA98",
"[1 	c #CAA498",
"}1 	c #9D8072",
"|1 	c #6B5447",
"11 	c #493B33",
"21 	c #292522",
"31 	c #383431",
"41 	c #BEC7CE",
"51 	c #CADAE7",
"61 	c #CDDEEF",
"71 	c #8EA6B4",
"81 	c #A9B8BA",
"91 	c #CEDAE6",
"01 	c #7E8E8A",
"a1 	c #9FBEB7",
"b1 	c #D0EEEF",
"c1 	c #D7F4F7",
"d1 	c #D6EEF5",
"e1 	c #BCD0D9",
"f1 	c #828B82",
"g1 	c #9A9186",
"h1 	c #666752",
"i1 	c #374126",
"j1 	c #6E725E",
"k1 	c #AFADAC",
"l1 	c #BCBEC7",
"m1 	c #AEB5C4",
"n1 	c #A2AFBE",
"o1 	c #5A6265",
"p1 	c #444732",
"q1 	c #8B8372",
"r1 	c #C7BBB4",
"s1 	c #C4BCB9",
"t1 	c #A9A396",
"u1 	c #C9BEBA",
"v1 	c #C1BAB5",
"w1 	c #AAA49A",
"x1 	c #F5FDFE",
"y1 	c #F8FCFE",
"z1 	c #E3FAFE",
"A1 	c #BCDFE4",
"B1 	c #709197",
"C1 	c #374446",
"D1 	c #293130",
"E1 	c #4A504A",
"F1 	c #414641",
"G1 	c #5D665F",
"H1 	c #79847B",
"I1 	c #8A938B",
"J1 	c #949691",
"K1 	c #999A95",
"L1 	c #83736B",
"M1 	c #4F3F31",
"N1 	c #3C2D24",
"O1 	c #46342D",
"P1 	c #86695C",
"Q1 	c #B7968A",
"R1 	c #EFC9C0",
"S1 	c #EFC9BE",
"T1 	c #F1CAC2",
"U1 	c #F4CDC5",
"V1 	c #F3CDC5",
"W1 	c #F5CDC2",
"X1 	c #F7D0C6",
"Y1 	c #F9CFC5",
"Z1 	c #F6C9BB",
"`1 	c #F8D0C3",
" 2 	c #F8D1C2",
".2 	c #F6CFC2",
"+2 	c #F3CBBA",
"@2 	c #F4CCBA",
"#2 	c #F2CCBA",
"$2 	c #EFCAB9",
"%2 	c #EEC8B6",
"&2 	c #F0C7B5",
"*2 	c #F1C5B3",
"=2 	c #F0C6B2",
"-2 	c #F0C6B0",
";2 	c #F0C5B2",
">2 	c #EDC1AB",
",2 	c #EFC1AC",
"'2 	c #EFC2AD",
")2 	c #F0C3AF",
"!2 	c #F0C3B0",
"~2 	c #EEC5B2",
"{2 	c #EEC4B2",
"]2 	c #EBC5B2",
"^2 	c #ECC4B3",
"/2 	c #ECC3B2",
"(2 	c #EAC3B0",
"_2 	c #E8C1AE",
":2 	c #E5BCAA",
"<2 	c #E2BAA7",
"[2 	c #DDB4A2",
"}2 	c #D9B2A1",
"|2 	c #D4AD99",
"12 	c #D5AE9B",
"22 	c #D6AD9B",
"32 	c #D4AB9A",
"42 	c #D1AC99",
"52 	c #B79484",
"62 	c #816555",
"72 	c #503E34",
"82 	c #302924",
"92 	c #2A2623",
"02 	c #BCB9B6",
"a2 	c #FBFDFD",
"b2 	c #F4FBFE",
"c2 	c #C0D1E5",
"d2 	c #758884",
"e2 	c #6E776D",
"f2 	c #4E5F51",
"g2 	c #AECECC",
"h2 	c #CFEBED",
"i2 	c #CDE7E7",
"j2 	c #CCDDDE",
"k2 	c #B1BFBE",
"l2 	c #5E6B5E",
"m2 	c #60614A",
"n2 	c #5F624D",
"o2 	c #636950",
"p2 	c #9B9890",
"q2 	c #B5B3B2",
"r2 	c #B8B7BF",
"s2 	c #A9B0BE",
"t2 	c #8E99A6",
"u2 	c #545B50",
"v2 	c #9F9890",
"w2 	c #A6A19A",
"x2 	c #B2AB98",
"y2 	c #BCB2AB",
"z2 	c #B4AA9E",
"A2 	c #CBBDB8",
"B2 	c #B4A99D",
"C2 	c #C2B1AC",
"D2 	c #F7FDFE",
"E2 	c #F6FFFF",
"F2 	c #E2F9FD",
"G2 	c #BADDE2",
"H2 	c #6D8D95",
"I2 	c #364243",
"J2 	c #3E4443",
"K2 	c #3D4240",
"L2 	c #353E39",
"M2 	c #5D6660",
"N2 	c #7A857D",
"O2 	c #8E958E",
"P2 	c #979994",
"Q2 	c #94938F",
"R2 	c #6B5D50",
"S2 	c #423429",
"T2 	c #3A2B23",
"U2 	c #6E524A",
"V2 	c #A27F72",
"W2 	c #CFABA1",
"X2 	c #ECC5BB",
"Y2 	c #EDC7BC",
"Z2 	c #F1CBC2",
"`2 	c #F1CCC3",
" 3 	c #F1CBBF",
".3 	c #EFC7B9",
"+3 	c #F0C7B9",
"@3 	c #F2C8BA",
"#3 	c #F3CCBD",
"$3 	c #F4CCBE",
"%3 	c #F4CBBC",
"&3 	c #F5CABB",
"*3 	c #F3CBBB",
"=3 	c #F5CDC0",
"-3 	c #F2C8B8",
";3 	c #F1C7B5",
">3 	c #EFC7B4",
",3 	c #EEC7B3",
"'3 	c #EAC1AC",
")3 	c #EDC7B4",
"!3 	c #EDC6B4",
"~3 	c #EDC4B2",
"{3 	c #F0C3AE",
"]3 	c #EDC1AF",
"^3 	c #EBC2AE",
"/3 	c #ECBFA9",
"(3 	c #EDC0AB",
"_3 	c #EDC0AA",
":3 	c #EEC1AC",
"<3 	c #ECC3B3",
"[3 	c #EBC4B3",
"}3 	c #E9C1AF",
"|3 	c #E6C0AD",
"13 	c #E4BDAB",
"23 	c #E2B8A5",
"33 	c #DEB4A2",
"43 	c #D8B29F",
"53 	c #D7B19E",
"63 	c #D5AF9B",
"73 	c #D7AD9C",
"83 	c #D5AD9C",
"93 	c #D2AD9B",
"03 	c #CFAA99",
"a3 	c #C29D8E",
"b3 	c #907565",
"c3 	c #574238",
"d3 	c #332B26",
"e3 	c #292623",
"f3 	c #66625F",
"g3 	c #F6F9FB",
"h3 	c #EFF9FE",
"i3 	c #CCDDF2",
"j3 	c #6C7D7C",
"k3 	c #50513F",
"l3 	c #6D8377",
"m3 	c #BBD6D6",
"n3 	c #B4CECC",
"o3 	c #95A292",
"p3 	c #808672",
"q3 	c #686E56",
"r3 	c #646A56",
"s3 	c #51583C",
"t3 	c #6C6E51",
"u3 	c #696E51",
"v3 	c #7C7D66",
"w3 	c #7C7D67",
"x3 	c #808474",
"y3 	c #7F877E",
"z3 	c #687872",
"A3 	c #93918E",
"B3 	c #C9C1C3",
"C3 	c #CEC9C7",
"D3 	c #BDB9B8",
"E3 	c #A09D93",
"F3 	c #A0978A",
"G3 	c #A19789",
"H3 	c #A79C92",
"I3 	c #9D968C",
"J3 	c #F2FDFE",
"K3 	c #DFF7FD",
"L3 	c #B9DBE2",
"M3 	c #6A8A91",
"N3 	c #404C4C",
"O3 	c #3C4441",
"P3 	c #2D3432",
"Q3 	c #333D38",
"R3 	c #5D675F",
"S3 	c #7B857D",
"T3 	c #8D948C",
"U3 	c #969A93",
"V3 	c #8A847E",
"W3 	c #58473E",
"X3 	c #362A22",
"Y3 	c #5A483C",
"Z3 	c #947163",
"`3 	c #B79081",
" 4 	c #E0BAB0",
".4 	c #ECC5BC",
"+4 	c #EFC7BE",
"@4 	c #F1CAC1",
"#4 	c #F2CCC2",
"$4 	c #EFCAC0",
"%4 	c #EBC7B7",
"&4 	c #ECC4B6",
"*4 	c #EDC5B6",
"=4 	c #F1C7B7",
"-4 	c #F0C7B6",
";4 	c #F0C6B7",
">4 	c #F0C8B8",
",4 	c #F4C6B7",
"'4 	c #F1C8B7",
")4 	c #F0C9B6",
"!4 	c #F0C8B7",
"~4 	c #EEC7B6",
"{4 	c #EBC3B0",
"]4 	c #EDC5B2",
"^4 	c #ECC5B2",
"/4 	c #E9C3B0",
"(4 	c #E9C3B1",
"_4 	c #E9C2AF",
":4 	c #EAC2AF",
"<4 	c #EABFAC",
"[4 	c #ECC1AD",
"}4 	c #E9BCAA",
"|4 	c #E8BFAC",
"14 	c #ECBEAA",
"24 	c #ECC0AB",
"34 	c #EBBDA9",
"44 	c #E9BCA6",
"54 	c #ECC2AF",
"64 	c #EBC0AC",
"74 	c #E8C1B0",
"84 	c #E7C0AF",
"94 	c #E7BEAC",
"04 	c #E5BDAC",
"a4 	c #E2BAA8",
"b4 	c #DEB6A5",
"c4 	c #D7B2A0",
"d4 	c #D7B09E",
"e4 	c #D7AF9C",
"f4 	c #D5AD9B",
"g4 	c #D2AB99",
"h4 	c #CDA898",
"i4 	c #C8A393",
"j4 	c #A98977",
"k4 	c #634D41",
"l4 	c #352D26",
"m4 	c #24221E",
"n4 	c #2F2D28",
"o4 	c #CBCCD1",
"p4 	c #ECF6FE",
"q4 	c #BBCDDC",
"r4 	c #5D685C",
"s4 	c #555945",
"t4 	c #8E9F9E",
"u4 	c #B0C3C3",
"v4 	c #7E9084",
"w4 	c #636E5E",
"x4 	c #6C7D74",
"y4 	c #969E9A",
"z4 	c #B4B5BB",
"A4 	c #77827B",
"B4 	c #7C7A64",
"C4 	c #757668",
"D4 	c #3E4C2E",
"E4 	c #3B4925",
"F4 	c #404C28",
"G4 	c #46512F",
"H4 	c #6D7561",
"I4 	c #B6B5BC",
"J4 	c #CCC9CB",
"K4 	c #CFCBCA",
"L4 	c #CBC8CD",
"M4 	c #9C9A97",
"N4 	c #808380",
"O4 	c #9CA4AC",
"P4 	c #ADADAB",
"Q4 	c #B6D4DD",
"R4 	c #6D8C92",
"S4 	c #3C4747",
"T4 	c #3A4240",
"U4 	c #2A312F",
"V4 	c #333E39",
"W4 	c #5C665E",
"X4 	c #7B857C",
"Y4 	c #8F958D",
"Z4 	c #92968F",
"`4 	c #80776D",
" 5 	c #45352D",
".5 	c #705649",
"+5 	c #A07A68",
"@5 	c #C49D8F",
"#5 	c #E9C3B9",
"$5 	c #ECC4BC",
"%5 	c #EBC5BC",
"&5 	c #EDC7BE",
"*5 	c #F1CABD",
"=5 	c #EDC6BD",
"-5 	c #EEC7BD",
";5 	c #EBC5B8",
">5 	c #E9C3B6",
",5 	c #E8C3B4",
"'5 	c #EBC4B5",
")5 	c #EDC3B4",
"!5 	c #EEC1B2",
"~5 	c #EEC4B4",
"{5 	c #EFC5B5",
"]5 	c #F0C0B2",
"^5 	c #F0C2B3",
"/5 	c #EDC1B1",
"(5 	c #ECC5B3",
"_5 	c #EBC4B1",
":5 	c #E8C2AF",
"<5 	c #E9BFAE",
"[5 	c #E8C0AF",
"}5 	c #E8C1AF",
"|5 	c #E6BEAA",
"15 	c #E7BEAA",
"25 	c #E8BEAC",
"35 	c #E7BFAC",
"45 	c #EABCAA",
"55 	c #EBBDAA",
"65 	c #EBBFAC",
"75 	c #EABEAA",
"85 	c #EABDA8",
"95 	c #E9BDAA",
"05 	c #E9C1AB",
"a5 	c #E5BDAB",
"b5 	c #E4BEAB",
"c5 	c #E1B8A6",
"d5 	c #DEB3A2",
"e5 	c #D7B3A0",
"f5 	c #D8B3A0",
"g5 	c #D6AF9D",
"h5 	c #D1A897",
"i5 	c #CBA594",
"j5 	c #C9A593",
"k5 	c #BB9788",
"l5 	c #796055",
"m5 	c #42382E",
"n5 	c #25221E",
"o5 	c #211F1D",
"p5 	c #6C6A6A",
"q5 	c #DEE6F2",
"r5 	c #A3B0B7",
"s5 	c #5F6755",
"t5 	c #626E62",
"u5 	c #A3B8BB",
"v5 	c #ADC8CD",
"w5 	c #ADCBD2",
"x5 	c #BBD5DE",
"y5 	c #CDDEEA",
"z5 	c #DDE6F2",
"A5 	c #E1E5F0",
"B5 	c #B9C1CA",
"C5 	c #6F7467",
"D5 	c #9E9594",
"E5 	c #7C7F75",
"F5 	c #535B44",
"G5 	c #465332",
"H5 	c #4B5836",
"I5 	c #737C64",
"J5 	c #BCBCBF",
"K5 	c #CECACC",
"L5 	c #CFCCCD",
"M5 	c #C3C1C6",
"N5 	c #949692",
"O5 	c #A7B1C2",
"P5 	c #BDC5D1",
"Q5 	c #C8C8CB",
"R5 	c #CDC7C2",
"S5 	c #F7FCFF",
"T5 	c #F1FAFE",
"U5 	c #ECF8FE",
"V5 	c #E9F6FE",
"W5 	c #EAF7FE",
"X5 	c #F1FBFE",
"Y5 	c #F6FCFF",
"Z5 	c #EFFAFE",
"`5 	c #E6F7FE",
" 6 	c #E1F4FE",
".6 	c #D0E7F4",
"+6 	c #B0C9D6",
"@6 	c #738D94",
"#6 	c #374242",
"$6 	c #3A403E",
"%6 	c #2C332F",
"&6 	c #35403A",
"*6 	c #5E6861",
"=6 	c #7C877E",
"-6 	c #8E948C",
";6 	c #8E9289",
">6 	c #766C61",
",6 	c #58483E",
"'6 	c #503B33",
")6 	c #7B5A4B",
"!6 	c #A37F6C",
"~6 	c #D3AE9E",
"{6 	c #EBC5B9",
"]6 	c #EFC9C1",
"^6 	c #EDC8BF",
"/6 	c #EFC8BE",
"(6 	c #F3CCBE",
"_6 	c #ECC4B9",
":6 	c #EDC5B8",
"<6 	c #EBC3B5",
"[6 	c #E8BFB2",
"}6 	c #E7C0B2",
"|6 	c #EABEB0",
"16 	c #EABEAF",
"26 	c #EABFB0",
"36 	c #ECBEB0",
"46 	c #ECBFB1",
"56 	c #EBBDAD",
"66 	c #EBBBAD",
"76 	c #ECBFAF",
"86 	c #E9BFAD",
"96 	c #EAC1AF",
"06 	c #EBC1AF",
"a6 	c #E9C0AE",
"b6 	c #E7C0AE",
"c6 	c #E6C1B0",
"d6 	c #E6C1AF",
"e6 	c #E5BBA7",
"f6 	c #E8BBAA",
"g6 	c #E6BDAA",
"h6 	c #E8BBA8",
"i6 	c #E8BDA9",
"j6 	c #E9BCAB",
"k6 	c #E9BDA9",
"l6 	c #E9BCA8",
"m6 	c #EABDAA",
"n6 	c #E7BCA9",
"o6 	c #E8BCA7",
"p6 	c #E8BBA9",
"q6 	c #E1BAA8",
"r6 	c #E0B8A5",
"s6 	c #E1B8A5",
"t6 	c #DFB5A1",
"u6 	c #DDB6A3",
"v6 	c #D9B5A4",
"w6 	c #D5B29F",
"x6 	c #D8B3A1",
"y6 	c #D7B19F",
"z6 	c #D4AE99",
"A6 	c #CFA896",
"B6 	c #C8A391",
"C6 	c #CBA593",
"D6 	c #C5A290",
"E6 	c #9C7F70",
"F6 	c #5D483B",
"G6 	c #302A26",
"H6 	c #24201E",
"I6 	c #2F2D2B",
"J6 	c #C1C6D6",
"K6 	c #8E9896",
"L6 	c #535C48",
"M6 	c #A2B5B9",
"N6 	c #D9EDF9",
"O6 	c #DFF3FD",
"P6 	c #E1F5FD",
"Q6 	c #E7F7FE",
"R6 	c #EAF8FF",
"S6 	c #EDF7FF",
"T6 	c #E9F0FD",
"U6 	c #D7DEED",
"V6 	c #82969A",
"W6 	c #827E6C",
"X6 	c #A49F9A",
"Y6 	c #A09FA1",
"Z6 	c #8D9396",
"`6 	c #7E8887",
" 7 	c #989F9D",
".7 	c #C1BFC5",
"+7 	c #D2CCCF",
"@7 	c #CAC4C4",
"#7 	c #9E9C94",
"$7 	c #9E9FA1",
"%7 	c #C0C8D8",
"&7 	c #C3C6CF",
"*7 	c #CCC8CA",
"=7 	c #D3CAC4",
"-7 	c #F8FEFE",
";7 	c #F5FCFF",
">7 	c #E3F3FC",
",7 	c #DAECF8",
"'7 	c #D7E9F7",
")7 	c #D5E8F6",
"!7 	c #D5E7F5",
"~7 	c #D6E9F8",
"{7 	c #D7EAF8",
"]7 	c #CCDDED",
"^7 	c #AEC1CF",
"/7 	c #798C93",
"(7 	c #363C3A",
"_7 	c #303734",
":7 	c #39443E",
"<7 	c #606A62",
"[7 	c #80877F",
"}7 	c #8F958C",
"|7 	c #87857C",
"17 	c #675B51",
"27 	c #48392E",
"37 	c #574033",
"47 	c #8F6B59",
"57 	c #B48E7D",
"67 	c #DCB5A6",
"77 	c #ECC5B8",
"87 	c #F2CBC3",
"97 	c #EFC8C0",
"07 	c #EEC8BE",
"a7 	c #F2CBC0",
"b7 	c #F0C8BD",
"c7 	c #EBC3B4",
"d7 	c #E9C2B3",
"e7 	c #E9BFB0",
"f7 	c #E5BEB0",
"g7 	c #E7BCAF",
"h7 	c #E8BAAA",
"i7 	c #E9B9A8",
"j7 	c #E8BAAC",
"k7 	c #E9BBAE",
"l7 	c #E8B9AA",
"m7 	c #E9BAAA",
"n7 	c #EBBBAC",
"o7 	c #E6B9A7",
"p7 	c #E5BFAC",
"q7 	c #E5BBA9",
"r7 	c #E6BCA9",
"s7 	c #E4BBAC",
"t7 	c #E3BCAB",
"u7 	c #E3BDAC",
"v7 	c #E4BBA9",
"w7 	c #E4BDAA",
"x7 	c #E4B8A7",
"y7 	c #E5BAA8",
"z7 	c #E3BAA6",
"A7 	c #E6B8A5",
"B7 	c #E7B9A5",
"C7 	c #E6BBA8",
"D7 	c #E6B9A6",
"E7 	c #E6B9A5",
"F7 	c #E3B6A1",
"G7 	c #E1B5A0",
"H7 	c #DEB59F",
"I7 	c #E0B7A2",
"J7 	c #DFB4A1",
"K7 	c #DEB5A1",
"L7 	c #DCB5A2",
"M7 	c #D8B5A1",
"N7 	c #D6B3A1",
"O7 	c #D7B29F",
"P7 	c #D6B09D",
"Q7 	c #D4AC98",
"R7 	c #CFA895",
"S7 	c #CBA693",
"T7 	c #CCA592",
"U7 	c #C9A694",
"V7 	c #B19083",
"W7 	c #765E4C",
"X7 	c #3F322A",
"Y7 	c #2B2724",
"Z7 	c #262420",
"`7 	c #818286",
" 8 	c #70766E",
".8 	c #556254",
"+8 	c #CBDCE4",
"@8 	c #EBF9FF",
"#8 	c #EBF9FE",
"$8 	c #EEF9FF",
"%8 	c #F0FBFE",
"&8 	c #F3FAFE",
"*8 	c #EDF5FF",
"=8 	c #DEE8F8",
"-8 	c #9EAFB8",
";8 	c #434F31",
">8 	c #85866F",
",8 	c #A8A69C",
"'8 	c #A0A29B",
")8 	c #8A918E",
"!8 	c #919F9D",
"~8 	c #C0C2CA",
"{8 	c #C6C3C9",
"]8 	c #ABA59C",
"^8 	c #92918C",
"/8 	c #B3B1B1",
"(8 	c #CCCED5",
"_8 	c #CCCBCC",
":8 	c #D3CDC7",
"<8 	c #DCCFC6",
"[8 	c #EAF9FF",
"}8 	c #E6F5FE",
"|8 	c #DEEEFB",
"18 	c #D4E6F2",
"28 	c #D2E4F0",
"38 	c #D1E4F1",
"48 	c #D2E4F1",
"58 	c #D2E5F3",
"68 	c #D3E6F4",
"78 	c #D4E6F4",
"88 	c #CADAEA",
"98 	c #ADBFCC",
"08 	c #76888F",
"a8 	c #343A38",
"b8 	c #333936",
"c8 	c #404843",
"d8 	c #646C63",
"e8 	c #81877F",
"f8 	c #898E86",
"g8 	c #828078",
"h8 	c #53453C",
"i8 	c #4E4135",
"j8 	c #5E493A",
"k8 	c #9F7D6A",
"l8 	c #C29C8F",
"m8 	c #DEB6AB",
"n8 	c #ECC6B9",
"o8 	c #EFC8BA",
"p8 	c #EEC7B8",
"q8 	c #ECC2B4",
"r8 	c #EAC0B1",
"s8 	c #EBC3B3",
"t8 	c #E7BBAD",
"u8 	c #E1BAAB",
"v8 	c #E5B8A9",
"w8 	c #E6B3A4",
"x8 	c #E4B7A7",
"y8 	c #E4B5A6",
"z8 	c #E3B6A5",
"A8 	c #E3B7A7",
"B8 	c #E4B6A6",
"C8 	c #E5B8A7",
"D8 	c #E5B5A4",
"E8 	c #E3B8A7",
"F8 	c #E4BAA9",
"G8 	c #E4B9A6",
"H8 	c #E2B6A5",
"I8 	c #E1B7A7",
"J8 	c #E0B9A8",
"K8 	c #E0B9A9",
"L8 	c #E2B9A8",
"M8 	c #E4B9A8",
"N8 	c #E5B7A4",
"O8 	c #E4B8A4",
"P8 	c #E3B8A5",
"Q8 	c #E3B7A5",
"R8 	c #E3B9A6",
"S8 	c #E0B39F",
"T8 	c #DEB19B",
"U8 	c #E0B29E",
"V8 	c #DDB3A1",
"W8 	c #DBB4A2",
"X8 	c #D9B29F",
"Y8 	c #D7B4A1",
"Z8 	c #CDA895",
"`8 	c #CCA693",
" 9 	c #BB9A8B",
".9 	c #8A6D5B",
"+9 	c #513F33",
"@9 	c #282420",
"#9 	c #23211E",
"$9 	c #363431",
"%9 	c #60655A",
"&9 	c #73837E",
"*9 	c #E1EEF6",
"=9 	c #F2FBFE",
"-9 	c #F2FAFE",
";9 	c #F6FBFF",
">9 	c #EEF6FF",
",9 	c #DDE6F5",
"'9 	c #9FAEB1",
")9 	c #4E5739",
"!9 	c #666D48",
"~9 	c #5D6747",
"{9 	c #637368",
"]9 	c #A6B4BE",
"^9 	c #C8CADE",
"/9 	c #B8BCC8",
"(9 	c #B7BCCD",
"_9 	c #B4B6BE",
":9 	c #C9C6C7",
"<9 	c #D3CECD",
"[9 	c #D6CDC5",
"}9 	c #DACFC6",
"|9 	c #DED1C8",
"19 	c #E2F3FE",
"29 	c #DCEFFC",
"39 	c #D1E3EF",
"49 	c #D0E2EE",
"59 	c #D0E1EE",
"69 	c #D0E2EF",
"79 	c #D0E3F1",
"89 	c #D1E4F2",
"99 	c #D2E4F2",
"09 	c #C7D8E7",
"a9 	c #AABCCA",
"b9 	c #71858C",
"c9 	c #34403F",
"d9 	c #333937",
"e9 	c #2F3533",
"f9 	c #3E4742",
"g9 	c #697169",
"h9 	c #80847C",
"i9 	c #8D9188",
"j9 	c #7E776F",
"k9 	c #443327",
"l9 	c #735748",
"m9 	c #AE8877",
"n9 	c #C7A192",
"o9 	c #E3BBB0",
"p9 	c #ECC7BC",
"q9 	c #F1CCC1",
"r9 	c #F0CAC1",
"s9 	c #EDC6BC",
"t9 	c #ECC5B9",
"u9 	c #EDC7B8",
"v9 	c #EDC2B2",
"w9 	c #EBC0AF",
"x9 	c #EDC1B2",
"y9 	c #EBBCAE",
"z9 	c #E7BAAB",
"A9 	c #E2B9AA",
"B9 	c #E1B6A8",
"C9 	c #E3B4A4",
"D9 	c #E2B3A3",
"E9 	c #E0B3A3",
"F9 	c #DCB4A2",
"G9 	c #DCB3A1",
"H9 	c #DFB3A4",
"I9 	c #E0B4A4",
"J9 	c #E1B5A5",
"K9 	c #E2B8A6",
"L9 	c #E3B7A6",
"M9 	c #E0B6A3",
"N9 	c #E0B5A3",
"O9 	c #DFB4A3",
"P9 	c #DCB5A4",
"Q9 	c #DEB8A7",
"R9 	c #E0B6A5",
"S9 	c #E3B5A4",
"T9 	c #E1B6A6",
"U9 	c #E2B5A3",
"V9 	c #E5B8A6",
"W9 	c #E4B6A5",
"X9 	c #E3B59F",
"Y9 	c #E2B4A0",
"Z9 	c #E3B7A4",
"`9 	c #E2B5A2",
" 0 	c #E1B6A2",
".0 	c #DFB6A2",
"+0 	c #DDB5A2",
"@0 	c #DEB4A1",
"#0 	c #E0B4A0",
"$0 	c #E0B39E",
"%0 	c #DEB09B",
"&0 	c #DFB19E",
"*0 	c #DDB09E",
"=0 	c #DCB09C",
"-0 	c #DBB4A0",
";0 	c #D9B3A0",
">0 	c #D6B19D",
",0 	c #D7AF9B",
"'0 	c #D7B09C",
")0 	c #D9B19F",
"!0 	c #CFAB98",
"~0 	c #CFAA97",
"{0 	c #CCA795",
"]0 	c #C19D8F",
"^0 	c #9F8073",
"/0 	c #5F4B3E",
"(0 	c #2A251F",
"_0 	c #23221E",
":0 	c #24231F",
"<0 	c #5B5E57",
"[0 	c #97A8A8",
"}0 	c #ECF5FC",
"|0 	c #F0F8FE",
"10 	c #D9E6EF",
"20 	c #ADB7B3",
"30 	c #707B61",
"40 	c #535B39",
"50 	c #414A26",
"60 	c #4B542D",
"70 	c #7B8483",
"80 	c #97A4B3",
"90 	c #B1BDCA",
"00 	c #BBC8D4",
"a0 	c #DAE4F6",
"b0 	c #DBE3F8",
"c0 	c #C0C7CA",
"d0 	c #D7D0C9",
"e0 	c #DDD1C7",
"f0 	c #DFD1C8",
"g0 	c #CEE0EC",
"h0 	c #CDDFEB",
"i0 	c #CEDFED",
"j0 	c #CDE0EE",
"k0 	c #CEE1EF",
"l0 	c #CEE2F0",
"m0 	c #CFE3F0",
"n0 	c #C5D5E5",
"o0 	c #A7B9C8",
"p0 	c #6E828A",
"q0 	c #354140",
"r0 	c #2F3634",
"s0 	c #353C3A",
"t0 	c #434B46",
"u0 	c #666D65",
"v0 	c #80857E",
"w0 	c #8D9087",
"x0 	c #716A5C",
"y0 	c #4A392F",
"z0 	c #493629",
"A0 	c #7C5E4F",
"B0 	c #A67E6C",
"C0 	c #C9A494",
"D0 	c #E3BCB2",
"E0 	c #EBC6BD",
"F0 	c #EEC7BB",
"G0 	c #EBC5B6",
"H0 	c #ECC5B5",
"I0 	c #EDC4B4",
"J0 	c #ECC2B2",
"K0 	c #ECBDAE",
"L0 	c #E9B9AB",
"M0 	c #E1B2A1",
"N0 	c #E0B2A1",
"O0 	c #DFB09F",
"P0 	c #DFB2A1",
"Q0 	c #DBAE9A",
"R0 	c #DBB2A2",
"S0 	c #DAB2A2",
"T0 	c #DFB3A0",
"U0 	c #DEB7A3",
"V0 	c #DFB7A4",
"W0 	c #DFB8A7",
"X0 	c #E1B8A9",
"Y0 	c #DFBAA9",
"Z0 	c #DEB9A6",
"`0 	c #E0B5A4",
" a 	c #DFB7A5",
".a 	c #E6B8A7",
"+a 	c #E4B7A4",
"@a 	c #E2B5A1",
"#a 	c #E1B6A3",
"$a 	c #E0B39D",
"%a 	c #DDB39E",
"&a 	c #DBB39D",
"*a 	c #DBB29E",
"=a 	c #DDB29E",
"-a 	c #DFB19D",
";a 	c #DFB19C",
">a 	c #DDAF9B",
",a 	c #DEB09E",
"'a 	c #DCB09B",
")a 	c #DBB39F",
"!a 	c #DAB3A0",
"~a 	c #D6B09B",
"{a 	c #D8AF9B",
"]a 	c #D8B09C",
"^a 	c #DAB3A1",
"/a 	c #DDB3A0",
"(a 	c #D5B09B",
"_a 	c #CEA996",
":a 	c #C8A594",
"<a 	c #B08F82",
"[a 	c #745D51",
"}a 	c #392F28",
"|a 	c #201F1B",
"1a 	c #2B2826",
"2a 	c #4E524E",
"3a 	c #BECED4",
"4a 	c #F4FAFF",
"5a 	c #F5FCFE",
"6a 	c #F4FBFF",
"7a 	c #E5F1F9",
"8a 	c #B8C8CA",
"9a 	c #798778",
"0a 	c #58634A",
"aa 	c #525C41",
"ba 	c #424F2F",
"ca 	c #3E4922",
"da 	c #4D582D",
"ea 	c #919695",
"fa 	c #A7ADB9",
"ga 	c #A9B7C2",
"ha 	c #DEE8F7",
"ia 	c #E8F3FE",
"ja 	c #E0E9F8",
"ka 	c #CBCDD3",
"la 	c #DFE0E5",
"ma 	c #DAD2CB",
"na 	c #DCD1C8",
"oa 	c #DDD1C8",
"pa 	c #D8EBF9",
"qa 	c #CDDFE9",
"ra 	c #CCDEE9",
"sa 	c #CBDDEB",
"ta 	c #C9DCEA",
"ua 	c #CADDEB",
"va 	c #CBDEEC",
"wa 	c #CCDFED",
"xa 	c #CDE0EF",
"ya 	c #C2D5E4",
"za 	c #A6B7C6",
"Aa 	c #6E8089",
"Ba 	c #394242",
"Ca 	c #2F3835",
"Da 	c #3A403D",
"Ea 	c #424843",
"Fa 	c #676F66",
"Ga 	c #818680",
"Ha 	c #8C9086",
"Ia 	c #685C4F",
"Ja 	c #46362B",
"Ka 	c #4D3A2C",
"La 	c #7F5F51",
"Ma 	c #A47B6C",
"Na 	c #CBA598",
"Oa 	c #E1BCB1",
"Pa 	c #EAC5BC",
"Qa 	c #EDC8BE",
"Ra 	c #EEC8BC",
"Sa 	c #EFC5B7",
"Ta 	c #EBC4B4",
"Ua 	c #EDC3B3",
"Va 	c #EDC3B1",
"Wa 	c #EEC0B0",
"Xa 	c #EDBEAE",
"Ya 	c #EBBCAD",
"Za 	c #E6B6A8",
"`a 	c #E2B6A6",
" b 	c #DFB1A1",
".b 	c #E1B2A0",
"+b 	c #E0AF9E",
"@b 	c #E0B19F",
"#b 	c #DEAF9D",
"$b 	c #DEB19E",
"%b 	c #DDAE9C",
"&b 	c #DCAF9C",
"*b 	c #DEB6A4",
"=b 	c #DDB7A4",
"-b 	c #E0B8A6",
";b 	c #E2B7A6",
">b 	c #E4B9A9",
",b 	c #E7B9A8",
"'b 	c #E7BAA7",
")b 	c #E4B8A5",
"!b 	c #E2B5A4",
"~b 	c #E2B8A7",
"{b 	c #E1B4A0",
"]b 	c #DFB59F",
"^b 	c #DFB29D",
"/b 	c #DDAE98",
"(b 	c #DEAF9B",
"_b 	c #DFB09D",
":b 	c #DEAF9A",
"<b 	c #DCAF99",
"[b 	c #DEB19C",
"}b 	c #D8B19C",
"|b 	c #D7B09B",
"1b 	c #DCB49F",
"2b 	c #DAB49F",
"3b 	c #D2A995",
"4b 	c #CEAA96",
"5b 	c #CFAB97",
"6b 	c #B69686",
"7b 	c #86685B",
"8b 	c #43372C",
"9b 	c #221F1C",
"0b 	c #4E4F4F",
"ab 	c #D9E2E9",
"bb 	c #F4FAFE",
"cb 	c #F4FCFF",
"db 	c #F2FAFF",
"eb 	c #D3E5F1",
"fb 	c #ADC2CF",
"gb 	c #ADC0CC",
"hb 	c #ACB9C5",
"ib 	c #A6AAB1",
"jb 	c #7B837A",
"kb 	c #465930",
"lb 	c #4E5B2F",
"mb 	c #70765F",
"nb 	c #8A9392",
"ob 	c #BFCDDA",
"pb 	c #E1EDFD",
"qb 	c #E2EDFC",
"rb 	c #D6E1EF",
"sb 	c #D9D9E5",
"tb 	c #E0E2E5",
"ub 	c #DBD2C9",
"vb 	c #DED1C9",
"wb 	c #DDD0C8",
"xb 	c #D8D0C6",
"yb 	c #D3E7F5",
"zb 	c #CDE0EC",
"Ab 	c #CADDE9",
"Bb 	c #C9DBE9",
"Cb 	c #C8DBE9",
"Db 	c #C6DBE9",
"Eb 	c #C7DBE9",
"Fb 	c #CADDEC",
"Gb 	c #CBDEED",
"Hb 	c #CCDFEE",
"Ib 	c #C0D4E3",
"Jb 	c #A4B7C5",
"Kb 	c #708089",
"Lb 	c #374141",
"Mb 	c #333A37",
"Nb 	c #454C47",
"Ob 	c #697067",
"Pb 	c #848680",
"Qb 	c #8C8C82",
"Rb 	c #63554A",
"Sb 	c #4A392D",
"Tb 	c #4F3B2D",
"Ub 	c #816253",
"Vb 	c #A78271",
"Wb 	c #C9A395",
"Xb 	c #DDB7AC",
"Yb 	c #E8C2B5",
"Zb 	c #EAC4B5",
"`b 	c #EAC4B4",
" c 	c #ECC3B4",
".c 	c #EEC0B1",
"+c 	c #EEC2B1",
"@c 	c #EBBCAB",
"#c 	c #EABBAB",
"$c 	c #E9B9AA",
"%c 	c #E5B7A8",
"&c 	c #E0B6A6",
"*c 	c #E0B0A0",
"=c 	c #E2B4A4",
"-c 	c #E0B1A0",
";c 	c #DFAE9C",
">c 	c #DFAF9C",
",c 	c #DEAF9C",
"'c 	c #DEAE9B",
")c 	c #DCAE9B",
"!c 	c #DEB29E",
"~c 	c #DDB19D",
"{c 	c #DEB4A3",
"]c 	c #DEB7A6",
"^c 	c #E0B09F",
"/c 	c #E2B6A7",
"(c 	c #E5B7A6",
"_c 	c #E3BAA7",
":c 	c #E3BBA7",
"<c 	c #E3B6A3",
"[c 	c #E1B4A1",
"}c 	c #E1B49E",
"|c 	c #DFB29B",
"1c 	c #DFB29C",
"2c 	c #E0B49F",
"3c 	c #E1B49F",
"4c 	c #DEAF99",
"5c 	c #DBB099",
"6c 	c #DCB19C",
"7c 	c #D8B09B",
"8c 	c #D8B29D",
"9c 	c #DCB29D",
"0c 	c #DCB19D",
"ac 	c #D5AE9A",
"bc 	c #D3AC97",
"cc 	c #C8A491",
"dc 	c #BC9B8A",
"ec 	c #8E7466",
"fc 	c #544338",
"gc 	c #211D1A",
"hc 	c #535455",
"ic 	c #D7DFEB",
"jc 	c #F3FAFF",
"kc 	c #F1F9FF",
"lc 	c #EEF7FF",
"mc 	c #E7F2FE",
"nc 	c #DCE5F4",
"oc 	c #C7CBD2",
"pc 	c #AAABA9",
"qc 	c #808A7A",
"rc 	c #647252",
"sc 	c #727465",
"tc 	c #788789",
"uc 	c #C6D6E3",
"vc 	c #D1DDF3",
"wc 	c #E2EDFA",
"xc 	c #D0DDE8",
"yc 	c #E5E8F5",
"zc 	c #DEE0E1",
"Ac 	c #DDD2C9",
"Bc 	c #D9D0C7",
"Cc 	c #D7CFC5",
"Dc 	c #CFE4F0",
"Ec 	c #CADFEA",
"Fc 	c #C7DCE8",
"Gc 	c #C6DAE8",
"Hc 	c #C5DAE8",
"Ic 	c #C4DAE8",
"Jc 	c #C7DAE9",
"Kc 	c #C8DBEA",
"Lc 	c #C6DCEA",
"Mc 	c #C7DDEB",
"Nc 	c #CADFED",
"Oc 	c #BDD1E2",
"Pc 	c #A3B4C5",
"Qc 	c #6C7D85",
"Rc 	c #333E3D",
"Sc 	c #303935",
"Tc 	c #323B36",
"Uc 	c #434A45",
"Vc 	c #6E736B",
"Wc 	c #83837D",
"Xc 	c #87837A",
"Yc 	c #5B4D44",
"Zc 	c #413026",
"`c 	c #483326",
" d 	c #77584A",
".d 	c #A47E6D",
"+d 	c #C69F8D",
"@d 	c #DBB4A6",
"#d 	c #E6BFB0",
"$d 	c #E8C0B1",
"%d 	c #EAC0B2",
"&d 	c #EBC2B2",
"*d 	c #EAC0B0",
"=d 	c #ECC1B1",
"-d 	c #EDC0B0",
";d 	c #EDBFAF",
">d 	c #EABEAC",
",d 	c #E8B9A8",
"'d 	c #E8B6A7",
")d 	c #E7B4A5",
"!d 	c #E5B6A8",
"~d 	c #E3B5A5",
"{d 	c #E4B3A4",
"]d 	c #E4B3A3",
"^d 	c #E2B3A1",
"/d 	c #E3B2A3",
"(d 	c #E1B19E",
"_d 	c #E1B1A0",
":d 	c #E1AF9E",
"<d 	c #E0B29F",
"[d 	c #DBAF9F",
"}d 	c #DDB1A0",
"|d 	c #DFB5A2",
"1d 	c #DEB5A3",
"2d 	c #E1B6A4",
"3d 	c #E1BCA8",
"4d 	c #E3B6A4",
"5d 	c #E2B6A3",
"6d 	c #E0B29B",
"7d 	c #E4B39E",
"8d 	c #E3B6A2",
"9d 	c #E2B49E",
"0d 	c #E2B6A1",
"ad 	c #E0B6A1",
"bd 	c #E2B49F",
"cd 	c #DFB19B",
"dd 	c #DCB19A",
"ed 	c #DDB29D",
"fd 	c #DCAF9A",
"gd 	c #D8AF99",
"hd 	c #D5AE99",
"id 	c #D9AF99",
"jd 	c #DDB19C",
"kd 	c #D4AD98",
"ld 	c #D2AC98",
"md 	c #C9A693",
"nd 	c #BB9A8A",
"od 	c #947767",
"pd 	c #2F2B26",
"qd 	c #24201D",
"rd 	c #484743",
"sd 	c #D3DBE5",
"td 	c #F1F9FE",
"ud 	c #F2F9FF",
"vd 	c #F0FAFF",
"wd 	c #E9F4FE",
"xd 	c #DBE5F3",
"yd 	c #C6CAD0",
"zd 	c #BAB4B4",
"Ad 	c #A8A39E",
"Bd 	c #989692",
"Cd 	c #A4A5B0",
"Dd 	c #87979A",
"Ed 	c #C5D0DB",
"Fd 	c #BACEDA",
"Gd 	c #E7F0FD",
"Hd 	c #D7E2EC",
"Id 	c #EBF0FC",
"Jd 	c #DFE0DF",
"Kd 	c #DCD2C9",
"Ld 	c #D6CFC5",
"Md 	c #CCE0ED",
"Nd 	c #C8DDE8",
"Od 	c #C5DBE6",
"Pd 	c #C4DAE7",
"Qd 	c #C3D9E7",
"Rd 	c #C1D9E7",
"Sd 	c #C3D8E7",
"Td 	c #C5D8E8",
"Ud 	c #C5D9E8",
"Vd 	c #C5DBE9",
"Wd 	c #BFD2E4",
"Xd 	c #A4B5C6",
"Yd 	c #687E84",
"Zd 	c #333D3C",
"`d 	c #313A36",
" e 	c #343D38",
".e 	c #434A44",
"+e 	c #6C716A",
"@e 	c #81847D",
"#e 	c #868178",
"$e 	c #4B3C32",
"%e 	c #3A2B21",
"&e 	c #4A3529",
"*e 	c #6E5143",
"=e 	c #A78171",
"-e 	c #BD9686",
";e 	c #D6B0A1",
">e 	c #E2BAAB",
",e 	c #E9BFAF",
"'e 	c #E9C0AF",
")e 	c #E7BFAE",
"!e 	c #EABEAE",
"~e 	c #EABCA9",
"{e 	c #E8B8A8",
"]e 	c #E6B5A6",
"^e 	c #E4B4A4",
"/e 	c #E3B6A6",
"(e 	c #E4B5A5",
"_e 	c #E5B6A5",
":e 	c #E3B49F",
"<e 	c #E6B6A4",
"[e 	c #E6B7A7",
"}e 	c #E6B6A5",
"|e 	c #E6B5A5",
"1e 	c #E5B4A5",
"2e 	c #E1B5A4",
"3e 	c #DFB2A0",
"4e 	c #DFB19F",
"5e 	c #DAB09F",
"6e 	c #DEB5A4",
"7e 	c #DEB8A5",
"8e 	c #E0B6A7",
"9e 	c #DFB6A3",
"0e 	c #E0B39C",
"ae 	c #E1B3A0",
"be 	c #E3B59E",
"ce 	c #E3B39D",
"de 	c #E4B5A0",
"ee 	c #E5B5A0",
"fe 	c #DEB39D",
"ge 	c #DEB49F",
"he 	c #D6AF99",
"ie 	c #D6AD98",
"je 	c #DBAE99",
"ke 	c #D9B19C",
"le 	c #D4AD97",
"me 	c #D2AC96",
"ne 	c #D1AB96",
"oe 	c #CEA795",
"pe 	c #C8A693",
"qe 	c #C0A092",
"re 	c #9C8270",
"se 	c #5F4B42",
"te 	c #342C27",
"ue 	c #383531",
"ve 	c #C1C7CF",
"we 	c #F0F9FE",
"xe 	c #F0FBFF",
"ye 	c #EEFAFE",
"ze 	c #E7F3FF",
"Ae 	c #DBE4F2",
"Be 	c #C6C8CC",
"Ce 	c #B0ABA9",
"De 	c #A09A95",
"Ee 	c #B8B4B8",
"Fe 	c #B4B7C4",
"Ge 	c #8B9499",
"He 	c #899390",
"Ie 	c #C9D5DA",
"Je 	c #E6EFFB",
"Ke 	c #E1EBF5",
"Le 	c #EEF3FC",
"Me 	c #E0E2E1",
"Ne 	c #DAD3CC",
"Oe 	c #D8D1C7",
"Pe 	c #D7D0C6",
"Qe 	c #CADEEC",
"Re 	c #C8DCE8",
"Se 	c #C0D9E7",
"Te 	c #C3D8E8",
"Ue 	c #C4D8E8",
"Ve 	c #C4D9E8",
"We 	c #C5DBEA",
"Xe 	c #C6DBEC",
"Ye 	c #CADDEE",
"Ze 	c #C0D3E5",
"`e 	c #A3B7C6",
" f 	c #697D84",
".f 	c #323B3A",
"+f 	c #464D46",
"@f 	c #6B726A",
"#f 	c #7F847B",
"$f 	c #867D74",
"%f 	c #4C3D32",
"&f 	c #36281D",
"*f 	c #453126",
"=f 	c #725545",
"-f 	c #A17A67",
";f 	c #BC9687",
">f 	c #D2AE9E",
",f 	c #DCB4A5",
"'f 	c #E2B7A8",
")f 	c #E5BEAD",
"!f 	c #E4BAAA",
"~f 	c #EABCAC",
"{f 	c #E7B7A6",
"]f 	c #E4B4A3",
"^f 	c #E6B8A6",
"/f 	c #E5B6A4",
"(f 	c #E7B8A8",
"_f 	c #E9B9A9",
":f 	c #E9BBAA",
"<f 	c #E9BDAC",
"[f 	c #ECBCAD",
"}f 	c #E7B7A8",
"|f 	c #E6BAA9",
"1f 	c #E5BBAA",
"2f 	c #E5B9A7",
"3f 	c #E0B4A2",
"4f 	c #E1BAA7",
"5f 	c #DEB7A4",
"6f 	c #DFB29F",
"7f 	c #DEB09D",
"8f 	c #E2B3A0",
"9f 	c #E3B39E",
"0f 	c #E5B5A1",
"af 	c #E6B7A2",
"bf 	c #E6B6A1",
"cf 	c #E1B7A3",
"df 	c #E1B6A1",
"ef 	c #E1B39C",
"ff 	c #E0B29C",
"gf 	c #D6AE9B",
"hf 	c #DBAF99",
"if 	c #D9AC97",
"jf 	c #D6AF9A",
"kf 	c #D5AC96",
"lf 	c #D2AB94",
"mf 	c #CFA996",
"nf 	c #CAA695",
"of 	c #C6A592",
"pf 	c #C0A091",
"qf 	c #A48677",
"rf 	c #6F594C",
"sf 	c #3C3029",
"tf 	c #26221E",
"uf 	c #373430",
"vf 	c #B6BEC7",
"wf 	c #EDF6FC",
"xf 	c #EEF9FE",
"yf 	c #E6F2FE",
"zf 	c #D9E1EF",
"Af 	c #BABBBD",
"Bf 	c #A09B95",
"Cf 	c #AFA7A8",
"Df 	c #BEBCC1",
"Ef 	c #B4B8C5",
"Ff 	c #9CA1AB",
"Gf 	c #606858",
"Hf 	c #ACB3AF",
"If 	c #D7DFEA",
"Jf 	c #ECF3FC",
"Kf 	c #F1F5FC",
"Lf 	c #D9D2CC",
"Mf 	c #D7D1CA",
"Nf 	c #D7D1C8",
"Of 	c #C7DAE8",
"Pf 	c #C2D9E6",
"Qf 	c #C2D8E6",
"Rf 	c #C0D9E6",
"Sf 	c #C2D9E8",
"Tf 	c #C2DAE8",
"Uf 	c #C3DBE8",
"Vf 	c #C4DBEA",
"Wf 	c #C7DCED",
"Xf 	c #CCDFF0",
"Yf 	c #C0D3E9",
"Zf 	c #A5B8C8",
"`f 	c #6A7B84",
" g 	c #2C3431",
".g 	c #2F3531",
"+g 	c #424A43",
"@g 	c #80786F",
"#g 	c #4C3D33",
"$g 	c #35261D",
"%g 	c #3E2B22",
"&g 	c #6F5244",
"*g 	c #9A7666",
"=g 	c #B99383",
"-g 	c #CDA796",
";g 	c #DBB0A3",
">g 	c #DFB7A7",
",g 	c #E9BDAB",
"'g 	c #E8BAA9",
")g 	c #E7B7A7",
"!g 	c #E8B9A9",
"~g 	c #EBBCAC",
"{g 	c #EBB9AB",
"]g 	c #EAB8AA",
"^g 	c #E7B8A9",
"/g 	c #E8BAA8",
"(g 	c #E6B8A9",
"_g 	c #DDB3A2",
":g 	c #DCB19F",
"<g 	c #DEB09C",
"[g 	c #E0B09E",
"}g 	c #E1B29F",
"|g 	c #E3B4A0",
"1g 	c #E4B5A1",
"2g 	c #E4B6A1",
"3g 	c #E5B6A1",
"4g 	c #E7B7A2",
"5g 	c #E8B9A4",
"6g 	c #E4B9A5",
"7g 	c #E1B69F",
"8g 	c #DEAF98",
"9g 	c #D7AF9A",
"0g 	c #DAAD97",
"ag 	c #DBAE98",
"bg 	c #D8AB95",
"cg 	c #D5AD97",
"dg 	c #D1AA94",
"eg 	c #C8A795",
"fg 	c #C4A592",
"gg 	c #BB9D8C",
"hg 	c #A18474",
"ig 	c #78604F",
"jg 	c #534336",
"kg 	c #29241F",
"lg 	c #34312D",
"mg 	c #93969B",
"ng 	c #E4EEF7",
"og 	c #E5F0FD",
"pg 	c #CBD4DF",
"qg 	c #9E9F98",
"rg 	c #AFA9A8",
"sg 	c #B7B2B2",
"tg 	c #B3B7C3",
"ug 	c #A1A6AE",
"vg 	c #646B5C",
"wg 	c #474E3A",
"xg 	c #9FA69E",
"yg 	c #EDF1FA",
"zg 	c #EEF4FA",
"Ag 	c #DCDDDC",
"Bg 	c #D8D2CC",
"Cg 	c #D7D2CB",
"Dg 	c #D9D1C8",
"Eg 	c #DDD6D0",
"Fg 	c #C3D8E9",
"Gg 	c #C2DAE9",
"Hg 	c #C1DBEA",
"Ig 	c #C2DBE9",
"Jg 	c #C4DBEB",
"Kg 	c #C6DDED",
"Lg 	c #CDE0F1",
"Mg 	c #C1D5EA",
"Ng 	c #A5B9C8",
"Og 	c #6A7C84",
"Pg 	c #383E3C",
"Qg 	c #383E3B",
"Rg 	c #575B54",
"Sg 	c #707770",
"Tg 	c #838A82",
"Ug 	c #837C72",
"Vg 	c #42332A",
"Wg 	c #38271F",
"Xg 	c #402E25",
"Yg 	c #6A4D3F",
"Zg 	c #926F60",
"`g 	c #B38B7C",
" h 	c #C49888",
".h 	c #DDB4A4",
"+h 	c #E1B4A4",
"@h 	c #E1B3A3",
"#h 	c #E6B7A5",
"$h 	c #E5B4A4",
"%h 	c #E4B4A1",
"&h 	c #E7BAA9",
"*h 	c #EDC1B0",
"=h 	c #EFC4B4",
"-h 	c #EEC1B1",
";h 	c #ECBEAF",
">h 	c #EABDAD",
",h 	c #E6B5A4",
"'h 	c #E2B3A5",
")h 	c #DEB5A2",
"!h 	c #E0B29D",
"~h 	c #E1B3A1",
"{h 	c #DFAE9A",
"]h 	c #E1B19F",
"^h 	c #E5B5A3",
"/h 	c #E5B3A0",
"(h 	c #E4B59D",
"_h 	c #E7B5A1",
":h 	c #E6B7A0",
"<h 	c #E5B7A1",
"[h 	c #E4B6A0",
"}h 	c #E3B69F",
"|h 	c #E1B89F",
"1h 	c #E0B6A0",
"2h 	c #DCB09A",
"3h 	c #D9B19B",
"4h 	c #D7AE99",
"5h 	c #D9AD97",
"6h 	c #D7AC94",
"7h 	c #D6AB95",
"8h 	c #D6AD97",
"9h 	c #D5AB95",
"0h 	c #CEAB96",
"ah 	c #CBA895",
"bh 	c #C7A795",
"ch 	c #C4A695",
"dh 	c #B99D8E",
"eh 	c #9B7D6D",
"fh 	c #7A614F",
"gh 	c #554335",
"hh 	c #4D433A",
"ih 	c #332F2C",
"jh 	c #848C8E",
"kh 	c #D1DDE2",
"lh 	c #EEF8FE",
"mh 	c #EEF9FD",
"nh 	c #EAF5FE",
"oh 	c #D4E1ED",
"ph 	c #B6BFC4",
"qh 	c #B0AEAF",
"rh 	c #B8B3B3",
"sh 	c #BFBCC1",
"th 	c #B4B6C2",
"uh 	c #97A2A2",
"vh 	c #586454",
"wh 	c #434831",
"xh 	c #575D48",
"yh 	c #CDD1CB",
"zh 	c #ECF2F9",
"Ah 	c #DADDDE",
"Bh 	c #DAD3CD",
"Ch 	c #DCD2CE",
"Dh 	c #E1DEDC",
"Eh 	c #C1DAE7",
"Fh 	c #C0DAE8",
"Gh 	c #C0DBE9",
"Hh 	c #C2DBEA",
"Ih 	c #C1DBE9",
"Jh 	c #C2DCE9",
"Kh 	c #C3DCEB",
"Lh 	c #C8DDEE",
"Mh 	c #CEE1F2",
"Nh 	c #C1D6EA",
"Oh 	c #A7B9C9",
"Ph 	c #687C83",
"Qh 	c #313A3A",
"Rh 	c #2E3432",
"Sh 	c #2F3434",
"Th 	c #4D524C",
"Uh 	c #727972",
"Vh 	c #888C85",
"Wh 	c #868177",
"Xh 	c #4D3D34",
"Yh 	c #3C2C24",
"Zh 	c #443127",
"`h 	c #694D41",
" i 	c #886A59",
".i 	c #A07B69",
"+i 	c #BE9483",
"@i 	c #CFA493",
"#i 	c #DAAF9D",
"$i 	c #E4B7A6",
"%i 	c #E7B7A5",
"&i 	c #E6B7A6",
"*i 	c #E7B9A6",
"=i 	c #EBBFAF",
"-i 	c #ECBFB0",
";i 	c #E7B8A7",
">i 	c #E0B4A3",
",i 	c #DBB19D",
"'i 	c #DCB19E",
")i 	c #DFAF9B",
"!i 	c #E1B39E",
"~i 	c #E2B3A2",
"{i 	c #E3B4A1",
"]i 	c #E1B29C",
"^i 	c #E7B3A2",
"/i 	c #E7B39F",
"(i 	c #E6B69E",
"_i 	c #E6B9A3",
":i 	c #E6B8A4",
"<i 	c #E3B7A2",
"[i 	c #E2B9A2",
"}i 	c #DEB49C",
"|i 	c #DDB099",
"1i 	c #D9B098",
"2i 	c #D8AC97",
"3i 	c #D7A892",
"4i 	c #D3AD96",
"5i 	c #D4AD96",
"6i 	c #D4AC97",
"7i 	c #D2AD99",
"8i 	c #CCA794",
"9i 	c #CCA997",
"0i 	c #C6A595",
"ai 	c #C3A496",
"bi 	c #B69A8B",
"ci 	c #9D7E70",
"di 	c #775D4A",
"ei 	c #5C4A3E",
"fi 	c #52453C",
"gi 	c #3F3B37",
"hi 	c #B1BAC9",
"ii 	c #BBCDD8",
"ji 	c #DBE9F3",
"ki 	c #E8F4FC",
"li 	c #D7E7F2",
"mi 	c #D2DCED",
"ni 	c #C0C9CE",
"oi 	c #BBB7BA",
"pi 	c #BAB6B7",
"qi 	c #B8B4B5",
"ri 	c #BFBDC1",
"si 	c #AEB2B9",
"ti 	c #899B97",
"ui 	c #909AAB",
"vi 	c #4D5445",
"wi 	c #43472E",
"xi 	c #898B76",
"yi 	c #E8EAF2",
"zi 	c #E3E7EA",
"Ai 	c #DBD5D2",
"Bi 	c #DDD4CE",
"Ci 	c #DCD6D1",
"Di 	c #E5E5E8",
"Ei 	c #C3DCE9",
"Fi 	c #C4DBE9",
"Gi 	c #C1DCEB",
"Hi 	c #C3DCEC",
"Ii 	c #C4DDEC",
"Ji 	c #C4DDED",
"Ki 	c #C9DFEF",
"Li 	c #CEE2F3",
"Mi 	c #A8B8C9",
"Ni 	c #667B81",
"Oi 	c #313B38",
"Pi 	c #333837",
"Qi 	c #3B3F3E",
"Ri 	c #4B514A",
"Si 	c #6E786F",
"Ti 	c #868D85",
"Ui 	c #838278",
"Vi 	c #49392E",
"Wi 	c #46352B",
"Xi 	c #47342A",
"Yi 	c #61483B",
"Zi 	c #836753",
"`i 	c #997763",
" j 	c #AE8776",
".j 	c #C69D8C",
"+j 	c #D5AA98",
"@j 	c #DAAD9A",
"#j 	c #E8B7A6",
"$j 	c #E4B5A3",
"%j 	c #E8B8A6",
"&j 	c #EAB9A8",
"*j 	c #E9BBAC",
"=j 	c #E9BAAB",
"-j 	c #E2B9A7",
";j 	c #E0B9A7",
">j 	c #DCB29F",
",j 	c #DDAE9E",
"'j 	c #DDAE99",
")j 	c #E0B19D",
"!j 	c #E1B09E",
"~j 	c #E0B19E",
"{j 	c #E2B29F",
"]j 	c #E2B4A3",
"^j 	c #E2B0A1",
"/j 	c #E1B09F",
"(j 	c #E2B19D",
"_j 	c #E4B19E",
":j 	c #E5B19C",
"<j 	c #E4B29B",
"[j 	c #E4B49C",
"}j 	c #E3B5A0",
"|j 	c #E4B3A0",
"1j 	c #E2B59F",
"2j 	c #DFB29A",
"3j 	c #DDB39B",
"4j 	c #D8AF96",
"5j 	c #D8AE98",
"6j 	c #D8AB94",
"7j 	c #D7AA93",
"8j 	c #D4AC95",
"9j 	c #D1AB97",
"0j 	c #CBA897",
"aj 	c #C6A59A",
"bj 	c #BFA398",
"cj 	c #B19489",
"dj 	c #997C6D",
"ej 	c #6E5647",
"fj 	c #54443A",
"gj 	c #41352D",
"hj 	c #4D4844",
"ij 	c #CAD4E0",
"jj 	c #E1EEFC",
"kj 	c #D9ECF8",
"lj 	c #E3F1FC",
"mj 	c #E2EDF7",
"nj 	c #D5E6F0",
"oj 	c #E2EEFA",
"pj 	c #DCE8F7",
"qj 	c #ADB5AE",
"rj 	c #BEBDBF",
"sj 	c #BCB8BC",
"tj 	c #BFBEC2",
"uj 	c #969B98",
"vj 	c #80989B",
"wj 	c #C4D2E5",
"xj 	c #73818F",
"yj 	c #454930",
"zj 	c #686952",
"Aj 	c #E0DEE4",
"Bj 	c #EAEEF4",
"Cj 	c #DED9D6",
"Dj 	c #DFD5D0",
"Ej 	c #DEDBD9",
"Fj 	c #E8ECF3",
"Gj 	c #C9DEED",
"Hj 	c #C7DDEC",
"Ij 	c #C7DCEB",
"Jj 	c #C8DCED",
"Kj 	c #C8DCEC",
"Lj 	c #C6DEEE",
"Mj 	c #C9DEEF",
"Nj 	c #CBDEEF",
"Oj 	c #CADFF0",
"Pj 	c #C9E0F1",
"Qj 	c #CBE2F2",
"Rj 	c #D0E4F5",
"Sj 	c #C3D6EC",
"Tj 	c #3F4744",
"Uj 	c #393E3C",
"Vj 	c #313534",
"Wj 	c #474F48",
"Xj 	c #6D776E",
"Yj 	c #878D84",
"Zj 	c #807E71",
"`j 	c #3F3026",
" k 	c #402F25",
".k 	c #412F26",
"+k 	c #523B2F",
"@k 	c #785947",
"#k 	c #876657",
"$k 	c #A67F6E",
"%k 	c #C09486",
"&k 	c #CCA192",
"*k 	c #D7AA97",
"=k 	c #DAAE9B",
"-k 	c #DEB2A0",
";k 	c #E7B5A3",
">k 	c #E4B4A0",
",k 	c #E7B6A0",
"'k 	c #E6B7A8",
")k 	c #E3B2A0",
"!k 	c #E5B2A1",
"~k 	c #E6B0A0",
"{k 	c #E5B1A0",
"]k 	c #E6B4A4",
"^k 	c #E7B5A4",
"/k 	c #E5B9A8",
"(k 	c #DFB5A5",
"_k 	c #E2B2A1",
":k 	c #E3B4A3",
"<k 	c #E1B29E",
"[k 	c #E0B09C",
"}k 	c #E1B0A0",
"|k 	c #E0AC9A",
"1k 	c #E2B19E",
"2k 	c #E2AE9A",
"3k 	c #E3AF9A",
"4k 	c #E3B19B",
"5k 	c #E1B19A",
"6k 	c #E0B09D",
"7k 	c #E2B29E",
"8k 	c #DFAF94",
"9k 	c #DDB19B",
"0k 	c #DCAF98",
"ak 	c #D9AD96",
"bk 	c #D8AC94",
"ck 	c #D7AC95",
"dk 	c #D5A891",
"ek 	c #D6AA94",
"fk 	c #D2AB96",
"gk 	c #D0AA96",
"hk 	c #CBA996",
"ik 	c #C9A99A",
"jk 	c #C5A69C",
"kk 	c #BDA196",
"lk 	c #AB9385",
"mk 	c #937765",
"nk 	c #6B5547",
"ok 	c #4B3C34",
"pk 	c #3A3128",
"qk 	c #49443F",
"rk 	c #C3CBD4",
"sk 	c #E4F1FD",
"tk 	c #CDDBE8",
"uk 	c #BDD0D3",
"vk 	c #E6F1FA",
"wk 	c #EDF7FE",
"xk 	c #C5D3DB",
"yk 	c #A9ABA3",
"zk 	c #C6C5C8",
"Ak 	c #C0BEC1",
"Bk 	c #BFBCBF",
"Ck 	c #B9B8BB",
"Dk 	c #768176",
"Ek 	c #95A7B3",
"Fk 	c #D3DFEF",
"Gk 	c #98A4BA",
"Hk 	c #596054",
"Ik 	c #5A5D43",
"Jk 	c #D4D2D2",
"Kk 	c #EDF0F4",
"Lk 	c #DFDAD5",
"Mk 	c #DED7D2",
"Nk 	c #E4E3E4",
"Ok 	c #ECF1FB",
"Pk 	c #C0D5E4",
"Qk 	c #BED4E3",
"Rk 	c #BED3E4",
"Sk 	c #BFD4E5",
"Tk 	c #C0D4E5",
"Uk 	c #BDD6E8",
"Vk 	c #C0D7E8",
"Wk 	c #C3D7E9",
"Xk 	c #C2D9E9",
"Yk 	c #C4D8EA",
"Zk 	c #C5D9EE",
"`k 	c #C6DBEE",
" l 	c #CADBEE",
".l 	c #BBCDE3",
"+l 	c #9FB0C1",
"@l 	c #63777C",
"#l 	c #363F3C",
"$l 	c #2E3431",
"%l 	c #474F4A",
"&l 	c #6F7970",
"*l 	c #898F86",
"=l 	c #828073",
"-l 	c #3D2F25",
";l 	c #48382E",
">l 	c #3D2C22",
",l 	c #4D392C",
"'l 	c #664A3B",
")l 	c #7F5E4F",
"!l 	c #A07769",
"~l 	c #BA8E7E",
"{l 	c #C3988A",
"]l 	c #D1A593",
"^l 	c #D7AD9A",
"/l 	c #DFB1A0",
"(l 	c #E6B2A0",
"_l 	c #E3B19D",
":l 	c #E5B4A1",
"<l 	c #E5B29F",
"[l 	c #E3B3A3",
"}l 	c #DFB09C",
"|l 	c #DDAA99",
"1l 	c #DEA897",
"2l 	c #DEAA99",
"3l 	c #DFAC9B",
"4l 	c #E1AE9B",
"5l 	c #E2B1A0",
"6l 	c #E1B3A2",
"7l 	c #DFB2A2",
"8l 	c #E1B4A3",
"9l 	c #E2B2A2",
"0l 	c #DFAD9C",
"al 	c #DEAC98",
"bl 	c #DFAC9A",
"cl 	c #DDAC9A",
"dl 	c #DDAD9A",
"el 	c #DBAA96",
"fl 	c #DBA994",
"gl 	c #DEAE99",
"hl 	c #DCAE9A",
"il 	c #DBAE97",
"jl 	c #DDB09B",
"kl 	c #D8AE96",
"ll 	c #D5AA91",
"ml 	c #D4AC94",
"nl 	c #D4A891",
"ol 	c #D6A993",
"pl 	c #D6AA95",
"ql 	c #D3AB96",
"rl 	c #CBA997",
"sl 	c #C6A79A",
"tl 	c #C0A399",
"ul 	c #B99D93",
"vl 	c #A78D7F",
"wl 	c #8B7261",
"xl 	c #635043",
"yl 	c #483B33",
"zl 	c #342E26",
"Al 	c #3A3630",
"Bl 	c #C6CED7",
"Cl 	c #E4F1FC",
"Dl 	c #EAF4FD",
"El 	c #DAE9F4",
"Fl 	c #CBDBE9",
"Gl 	c #DCE8F5",
"Hl 	c #EFF9FF",
"Il 	c #E4F0FA",
"Jl 	c #A3B2A9",
"Kl 	c #BDBEC1",
"Ll 	c #C9C9CC",
"Ml 	c #C3C1C4",
"Nl 	c #C1BFC2",
"Ol 	c #A7AAA9",
"Pl 	c #889298",
"Ql 	c #A7BACA",
"Rl 	c #CBD6E8",
"Sl 	c #BFCFDB",
"Tl 	c #C7D4E3",
"Ul 	c #93A7AD",
"Vl 	c #C8CAC6",
"Wl 	c #EAEBED",
"Xl 	c #E1DAD4",
"Yl 	c #E2DCD9",
"Zl 	c #E9EAEF",
"`l 	c #F0F5FD",
" m 	c #ABBDCA",
".m 	c #ABBDCC",
"+m 	c #ACBFCD",
"@m 	c #ACC0CD",
"#m 	c #AAC1D1",
"$m 	c #AEC2D2",
"%m 	c #AFC3D1",
"&m 	c #B0C4D3",
"*m 	c #B3C5D6",
"=m 	c #B4C5D8",
"-m 	c #B5C8DA",
";m 	c #B8C8DA",
">m 	c #A9BACB",
",m 	c #8D9EA8",
"'m 	c #576467",
")m 	c #2D3330",
"!m 	c #47504A",
"~m 	c #879086",
"{m 	c #838578",
"]m 	c #463932",
"^m 	c #47372B",
"/m 	c #3C2B21",
"(m 	c #4A372A",
"_m 	c #5D4639",
":m 	c #745548",
"<m 	c #977061",
"[m 	c #B18575",
"}m 	c #BA8E7D",
"|m 	c #CDA190",
"1m 	c #DCAD9C",
"2m 	c #E5B3A1",
"3m 	c #E6B3A0",
"4m 	c #E2B29C",
"5m 	c #E1B1A1",
"6m 	c #DEAD9C",
"7m 	c #DAAB98",
"8m 	c #DAAB99",
"9m 	c #D8A997",
"0m 	c #D9A996",
"am 	c #D8A595",
"bm 	c #D6A18F",
"cm 	c #D8A190",
"dm 	c #D69F90",
"em 	c #D6A190",
"fm 	c #DAA491",
"gm 	c #DBA794",
"hm 	c #DCAB99",
"im 	c #E2B1A1",
"jm 	c #DDAB99",
"km 	c #DCA898",
"lm 	c #D9A797",
"mm 	c #D9A792",
"nm 	c #DAA892",
"om 	c #D7A492",
"pm 	c #D7A493",
"qm 	c #D6A390",
"rm 	c #D6A28D",
"sm 	c #D6A693",
"tm 	c #D9AC96",
"um 	c #D9AB94",
"vm 	c #DAAD99",
"wm 	c #DAAF98",
"xm 	c #D6AF98",
"ym 	c #D5AD94",
"zm 	c #D2AA91",
"Am 	c #D2A890",
"Bm 	c #D6A891",
"Cm 	c #D3A892",
"Dm 	c #CDA591",
"Em 	c #C8A695",
"Fm 	c #C4A598",
"Gm 	c #BB9F93",
"Hm 	c #B6998F",
"Im 	c #9D8174",
"Jm 	c #846D5F",
"Km 	c #5B4A3F",
"Lm 	c #3C3028",
"Mm 	c #342F28",
"Nm 	c #2F2A26",
"Om 	c #A5ABAF",
"Pm 	c #D8E3F0",
"Qm 	c #D1DDE7",
"Rm 	c #D2DEEC",
"Sm 	c #D6E4F4",
"Tm 	c #E1EEFB",
"Um 	c #C6D4DC",
"Vm 	c #9EA59C",
"Wm 	c #CFCFD8",
"Xm 	c #C7C7CA",
"Ym 	c #C2C0C3",
"Zm 	c #BCBBBD",
"`m 	c #A6ABAE",
" n 	c #A7ADBB",
".n 	c #ABBCCC",
"+n 	c #BBC7DB",
"@n 	c #D7E3E7",
"#n 	c #F3F8FD",
"$n 	c #E8E9EA",
"%n 	c #E2D9D1",
"&n 	c #E5E2DF",
"*n 	c #EEF0F7",
"=n 	c #F4F9FF",
"-n 	c #788A92",
";n 	c #7A8C91",
">n 	c #7B8C93",
",n 	c #7C8D94",
"'n 	c #7D8E94",
")n 	c #7E9097",
"!n 	c #809299",
"~n 	c #83959C",
"{n 	c #85989E",
"]n 	c #8699A0",
"^n 	c #8B9BA3",
"/n 	c #8C9EA5",
"(n 	c #8DA0A6",
"_n 	c #85969D",
":n 	c #6B757D",
"<n 	c #414A4B",
"[n 	c #2D3331",
"}n 	c #2E3532",
"|n 	c #48514B",
"1n 	c #707971",
"2n 	c #889188",
"3n 	c #888A80",
"4n 	c #4D3D36",
"5n 	c #46372D",
"6n 	c #382A21",
"7n 	c #3E2D22",
"8n 	c #543D2F",
"9n 	c #6D4E41",
"0n 	c #8E6A5C",
"an 	c #A47E6C",
"bn 	c #B88D7C",
"cn 	c #CCA291",
"dn 	c #D3A696",
"en 	c #D9AB9B",
"fn 	c #E7B6A2",
"gn 	c #E7B7A4",
"hn 	c #E6B6A2",
"in 	c #E5B5A6",
"jn 	c #DFAE9E",
"kn 	c #DDAB9D",
"ln 	c #D7A695",
"mn 	c #D6A490",
"nn 	c #D5A696",
"on 	c #D4A28F",
"pn 	c #D3A18D",
"qn 	c #D2A292",
"rn 	c #D2A090",
"sn 	c #D09D8A",
"tn 	c #D09B8B",
"un 	c #CE9988",
"vn 	c #D29D8B",
"wn 	c #D6A392",
"xn 	c #DDAD9D",
"yn 	c #DCAF9E",
"zn 	c #DBAF9C",
"An 	c #DEB1A1",
"Bn 	c #DEB2A2",
"Cn 	c #DBAA98",
"Dn 	c #DAA997",
"En 	c #D7A796",
"Fn 	c #D6A492",
"Gn 	c #D49E8C",
"Hn 	c #D4A28D",
"In 	c #D5A290",
"Jn 	c #D3A290",
"Kn 	c #D4A592",
"Ln 	c #D5A692",
"Mn 	c #D3A591",
"Nn 	c #D2A591",
"On 	c #D4A591",
"Pn 	c #D5A792",
"Qn 	c #D4A793",
"Rn 	c #D4A792",
"Sn 	c #D7AB94",
"Tn 	c #D1AA91",
"Un 	c #D1A88F",
"Vn 	c #D4A68E",
"Wn 	c #D4A68D",
"Xn 	c #D3A791",
"Yn 	c #CCA48E",
"Zn 	c #C8A697",
"`n 	c #C1A196",
" o 	c #B89D91",
".o 	c #B09388",
"+o 	c #937769",
"@o 	c #786256",
"#o 	c #312921",
"$o 	c #2A2722",
"%o 	c #757474",
"&o 	c #B5BABA",
"*o 	c #C4CBD2",
"=o 	c #D4DBE6",
"-o 	c #BECBD2",
";o 	c #D2DDE6",
">o 	c #CFDBE3",
",o 	c #9CA599",
"'o 	c #B9BABC",
")o 	c #CACCD1",
"!o 	c #C5C2C5",
"~o 	c #C2BFC3",
"{o 	c #B9BABD",
"]o 	c #B3B7BD",
"^o 	c #ACB3C0",
"/o 	c #ACBDCB",
"(o 	c #A9B7CA",
"_o 	c #E4EEF3",
":o 	c #F9FBFF",
"<o 	c #DFE5EC",
"[o 	c #B8B7A8",
"}o 	c #D2CFC9",
"|o 	c #EBEEF6",
"1o 	c #F6FAFE",
"2o 	c #506269",
"3o 	c #4F6066",
"4o 	c #526167",
"5o 	c #516068",
"6o 	c #516265",
"7o 	c #516063",
"8o 	c #525D61",
"9o 	c #545C60",
"0o 	c #525F62",
"ao 	c #556063",
"bo 	c #575F63",
"co 	c #586064",
"do 	c #576164",
"eo 	c #5A6264",
"fo 	c #4E5356",
"go 	c #3C4344",
"ho 	c #313735",
"io 	c #4C524C",
"jo 	c #747C74",
"ko 	c #8D938B",
"lo 	c #51423A",
"mo 	c #3E3027",
"no 	c #32251C",
"oo 	c #39291F",
"po 	c #473326",
"qo 	c #64493B",
"ro 	c #846251",
"so 	c #A17A68",
"to 	c #BB907F",
"uo 	c #CBA190",
"vo 	c #D1A493",
"wo 	c #D6A898",
"xo 	c #E0AF9D",
"yo 	c #E9BAA6",
"zo 	c #E9BAA8",
"Ao 	c #E9BAA9",
"Bo 	c #E4B6AB",
"Co 	c #DFAFA1",
"Do 	c #DBAB9D",
"Eo 	c #D8AA9A",
"Fo 	c #D3A595",
"Go 	c #CDA090",
"Ho 	c #CA9D88",
"Io 	c #CA9C88",
"Jo 	c #C99788",
"Ko 	c #C79584",
"Lo 	c #C79285",
"Mo 	c #C89687",
"No 	c #CC9B8A",
"Oo 	c #CF9F8B",
"Po 	c #D19F88",
"Qo 	c #D4A393",
"Ro 	c #D7A697",
"So 	c #D8A998",
"To 	c #D9AE9B",
"Uo 	c #D8A999",
"Vo 	c #DAB0A0",
"Wo 	c #D9AB98",
"Xo 	c #D5A591",
"Yo 	c #D4A492",
"Zo 	c #D19F8C",
"`o 	c #CE9B87",
" p 	c #C99482",
".p 	c #CA9686",
"+p 	c #CD9C87",
"@p 	c #D0A48F",
"#p 	c #D2A794",
"$p 	c #CEA38D",
"%p 	c #CFA18E",
"&p 	c #CEA28F",
"*p 	c #D0A28F",
"=p 	c #D2A692",
"-p 	c #D3AA96",
";p 	c #D4AB91",
">p 	c #D3A58C",
",p 	c #D2A58F",
"'p 	c #C9A08B",
")p 	c #C6A493",
"!p 	c #BFA193",
"~p 	c #B5968A",
"{p 	c #AA8A80",
"]p 	c #886D61",
"^p 	c #6C594D",
"/p 	c #4B3C33",
"(p 	c #302821",
"_p 	c #28241F",
":p 	c #36322E",
"<p 	c #494641",
"[p 	c #A09F9F",
"}p 	c #BFC1C5",
"|p 	c #B8BBBF",
"1p 	c #969D96",
"2p 	c #BDBEC2",
"3p 	c #A9AEA8",
"4p 	c #9EA092",
"5p 	c #C1C1C0",
"6p 	c #C3C0C0",
"7p 	c #C4C0C1",
"8p 	c #BDBCC0",
"9p 	c #BCBCC2",
"0p 	c #ACB3BF",
"ap 	c #AEBBC9",
"bp 	c #A4AFC0",
"cp 	c #ECF3F9",
"dp 	c #F8FBFF",
"ep 	c #E0E8F3",
"fp 	c #7D8E8A",
"gp 	c #6B7159",
"hp 	c #ABB3AD",
"ip 	c #E1E9EE",
"jp 	c #64808C",
"kp 	c #657F8C",
"lp 	c #638089",
"mp 	c #617F8B",
"np 	c #607A85",
"op 	c #566972",
"pp 	c #485358",
"qp 	c #42474B",
"rp 	c #41484A",
"sp 	c #43494C",
"tp 	c #44494D",
"up 	c #494E51",
"vp 	c #525758",
"wp 	c #474B4C",
"xp 	c #414445",
"yp 	c #303433",
"zp 	c #292F2D",
"Ap 	c #323734",
"Bp 	c #505750",
"Cp 	c #73756F",
"Dp 	c #858881",
"Ep 	c #7F7B74",
"Fp 	c #4B3D33",
"Gp 	c #3C2F26",
"Hp 	c #2D2018",
"Ip 	c #38281F",
"Jp 	c #423024",
"Kp 	c #5A4233",
"Lp 	c #81604E",
"Mp 	c #9E7665",
"Np 	c #C19584",
"Op 	c #CEA594",
"Pp 	c #D5A796",
"Qp 	c #D6A795",
"Rp 	c #E3AF9B",
"Sp 	c #EBBDAB",
"Tp 	c #E9BBA9",
"Up 	c #D8AB9C",
"Vp 	c #D0A18E",
"Wp 	c #CB9C89",
"Xp 	c #C59685",
"Yp 	c #BC907D",
"Zp 	c #AD826F",
"`p 	c #9D7060",
" q 	c #A47665",
".q 	c #B0806D",
"+q 	c #B88775",
"@q 	c #BB8572",
"#q 	c #BD8873",
"$q 	c #C3937C",
"%q 	c #C99781",
"&q 	c #CD9C8C",
"*q 	c #CC9D8D",
"=q 	c #D0A593",
"-q 	c #D7A897",
";q 	c #D9A998",
">q 	c #D1A28F",
",q 	c #CC9B85",
"'q 	c #C99785",
")q 	c #C08B78",
"!q 	c #B98470",
"~q 	c #BE8875",
"{q 	c #BD897C",
"]q 	c #B27D6A",
"^q 	c #B88773",
"/q 	c #BA8D77",
"(q 	c #C1957B",
"_q 	c #C49D87",
":q 	c #C3997E",
"<q 	c #C79D88",
"[q 	c #CB9F8C",
"}q 	c #CA9B87",
"|q 	c #CFA28E",
"1q 	c #D4A894",
"2q 	c #D3AB95",
"3q 	c #D7AA94",
"4q 	c #D4A78F",
"5q 	c #D3A68D",
"6q 	c #D0A48D",
"7q 	c #C8A38F",
"8q 	c #C5A292",
"9q 	c #BDA092",
"0q 	c #B5988B",
"aq 	c #A28479",
"bq 	c #81665B",
"cq 	c #624C42",
"dq 	c #44362E",
"eq 	c #372E27",
"fq 	c #28231F",
"gq 	c #221E1B",
"hq 	c #332F2B",
"iq 	c #8E8B87",
"jq 	c #B9B5B4",
"kq 	c #A6A5A0",
"lq 	c #8A8A79",
"mq 	c #B5B1AE",
"nq 	c #A1A191",
"oq 	c #B5AFAC",
"pq 	c #C2BABC",
"qq 	c #C3BCBC",
"rq 	c #C4C0C0",
"sq 	c #C1BEC0",
"tq 	c #BDBBBD",
"uq 	c #BDBCC1",
"vq 	c #B3B5BC",
"wq 	c #B3B6BF",
"xq 	c #A6AFB6",
"yq 	c #E8EEF8",
"zq 	c #F9FCFF",
"Aq 	c #F2F7FE",
"Bq 	c #E5EAF5",
"Cq 	c #A5AEB4",
"Dq 	c #5A634A",
"Eq 	c #525A3D",
"Fq 	c #727E6D",
"Gq 	c #81A6B6",
"Hq 	c #81A5B6",
"Iq 	c #81A4B7",
"Jq 	c #7EA4B6",
"Kq 	c #7999AF",
"Lq 	c #647E8F",
"Mq 	c #44565F",
"Nq 	c #2F353A",
"Oq 	c #2D3537",
"Pq 	c #2C3637",
"Qq 	c #2C3437",
"Rq 	c #2E3639",
"Sq 	c #3A3F42",
"Tq 	c #3A3E41",
"Uq 	c #363A3C",
"Vq 	c #323433",
"Wq 	c #45413B",
"Xq 	c #3C3D3D",
"Yq 	c #333534",
"Zq 	c #414843",
"`q 	c #5D635D",
" r 	c #767872",
".r 	c #5F584D",
"+r 	c #43362E",
"@r 	c #362921",
"#r 	c #2B201A",
"$r 	c #2F2018",
"%r 	c #3D2B21",
"&r 	c #573F32",
"*r 	c #845F4D",
"=r 	c #A67E6D",
"-r 	c #C69A8A",
";r 	c #D3A796",
">r 	c #D6A896",
",r 	c #DAAA96",
"'r 	c #E7B9AA",
")r 	c #E0B2A2",
"!r 	c #D7A998",
"~r 	c #CFA290",
"{r 	c #C39684",
"]r 	c #B58773",
"^r 	c #A77A68",
"/r 	c #986E5D",
"(r 	c #8D6555",
"_r 	c #724D3C",
":r 	c #674434",
"<r 	c #64402F",
"[r 	c #794D3F",
"}r 	c #8D5E4D",
"|r 	c #A2715F",
"1r 	c #A26F5E",
"2r 	c #B17D69",
"3r 	c #BD8A75",
"4r 	c #C59381",
"5r 	c #C79885",
"6r 	c #C79782",
"7r 	c #C89C86",
"8r 	c #CE9E8B",
"9r 	c #D09F8E",
"0r 	c #CF9F8D",
"ar 	c #CA9785",
"br 	c #C59580",
"cr 	c #BE8B76",
"dr 	c #B37E6A",
"er 	c #A66E5C",
"fr 	c #AC7967",
"gr 	c #A8725F",
"hr 	c #A37162",
"ir 	c #936251",
"jr 	c #8A5E4B",
"kr 	c #885E4A",
"lr 	c #8C624B",
"mr 	c #9D735A",
"nr 	c #B18770",
"or 	c #B38A72",
"pr 	c #B7917A",
"qr 	c #C2967F",
"rr 	c #CA9E88",
"sr 	c #D0A48E",
"tr 	c #CFA893",
"ur 	c #D1AA92",
"vr 	c #D4A990",
"wr 	c #D6A791",
"xr 	c #D5A892",
"yr 	c #D4A790",
"zr 	c #CFA58E",
"Ar 	c #CAA38F",
"Br 	c #C69F90",
"Cr 	c #BE9F92",
"Dr 	c #B5998B",
"Er 	c #9D7F75",
"Fr 	c #7A6155",
"Gr 	c #59453B",
"Hr 	c #3A2E27",
"Ir 	c #352C28",
"Jr 	c #26211D",
"Kr 	c #201C1A",
"Lr 	c #25211F",
"Mr 	c #625F58",
"Nr 	c #B2AEAD",
"Or 	c #93938C",
"Pr 	c #7D7B6B",
"Qr 	c #AEA8A5",
"Rr 	c #A4A198",
"Sr 	c #B7B1B1",
"Tr 	c #BDB6B7",
"Ur 	c #BDB8B7",
"Vr 	c #BAB7B6",
"Wr 	c #BBB8B8",
"Xr 	c #BAB8BC",
"Yr 	c #B3B2B7",
"Zr 	c #A9AAAA",
"`r 	c #DBE0E7",
" s 	c #E8EEF4",
".s 	c #EBF0F7",
"+s 	c #E5E9F4",
"@s 	c #DBDEE8",
"#s 	c #C9CAD3",
"$s 	c #969899",
"%s 	c #5E624C",
"&s 	c #4E5534",
"*s 	c #BCC7D1",
"=s 	c #BBC6D2",
"-s 	c #BAC5D2",
";s 	c #B8C4D2",
">s 	c #B1BBC9",
",s 	c #A2ACB7",
"'s 	c #96999F",
")s 	c #888486",
"!s 	c #837D7F",
"~s 	c #7E7B7B",
"{s 	c #777676",
"]s 	c #737073",
"^s 	c #717071",
"/s 	c #747372",
"(s 	c #757571",
"_s 	c #706F6C",
":s 	c #6A6866",
"<s 	c #696360",
"[s 	c #5E5C5A",
"}s 	c #4A4F4E",
"|s 	c #585E5B",
"1s 	c #676963",
"2s 	c #4B3F35",
"3s 	c #372922",
"4s 	c #2D221D",
"5s 	c #231B15",
"6s 	c #2A1D18",
"7s 	c #3A2920",
"8s 	c #4A362A",
"9s 	c #805B4C",
"0s 	c #B58B7A",
"as 	c #CFA191",
"bs 	c #DBAB97",
"cs 	c #E5B5A5",
"ds 	c #CB9B89",
"es 	c #C29380",
"fs 	c #B48574",
"gs 	c #A1705F",
"hs 	c #875C4D",
"is 	c #735044",
"js 	c #5E4033",
"ks 	c #583A2C",
"ls 	c #56382D",
"ms 	c #523429",
"ns 	c #452921",
"os 	c #503128",
"ps 	c #553328",
"qs 	c #6C4739",
"rs 	c #8A5B4F",
"ss 	c #9A6C5A",
"ts 	c #AD7A68",
"us 	c #B5846E",
"vs 	c #BB8775",
"ws 	c #BC8B75",
"xs 	c #BF917A",
"ys 	c #C49080",
"zs 	c #C49381",
"As 	c #C1927E",
"Bs 	c #BB8C75",
"Cs 	c #B2816A",
"Ds 	c #A6705B",
"Es 	c #8D5946",
"Fs 	c #946658",
"Gs 	c #916150",
"Hs 	c #865B4B",
"Is 	c #795042",
"Js 	c #694739",
"Ks 	c #573A2D",
"Ls 	c #5C3F31",
"Ms 	c #604030",
"Ns 	c #74503B",
"Os 	c #8F6852",
"Ps 	c #9D725B",
"Qs 	c #A97E66",
"Rs 	c #B38870",
"Ss 	c #BE957E",
"Ts 	c #C59B83",
"Us 	c #CBA08A",
"Vs 	c #D1A38C",
"Ws 	c #D5A691",
"Xs 	c #D5A894",
"Ys 	c #D4A68F",
"Zs 	c #CFA48E",
"`s 	c #CAA28F",
" t 	c #C59F8F",
".t 	c #BD9D90",
"+t 	c #B8998C",
"@t 	c #9E8274",
"#t 	c #725A4E",
"$t 	c #58463B",
"%t 	c #342B24",
"&t 	c #322B27",
"*t 	c #24201B",
"=t 	c #1F1B18",
"-t 	c #4A4846",
";t 	c #9A9793",
">t 	c #7A7C6F",
",t 	c #7B7A6B",
"'t 	c #ACA6A6",
")t 	c #A9A4A3",
"!t 	c #B1ABAC",
"~t 	c #B2AEAF",
"{t 	c #B2AEAE",
"]t 	c #B3AFAE",
"^t 	c #B4B0AF",
"/t 	c #C0B9B8",
"(t 	c #B8B1B3",
"_t 	c #A8A4A2",
":t 	c #C4C3C3",
"<t 	c #CBCCCD",
"[t 	c #CFCDD0",
"}t 	c #CECBCE",
"|t 	c #CAC7CB",
"1t 	c #CAC7CA",
"2t 	c #C2BEC1",
"3t 	c #9F9B99",
"4t 	c #666A5C",
"5t 	c #DDD9DC",
"6t 	c #DCDADE",
"7t 	c #DDD9DE",
"8t 	c #DBD7DB",
"9t 	c #D7D0D4",
"0t 	c #D5C9CC",
"at 	c #D1C5C7",
"bt 	c #D0C3C6",
"ct 	c #CFC2C4",
"dt 	c #CCC1C2",
"et 	c #CBBFC1",
"ft 	c #C9BDBF",
"gt 	c #C4BABB",
"ht 	c #C4B9BB",
"it 	c #C2B6B8",
"jt 	c #BFB7B6",
"kt 	c #BFB3B4",
"lt 	c #B4A5A4",
"mt 	c #B4ABAA",
"nt 	c #B7ADAD",
"ot 	c #9D908F",
"pt 	c #342921",
"qt 	c #362A23",
"rt 	c #281E19",
"st 	c #211913",
"tt 	c #2A1E19",
"ut 	c #362820",
"vt 	c #493427",
"wt 	c #845F51",
"xt 	c #BE9583",
"yt 	c #D3A695",
"zt 	c #DAAC99",
"At 	c #DFAF9D",
"Bt 	c #C79586",
"Ct 	c #B48471",
"Dt 	c #A97460",
"Et 	c #A1705E",
"Ft 	c #8A5E4C",
"Gt 	c #785543",
"Ht 	c #65453A",
"It 	c #50362E",
"Jt 	c #462F25",
"Kt 	c #442C22",
"Lt 	c #3B271E",
"Mt 	c #3D271F",
"Nt 	c #3A211A",
"Ot 	c #42261E",
"Pt 	c #513228",
"Qt 	c #57362B",
"Rt 	c #744B3D",
"St 	c #8C5E4F",
"Tt 	c #9E6F5E",
"Ut 	c #A77863",
"Vt 	c #B27E6B",
"Wt 	c #B88670",
"Xt 	c #BC8D75",
"Yt 	c #BF8D7A",
"Zt 	c #C08C7A",
"`t 	c #BC8C79",
" u 	c #B27F6D",
".u 	c #A16D57",
"+u 	c #9B6653",
"@u 	c #885948",
"#u 	c #855949",
"$u 	c #714A3A",
"%u 	c #6D4838",
"&u 	c #6C463A",
"*u 	c #503329",
"=u 	c #40261C",
"-u 	c #432A21",
";u 	c #442D22",
">u 	c #473023",
",u 	c #563A2B",
"'u 	c #694837",
")u 	c #714D3B",
"!u 	c #8B644F",
"~u 	c #A27763",
"{u 	c #B0816B",
"]u 	c #BA8C77",
"^u 	c #C7987E",
"/u 	c #D0A28B",
"(u 	c #D4A892",
"_u 	c #D1A48E",
":u 	c #C9A18E",
"<u 	c #C39D8C",
"[u 	c #BF9F90",
"}u 	c #BB9E91",
"|u 	c #A3887C",
"1u 	c #675146",
"2u 	c #514035",
"3u 	c #2D251F",
"4u 	c #2A2421",
"5u 	c #221D1A",
"6u 	c #1D1A17",
"7u 	c #23201C",
"8u 	c #545652",
"9u 	c #7E7D77",
"0u 	c #6B6F5D",
"au 	c #78796C",
"bu 	c #9F9D9D",
"cu 	c #A2A2A2",
"du 	c #A4A3A5",
"eu 	c #A5A4A5",
"fu 	c #A4A3A3",
"gu 	c #A7A4A5",
"hu 	c #ABA6A7",
"iu 	c #B3ACAD",
"ju 	c #BAB2B0",
"ku 	c #B0A8A8",
"lu 	c #A39D9A",
"mu 	c #BAB2B2",
"nu 	c #BCB5B6",
"ou 	c #BBB6B5",
"pu 	c #BCB7B6",
"qu 	c #BDB7B7",
"ru 	c #BEB7B7",
"su 	c #BEB8B7",
"tu 	c #BAB5B6",
"uu 	c #A29FA3",
"vu 	c #EBDCDC",
"wu 	c #ECDDDD",
"xu 	c #EDDEDE",
"yu 	c #EDDEDF",
"zu 	c #ECDFDF",
"Au 	c #ECDFDE",
"Bu 	c #EDDDDE",
"Cu 	c #EDDEDD",
"Du 	c #EBDDDD",
"Eu 	c #EBDCDD",
"Fu 	c #EADCDC",
"Gu 	c #E8DADB",
"Hu 	c #E8DBDC",
"Iu 	c #E7DADA",
"Ju 	c #E6D9DA",
"Ku 	c #E7D8DA",
"Lu 	c #D7C7C6",
"Mu 	c #CBBCBC",
"Nu 	c #E1D1D3",
"Ou 	c #917E7C",
"Pu 	c #312923",
"Qu 	c #302721",
"Ru 	c #231B16",
"Su 	c #221B15",
"Tu 	c #271D17",
"Uu 	c #31241B",
"Vu 	c #4C3427",
"Wu 	c #956F60",
"Xu 	c #C79E8C",
"Yu 	c #D6A798",
"Zu 	c #D9AA9A",
"`u 	c #D9AB9A",
" v 	c #DEAE9E",
".v 	c #DDAD9E",
"+v 	c #DCAD9D",
"@v 	c #B8897B",
"#v 	c #A16C5C",
"$v 	c #926250",
"%v 	c #855946",
"&v 	c #704B3A",
"*v 	c #6C4939",
"=v 	c #563D2E",
"-v 	c #422E25",
";v 	c #35231C",
">v 	c #342019",
",v 	c #382119",
"'v 	c #38231A",
")v 	c #39241D",
"!v 	c #3E251D",
"~v 	c #46291F",
"{v 	c #543328",
"]v 	c #654032",
"^v 	c #71493B",
"/v 	c #88594A",
"(v 	c #926452",
"_v 	c #9C6E5B",
":v 	c #AE7B67",
"<v 	c #B6836D",
"[v 	c #BE8B74",
"}v 	c #C28C77",
"|v 	c #C18B77",
"1v 	c #BB8975",
"2v 	c #AE7D6B",
"3v 	c #9E6B55",
"4v 	c #8E5B48",
"5v 	c #865747",
"6v 	c #7E5040",
"7v 	c #714737",
"8v 	c #704A3B",
"9v 	c #633C32",
"0v 	c #4D3026",
"av 	c #432920",
"bv 	c #3C221A",
"cv 	c #3C261D",
"dv 	c #3B281E",
"ev 	c #473125",
"fv 	c #4C3529",
"gv 	c #5E4131",
"hv 	c #664837",
"iv 	c #744E3C",
"jv 	c #966B57",
"kv 	c #A47962",
"lv 	c #B48266",
"mv 	c #C4957D",
"nv 	c #CDA18A",
"ov 	c #CEA28D",
"pv 	c #C89F8C",
"qv 	c #C29B88",
"rv 	c #BF9E8D",
"sv 	c #C1A190",
"tv 	c #A68879",
"uv 	c #665046",
"vv 	c #503F34",
"wv 	c #2B241E",
"xv 	c #1F1C17",
"yv 	c #1B1A16",
"zv 	c #393734",
"Av 	c #7D8482",
"Bv 	c #5C6151",
"Cv 	c #889595",
"Dv 	c #9DABB4",
"Ev 	c #A2B0BA",
"Fv 	c #9FADB7",
"Gv 	c #A2AEB7",
"Hv 	c #A1AEB6",
"Iv 	c #A1ACB4",
"Jv 	c #9FA7AF",
"Kv 	c #A0A5AA",
"Lv 	c #A4A5A9",
"Mv 	c #A7A8AA",
"Nv 	c #9B999B",
"Ov 	c #979496",
"Pv 	c #A9A9AB",
"Qv 	c #AAAAAD",
"Rv 	c #ABABAD",
"Sv 	c #ABACAE",
"Tv 	c #ADACB0",
"Uv 	c #ADACAF",
"Vv 	c #ACADAD",
"Wv 	c #AEACAE",
"Xv 	c #AEABAE",
"Yv 	c #E6D6D6",
"Zv 	c #E8D9D8",
"`v 	c #E9DADA",
" w 	c #EADCDB",
".w 	c #EDDFDE",
"+w 	c #EEE0DF",
"@w 	c #EFE0DF",
"#w 	c #EFE1DF",
"$w 	c #EFE1E0",
"%w 	c #F0E1E1",
"&w 	c #F0E2E1",
"*w 	c #EFE0E0",
"=w 	c #B5A5A0",
"-w 	c #B7A7A1",
";w 	c #857775",
">w 	c #39312A",
",w 	c #231D18",
"'w 	c #1A1511",
")w 	c #201A14",
"!w 	c #221713",
"~w 	c #2F211B",
"{w 	c #4E3628",
"]w 	c #9D7567",
"^w 	c #D0A796",
"/w 	c #D8AA9B",
"(w 	c #DDAEA1",
"_w 	c #D5AA99",
":w 	c #BC8E7F",
"<w 	c #996C5D",
"[w 	c #7C5042",
"}w 	c #6F483C",
"|w 	c #634135",
"1w 	c #5E4137",
"2w 	c #4E3228",
"3w 	c #422B21",
"4w 	c #3A251E",
"5w 	c #4A2F27",
"6w 	c #56362A",
"7w 	c #5E392A",
"8w 	c #603A2B",
"9w 	c #623A2B",
"0w 	c #673E2E",
"aw 	c #693F30",
"bw 	c #714839",
"cw 	c #7F4E40",
"dw 	c #865646",
"ew 	c #8D5E4C",
"fw 	c #956451",
"gw 	c #AC7662",
"hw 	c #B57F6A",
"iw 	c #BF8972",
"jw 	c #C9957E",
"kw 	c #CA9585",
"lw 	c #C28E79",
"mw 	c #BA8A76",
"nw 	c #AD7D6A",
"ow 	c #A16D56",
"pw 	c #915D4A",
"qw 	c #825242",
"rw 	c #7F503E",
"sw 	c #7F5141",
"tw 	c #774B3D",
"uw 	c #6E4235",
"vw 	c #603A2D",
"ww 	c #5B382A",
"xw 	c #513025",
"yw 	c #40261E",
"zw 	c #331F18",
"Aw 	c #35231B",
"Bw 	c #422E22",
"Cw 	c #513A2B",
"Dw 	c #614432",
"Ew 	c #6D4B3A",
"Fw 	c #8F644E",
"Gw 	c #9B705A",
"Hw 	c #A67A5F",
"Iw 	c #B58873",
"Jw 	c #C69C86",
"Kw 	c #CEA28E",
"Lw 	c #C89D8B",
"Mw 	c #C09A87",
"Nw 	c #BC9B88",
"Ow 	c #C19F8C",
"Pw 	c #A98A7C",
"Qw 	c #6A5349",
"Rw 	c #4D3C32",
"Sw 	c #211C19",
"Tw 	c #1D1A16",
"Uw 	c #211E1B",
"Vw 	c #1E1D19",
"Ww 	c #2D2C28",
"Xw 	c #686D6B",
"Yw 	c #6C7C73",
"Zw 	c #93A4AE",
"`w 	c #B1CBDD",
" x 	c #B4CFE2",
".x 	c #AFCBDD",
"+x 	c #B2CDDC",
"@x 	c #B2CDDE",
"#x 	c #ACC3D5",
"$x 	c #9AB1C1",
"%x 	c #8B99A7",
"&x 	c #838F97",
"*x 	c #838E95",
"=x 	c #808185",
"-x 	c #7F8489",
";x 	c #8B929C",
">x 	c #8D959F",
",x 	c #8F96A0",
"'x 	c #9097A1",
")x 	c #9099A2",
"!x 	c #929AA3",
"~x 	c #959BA4",
"{x 	c #969BA4",
"]x 	c #949DA4",
"^x 	c #DFD2D1",
"/x 	c #E2D4D3",
"(x 	c #E4D6D6",
"_x 	c #E5D7D7",
":x 	c #E7D9D8",
"<x 	c #E8DADA",
"[x 	c #E8DAD9",
"}x 	c #EADDDC",
"|x 	c #ECDEDD",
"1x 	c #EEDFDF",
"2x 	c #BBABA8",
"3x 	c #907F7A",
"4x 	c #A29590",
"5x 	c #352B25",
"6x 	c #1F1916",
"7x 	c #1D1814",
"8x 	c #201916",
"9x 	c #221916",
"0x 	c #2D211A",
"ax 	c #4E3629",
"bx 	c #A57F74",
"cx 	c #D5AC9C",
"dx 	c #DAAC9D",
"ex 	c #D7AA98",
"fx 	c #D5A898",
"gx 	c #D4A799",
"hx 	c #BC8C7B",
"ix 	c #9A6E5E",
"jx 	c #674435",
"kx 	c #5E3E31",
"lx 	c #543A2B",
"mx 	c #583C31",
"nx 	c #462C24",
"ox 	c #442921",
"px 	c #4B3227",
"qx 	c #6A4537",
"rx 	c #744C3C",
"sx 	c #784D3C",
"tx 	c #754935",
"ux 	c #6D4432",
"vx 	c #6B4131",
"wx 	c #6C4232",
"xx 	c #6F4535",
"yx 	c #77483A",
"zx 	c #7E4B3D",
"Ax 	c #814D3F",
"Bx 	c #8B5A49",
"Cx 	c #945F4C",
"Dx 	c #A46E5A",
"Ex 	c #B6816B",
"Fx 	c #C5927C",
"Gx 	c #D3A391",
"Hx 	c #D3A492",
"Ix 	c #CA9784",
"Jx 	c #C18F7A",
"Kx 	c #B4846F",
"Lx 	c #A67661",
"Mx 	c #9A6A56",
"Nx 	c #8E5C4B",
"Ox 	c #875746",
"Px 	c #805141",
"Qx 	c #7A4B3C",
"Rx 	c #734636",
"Sx 	c #6D4533",
"Tx 	c #6C4532",
"Ux 	c #6B4331",
"Vx 	c #643F30",
"Wx 	c #5E3B2C",
"Xx 	c #563829",
"Yx 	c #422C20",
"Zx 	c #452F21",
"`x 	c #503729",
" y 	c #644635",
".y 	c #6D4939",
"+y 	c #855F4B",
"@y 	c #8A6250",
"#y 	c #956C5B",
"$y 	c #A77B65",
"%y 	c #BF9680",
"&y 	c #C59F8A",
"*y 	c #BE9883",
"=y 	c #BD9A88",
"-y 	c #C19E8B",
";y 	c #B08D7B",
">y 	c #6A5348",
",y 	c #514036",
"'y 	c #2C2720",
")y 	c #1E1A17",
"!y 	c #1F1E1A",
"~y 	c #302F2D",
"{y 	c #444647",
"]y 	c #77837F",
"^y 	c #ADC1D2",
"/y 	c #C5E2F5",
"(y 	c #C6E2F6",
"_y 	c #BFDDF2",
":y 	c #C2E0F3",
"<y 	c #BFDAEF",
"[y 	c #B1CAE2",
"}y 	c #9DB7C9",
"|y 	c #889CAA",
"1y 	c #778791",
"2y 	c #78818A",
"3y 	c #75777B",
"4y 	c #757E85",
"5y 	c #78838F",
"6y 	c #79838F",
"7y 	c #7A848F",
"8y 	c #7A8490",
"9y 	c #798591",
"0y 	c #788592",
"ay 	c #7B8392",
"by 	c #7A8391",
"cy 	c #77848F",
"dy 	c #D9CDCB",
"ey 	c #DCD0CE",
"fy 	c #DFD1D1",
"gy 	c #E1D3D2",
"hy 	c #E3D4D5",
"iy 	c #E4D6D5",
"jy 	c #E5D7D6",
"ky 	c #E6D8D7",
"ly 	c #E6D9D8",
"my 	c #E9DBDA",
"ny 	c #EBDCDB",
"oy 	c #EDDDDD",
"py 	c #EBDDDC",
"qy 	c #EADBDA",
"ry 	c #D2C0BD",
"sy 	c #A49089",
"ty 	c #634E43",
"uy 	c #362C26",
"vy 	c #201A17",
"wy 	c #211A16",
"xy 	c #251B18",
"yy 	c #2D201A",
"zy 	c #513B2E",
"Ay 	c #A88476",
"By 	c #D5AD9D",
"Cy 	c #DBAE9D",
"Dy 	c #D8AA99",
"Ey 	c #D2A594",
"Fy 	c #B68777",
"Gy 	c #9E6F60",
"Hy 	c #6D473A",
"Iy 	c #422A21",
"Jy 	c #412A1F",
"Ky 	c #4A2E22",
"Ly 	c #4A3024",
"My 	c #55362B",
"Ny 	c #5E382D",
"Oy 	c #734738",
"Py 	c #7C513F",
"Qy 	c #78503F",
"Ry 	c #774C3C",
"Sy 	c #734638",
"Ty 	c #66392D",
"Uy 	c #593225",
"Vy 	c #542C22",
"Wy 	c #5B3327",
"Xy 	c #673E31",
"Yy 	c #704438",
"Zy 	c #75453B",
"`y 	c #7D4E42",
" z 	c #8B5A4C",
".z 	c #976350",
"+z 	c #BA8370",
"@z 	c #D29F8B",
"#z 	c #DFAF9E",
"$z 	c #CB9C88",
"%z 	c #C0907B",
"&z 	c #B3826E",
"*z 	c #A3725F",
"=z 	c #966453",
"-z 	c #7B4D3D",
";z 	c #724636",
">z 	c #6A4030",
",z 	c #62392A",
"'z 	c #573123",
")z 	c #573223",
"!z 	c #633C2C",
"~z 	c #744B39",
"{z 	c #7E5541",
"]z 	c #815845",
"^z 	c #764E3E",
"/z 	c #634132",
"(z 	c #553929",
"_z 	c #4C3225",
":z 	c #583A2D",
"<z 	c #674537",
"[z 	c #714F41",
"}z 	c #7B5949",
"|z 	c #7E5946",
"1z 	c #90695A",
"2z 	c #AE8A74",
"3z 	c #B9947F",
"4z 	c #BA9583",
"5z 	c #BF9C89",
"6z 	c #B38E7D",
"7z 	c #786052",
"8z 	c #54443B",
"9z 	c #231F1C",
"0z 	c #23211D",
"az 	c #252321",
"bz 	c #47494D",
"cz 	c #839293",
"dz 	c #BBD5E2",
"ez 	c #CCE9F6",
"fz 	c #CEEAFC",
"gz 	c #C9E5F5",
"hz 	c #C9E4F8",
"iz 	c #C0D8EB",
"jz 	c #B3C7D9",
"kz 	c #A4B3C3",
"lz 	c #939DAE",
"mz 	c #8E93A3",
"nz 	c #8A8C99",
"oz 	c #898994",
"pz 	c #8A8E9C",
"qz 	c #8A8C9C",
"rz 	c #888A9B",
"sz 	c #8A8A99",
"tz 	c #888797",
"uz 	c #888696",
"vz 	c #888597",
"wz 	c #878596",
"xz 	c #868493",
"yz 	c #868291",
"zz 	c #D4C6C5",
"Az 	c #D8CAC9",
"Bz 	c #DACCCB",
"Cz 	c #DCCECE",
"Dz 	c #DFCFD0",
"Ez 	c #E0D2D1",
"Fz 	c #E3D5D5",
"Gz 	c #E9DAD9",
"Hz 	c #E9D9DA",
"Iz 	c #E9D2CC",
"Jz 	c #EBB8AA",
"Kz 	c #B7877B",
"Lz 	c #8C615A",
"Mz 	c #44322D",
"Nz 	c #241E1A",
"Oz 	c #231E1A",
"Pz 	c #231B17",
"Qz 	c #281E1A",
"Rz 	c #2F221D",
"Sz 	c #573D32",
"Tz 	c #B08B7B",
"Uz 	c #DAAD9C",
"Vz 	c #CEA395",
"Wz 	c #B78B7F",
"Xz 	c #946B5B",
"Yz 	c #744D42",
"Zz 	c #55372B",
"`z 	c #452A20",
" A 	c #55382A",
".A 	c #593A2C",
"+A 	c #694336",
"@A 	c #6E4836",
"#A 	c #734B3A",
"$A 	c #734637",
"%A 	c #7B5145",
"&A 	c #8A665C",
"*A 	c #9A746A",
"=A 	c #926A61",
"-A 	c #8B6454",
";A 	c #835948",
">A 	c #714636",
",A 	c #60382B",
"'A 	c #5C352B",
")A 	c #683E35",
"!A 	c #6E4139",
"~A 	c #74463E",
"{A 	c #835447",
"]A 	c #986754",
"^A 	c #A77560",
"/A 	c #C18E77",
"(A 	c #E7B8A2",
"_A 	c #E4B6A4",
":A 	c #DAAC97",
"<A 	c #CC9C88",
"[A 	c #A67764",
"}A 	c #926353",
"|A 	c #7A5041",
"1A 	c #6F4736",
"2A 	c #663D2E",
"3A 	c #5F3627",
"4A 	c #552E1F",
"5A 	c #583424",
"6A 	c #643C2C",
"7A 	c #6F4839",
"8A 	c #784E3F",
"9A 	c #7D5443",
"0A 	c #794E3E",
"aA 	c #7F5341",
"bA 	c #835B47",
"cA 	c #7A5743",
"dA 	c #6B4937",
"eA 	c #603F30",
"fA 	c #634033",
"gA 	c #6C493C",
"hA 	c #704B3C",
"iA 	c #7B5948",
"jA 	c #7A5749",
"kA 	c #8B6B5D",
"lA 	c #AD8979",
"mA 	c #BA9684",
"nA 	c #BD9A87",
"oA 	c #B79280",
"pA 	c #816657",
"qA 	c #54453C",
"rA 	c #2D2722",
"sA 	c #1D1916",
"tA 	c #1B1714",
"uA 	c #23201D",
"vA 	c #2C2B27",
"wA 	c #697171",
"xA 	c #A3B7C0",
"yA 	c #C2DCEB",
"zA 	c #C8E5F6",
"AA 	c #C0DDED",
"BA 	c #CAE6F8",
"CA 	c #BDD9ED",
"DA 	c #ABBCCB",
"EA 	c #9EA3B6",
"FA 	c #9DA0B1",
"GA 	c #9B9FB0",
"HA 	c #9D9FB0",
"IA 	c #9C9BAB",
"JA 	c #9C9AA9",
"KA 	c #9D9BAC",
"LA 	c #9E9AAC",
"MA 	c #9E98A9",
"NA 	c #9E97A7",
"OA 	c #9D95A6",
"PA 	c #9D93A5",
"QA 	c #9D92A4",
"RA 	c #9D91A3",
"SA 	c #9D90A1",
"TA 	c #9C8FA0",
"UA 	c #D0C0C0",
"VA 	c #D2C4C2",
"WA 	c #D4C7C6",
"XA 	c #D7CAC9",
"YA 	c #DACCCC",
"ZA 	c #DCCECD",
"`A 	c #DECFCF",
" B 	c #DED1D0",
".B 	c #E0D2D2",
"+B 	c #E6D7D6",
"@B 	c #E7D7D7",
"#B 	c #E7D8D8",
"$B 	c #E8D9D9",
"%B 	c #E4B7A9",
"&B 	c #DEA190",
"*B 	c #D1978B",
"=B 	c #996D63",
"-B 	c #65473F",
";B 	c #1F1915",
">B 	c #2D231F",
",B 	c #281F1A",
"'B 	c #2F211C",
")B 	c #5F4638",
"!B 	c #B38D7B",
"~B 	c #D8B09E",
"{B 	c #D9B09F",
"]B 	c #D9AC9D",
"^B 	c #C59C8F",
"/B 	c #997163",
"(B 	c #765242",
"_B 	c #472D22",
":B 	c #593729",
"<B 	c #6E4536",
"[B 	c #784F3F",
"}B 	c #7C5342",
"|B 	c #6D4534",
"1B 	c #644034",
"2B 	c #7C584D",
"3B 	c #79554A",
"4B 	c #6C493E",
"5B 	c #603D33",
"6B 	c #55372C",
"7B 	c #614134",
"8B 	c #785243",
"9B 	c #794D3B",
"0B 	c #794839",
"aB 	c #704338",
"bB 	c #653C32",
"cB 	c #683D34",
"dB 	c #70433A",
"eB 	c #7E4E46",
"fB 	c #936253",
"gB 	c #A8715F",
"hB 	c #C99584",
"iB 	c #E3B29F",
"jB 	c #EFBEA9",
"kB 	c #EBB9A5",
"lB 	c #E4B5A2",
"mB 	c #B98977",
"nB 	c #9E6F5D",
"oB 	c #835345",
"pB 	c #754738",
"qB 	c #693E2E",
"rB 	c #663C2E",
"sB 	c #62392B",
"tB 	c #673B2C",
"uB 	c #714334",
"vB 	c #7B4E3E",
"wB 	c #7F5749",
"xB 	c #7F5547",
"yB 	c #8A5E4D",
"zB 	c #8D6353",
"AB 	c #815D4B",
"BB 	c #744D3C",
"CB 	c #764F3D",
"DB 	c #855E49",
"EB 	c #7F5848",
"FB 	c #866152",
"GB 	c #7B5649",
"HB 	c #755243",
"IB 	c #765347",
"JB 	c #7A5C50",
"KB 	c #947261",
"LB 	c #B79482",
"MB 	c #B89581",
"NB 	c #8C6E5F",
"OB 	c #55463E",
"PB 	c #322A26",
"QB 	c #1A1814",
"RB 	c #191815",
"SB 	c #1D1C18",
"TB 	c #33322D",
"UB 	c #676C6D",
"VB 	c #ADC1CF",
"WB 	c #BBD6E4",
"XB 	c #BDD9E8",
"YB 	c #CEEAFA",
"ZB 	c #C7E4F7",
"`B 	c #ABC8DD",
" C 	c #8493A3",
".C 	c #7A808F",
"+C 	c #7C8190",
"@C 	c #7E8492",
"#C 	c #818594",
"$C 	c #838594",
"%C 	c #838795",
"&C 	c #868896",
"*C 	c #8A8796",
"=C 	c #898895",
"-C 	c #8A8995",
";C 	c #8C8893",
">C 	c #8D8995",
",C 	c #908A96",
"'C 	c #938997",
")C 	c #968999",
"!C 	c #988A99",
"~C 	c #CABBBB",
"{C 	c #CDBFBE",
"]C 	c #D0C2C1",
"^C 	c #D3C5C4",
"/C 	c #D6C8C7",
"(C 	c #DDCFCE",
"_C 	c #E1D3D3",
":C 	c #E0D5D3",
"<C 	c #E2D6D4",
"[C 	c #E4D5D5",
"}C 	c #E5D6D6",
"|C 	c #E5D4D1",
"1C 	c #D59D89",
"2C 	c #C68471",
"3C 	c #C58376",
"4C 	c #A66A5D",
"5C 	c #89574B",
"6C 	c #362421",
"7C 	c #251E1A",
"8C 	c #3F322E",
"9C 	c #221814",
"0C 	c #33261F",
"aC 	c #6B4E40",
"bC 	c #B68E7C",
"cC 	c #D9AE9D",
"dC 	c #DBB29F",
"eC 	c #D5AE9D",
"fC 	c #B68B7F",
"gC 	c #8A6052",
"hC 	c #835C4B",
"iC 	c #6B4539",
"jC 	c #654235",
"kC 	c #774D3E",
"lC 	c #835545",
"mC 	c #673D2D",
"nC 	c #6A443A",
"oC 	c #614238",
"pC 	c #402A23",
"qC 	c #2B1D18",
"rC 	c #271D18",
"sC 	c #211E1C",
"tC 	c #65605E",
"uC 	c #392E2B",
"vC 	c #291A13",
"wC 	c #4C2D24",
"xC 	c #6E3D2D",
"yC 	c #7B4B3B",
"zC 	c #774D3D",
"AC 	c #70453A",
"BC 	c #73453D",
"CC 	c #7A483E",
"DC 	c #906356",
"EC 	c #A87361",
"FC 	c #D49F92",
"GC 	c #E8B7A8",
"HC 	c #F0BDAB",
"IC 	c #EDBAA8",
"JC 	c #DCAF9D",
"KC 	c #BB8B7B",
"LC 	c #986959",
"MC 	c #804F41",
"NC 	c #79483A",
"OC 	c #7B4C3E",
"PC 	c #7F5142",
"QC 	c #774736",
"RC 	c #734336",
"SC 	c #643E31",
"TC 	c #41271F",
"UC 	c #2A1C16",
"VC 	c #251C18",
"WC 	c #402C28",
"XC 	c #573C30",
"YC 	c #79564A",
"ZC 	c #714C3E",
"`C 	c #66402F",
" D 	c #855844",
".D 	c #946552",
"+D 	c #956B5B",
"@D 	c #906556",
"#D 	c #7D5645",
"$D 	c #7A564C",
"%D 	c #79594F",
"&D 	c #846556",
"*D 	c #AC8C7A",
"=D 	c #BB9783",
"-D 	c #B89682",
";D 	c #8E7362",
">D 	c #4E3E37",
",D 	c #322927",
"'D 	c #201E1C",
")D 	c #232221",
"!D 	c #22211F",
"~D 	c #3F3129",
"{D 	c #98776D",
"]D 	c #B7CBD4",
"^D 	c #CCE8F9",
"/D 	c #D0EDFE",
"(D 	c #BFDEF3",
"_D 	c #92B3C2",
":D 	c #4E5C66",
"<D 	c #475156",
"[D 	c #5F6974",
"}D 	c #6D7C86",
"|D 	c #6D7E87",
"1D 	c #6A7D84",
"2D 	c #67767E",
"3D 	c #67757E",
"4D 	c #69747B",
"5D 	c #687275",
"6D 	c #676E72",
"7D 	c #696D72",
"8D 	c #6D6D75",
"9D 	c #6F6F78",
"0D 	c #717079",
"aD 	c #C4B7B5",
"bD 	c #C9B9BA",
"cD 	c #CCBDBC",
"dD 	c #CEC0BF",
"eD 	c #D1C3C2",
"fD 	c #D3C5C5",
"gD 	c #D6C7C7",
"hD 	c #D8C9C9",
"iD 	c #DACECC",
"jD 	c #DDCECE",
"kD 	c #DDD0D0",
"lD 	c #DDD2D0",
"mD 	c #DFD3D1",
"nD 	c #E3D4D4",
"oD 	c #E3D5D4",
"pD 	c #E2CECB",
"qD 	c #C2795C",
"rD 	c #AE492F",
"sD 	c #A9513F",
"tD 	c #A16155",
"uD 	c #87554A",
"vD 	c #3F2B25",
"wD 	c #3B2E26",
"xD 	c #372923",
"yD 	c #251915",
"zD 	c #392B23",
"AD 	c #B99180",
"BD 	c #DAAB9A",
"CD 	c #D6AD9F",
"DD 	c #BA8A7A",
"ED 	c #A07163",
"FD 	c #865B4A",
"GD 	c #7F5846",
"HD 	c #7C5645",
"ID 	c #865B49",
"JD 	c #825542",
"KD 	c #613626",
"LD 	c #5F4031",
"MD 	c #563C30",
"ND 	c #38231D",
"OD 	c #483A39",
"PD 	c #2B201B",
"QD 	c #231A14",
"RD 	c #1F1D19",
"SD 	c #14110E",
"TD 	c #33271F",
"UD 	c #36251B",
"VD 	c #7B5C57",
"WD 	c #684840",
"XD 	c #5B2C22",
"YD 	c #734334",
"ZD 	c #906454",
"`D 	c #895D4E",
" E 	c #845143",
".E 	c #8C5E50",
"+E 	c #B27B6B",
"@E 	c #E1A899",
"#E 	c #EFBCAF",
"$E 	c #F2C0B2",
"%E 	c #F0BBAB",
"&E 	c #EAB4A5",
"*E 	c #E7B6A4",
"=E 	c #DEAD9A",
"-E 	c #C0907F",
";E 	c #A07061",
">E 	c #935D4B",
",E 	c #986755",
"'E 	c #9F725F",
")E 	c #885344",
"!E 	c #603023",
"~E 	c #54281D",
"{E 	c #6E4B42",
"]E 	c #563D38",
"^E 	c #32241C",
"/E 	c #29231D",
"(E 	c #191816",
"_E 	c #201915",
":E 	c #2F1D18",
"<E 	c #5B3C32",
"[E 	c #744C3E",
"}E 	c #5D382A",
"|E 	c #7A4B37",
"1E 	c #936452",
"2E 	c #9D705E",
"3E 	c #996D5B",
"4E 	c #936C5D",
"5E 	c #926C61",
"6E 	c #8F6E5F",
"7E 	c #9E7F6D",
"8E 	c #B99883",
"9E 	c #927564",
"0E 	c #4C3C34",
"aE 	c #342B29",
"bE 	c #241F1C",
"cE 	c #1F1C1A",
"dE 	c #1B1A18",
"eE 	c #986A59",
"fE 	c #BC897B",
"gE 	c #C4C3C5",
"hE 	c #D0EDFD",
"iE 	c #D1EEFD",
"jE 	c #CFECFD",
"kE 	c #B7D7EC",
"lE 	c #759CA9",
"mE 	c #162329",
"nE 	c #4C555C",
"oE 	c #8495A5",
"pE 	c #9EB0BF",
"qE 	c #A0B5C3",
"rE 	c #9AB4BF",
"sE 	c #8DB1BA",
"tE 	c #80ADB5",
"uE 	c #7BABB3",
"vE 	c #7FAAB1",
"wE 	c #83A7AE",
"xE 	c #779AA3",
"yE 	c #5E8990",
"zE 	c #578891",
"AE 	c #63969F",
"BE 	c #6999A4",
"CE 	c #6D95A4",
"DE 	c #C0B3B0",
"EE 	c #C5B5B5",
"FE 	c #C8B9B8",
"GE 	c #CABCBB",
"HE 	c #D2C4C4",
"IE 	c #D7C9C8",
"JE 	c #DACBCB",
"KE 	c #DBCDCD",
"LE 	c #DCCFCE",
"ME 	c #DCD1CF",
"NE 	c #DFD1D0",
"OE 	c #E0CDCB",
"PE 	c #BF694C",
"QE 	c #AC3B21",
"RE 	c #9D3A27",
"SE 	c #9C5445",
"TE 	c #86584B",
"UE 	c #463228",
"VE 	c #4D382B",
"WE 	c #382823",
"XE 	c #423327",
"YE 	c #BE9686",
"ZE 	c #DDAF9E",
"`E 	c #DFB09E",
" F 	c #D3A899",
".F 	c #C89D8C",
"+F 	c #AD7E6C",
"@F 	c #9F725E",
"#F 	c #946953",
"$F 	c #926853",
"%F 	c #8E604C",
"&F 	c #6D3F2C",
"*F 	c #4C2B1D",
"=F 	c #3F271D",
"-F 	c #341F16",
";F 	c #55352F",
">F 	c #765554",
",F 	c #47352F",
"'F 	c #33261B",
")F 	c #261B15",
"!F 	c #241A14",
"~F 	c #3F2B1F",
"{F 	c #513B31",
"]F 	c #946F64",
"^F 	c #886054",
"/F 	c #6C433B",
"(F 	c #633F38",
"_F 	c #804D3C",
":F 	c #A57760",
"<F 	c #9C6856",
"[F 	c #936555",
"}F 	c #C08B7C",
"|F 	c #EBB6A9",
"1F 	c #F3C4B6",
"2F 	c #EFC0B1",
"3F 	c #EDBBAC",
"4F 	c #EAB7AC",
"5F 	c #E7B4A3",
"6F 	c #C49584",
"7F 	c #AA7668",
"8F 	c #A46B56",
"9F 	c #B27862",
"0F 	c #996146",
"aF 	c #662F20",
"bF 	c #673F37",
"cF 	c #744335",
"dF 	c #885B4F",
"eF 	c #785148",
"fF 	c #3F2B21",
"gF 	c #1B1613",
"hF 	c #221C19",
"iF 	c #261F1A",
"jF 	c #36231D",
"kF 	c #3F271E",
"lF 	c #593A2B",
"mF 	c #512D20",
"nF 	c #7E4E3B",
"oF 	c #9A6B58",
"pF 	c #A37460",
"qF 	c #A27966",
"rF 	c #AD8473",
"sF 	c #A6806F",
"tF 	c #A17E6C",
"uF 	c #B6927F",
"vF 	c #BC9985",
"wF 	c #9B7F6F",
"xF 	c #4E4037",
"yF 	c #312A26",
"zF 	c #231E1B",
"AF 	c #1D1815",
"BF 	c #181615",
"CF 	c #63473D",
"DF 	c #B78574",
"EF 	c #BA8B7E",
"FF 	c #BBA9A6",
"GF 	c #D2EEFE",
"HF 	c #CDEAFB",
"IF 	c #AFCFE5",
"JF 	c #628392",
"KF 	c #121E22",
"LF 	c #708487",
"MF 	c #AEBFCB",
"NF 	c #C2D6E3",
"OF 	c #C2DBE6",
"PF 	c #BEDBE4",
"QF 	c #B3D8E3",
"RF 	c #AAD6DE",
"SF 	c #A6D5DD",
"TF 	c #ABD4DE",
"UF 	c #A6CDD8",
"VF 	c #8AC0CA",
"WF 	c #6AB4BB",
"XF 	c #69B7BF",
"YF 	c #79C2D2",
"ZF 	c #88CADD",
"`F 	c #8AC7DD",
" G 	c #BEAFAC",
".G 	c #C0B2B1",
"+G 	c #C4B6B3",
"@G 	c #C7B9B7",
"#G 	c #CDBEBD",
"$G 	c #CFC1BF",
"%G 	c #D5C7C6",
"&G 	c #D5C9C8",
"*G 	c #D8CACA",
"=G 	c #DACFCD",
"-G 	c #E0D0CF",
";G 	c #C1755B",
">G 	c #AA3C22",
",G 	c #9F3E2C",
"'G 	c #A16051",
")G 	c #946353",
"!G 	c #6D4336",
"~G 	c #68473D",
"{G 	c #3E2C26",
"]G 	c #443124",
"^G 	c #795948",
"/G 	c #C39B8A",
"(G 	c #DEB09F",
"_G 	c #CDA08C",
":G 	c #B5856F",
"<G 	c #9E6E54",
"[G 	c #996B53",
"}G 	c #94624A",
"|G 	c #86523F",
"1G 	c #663728",
"2G 	c #462619",
"3G 	c #4E3126",
"4G 	c #694138",
"5G 	c #78493F",
"6G 	c #88544E",
"7G 	c #865853",
"8G 	c #77504C",
"9G 	c #7B5953",
"0G 	c #88655E",
"aG 	c #8D6B61",
"bG 	c #8C5D50",
"cG 	c #9A6654",
"dG 	c #945A47",
"eG 	c #945E4A",
"fG 	c #9D6855",
"gG 	c #A5725F",
"hG 	c #AF7964",
"iG 	c #A66F5E",
"jG 	c #A47366",
"kG 	c #D39F91",
"lG 	c #F6C6B9",
"mG 	c #F0C0B7",
"nG 	c #E8B7AE",
"oG 	c #E7B6A8",
"pG 	c #E7B2A2",
"qG 	c #DEAF9F",
"rG 	c #C79686",
"sG 	c #B58473",
"tG 	c #AE7664",
"uG 	c #B37862",
"vG 	c #B27B64",
"wG 	c #A9715A",
"xG 	c #9E624E",
"yG 	c #965747",
"zG 	c #985A4A",
"AG 	c #945D4A",
"BG 	c #906656",
"CG 	c #8D6A60",
"DG 	c #7A584E",
"EG 	c #7C5A52",
"FG 	c #724E48",
"GG 	c #6B433D",
"HG 	c #633E37",
"IG 	c #432A23",
"JG 	c #311E17",
"KG 	c #45281C",
"LG 	c #5C3324",
"MG 	c #8E5944",
"NG 	c #9A6851",
"OG 	c #A27561",
"PG 	c #AF826E",
"QG 	c #B9917F",
"RG 	c #AE8C7D",
"SG 	c #BC9884",
"TG 	c #9F8170",
"UG 	c #57483E",
"VG 	c #332C28",
"WG 	c #26201D",
"XG 	c #201B18",
"YG 	c #3B2D2B",
"ZG 	c #9C7163",
"`G 	c #AD796B",
" H 	c #9B5745",
".H 	c #B0988F",
"+H 	c #C9E7F8",
"@H 	c #A6C5DA",
"#H 	c #4D6C76",
"$H 	c #1E2C31",
"%H 	c #7F999D",
"&H 	c #B5CED7",
"*H 	c #C6E1E9",
"=H 	c #C6E4EB",
"-H 	c #C2E3EC",
";H 	c #BAE4E9",
">H 	c #B7E2E8",
",H 	c #B2DEE5",
"'H 	c #A4D7DA",
")H 	c #87CECD",
"!H 	c #66C7C6",
"~H 	c #6ECCCC",
"{H 	c #8DD6DE",
"]H 	c #9DDDEA",
"^H 	c #A1DFED",
"/H 	c #BAACAA",
"(H 	c #BEAFAE",
"_H 	c #C1B2B1",
":H 	c #C4B5B3",
"<H 	c #C6B8B7",
"[H 	c #C9BBBA",
"}H 	c #CCBEBD",
"|H 	c #D1C4C3",
"1H 	c #D3C6C5",
"2H 	c #D9CCCB",
"3H 	c #DBCDCC",
"4H 	c #C68B78",
"5H 	c #AC4124",
"6H 	c #9D3B2A",
"7H 	c #A7695A",
"8H 	c #A16857",
"9H 	c #8C5348",
"0H 	c #875E54",
"aH 	c #4E3731",
"bH 	c #3B2C22",
"cH 	c #4B3629",
"dH 	c #826152",
"eH 	c #C89D8D",
"fH 	c #E0B3A0",
"gH 	c #D7AD98",
"hH 	c #CC9C81",
"iH 	c #B68162",
"jH 	c #A8755A",
"kH 	c #A57257",
"lH 	c #9E6951",
"mH 	c #925A44",
"nH 	c #753B2A",
"oH 	c #70422F",
"pH 	c #865948",
"qH 	c #956659",
"rH 	c #A17066",
"sH 	c #A4726A",
"tH 	c #A37066",
"uH 	c #A37366",
"vH 	c #A8786C",
"wH 	c #A87869",
"xH 	c #A9786A",
"yH 	c #A7705F",
"zH 	c #A36955",
"AH 	c #A2624B",
"BH 	c #A3664E",
"CH 	c #A8715B",
"DH 	c #AC7764",
"EH 	c #A97160",
"FH 	c #AA7767",
"GH 	c #BA857B",
"HH 	c #DDA799",
"IH 	c #F2C5B9",
"JH 	c #F5C7BE",
"KH 	c #F1C1BA",
"LH 	c #E8BAB3",
"MH 	c #E8B5A8",
"NH 	c #E8B3A6",
"OH 	c #DEB3A3",
"PH 	c #C89786",
"QH 	c #C2907F",
"RH 	c #BA8977",
"SH 	c #B57C69",
"TH 	c #AF7663",
"UH 	c #A96D57",
"VH 	c #A66851",
"WH 	c #A3624D",
"XH 	c #9E6049",
"YH 	c #9E6148",
"ZH 	c #A16A55",
"`H 	c #A06E58",
" I 	c #9A6D59",
".I 	c #A27565",
"+I 	c #A17566",
"@I 	c #976E62",
"#I 	c #916559",
"$I 	c #8A6255",
"%I 	c #654438",
"&I 	c #4E2F23",
"*I 	c #673E2C",
"=I 	c #85533D",
"-I 	c #99654D",
";I 	c #A16F58",
">I 	c #AA7963",
",I 	c #B68A75",
"'I 	c #B69380",
")I 	c #B7927F",
"!I 	c #BB9682",
"~I 	c #A88774",
"{I 	c #382F2B",
"]I 	c #2C2421",
"^I 	c #261E1B",
"/I 	c #5E463F",
"(I 	c #996F62",
"_I 	c #8B4C3B",
":I 	c #934025",
"<I 	c #B5A29F",
"[I 	c #D0EEFF",
"}I 	c #C4E2F6",
"|I 	c #97BACD",
"1I 	c #365159",
"2I 	c #2C4145",
"3I 	c #88A6AD",
"4I 	c #BFE2E8",
"5I 	c #BEE4E9",
"6I 	c #BCE3E8",
"7I 	c #B6E1E7",
"8I 	c #AEDDE3",
"9I 	c #9ED6D9",
"0I 	c #85CFCE",
"aI 	c #66C8C6",
"bI 	c #62CAC8",
"cI 	c #67CDCC",
"dI 	c #81D5D8",
"eI 	c #94DBE4",
"fI 	c #9EE0EB",
"gI 	c #B9AAA7",
"hI 	c #BBACAA",
"iI 	c #BEB0AE",
"jI 	c #C1B2AF",
"kI 	c #C3B5B3",
"lI 	c #C9BBB9",
"mI 	c #CBBDBC",
"nI 	c #CFC1C0",
"oI 	c #D3C4C4",
"pI 	c #D5C6C6",
"qI 	c #D9CDCC",
"rI 	c #CEA398",
"sI 	c #B44E2E",
"tI 	c #9E3C2A",
"uI 	c #B68174",
"vI 	c #AE7667",
"wI 	c #A0645B",
"xI 	c #9B665D",
"yI 	c #7B584F",
"zI 	c #50372B",
"AI 	c #8A665A",
"BI 	c #D0A696",
"CI 	c #DFB3A1",
"DI 	c #E0B4A1",
"EI 	c #DEB1A0",
"FI 	c #D5A991",
"GI 	c #C3957D",
"HI 	c #AF775D",
"II 	c #AC7459",
"JI 	c #A66B51",
"KI 	c #9D634C",
"LI 	c #97644C",
"MI 	c #9F6C55",
"NI 	c #A6735F",
"OI 	c #AD7868",
"PI 	c #AE7969",
"QI 	c #B17C69",
"RI 	c #B07965",
"SI 	c #AF7B68",
"TI 	c #AE7562",
"UI 	c #AB6A55",
"VI 	c #A6654E",
"WI 	c #A2614B",
"XI 	c #9F5D47",
"YI 	c #A1654F",
"ZI 	c #A46D55",
"`I 	c #A86D59",
" J 	c #B27A6B",
".J 	c #BA8779",
"+J 	c #CE988D",
"@J 	c #DDA699",
"#J 	c #E8B4A5",
"$J 	c #F2BFB5",
"%J 	c #EFC1BA",
"&J 	c #E8B8AE",
"*J 	c #E8B6A9",
"=J 	c #E5B2A4",
"-J 	c #DCAE9F",
";J 	c #C99686",
">J 	c #C18E7C",
",J 	c #B47B68",
"'J 	c #AA715D",
")J 	c #A66955",
"!J 	c #995842",
"~J 	c #955337",
"{J 	c #995A3F",
"]J 	c #9B583F",
"^J 	c #A06347",
"/J 	c #AA7457",
"(J 	c #AF7C64",
"_J 	c #B07F6B",
":J 	c #AA7965",
"<J 	c #A67560",
"[J 	c #976954",
"}J 	c #7B5242",
"|J 	c #6B3B28",
"1J 	c #905942",
"2J 	c #9A664D",
"3J 	c #A26C54",
"4J 	c #AD7A5F",
"5J 	c #B4866E",
"6J 	c #B6917F",
"7J 	c #B7937F",
"8J 	c #BD9783",
"9J 	c #AA8B77",
"0J 	c #372D29",
"aJ 	c #2F2724",
"bJ 	c #352822",
"cJ 	c #937068",
"dJ 	c #9D736C",
"eJ 	c #8C3F29",
"fJ 	c #9B4D33",
"gJ 	c #BBBBBD",
"hJ 	c #CEEDFE",
"iJ 	c #BDDDF1",
"jJ 	c #88AABD",
"kJ 	c #22353D",
"lJ 	c #395255",
"mJ 	c #88ADB2",
"nJ 	c #AED4DC",
"oJ 	c #B7E0E5",
"pJ 	c #B4E2E5",
"qJ 	c #B3E1E4",
"rJ 	c #B3DFE5",
"sJ 	c #AADDE0",
"tJ 	c #99D7D7",
"uJ 	c #80CECB",
"vJ 	c #65CAC7",
"wJ 	c #65CBC8",
"xJ 	c #69CECC",
"yJ 	c #6FD0CF",
"zJ 	c #79D4D5",
"AJ 	c #8DD9DE",
"BJ 	c #97DDE7",
"CJ 	c #B6A7A4",
"DJ 	c #BEB0AD",
"EJ 	c #C1B3B0",
"FJ 	c #C3B5B4",
"GJ 	c #C6B8B5",
"HJ 	c #C8BAB8",
"IJ 	c #D2C3C2",
"JJ 	c #D9CBCA",
"KJ 	c #D3B5B1",
"LJ 	c #BC6445",
"MJ 	c #A64530",
"NJ 	c #C79483",
"OJ 	c #BC8876",
"PJ 	c #AE7A6D",
"QJ 	c #A87368",
"RJ 	c #A47165",
"SJ 	c #5F4137",
"TJ 	c #5C4030",
"UJ 	c #997261",
"VJ 	c #D5AA9B",
"WJ 	c #DAAA91",
"XJ 	c #D2A288",
"YJ 	c #CB9981",
"ZJ 	c #C2917A",
"`J 	c #BB886D",
" K 	c #B78267",
".K 	c #AE795F",
"+K 	c #A46D57",
"@K 	c #9E6750",
"#K 	c #A76E58",
"$K 	c #AC725E",
"%K 	c #AE735E",
"&K 	c #AD725B",
"*K 	c #AC6C55",
"=K 	c #AA6B56",
"-K 	c #A5664E",
";K 	c #A25F48",
">K 	c #9F5A44",
",K 	c #9C5945",
"'K 	c #A16554",
")K 	c #A97162",
"!K 	c #AE7766",
"~K 	c #BB8674",
"{K 	c #C48E7D",
"]K 	c #CD9586",
"^K 	c #D8A195",
"/K 	c #DDA296",
"(K 	c #E3AAA0",
"_K 	c #EDB6AD",
":K 	c #EEC0B9",
"<K 	c #E8BAB1",
"[K 	c #E7B2A7",
"}K 	c #E5B4A6",
"|K 	c #D5A69B",
"1K 	c #C9998A",
"2K 	c #CA9788",
"3K 	c #CC9786",
"4K 	c #CD998A",
"5K 	c #C79384",
"6K 	c #BA8875",
"7K 	c #B07E67",
"8K 	c #A5705C",
"9K 	c #995C47",
"0K 	c #8D4B33",
"aK 	c #8D4934",
"bK 	c #93533C",
"cK 	c #98583E",
"dK 	c #A2684C",
"eK 	c #A76F56",
"fK 	c #A9725A",
"gK 	c #A77057",
"hK 	c #A47058",
"iK 	c #A4725C",
"jK 	c #97634F",
"kK 	c #A06D57",
"lK 	c #A16852",
"mK 	c #AB7359",
"nK 	c #B68366",
"oK 	c #BC9078",
"pK 	c #BC947E",
"qK 	c #B99580",
"rK 	c #B7927C",
"sK 	c #BE9782",
"tK 	c #AE8F7A",
"uK 	c #634F44",
"vK 	c #3E332B",
"wK 	c #302723",
"xK 	c #604B44",
"yK 	c #A98075",
"zK 	c #AF8985",
"AK 	c #903E26",
"BK 	c #A45A3F",
"CK 	c #C5D3DC",
"DK 	c #CDEAFC",
"EK 	c #B6D6EC",
"FK 	c #719AAA",
"GK 	c #111F25",
"HK 	c #315553",
"IK 	c #75A8A8",
"JK 	c #98CBCF",
"KK 	c #9ED4D7",
"LK 	c #9CD6D9",
"MK 	c #9ED7D9",
"NK 	c #9DD7DA",
"OK 	c #94D2D4",
"PK 	c #7FCDCB",
"QK 	c #68CCC9",
"RK 	c #69CDCB",
"SK 	c #6FCECF",
"TK 	c #73D1D1",
"UK 	c #7AD2D3",
"VK 	c #7DD4D6",
"WK 	c #88D7DC",
"XK 	c #93DCE4",
"YK 	c #B4A5A1",
"ZK 	c #B7A8A5",
"`K 	c #B9ABA8",
" L 	c #BBADAA",
".L 	c #C0B2B0",
"+L 	c #C3B5B2",
"@L 	c #C5B7B5",
"#L 	c #C7B9B8",
"$L 	c #C9BABA",
"%L 	c #CABEBC",
"&L 	c #CCBFBD",
"*L 	c #D2C6C4",
"=L 	c #D6C2C1",
"-L 	c #C27B5D",
";L 	c #B3553D",
">L 	c #D6A393",
",L 	c #C99585",
"'L 	c #BD8E7C",
")L 	c #B07B69",
"!L 	c #AC7566",
"~L 	c #775246",
"{L 	c #5E4132",
"]L 	c #A07A69",
"^L 	c #D5AB9B",
"/L 	c #DFB4A2",
"(L 	c #DEB09A",
"_L 	c #E2B29D",
":L 	c #E1B09B",
"<L 	c #DDAB93",
"[L 	c #D5A38D",
"}L 	c #D1A08B",
"|L 	c #CA947D",
"1L 	c #BE8871",
"2L 	c #B7806C",
"3L 	c #B57E68",
"4L 	c #AB705A",
"5L 	c #A76A56",
"6L 	c #A46251",
"7L 	c #A05D4C",
"8L 	c #9A5745",
"9L 	c #965444",
"0L 	c #955544",
"aL 	c #9A594E",
"bL 	c #9E6457",
"cL 	c #AA7060",
"dL 	c #B37B6C",
"eL 	c #C18B7E",
"fL 	c #C99487",
"gL 	c #CC9888",
"hL 	c #CF9989",
"iL 	c #D79E8E",
"jL 	c #DBA294",
"kL 	c #DBA093",
"lL 	c #E2A89C",
"mL 	c #E9B1A5",
"nL 	c #EEBDB2",
"oL 	c #EBBCB2",
"pL 	c #E9B8A9",
"qL 	c #E7B8AA",
"rL 	c #D4A399",
"sL 	c #C99889",
"tL 	c #C99483",
"uL 	c #CC9784",
"vL 	c #D19C8C",
"wL 	c #D5A293",
"xL 	c #CE9E8F",
"yL 	c #C39181",
"zL 	c #B88371",
"AL 	c #AF7668",
"BL 	c #A56C5D",
"CL 	c #965B4A",
"DL 	c #8E4E39",
"EL 	c #8E4D34",
"FL 	c #8F5034",
"GL 	c #96563E",
"HL 	c #9D5E49",
"IL 	c #A3644C",
"JL 	c #A36951",
"KL 	c #B47A62",
"LL 	c #B6816C",
"ML 	c #BA7F68",
"NL 	c #C28A70",
"OL 	c #CA987B",
"PL 	c #C7977B",
"QL 	c #C49576",
"RL 	c #C5987A",
"SL 	c #C19D87",
"TL 	c #BD987F",
"UL 	c #BD967E",
"VL 	c #B2937D",
"WL 	c #705C4D",
"XL 	c #483A30",
"YL 	c #614B41",
"ZL 	c #A38177",
"`L 	c #B58B81",
" M 	c #B4918C",
".M 	c #97412B",
"+M 	c #A96752",
"@M 	c #CBE3EF",
"#M 	c #CFECFE",
"$M 	c #CBE7FA",
"%M 	c #ABCDE3",
"&M 	c #5C8391",
"*M 	c #0C171B",
"=M 	c #264F4D",
"-M 	c #4F9798",
";M 	c #69B5B6",
">M 	c #6CBBBB",
",M 	c #6FC4C2",
"'M 	c #7DCCCD",
")M 	c #7CC9CA",
"!M 	c #6DC2C1",
"~M 	c #64C0C0",
"{M 	c #6CCCCC",
"]M 	c #75D2D2",
"^M 	c #78D3D4",
"/M 	c #7ED5D7",
"(M 	c #84D5D8",
"_M 	c #86D7DA",
":M 	c #8BD8DD",
"<M 	c #94DAE2",
"[M 	c #B1A39E",
"}M 	c #B5A6A3",
"|M 	c #B6A8A5",
"1M 	c #BBADAC",
"2M 	c #BDB0AE",
"3M 	c #BFB2B0",
"4M 	c #C3B3B3",
"5M 	c #C4B6B5",
"6M 	c #C7B8B7",
"7M 	c #CEBFBE",
"8M 	c #D0C1C0",
"9M 	c #D2C2C2",
"0M 	c #D3C4C3",
"aM 	c #D5C6C5",
"bM 	c #C79684",
"cM 	c #BE7059",
"dM 	c #DAA290",
"eM 	c #CA8F7C",
"fM 	c #B87B64",
"gM 	c #AA644D",
"hM 	c #98503F",
"iM 	c #8A5A4E",
"jM 	c #704E39",
"kM 	c #AC8671",
"lM 	c #D8AC9B",
"mM 	c #DEB4A0",
"nM 	c #E2AB95",
"oM 	c #E2AD95",
"pM 	c #E7B8A3",
"qM 	c #EABAA4",
"rM 	c #E6B59E",
"sM 	c #DCAB94",
"tM 	c #CB907B",
"uM 	c #BF836B",
"vM 	c #BC7F68",
"wM 	c #BC816C",
"xM 	c #B57B68",
"yM 	c #B17764",
"zM 	c #B07866",
"AM 	c #B27B68",
"BM 	c #B57F6E",
"CM 	c #BD8477",
"DM 	c #C28B7D",
"EM 	c #CB9687",
"FM 	c #D39F92",
"GM 	c #D4A192",
"HM 	c #D59E8F",
"IM 	c #D89D91",
"JM 	c #DBA195",
"KM 	c #DCA196",
"LM 	c #DEA395",
"MM 	c #EDB7B0",
"NM 	c #EAB8AD",
"OM 	c #E9B5A6",
"PM 	c #E7B3A6",
"QM 	c #D4A198",
"RM 	c #C99A8A",
"SM 	c #CA998B",
"TM 	c #CB9685",
"UM 	c #D1998A",
"VM 	c #D8A394",
"WM 	c #D49F90",
"XM 	c #D29F8E",
"YM 	c #CE9787",
"ZM 	c #C58C7D",
"`M 	c #BF8476",
" N 	c #BB7E70",
".N 	c #B17866",
"+N 	c #A9705C",
"@N 	c #AB735E",
"#N 	c #B27A6A",
"$N 	c #B67E6B",
"%N 	c #B7836D",
"&N 	c #BD836C",
"*N 	c #C7886B",
"=N 	c #D1957E",
"-N 	c #D09A81",
";N 	c #CD9576",
">N 	c #CC9574",
",N 	c #D09C81",
"'N 	c #CDA58C",
")N 	c #C29D89",
"!N 	c #BC9982",
"~N 	c #BD9A81",
"{N 	c #B79781",
"]N 	c #796455",
"^N 	c #967366",
"/N 	c #BF9787",
"(N 	c #C09B8E",
"_N 	c #BC998F",
":N 	c #A44933",
"<N 	c #B28070",
"[N 	c #CAE5F4",
"}N 	c #CEEBFC",
"|N 	c #C5E4F7",
"1N 	c #A0C2D9",
"2N 	c #4B6977",
"3N 	c #0D161A",
"4N 	c #234F4D",
"5N 	c #3B878A",
"6N 	c #47A2A5",
"7N 	c #50B1B1",
"8N 	c #61C0C4",
"9N 	c #6ECACE",
"0N 	c #65C5C6",
"aN 	c #51B2AE",
"bN 	c #4FAEAA",
"cN 	c #65BFC1",
"dN 	c #76CFD0",
"eN 	c #85D5DA",
"fN 	c #89D8DD",
"gN 	c #91D9DF",
"hN 	c #95D9E1",
"iN 	c #9AD9E3",
"jN 	c #B0A19A",
"kN 	c #B2A3A0",
"lN 	c #B7A9A6",
"mN 	c #BBADAB",
"nN 	c #BDB0AF",
"oN 	c #C1B3B2",
"pN 	c #C4B6B4",
"qN 	c #C6B7B6",
"rN 	c #C7B8B8",
"sN 	c #CBBCBB",
"tN 	c #CFC0C0",
"uN 	c #CFC0BF",
"vN 	c #C0A89F",
"wN 	c #C88670",
"xN 	c #D69C8A",
"yN 	c #C3806E",
"zN 	c #B36A56",
"AN 	c #A1523E",
"BN 	c #8A3623",
"CN 	c #90594A",
"DN 	c #754E38",
"EN 	c #AD826E",
"FN 	c #D4A997",
"GN 	c #DDB19E",
"HN 	c #E2AE97",
"IN 	c #E6B29F",
"JN 	c #EBBAA4",
"KN 	c #EBB9A2",
"LN 	c #ECBBA6",
"MN 	c #EBB5A2",
"NN 	c #E5AA94",
"ON 	c #E5AD9C",
"PN 	c #E7B09E",
"QN 	c #E1A491",
"RN 	c #D59A85",
"SN 	c #D09786",
"TN 	c #CC9687",
"UN 	c #CE9384",
"VN 	c #CE9282",
"WN 	c #CF9383",
"XN 	c #D4978A",
"YN 	c #D89F94",
"ZN 	c #DCA69A",
"`N 	c #DCA699",
" O 	c #D9A194",
".O 	c #D79C91",
"+O 	c #DBA295",
"@O 	c #DC9F91",
"#O 	c #DDA195",
"$O 	c #DC9F94",
"%O 	c #E0A397",
"&O 	c #E7B0A6",
"*O 	c #EDB9B1",
"=O 	c #F0BCB2",
"-O 	c #EBB4A5",
";O 	c #E6B1A3",
">O 	c #D6A195",
",O 	c #CB9889",
"'O 	c #CC9A8F",
")O 	c #CC9B8E",
"!O 	c #D09C8D",
"~O 	c #D6A193",
"{O 	c #D5A394",
"]O 	c #D39F90",
"^O 	c #D7A394",
"/O 	c #D19C8A",
"(O 	c #CB9380",
"_O 	c #C8907B",
":O 	c #C78E7C",
"<O 	c #C48E7A",
"[O 	c #C38C78",
"}O 	c #BE8571",
"|O 	c #BF7F68",
"1O 	c #C38469",
"2O 	c #CD9377",
"3O 	c #D39F85",
"4O 	c #D0977D",
"5O 	c #D0947A",
"6O 	c #D59C82",
"7O 	c #D5A086",
"8O 	c #CF9A81",
"9O 	c #CB997D",
"0O 	c #C69D88",
"aO 	c #C09D85",
"bO 	c #BD9B82",
"cO 	c #B99683",
"dO 	c #8D705E",
"eO 	c #664B40",
"fO 	c #A57F70",
"gO 	c #C3A290",
"hO 	c #C4A597",
"iO 	c #C09F95",
"jO 	c #A74E38",
"kO 	c #BD9891",
"lO 	c #C9E3F5",
"mO 	c #CDEAFA",
"nO 	c #C1DFF4",
"oO 	c #92B7CC",
"pO 	c #35505A",
"qO 	c #0E181A",
"rO 	c #204D4C",
"sO 	c #3A868A",
"tO 	c #51ADB0",
"uO 	c #65C2C6",
"vO 	c #76CFD5",
"wO 	c #7CD6D7",
"xO 	c #68CBCB",
"yO 	c #48A8A5",
"zO 	c #398784",
"AO 	c #4FA19F",
"BO 	c #66BDBE",
"CO 	c #7CCDD3",
"DO 	c #96DAE2",
"EO 	c #9ADBE4",
"FO 	c #9BDBE5",
"GO 	c #A0DBE6",
"HO 	c #AFA099",
"IO 	c #B1A29F",
"JO 	c #B5A7A4",
"KO 	c #BDAEAD",
"LO 	c #BEB0AF",
"MO 	c #C2B4B3",
"NO 	c #C5B6B4",
"OO 	c #C7B7B7",
"PO 	c #CBBDBB",
"QO 	c #C6B6B6",
"RO 	c #AE9E96",
"SO 	c #D49D8F",
"TO 	c #D79988",
"UO 	c #BF7867",
"VO 	c #B36956",
"WO 	c #A55441",
"XO 	c #913C29",
"YO 	c #894A39",
"ZO 	c #7C5139",
"`O 	c #A87C66",
" P 	c #D2A896",
".P 	c #DFAD98",
"+P 	c #E6AF9B",
"@P 	c #EDBBA5",
"#P 	c #EBB79D",
"$P 	c #E6AB93",
"%P 	c #EAB1A1",
"&P 	c #F1BBAA",
"*P 	c #EFB4A1",
"=P 	c #EEB1A2",
"-P 	c #EDB2A3",
";P 	c #EDB5A6",
">P 	c #EBB3A7",
",P 	c #E8B0A3",
"'P 	c #E3A898",
")P 	c #E4A99D",
"!P 	c #E2A79B",
"~P 	c #E3AA9D",
"{P 	c #E1A99B",
"]P 	c #DDA395",
"^P 	c #DDA394",
"/P 	c #DA9F93",
"(P 	c #DAA399",
"_P 	c #DCA197",
":P 	c #DFA295",
"<P 	c #DC9D91",
"[P 	c #DCA297",
"}P 	c #DA9F96",
"|P 	c #E0A69B",
"1P 	c #E3A89E",
"2P 	c #ECB4AB",
"3P 	c #F2BEB7",
"4P 	c #F2C0B8",
"5P 	c #ECB3A6",
"6P 	c #E4A99C",
"7P 	c #D69D8E",
"8P 	c #CA8F7E",
"9P 	c #CB978B",
"0P 	c #CE9D8F",
"aP 	c #D09D8F",
"bP 	c #D49F91",
"cP 	c #D4A193",
"dP 	c #D39B8D",
"eP 	c #D69F8E",
"fP 	c #D8A491",
"gP 	c #D7A18F",
"hP 	c #D59C88",
"iP 	c #D49785",
"jP 	c #D09581",
"kP 	c #D0967E",
"lP 	c #D29885",
"mP 	c #D69B87",
"nP 	c #D69982",
"oP 	c #D0957C",
"pP 	c #D19278",
"qP 	c #D4977C",
"rP 	c #D59F87",
"sP 	c #D29678",
"tP 	c #D39F87",
"uP 	c #D1A18B",
"vP 	c #C59985",
"wP 	c #BE9882",
"xP 	c #BE9B83",
"yP 	c #B89481",
"zP 	c #937560",
"AP 	c #6F5247",
"BP 	c #A2705B",
"CP 	c #BB907C",
"DP 	c #C09B88",
"EP 	c #C19D90",
"FP 	c #AE5945",
"GP 	c #C0AAA7",
"HP 	c #C7E5F7",
"IP 	c #CCE9F9",
"JP 	c #B9D9EF",
"KP 	c #84A9BD",
"LP 	c #21363C",
"MP 	c #122123",
"NP 	c #326B6E",
"OP 	c #54ABB0",
"PP 	c #6BC6CC",
"QP 	c #7DD4DA",
"RP 	c #84DADE",
"SP 	c #7CD7D8",
"TP 	c #69CDCA",
"UP 	c #4DAEAC",
"VP 	c #327F7E",
"WP 	c #317173",
"XP 	c #4A9292",
"YP 	c #66B3B6",
"ZP 	c #80C7CE",
"`P 	c #90D4DE",
" Q 	c #9EDBE6",
".Q 	c #A3DDE8",
"+Q 	c #A5DDE8",
"@Q 	c #AE9F98",
"#Q 	c #AFA09D",
"$Q 	c #B2A49F",
"%Q 	c #B4A6A3",
"&Q 	c #B6A7A5",
"*Q 	c #B9A9A9",
"=Q 	c #BBAEAB",
"-Q 	c #BDAFAE",
";Q 	c #BFB1B0",
">Q 	c #C2B3B1",
",Q 	c #C4B4B3",
"'Q 	c #C5B6B3",
")Q 	c #C5B8B4",
"!Q 	c #CCBCBC",
"~Q 	c #948785",
"{Q 	c #CB9F95",
"]Q 	c #D89A84",
"^Q 	c #C37C6C",
"/Q 	c #B8705D",
"(Q 	c #AF5B46",
"_Q 	c #9F4732",
":Q 	c #8D4A3F",
"<Q 	c #875B41",
"[Q 	c #A57862",
"}Q 	c #D2A997",
"|Q 	c #D8AA95",
"1Q 	c #E1AF99",
"2Q 	c #E7B49E",
"3Q 	c #EAB6A1",
"4Q 	c #E8B097",
"5Q 	c #E4A98E",
"6Q 	c #EEBAA7",
"7Q 	c #F4BCAD",
"8Q 	c #F3BCAB",
"9Q 	c #F4BEAE",
"0Q 	c #F3BBAE",
"aQ 	c #F2B5A8",
"bQ 	c #F1B9A9",
"cQ 	c #F0B8AB",
"dQ 	c #EFB7AB",
"eQ 	c #EEB5A7",
"fQ 	c #EDB4A8",
"gQ 	c #E8AF9F",
"hQ 	c #E3A798",
"iQ 	c #DC9F8E",
"jQ 	c #D99A88",
"kQ 	c #DCA395",
"lQ 	c #E2A99F",
"mQ 	c #E0A297",
"nQ 	c #DE9F93",
"oQ 	c #DEA49A",
"pQ 	c #DCA398",
"qQ 	c #DCA198",
"rQ 	c #E4A69B",
"sQ 	c #E7ABA3",
"tQ 	c #EDB2A8",
"uQ 	c #F2BDB4",
"vQ 	c #F2BFB7",
"wQ 	c #E5A99A",
"xQ 	c #DD9E90",
"yQ 	c #D09788",
"zQ 	c #CB9789",
"AQ 	c #CC9B8D",
"BQ 	c #CF9D90",
"CQ 	c #D2A092",
"DQ 	c #D69E8F",
"EQ 	c #D49A8D",
"FQ 	c #D19586",
"GQ 	c #D49686",
"HQ 	c #D79F8E",
"IQ 	c #D9A38F",
"JQ 	c #DAA08B",
"KQ 	c #D79E8A",
"LQ 	c #D49C87",
"MQ 	c #D59B88",
"NQ 	c #D69C88",
"OQ 	c #D99C86",
"PQ 	c #DAA18C",
"QQ 	c #D99E89",
"RQ 	c #D59B84",
"SQ 	c #D2967C",
"TQ 	c #DA9E87",
"UQ 	c #D29A84",
"VQ 	c #CD8D75",
"WQ 	c #CF9B80",
"XQ 	c #CB9D8A",
"YQ 	c #C19B86",
"ZQ 	c #BD9984",
"`Q 	c #B79683",
" R 	c #93735D",
".R 	c #755645",
"+R 	c #8E4E36",
"@R 	c #A86E57",
"#R 	c #B58470",
"$R 	c #BF9685",
"%R 	c #B56C5B",
"&R 	c #BFB9BA",
"*R 	c #C8E6F8",
"=R 	c #CAE8F9",
"-R 	c #B1D3E8",
";R 	c #7296A7",
">R 	c #122026",
",R 	c #234749",
"'R 	c #4D9FA3",
")R 	c #71C7D0",
"!R 	c #83D7DE",
"~R 	c #88DCE2",
"{R 	c #84DBDE",
"]R 	c #76D6D4",
"^R 	c #69CDC8",
"/R 	c #50B3B1",
"(R 	c #3A8A89",
"_R 	c #2E6F71",
":R 	c #317177",
"<R 	c #3B888A",
"[R 	c #5DA9AC",
"}R 	c #7AC0C7",
"|R 	c #90D0DA",
"1R 	c #A1D8E5",
"2R 	c #A8DDE9",
"3R 	c #AEA097",
"4R 	c #AE9E9B",
"5R 	c #B0A39C",
"6R 	c #B3A5A1",
"7R 	c #B7A7A6",
"8R 	c #B8A9A7",
"9R 	c #BAABAA",
"0R 	c #BCAFAD",
"aR 	c #C1B1B0",
"bR 	c #C1B6B4",
"cR 	c #C5B6B5",
"dR 	c #C7B8B6",
"eR 	c #C9B9B8",
"fR 	c #BAAAAA",
"gR 	c #8C817F",
"hR 	c #C49D93",
"iR 	c #D89984",
"jR 	c #C67B66",
"kR 	c #BD6E59",
"lR 	c #B6634E",
"mR 	c #A85542",
"nR 	c #A7685D",
"oR 	c #87573C",
"pR 	c #A87B66",
"qR 	c #CFA593",
"rR 	c #D8AB97",
"sR 	c #E1AF98",
"tR 	c #E5B19B",
"uR 	c #E6AF98",
"vR 	c #E4AA91",
"wR 	c #F0BAA8",
"xR 	c #F1BCA9",
"yR 	c #F4BDAD",
"zR 	c #F5BFB0",
"AR 	c #F5C0B1",
"BR 	c #F4BCAF",
"CR 	c #F4BBAE",
"DR 	c #F3B7A9",
"ER 	c #F1B9AD",
"FR 	c #EDB0A5",
"GR 	c #EBAEA3",
"HR 	c #E8AB9F",
"IR 	c #E5A799",
"JR 	c #E1A395",
"KR 	c #DEA18F",
"LR 	c #E3AA9E",
"MR 	c #E3A89C",
"NR 	c #E3A397",
"OR 	c #DFA397",
"PR 	c #DEA195",
"QR 	c #D99E92",
"RR 	c #DCA298",
"SR 	c #E2A79E",
"TR 	c #E9ABA4",
"UR 	c #EDB2A9",
"VR 	c #EEB7AB",
"WR 	c #EFB8AD",
"XR 	c #EDB4A7",
"YR 	c #E9B1A3",
"ZR 	c #DFA496",
"`R 	c #D5978A",
" S 	c #CD9789",
".S 	c #C69789",
"+S 	c #CC9F91",
"@S 	c #D09F90",
"#S 	c #D6A090",
"$S 	c #D7A090",
"%S 	c #D5998A",
"&S 	c #D39585",
"*S 	c #D8A08C",
"=S 	c #D9A28D",
"-S 	c #DAA18D",
";S 	c #DAA08D",
">S 	c #DB9E87",
",S 	c #D89F8B",
"'S 	c #DCA18C",
")S 	c #DDA391",
"!S 	c #DDA58F",
"~S 	c #DCA68F",
"{S 	c #DBA48F",
"]S 	c #D49881",
"^S 	c #D79D81",
"/S 	c #D59D85",
"(S 	c #CA9173",
"_S 	c #CA9984",
":S 	c #C39C86",
"<S 	c #BE9985",
"[S 	c #B89583",
"}S 	c #967562",
"|S 	c #7B5A47",
"1S 	c #975A40",
"2S 	c #A96E59",
"3S 	c #B47968",
"4S 	c #BF8E7B",
"5S 	c #BC8376",
"6S 	c #C3CDD9",
"7S 	c #CCE8FB",
"8S 	c #ACCAE0",
"9S 	c #5F818F",
"0S 	c #0F191F",
"aS 	c #387072",
"bS 	c #67B9C2",
"cS 	c #82D7DF",
"dS 	c #8ADDE3",
"eS 	c #88DCE1",
"fS 	c #7DD9DA",
"gS 	c #6FD4CF",
"hS 	c #65CCC6",
"iS 	c #50B9B4",
"jS 	c #3F9490",
"kS 	c #32767B",
"lS 	c #33757B",
"mS 	c #32797F",
"nS 	c #368286",
"oS 	c #4F9C9F",
"pS 	c #72B7BE",
"qS 	c #8ECAD4",
"rS 	c #A1D5E2",
"sS 	c #AD9E97",
"tS 	c #AE9F9A",
"uS 	c #AFA199",
"vS 	c #B1A39F",
"wS 	c #B3A4A1",
"xS 	c #B4A5A2",
"yS 	c #B8ABA8",
"zS 	c #B9ADAA",
"AS 	c #BCAEAB",
"BS 	c #BFB1AE",
"CS 	c #C2B3B3",
"DS 	c #C6B7B5",
"ES 	c #B9AAA9",
"FS 	c #8E807F",
"GS 	c #C69D91",
"HS 	c #DE9C88",
"IS 	c #CC7F6D",
"JS 	c #BE725F",
"KS 	c #BA6D5D",
"LS 	c #B26958",
"MS 	c #BE8A7C",
"NS 	c #7F5236",
"OS 	c #A67C62",
"PS 	c #CB9F8D",
"QS 	c #DBAB98",
"RS 	c #E0AD95",
"SS 	c #E0A991",
"TS 	c #E2AC96",
"US 	c #EDBCA7",
"VS 	c #F0BBA7",
"WS 	c #F0BCAB",
"XS 	c #F4BFAF",
"YS 	c #F5BFB1",
"ZS 	c #F4BDB0",
"`S 	c #F3BDAF",
" T 	c #F3BAAD",
".T 	c #F1B5A6",
"+T 	c #EEB3A5",
"@T 	c #ECAEA0",
"#T 	c #EAAB9F",
"$T 	c #E8AA9F",
"%T 	c #E5A89D",
"&T 	c #E3A79C",
"*T 	c #E4A796",
"=T 	c #E6AA99",
"-T 	c #E7ADA1",
";T 	c #E6AD9F",
">T 	c #E5AB9C",
",T 	c #E2A696",
"'T 	c #DEA192",
")T 	c #D69A8A",
"!T 	c #D5988A",
"~T 	c #DD9F96",
"{T 	c #E2A69E",
"]T 	c #E8ACA5",
"^T 	c #ECB2A9",
"/T 	c #EEB3A7",
"(T 	c #EDB0A4",
"_T 	c #EBB0A3",
":T 	c #E9B0A2",
"<T 	c #E0A798",
"[T 	c #D6998B",
"}T 	c #CE9789",
"|T 	c #C59689",
"1T 	c #CA9E8F",
"2T 	c #CF9F8E",
"3T 	c #D3A393",
"4T 	c #D6A592",
"5T 	c #DAA492",
"6T 	c #DBA390",
"7T 	c #D89D87",
"8T 	c #D89C8A",
"9T 	c #D69888",
"0T 	c #DBA08B",
"aT 	c #DFA592",
"bT 	c #DFA28D",
"cT 	c #DEA28C",
"dT 	c #E0A792",
"eT 	c #E2A998",
"fT 	c #E1A994",
"gT 	c #E0A995",
"hT 	c #DFA893",
"iT 	c #DAA58F",
"jT 	c #D69B85",
"kT 	c #D69C86",
"lT 	c #D19C87",
"mT 	c #CA9881",
"nT 	c #C69B85",
"oT 	c #BE9A88",
"pT 	c #B69581",
"qT 	c #937561",
"rT 	c #7B5A45",
"sT 	c #A0644D",
"tT 	c #AB6E5A",
"uT 	c #B27461",
"vT 	c #C28C7A",
"wT 	c #BE968E",
"xT 	c #CAE1F2",
"yT 	c #CBE7FB",
"zT 	c #C4E1F5",
"AT 	c #9FC0D4",
"BT 	c #4C6772",
"CT 	c #102227",
"DT 	c #488A8D",
"ET 	c #73C7CE",
"FT 	c #87DBE1",
"GT 	c #89DDE2",
"HT 	c #85DCE0",
"IT 	c #76D7D7",
"JT 	c #6BD0CA",
"KT 	c #61C9C3",
"LT 	c #52BBB5",
"MT 	c #3E9D97",
"NT 	c #327D82",
"OT 	c #347A80",
"PT 	c #367E83",
"QT 	c #347F85",
"RT 	c #36858A",
"ST 	c #429498",
"TT 	c #66ADB2",
"UT 	c #89C0CA",
"VT 	c #AF9E96",
"WT 	c #AD9D96",
"XT 	c #AD9E96",
"YT 	c #B0A19B",
"ZT 	c #B7A9A7",
"`T 	c #BDAEAB",
" U 	c #BFB0B0",
".U 	c #C2B2B0",
"+U 	c #BBABAB",
"@U 	c #948784",
"#U 	c #CDA497",
"$U 	c #E6A695",
"%U 	c #D99182",
"&U 	c #CB8673",
"*U 	c #C47F6E",
"=U 	c #C0806F",
"-U 	c #C39686",
";U 	c #784C30",
">U 	c #A2775B",
",U 	c #C79C88",
"'U 	c #DBAC97",
")U 	c #DCA88F",
"!U 	c #DCA48B",
"~U 	c #E7B79F",
"{U 	c #EDB8A3",
"]U 	c #EEB8A6",
"^U 	c #F2BCAC",
"/U 	c #F4BAAC",
"(U 	c #F2B8AA",
"_U 	c #F3B8AD",
":U 	c #F1B3A6",
"<U 	c #EFB2A3",
"[U 	c #ECAE9E",
"}U 	c #E9A997",
"|U 	c #E8A99A",
"1U 	c #E8A79A",
"2U 	c #E6A89A",
"3U 	c #E8ACA0",
"4U 	c #E6AA9E",
"5U 	c #E8AD9F",
"6U 	c #E9AE9E",
"7U 	c #E7AC9E",
"8U 	c #E5AA9B",
"9U 	c #E2A492",
"0U 	c #DB9F8A",
"aU 	c #CC9281",
"bU 	c #CF9182",
"cU 	c #DF9F98",
"dU 	c #E3A8A2",
"eU 	c #E8AEA8",
"fU 	c #ECAEA6",
"gU 	c #EAABA0",
"hU 	c #E5A898",
"iU 	c #DFA791",
"jU 	c #D59E8D",
"kU 	c #D09587",
"lU 	c #C69384",
"mU 	c #C99B8B",
"nU 	c #CD9D8B",
"oU 	c #D2A18D",
"pU 	c #D7A28F",
"qU 	c #DCA38F",
"rU 	c #DCA08B",
"sU 	c #DEA08D",
"tU 	c #DB9E88",
"uU 	c #DCA08D",
"vU 	c #DFA491",
"wU 	c #E0A591",
"xU 	c #E0A490",
"yU 	c #E3A996",
"zU 	c #E3AB99",
"AU 	c #E3AC98",
"BU 	c #E2AA97",
"CU 	c #E1AA96",
"DU 	c #DBA590",
"EU 	c #D4A18A",
"FU 	c #CEA18B",
"GU 	c #BE9B88",
"HU 	c #B2917C",
"IU 	c #8E745D",
"JU 	c #7F5D48",
"KU 	c #A5664F",
"LU 	c #AD6755",
"MU 	c #B77260",
"NU 	c #C88E7C",
"OU 	c #BFB2B3",
"PU 	c #C4DFF2",
"QU 	c #C5E2F2",
"RU 	c #BAD6EB",
"SU 	c #8FB0C4",
"TU 	c #324F58",
"UU 	c #143436",
"VU 	c #549B9E",
"WU 	c #78CED5",
"XU 	c #87DCE1",
"YU 	c #88DDE2",
"ZU 	c #81DADD",
"`U 	c #70D5D3",
" V 	c #61CDC6",
".V 	c #5CC7BE",
"+V 	c #51BCB3",
"@V 	c #43A29C",
"#V 	c #36878A",
"$V 	c #387F86",
"%V 	c #388288",
"&V 	c #37858A",
"*V 	c #39868C",
"=V 	c #38898C",
"-V 	c #358488",
";V 	c #569295",
">V 	c #AF9D95",
",V 	c #AD9D95",
"'V 	c #AE9E97",
")V 	c #B0A19E",
"!V 	c #B3A5A2",
"~V 	c #BCACAC",
"{V 	c #BFB0AD",
"]V 	c #C1B1B1",
"^V 	c #BCAFAE",
"/V 	c #A19391",
"(V 	c #C49F94",
"_V 	c #EDB4A6",
":V 	c #E4A18F",
"<V 	c #D6907C",
"[V 	c #D0907E",
"}V 	c #CD9282",
"|V 	c #C19084",
"1V 	c #72462C",
"2V 	c #9B7152",
"3V 	c #C39985",
"4V 	c #D9AA93",
"5V 	c #D9A487",
"6V 	c #E8B5A0",
"7V 	c #EBB6A2",
"8V 	c #EFB8A7",
"9V 	c #F1B6A6",
"0V 	c #F1B4A8",
"aV 	c #F1B2A6",
"bV 	c #F0B3A8",
"cV 	c #ECACA0",
"dV 	c #EBA99C",
"eV 	c #E9A696",
"fV 	c #E6A594",
"gV 	c #E8A799",
"hV 	c #E8A79B",
"iV 	c #E7A89A",
"jV 	c #E9AA9F",
"kV 	c #E6A79B",
"lV 	c #E4A395",
"mV 	c #E4A695",
"nV 	c #E2A592",
"oV 	c #DDA08C",
"pV 	c #D79982",
"qV 	c #D59F8E",
"rV 	c #D6A095",
"sV 	c #D99B92",
"tV 	c #E7AAA3",
"uV 	c #E5ADA4",
"vV 	c #ECB3AD",
"wV 	c #EEB3AB",
"xV 	c #EDB1A6",
"yV 	c #E5AB9E",
"zV 	c #E5AA9C",
"AV 	c #E1A494",
"BV 	c #D79F8C",
"CV 	c #D09989",
"DV 	c #CD9888",
"EV 	c #C99787",
"FV 	c #C89482",
"GV 	c #CB9581",
"HV 	c #D39B84",
"IV 	c #D99D88",
"JV 	c #DDA18B",
"KV 	c #DEA08F",
"LV 	c #DDA08E",
"MV 	c #DCA290",
"NV 	c #DD9D8C",
"OV 	c #DEA08C",
"PV 	c #DFA28F",
"QV 	c #E1A793",
"RV 	c #E2A692",
"SV 	c #E3AB98",
"TV 	c #E3AB97",
"UV 	c #E4AB99",
"VV 	c #E2AB99",
"WV 	c #D9A18D",
"XV 	c #D6A18D",
"YV 	c #D29D83",
"ZV 	c #D2A48F",
"`V 	c #CA9F8B",
" W 	c #BF9986",
".W 	c #AB8A75",
"+W 	c #886951",
"@W 	c #865F4A",
"#W 	c #AF715E",
"$W 	c #B4715E",
"%W 	c #C07D68",
"&W 	c #CE9583",
"*W 	c #B6B9C1",
"=W 	c #AECADA",
"-W 	c #AECBDA",
";W 	c #9FBCD1",
">W 	c #708E9E",
",W 	c #192D34",
"'W 	c #1D4748",
")W 	c #58A8AE",
"!W 	c #7CD1DA",
"~W 	c #79D9DA",
"{W 	c #69D2CD",
"]W 	c #5BC9C1",
"^W 	c #58C4BB",
"/W 	c #51BBAF",
"(W 	c #44A69F",
"_W 	c #398F90",
":W 	c #3A858B",
"<W 	c #3D878D",
"[W 	c #3A878D",
"}W 	c #378288",
"|W 	c #2F757B",
"1W 	c #286364",
"2W 	c #235255",
"3W 	c #AF9C95",
"4W 	c #AE9C94",
"5W 	c #AE9D96",
"6W 	c #AF9E97",
"7W 	c #B09F98",
"8W 	c #AFA09A",
"9W 	c #AFA09C",
"0W 	c #B0A19D",
"aW 	c #B8A8A8",
"bW 	c #B9AAA8",
"cW 	c #BAACA9",
"dW 	c #BCADAA",
"eW 	c #BEAEAE",
"fW 	c #B0A1A0",
"gW 	c #BBA098",
"hW 	c #EEB7A5",
"iW 	c #DCA190",
"jW 	c #DEA797",
"kW 	c #83563C",
"lW 	c #9A6F4F",
"mW 	c #BA8F78",
"nW 	c #D8AA93",
"oW 	c #DAA78E",
"pW 	c #E8B09C",
"qW 	c #EAB19F",
"rW 	c #EBB2A1",
"sW 	c #ECAB9B",
"tW 	c #EBAB9D",
"uW 	c #EBA99D",
"vW 	c #E8A897",
"wW 	c #E7AA9A",
"xW 	c #E6A293",
"yW 	c #E7A494",
"zW 	c #E8A396",
"AW 	c #E8A59A",
"BW 	c #E5A797",
"CW 	c #E7A69B",
"DW 	c #E4A094",
"EW 	c #E0A08F",
"FW 	c #DD9F8D",
"GW 	c #DA9987",
"HW 	c #D09279",
"IW 	c #CD8B77",
"JW 	c #D99D90",
"KW 	c #E9ADA4",
"LW 	c #EBADA3",
"MW 	c #EAABA3",
"NW 	c #E9ADA5",
"OW 	c #E7AEA5",
"PW 	c #EAB1A8",
"QW 	c #EEAFA7",
"RW 	c #ECADA2",
"SW 	c #E6B1A5",
"TW 	c #DFA797",
"UW 	c #DDA291",
"VW 	c #DBA08F",
"WW 	c #D8A08F",
"XW 	c #D29D8D",
"YW 	c #CF9A8B",
"ZW 	c #CF988A",
"`W 	c #CE9485",
" X 	c #C8907C",
".X 	c #CB8F7A",
"+X 	c #CF927F",
"@X 	c #D3927A",
"#X 	c #D89989",
"$X 	c #DA9D8D",
"%X 	c #DDA08F",
"&X 	c #DEA18D",
"*X 	c #E0A18E",
"=X 	c #DFA08D",
"-X 	c #E3A390",
";X 	c #E1A38D",
">X 	c #E1A895",
",X 	c #E2A895",
"'X 	c #E1A695",
")X 	c #E0A794",
"!X 	c #DBA18E",
"~X 	c #D89D8C",
"{X 	c #D6A18E",
"]X 	c #D4A18C",
"^X 	c #D0A18B",
"/X 	c #CAA18C",
"(X 	c #BF9987",
"_X 	c #A68573",
":X 	c #7B5C45",
"<X 	c #936A51",
"[X 	c #B9806D",
"}X 	c #BE7C68",
"|X 	c #CA8773",
"1X 	c #D49C86",
"2X 	c #9C999B",
"3X 	c #84959E",
"4X 	c #8598A1",
"5X 	c #728A91",
"6X 	c #3E4F58",
"7X 	c #0C1215",
"8X 	c #275B5D",
"9X 	c #5AB4BB",
"0X 	c #7FD4DE",
"aX 	c #82DBDF",
"bX 	c #75D5D6",
"cX 	c #63CDC8",
"dX 	c #59C5BD",
"eX 	c #54C0B7",
"fX 	c #51B9AC",
"gX 	c #49A9A2",
"hX 	c #3E9496",
"iX 	c #3D888E",
"jX 	c #3B858B",
"kX 	c #347B80",
"lX 	c #2D6A6E",
"mX 	c #275255",
"nX 	c #1E3D3F",
"oX 	c #1A3537",
"pX 	c #AE9B94",
"qX 	c #AD9E99",
"rX 	c #AF9F9B",
"sX 	c #B2A39F",
"tX 	c #B5A6A4",
"uX 	c #BAABA8",
"vX 	c #BBACA9",
"wX 	c #BCADAB",
"xX 	c #BAAAA9",
"yX 	c #B5A5A3",
"zX 	c #D2A193",
"AX 	c #E5AF9C",
"BX 	c #EFBCAD",
"CX 	c #F2BDAF",
"DX 	c #DAA391",
"EX 	c #93684E",
"FX 	c #966B4A",
"GX 	c #B68D77",
"HX 	c #D7A68E",
"IX 	c #DEAD96",
"JX 	c #E1AD98",
"KX 	c #E4AD99",
"LX 	c #E7AB9C",
"MX 	c #E5A795",
"NX 	c #E5A896",
"OX 	c #E4A393",
"PX 	c #E39C91",
"QX 	c #E2A091",
"RX 	c #E29E90",
"SX 	c #E4A191",
"TX 	c #E29D8F",
"UX 	c #E29C8E",
"VX 	c #E39F91",
"WX 	c #E09D8E",
"XX 	c #DF9F8E",
"YX 	c #DC9C8B",
"ZX 	c #D79686",
"`X 	c #D2917F",
" Y 	c #CD8D7A",
".Y 	c #C88A77",
"+Y 	c #D1958A",
"@Y 	c #EAABA2",
"#Y 	c #EDACA3",
"$Y 	c #EEABA2",
"%Y 	c #ECAEA5",
"&Y 	c #EAB0A7",
"*Y 	c #ECB1AA",
"=Y 	c #EBB0A6",
"-Y 	c #E8ADA2",
";Y 	c #E2ADA0",
">Y 	c #DAA392",
",Y 	c #DA9E8C",
"'Y 	c #DB9A8A",
")Y 	c #DBA596",
"!Y 	c #D5A399",
"~Y 	c #D09E92",
"{Y 	c #D0988A",
"]Y 	c #D69A8C",
"^Y 	c #C88F80",
"/Y 	c #BF826F",
"(Y 	c #C28271",
"_Y 	c #C78571",
":Y 	c #CB8774",
"<Y 	c #D49786",
"[Y 	c #D99B8B",
"}Y 	c #DB9D8C",
"|Y 	c #DEA28F",
"1Y 	c #DEA48F",
"2Y 	c #E0A18C",
"3Y 	c #DFA38F",
"4Y 	c #DEA491",
"5Y 	c #E0A693",
"6Y 	c #DCA18E",
"7Y 	c #DB9E8A",
"8Y 	c #D89F8E",
"9Y 	c #D69D8D",
"0Y 	c #D39C8C",
"aY 	c #D29D89",
"bY 	c #D0A38F",
"cY 	c #CCA38E",
"dY 	c #C39F8C",
"eY 	c #9E7E6C",
"fY 	c #745640",
"gY 	c #946B54",
"hY 	c #C18C79",
"iY 	c #C37D67",
"jY 	c #CD866F",
"kY 	c #D59D87",
"lY 	c #7C7477",
"mY 	c #596267",
"nY 	c #3D454B",
"oY 	c #171D22",
"pY 	c #091015",
"qY 	c #2D6D73",
"rY 	c #5EBBC5",
"sY 	c #7DD5E1",
"tY 	c #82DAE1",
"uY 	c #7CD9DF",
"vY 	c #6AD2D1",
"wY 	c #5CC9C0",
"xY 	c #54C1B6",
"yY 	c #4FBDB1",
"zY 	c #4EB7AA",
"AY 	c #47A9A2",
"BY 	c #419697",
"CY 	c #358187",
"DY 	c #2F7176",
"EY 	c #2A5B5E",
"FY 	c #214546",
"GY 	c #1B3536",
"HY 	c #183437",
"IY 	c #1B373A",
"JY 	c #B09D95",
"KY 	c #AD9C95",
"LY 	c #AC9D96",
"MY 	c #AC9D95",
"NY 	c #AD9E9B",
"OY 	c #AFA09B",
"PY 	c #B2A29F",
"QY 	c #B3A3A1",
"RY 	c #B8A9A6",
"SY 	c #BAABA9",
"TY 	c #BBABA9",
"UY 	c #C5A19A",
"VY 	c #C78C7C",
"WY 	c #DFB0A4",
"XY 	c #EFBAAB",
"YY 	c #E1AC9E",
"ZY 	c #9F6D57",
"`Y 	c #956848",
" Z 	c #B78D79",
".Z 	c #DFAF97",
"+Z 	c #DDAA93",
"@Z 	c #DFA895",
"#Z 	c #E0A292",
"$Z 	c #DE9E8E",
"%Z 	c #DC9A8A",
"&Z 	c #DC9886",
"*Z 	c #DD998A",
"=Z 	c #DD9A89",
"-Z 	c #DE9C8B",
";Z 	c #DE9B8A",
">Z 	c #DE9A8B",
",Z 	c #DC9386",
"'Z 	c #DB9788",
")Z 	c #DB9586",
"!Z 	c #D69283",
"~Z 	c #D18F7E",
"{Z 	c #CB8874",
"]Z 	c #C4816D",
"^Z 	c #BF7D6B",
"/Z 	c #BF8471",
"(Z 	c #D89B93",
"_Z 	c #EEAEA5",
":Z 	c #EFB0A8",
"<Z 	c #EEB1A8",
"[Z 	c #E5AFA4",
"}Z 	c #E5ACA2",
"|Z 	c #E7A8A1",
"1Z 	c #E5A89B",
"2Z 	c #E1A496",
"3Z 	c #D09684",
"4Z 	c #D39685",
"5Z 	c #D99A89",
"6Z 	c #D7A195",
"7Z 	c #D2A399",
"8Z 	c #CDA097",
"9Z 	c #CC9990",
"0Z 	c #D2998C",
"aZ 	c #D2968A",
"bZ 	c #B27261",
"cZ 	c #AF6E5D",
"dZ 	c #B57660",
"eZ 	c #BD7963",
"fZ 	c #C47C67",
"gZ 	c #CE8E79",
"hZ 	c #D39683",
"iZ 	c #D79885",
"jZ 	c #D89C85",
"kZ 	c #DA9E88",
"lZ 	c #DC9F8C",
"mZ 	c #DA9E8B",
"nZ 	c #D99C8A",
"oZ 	c #D89B89",
"pZ 	c #D69B88",
"qZ 	c #D59B8C",
"rZ 	c #D29A8C",
"sZ 	c #D09C8E",
"tZ 	c #C9A390",
"uZ 	c #9A7C6B",
"vZ 	c #71543E",
"wZ 	c #A37660",
"xZ 	c #BB7E65",
"yZ 	c #C47C60",
"zZ 	c #CE8669",
"AZ 	c #CB9F8A",
"BZ 	c #828C9B",
"CZ 	c #778798",
"DZ 	c #6D7D8F",
"EZ 	c #4A5665",
"FZ 	c #182228",
"GZ 	c #0C1E22",
"HZ 	c #3C858F",
"IZ 	c #65C3D2",
"JZ 	c #7CD7E4",
"KZ 	c #7EDAE2",
"LZ 	c #74D4DB",
"MZ 	c #60C8C6",
"NZ 	c #54B9B0",
"OZ 	c #4BB2A6",
"PZ 	c #4BAAA0",
"QZ 	c #4AA49B",
"RZ 	c #429892",
"SZ 	c #378584",
"TZ 	c #2C6C6E",
"UZ 	c #235050",
"VZ 	c #1D3C3B",
"WZ 	c #193534",
"XZ 	c #1B383A",
"YZ 	c #1D3A3D",
"ZZ 	c #B09E94",
"`Z 	c #AD9C94",
" ` 	c #AB9C94",
".` 	c #AB9C95",
"+` 	c #AA9B94",
"@` 	c #AB9C98",
"#` 	c #AC9D97",
"$` 	c #B0A09D",
"%` 	c #BCA5A1",
"&` 	c #C39082",
"*` 	c #D3ABA2",
"=` 	c #F2C4B5",
"-` 	c #E0AA99",
";` 	c #9F684E",
">` 	c #936546",
",` 	c #BE9581",
"'` 	c #D7AA92",
")` 	c #DBAA92",
"!` 	c #DAA690",
"~` 	c #D89D8F",
"{` 	c #D49281",
"]` 	c #D59585",
"^` 	c #D59182",
"/` 	c #D69282",
"(` 	c #D79584",
"_` 	c #D69782",
":` 	c #D99985",
"<` 	c #D89786",
"[` 	c #D48D7F",
"}` 	c #D18E80",
"|` 	c #D08D7B",
"1` 	c #CC8672",
"2` 	c #C47E6B",
"3` 	c #BD7461",
"4` 	c #B56C55",
"5` 	c #AE6754",
"6` 	c #AB6A56",
"7` 	c #AD6B58",
"8` 	c #DB9D92",
"9` 	c #DE9A8A",
"0` 	c #DA9789",
"a` 	c #D89988",
"b` 	c #D69584",
"c` 	c #D39587",
"d` 	c #D89C8F",
"e` 	c #DAA090",
"f` 	c #D49483",
"g` 	c #CA8877",
"h` 	c #C28270",
"i` 	c #C88A76",
"j` 	c #CB8F7D",
"k` 	c #CB988A",
"l` 	c #BC897A",
"m` 	c #B68572",
"n` 	c #BE8B7D",
"o` 	c #C29083",
"p` 	c #CB9386",
"q` 	c #B27769",
"r` 	c #A36552",
"s` 	c #A1614D",
"t` 	c #A66451",
"u` 	c #AD6852",
"v` 	c #BA755D",
"w` 	c #C3806C",
"x` 	c #CD8E7A",
"y` 	c #D29482",
"z` 	c #D3957E",
"A` 	c #D59982",
"B` 	c #D59C87",
"C` 	c #D39A87",
"D` 	c #D1907D",
"E` 	c #D1927F",
"F` 	c #D19886",
"G` 	c #D1998B",
"H` 	c #CC978A",
"I` 	c #C99688",
"J` 	c #C99B88",
"K` 	c #C99D88",
"L` 	c #C69B81",
"M` 	c #C69E89",
"N` 	c #9D8071",
"O` 	c #745844",
"P` 	c #AF7A63",
"Q` 	c #C48F78",
"R` 	c #C99479",
"S` 	c #CE9A80",
"T` 	c #B4A5A5",
"U` 	c #8DA6BA",
"V` 	c #8CA5BB",
"W` 	c #7E97AD",
"X` 	c #546D7C",
"Y` 	c #182A2D",
"Z` 	c #143639",
"`` 	c #4B9DAA",
"  .	c #73CCDF",
". .	c #82DAE9",
"+ .	c #7DDAE5",
"@ .	c #6ACCD7",
"# .	c #4DB3B1",
"$ .	c #3A938C",
"% .	c #378982",
"& .	c #38827D",
"* .	c #347C75",
"= .	c #2F716B",
"- .	c #2A605D",
"; .	c #234D4D",
"> .	c #1F4243",
", .	c #1D3C3E",
"' .	c #1B3A3B",
") .	c #1C3A3D",
"! .	c #1D3C3F",
"~ .	c #1F3F42",
"{ .	c #AF9D93",
"] .	c #AE9D94",
"^ .	c #AB9C93",
"/ .	c #AC9B94",
"( .	c #AC9C98",
"_ .	c #C59C95",
": .	c #D5A9A1",
"< .	c #E2B3A4",
"[ .	c #E1B39B",
"} .	c #CB937A",
"| .	c #9B6249",
"1 .	c #986E55",
"2 .	c #BA907D",
"3 .	c #D4A690",
"4 .	c #D3A08A",
"5 .	c #D39E8A",
"6 .	c #D09885",
"7 .	c #CD9583",
"8 .	c #CA8C7B",
"9 .	c #CB8E7E",
"0 .	c #CE907F",
"a .	c #D18E7E",
"b .	c #D08F7D",
"c .	c #D09582",
"d .	c #D09481",
"e .	c #C9816B",
"f .	c #C6836F",
"g .	c #C2816A",
"h .	c #B87361",
"i .	c #AE6856",
"j .	c #9F5A47",
"k .	c #9A5546",
"l .	c #9E6051",
"m .	c #A66957",
"n .	c #A86C5D",
"o .	c #C68576",
"p .	c #BB745F",
"q .	c #A4604B",
"r .	c #8E5142",
"s .	c #965F4F",
"t .	c #A86D5D",
"u .	c #B07565",
"v .	c #BC7E6F",
"w .	c #C68977",
"x .	c #C3846D",
"y .	c #B77566",
"z .	c #B37467",
"A .	c #BA7F6F",
"B .	c #BE897A",
"C .	c #B47F73",
"D .	c #A06E64",
"E .	c #8D6659",
"F .	c #8C5E4E",
"G .	c #A16758",
"H .	c #B37866",
"I .	c #AA6F5D",
"J .	c #A56A57",
"K .	c #9C5C4A",
"L .	c #995542",
"M .	c #A8614F",
"N .	c #B46D5C",
"O .	c #BF7C69",
"P .	c #CA8874",
"Q .	c #CF917B",
"R .	c #CF947E",
"S .	c #CE9480",
"T .	c #CD917C",
"U .	c #CB8E7A",
"V .	c #CB9082",
"W .	c #CA9181",
"X .	c #C79081",
"Y .	c #C38F7F",
"Z .	c #C3907E",
"` .	c #C2927C",
" ..	c #C1937A",
"...	c #BF9782",
"+..	c #A18575",
"@..	c #765643",
"#..	c #BC8870",
"$..	c #CC9A83",
"%..	c #CAA392",
"&..	c #BE9E8F",
"*..	c #9CAFBD",
"=..	c #95B2C1",
"-..	c #97B0C3",
";..	c #849FB4",
">..	c #526D7B",
",..	c #132528",
"'..	c #204B51",
")..	c #55ACBB",
"!..	c #7CD4E6",
"~..	c #89DDEC",
"{..	c #84DAEA",
"]..	c #63C7D7",
"^..	c #3C9CA3",
"/..	c #266B6E",
"(..	c #1F5658",
"_..	c #1D484B",
":..	c #1D4243",
"<..	c #1C3C3D",
"[..	c #1F3E40",
"}..	c #214646",
"|..	c #234849",
"1..	c #214547",
"2..	c #204244",
"3..	c #1F4143",
"4..	c #1E4143",
"5..	c #204345",
"6..	c #B19F95",
"7..	c #B09E93",
"8..	c #AC9C93",
"9..	c #AC9C92",
"0..	c #AC9B93",
"a..	c #AE9D99",
"b..	c #AE9E98",
"c..	c #AE9F9B",
"d..	c #ADA09C",
"e..	c #B2A39E",
"f..	c #B3A49D",
"g..	c #BDA7A0",
"h..	c #DBB1A8",
"i..	c #CD9C8D",
"j..	c #C78E78",
"k..	c #B4785C",
"l..	c #945C45",
"m..	c #9E745A",
"n..	c #B58B77",
"o..	c #D1A38D",
"p..	c #CB9984",
"q..	c #C9947E",
"r..	c #C48C7A",
"s..	c #C18773",
"t..	c #C28776",
"u..	c #C58577",
"v..	c #CB8D7E",
"w..	c #C98A7A",
"x..	c #C68873",
"y..	c #C68A76",
"z..	c #C68974",
"A..	c #C27F6C",
"B..	c #BE7B68",
"C..	c #B77664",
"D..	c #B16D5A",
"E..	c #A2604E",
"F..	c #945340",
"G..	c #995D48",
"H..	c #AA705E",
"I..	c #B1786B",
"J..	c #B67E6F",
"K..	c #B88175",
"L..	c #B27466",
"M..	c #8E4B3B",
"N..	c #60261A",
"O..	c #411511",
"P..	c #3F1513",
"Q..	c #512521",
"R..	c #804D46",
"S..	c #9D6759",
"T..	c #AA6F60",
"U..	c #AB6F5C",
"V..	c #A66858",
"W..	c #A46B5E",
"X..	c #AB7665",
"Y..	c #A47868",
"Z..	c #9C7269",
"`..	c #66443F",
" +.	c #341410",
".+.	c #40140D",
"++.	c #6C3326",
"@+.	c #9D6451",
"#+.	c #B47D6B",
"$+.	c #B7826C",
"%+.	c #B5806B",
"&+.	c #B27B69",
"*+.	c #A26A55",
"=+.	c #95543D",
"-+.	c #A26148",
";+.	c #B36F59",
">+.	c #BE7C67",
",+.	c #C3816D",
"'+.	c #C68772",
")+.	c #C78774",
"!+.	c #C68D77",
"~+.	c #C88D79",
"{+.	c #C88D7A",
"]+.	c #C78D7E",
"^+.	c #C58F81",
"/+.	c #C18C7C",
"(+.	c #BD8B79",
"_+.	c #B98D76",
":+.	c #B98E76",
"<+.	c #A68C7B",
"[+.	c #816250",
"}+.	c #C9A18C",
"|+.	c #CFA58F",
"1+.	c #C3A499",
"2+.	c #B0A2A2",
"3+.	c #96B0C1",
"4+.	c #94B1C3",
"5+.	c #93AEC2",
"6+.	c #7B96AC",
"7+.	c #44606A",
"8+.	c #0E1E20",
"9+.	c #286268",
"0+.	c #5BB8C8",
"a+.	c #81D7E9",
"b+.	c #89DEEC",
"c+.	c #83DBEA",
"d+.	c #65C9D8",
"e+.	c #46A7B1",
"f+.	c #398C96",
"g+.	c #307780",
"h+.	c #205056",
"i+.	c #1B373C",
"j+.	c #1A3336",
"k+.	c #1E383C",
"l+.	c #214445",
"m+.	c #24494B",
"n+.	c #23494B",
"o+.	c #224648",
"p+.	c #204446",
"q+.	c #B29E95",
"r+.	c #AF9D94",
"s+.	c #AE9C93",
"t+.	c #AC9B91",
"u+.	c #AC9A93",
"v+.	c #AB9A93",
"w+.	c #AB9B94",
"x+.	c #AC9C95",
"y+.	c #AD9C97",
"z+.	c #AD9D97",
"A+.	c #AD9E98",
"B+.	c #AE9F9C",
"C+.	c #AEA19E",
"D+.	c #B0A29A",
"E+.	c #B0A29D",
"F+.	c #CEA9A1",
"G+.	c #C58F83",
"H+.	c #B98474",
"I+.	c #AB735F",
"J+.	c #9B654F",
"K+.	c #91664C",
"L+.	c #B48B73",
"M+.	c #C79C85",
"N+.	c #CA9883",
"O+.	c #C08972",
"P+.	c #B37A67",
"Q+.	c #B87E6B",
"R+.	c #B97F6D",
"S+.	c #BD8372",
"T+.	c #BF8172",
"U+.	c #BD7F6F",
"V+.	c #BE7F6F",
"W+.	c #BF7F6D",
"X+.	c #BC7A67",
"Y+.	c #B97462",
"Z+.	c #B2705E",
"`+.	c #A46652",
" @.	c #965744",
".@.	c #8E513D",
"+@.	c #A16653",
"@@.	c #B37766",
"#@.	c #BC8475",
"$@.	c #BD8579",
"%@.	c #C08A7F",
"&@.	c #BA7F76",
"*@.	c #92584F",
"=@.	c #5F2921",
"-@.	c #5A2A26",
";@.	c #623130",
">@.	c #653532",
",@.	c #643832",
"'@.	c #74483E",
")@.	c #8E5E50",
"!@.	c #8E5D4E",
"~@.	c #915C50",
"{@.	c #915F52",
"]@.	c #9A6757",
"^@.	c #986C5B",
"/@.	c #724D48",
"(@.	c #482B28",
"_@.	c #472C27",
":@.	c #552F27",
"<@.	c #7F4C41",
"[@.	c #A87264",
"}@.	c #B78272",
"|@.	c #C2907D",
"1@.	c #C38D7B",
"2@.	c #BF8773",
"3@.	c #A96F5C",
"4@.	c #975641",
"5@.	c #9A5C46",
"6@.	c #AA6C55",
"7@.	c #B6735F",
"8@.	c #BC7964",
"9@.	c #C07F6C",
"0@.	c #BF826E",
"a@.	c #C18976",
"b@.	c #C38775",
"c@.	c #C38B7B",
"d@.	c #C08C7D",
"e@.	c #BA8877",
"f@.	c #B58571",
"g@.	c #B2826C",
"h@.	c #B68872",
"i@.	c #B48872",
"j@.	c #B4886F",
"k@.	c #A08572",
"l@.	c #8C6C59",
"m@.	c #C4A08B",
"n@.	c #C7A08F",
"o@.	c #BFA29B",
"p@.	c #A2AAB3",
"q@.	c #93AFC1",
"r@.	c #92B0C2",
"s@.	c #8FABC0",
"t@.	c #718DA2",
"u@.	c #355059",
"v@.	c #0A1C1E",
"w@.	c #31777D",
"x@.	c #64C0D0",
"y@.	c #83DBE8",
"z@.	c #88DEEB",
"A@.	c #80DBE8",
"B@.	c #68CDDA",
"C@.	c #5ABECA",
"D@.	c #5BB7C2",
"E@.	c #4AA0AC",
"F@.	c #35747D",
"G@.	c #1E4246",
"H@.	c #1B3438",
"I@.	c #1C383B",
"J@.	c #204042",
"K@.	c #224849",
"L@.	c #214748",
"M@.	c #1F4546",
"N@.	c #1E4344",
"O@.	c #1F4244",
"P@.	c #B29F95",
"Q@.	c #AE9C92",
"R@.	c #AD9A93",
"S@.	c #AA9991",
"T@.	c #AB9A92",
"U@.	c #AD9E9A",
"V@.	c #ADA099",
"W@.	c #B9A4A0",
"X@.	c #BD8F83",
"Y@.	c #B68475",
"Z@.	c #A97260",
"`@.	c #9C6A58",
" #.	c #92674A",
".#.	c #AF8367",
"+#.	c #C09177",
"@#.	c #C79781",
"##.	c #B9816D",
"$#.	c #AA7460",
"%#.	c #AC7463",
"&#.	c #AB7364",
"*#.	c #B27967",
"=#.	c #B4796A",
"-#.	c #B67968",
";#.	c #B47765",
">#.	c #AF705E",
",#.	c #A86956",
"'#.	c #A06350",
")#.	c #905741",
"!#.	c #905B45",
"~#.	c #A16A57",
"{#.	c #B07560",
"]#.	c #B37662",
"^#.	c #B97D6A",
"/#.	c #BE826F",
"(#.	c #B97C6A",
"_#.	c #B57A69",
":#.	c #9F6B60",
"<#.	c #714235",
"[#.	c #633A31",
"}#.	c #58342D",
"|#.	c #522F27",
"1#.	c #59332B",
"2#.	c #5A332A",
"3#.	c #6B4134",
"4#.	c #784D40",
"5#.	c #764A41",
"6#.	c #764B3E",
"7#.	c #805347",
"8#.	c #734D44",
"9#.	c #52342E",
"0#.	c #3C261E",
"a#.	c #40251F",
"b#.	c #522F26",
"c#.	c #6E4134",
"d#.	c #926050",
"e#.	c #AF7A65",
"f#.	c #BD8B78",
"g#.	c #C08A77",
"h#.	c #C28571",
"i#.	c #BC826E",
"j#.	c #B57866",
"k#.	c #A56A58",
"l#.	c #955944",
"m#.	c #995C46",
"n#.	c #A46754",
"o#.	c #AE6D5B",
"p#.	c #B47463",
"q#.	c #B67864",
"r#.	c #B87F6C",
"s#.	c #BA8371",
"t#.	c #BD8878",
"u#.	c #BB8576",
"v#.	c #B58577",
"w#.	c #A67865",
"x#.	c #AD7E6A",
"y#.	c #B28770",
"z#.	c #AC856B",
"A#.	c #9C7F68",
"B#.	c #886754",
"C#.	c #B88B7D",
"D#.	c #C0958B",
"E#.	c #B5A1A0",
"F#.	c #95ADBD",
"G#.	c #92AFC1",
"H#.	c #90AEC0",
"I#.	c #8AA7BB",
"J#.	c #648293",
"K#.	c #273D44",
"L#.	c #0C2024",
"M#.	c #3C8890",
"N#.	c #6BC6D7",
"O#.	c #83DCEA",
"P#.	c #86DEEA",
"Q#.	c #7FD5E2",
"R#.	c #83D0DE",
"S#.	c #78CAD7",
"T#.	c #5CB9C2",
"U#.	c #3E8E93",
"V#.	c #2C6064",
"W#.	c #214044",
"X#.	c #1E3E41",
"Y#.	c #204347",
"Z#.	c #1F4547",
"`#.	c #1F4545",
" $.	c #1E4444",
".$.	c #B2A096",
"+$.	c #AD9B91",
"@$.	c #AB9992",
"#$.	c #AC9D99",
"$$.	c #AD9C99",
"%$.	c #BFA5A0",
"&$.	c #BE9386",
"*$.	c #BA9589",
"=$.	c #996F5A",
"-$.	c #95684B",
";$.	c #AF856A",
">$.	c #BE9177",
",$.	c #C39680",
"'$.	c #B47E69",
")$.	c #A16C58",
"!$.	c #A1695A",
"~$.	c #A46E60",
"{$.	c #A86F62",
"]$.	c #AB6E5D",
"^$.	c #A86E5D",
"/$.	c #A46855",
"($.	c #9B634D",
"_$.	c #8D563F",
":$.	c #8D563E",
"<$.	c #A26D57",
"[$.	c #A9725E",
"}$.	c #AA755A",
"|$.	c #B0755E",
"1$.	c #B47B65",
"2$.	c #B07457",
"3$.	c #B8765C",
"4$.	c #B27761",
"5$.	c #AB735C",
"6$.	c #905941",
"7$.	c #764630",
"8$.	c #522E1F",
"9$.	c #48291F",
"0$.	c #3E251A",
"a$.	c #39231C",
"b$.	c #3F251D",
"c$.	c #4B3228",
"d$.	c #54362B",
"e$.	c #583930",
"f$.	c #54392F",
"g$.	c #462B20",
"h$.	c #3E261B",
"i$.	c #39251B",
"j$.	c #3C2119",
"k$.	c #593628",
"l$.	c #5A3223",
"m$.	c #7D4F3B",
"n$.	c #A06753",
"o$.	c #AD745F",
"p$.	c #B6826C",
"q$.	c #B37A5F",
"r$.	c #B37C65",
"s$.	c #B37966",
"t$.	c #A76F59",
"u$.	c #9C634C",
"v$.	c #975C47",
"w$.	c #945C48",
"x$.	c #99624E",
"y$.	c #A26B56",
"z$.	c #A76F5C",
"A$.	c #AB715D",
"B$.	c #AE7765",
"C$.	c #B27B6A",
"D$.	c #B58475",
"E$.	c #AE7F6C",
"F$.	c #A07661",
"G$.	c #956B57",
"H$.	c #A67A63",
"I$.	c #B2886F",
"J$.	c #AD876F",
"K$.	c #987C64",
"L$.	c #8E715C",
"M$.	c #B08374",
"N$.	c #B68D84",
"O$.	c #A19DA4",
"P$.	c #8FA6BA",
"Q$.	c #8EA7BA",
"R$.	c #8FA8BB",
"S$.	c #859CB0",
"T$.	c #587482",
"U$.	c #1C3035",
"V$.	c #123036",
"W$.	c #4699A5",
"X$.	c #74CCDE",
"Y$.	c #8BE0EC",
"Z$.	c #8FDEEB",
"`$.	c #96DCEC",
" %.	c #99DBEA",
".%.	c #86CFDF",
"+%.	c #5EBAC2",
"@%.	c #439A9E",
"#%.	c #377C83",
"$%.	c #285C61",
"%%.	c #204245",
"&%.	c #1D3F42",
"*%.	c #1E4446",
"=%.	c #1D4343",
"-%.	c #1E4142",
";%.	c #1E3F41",
">%.	c #1E3D40",
",%.	c #B3A097",
"'%.	c #B29E94",
")%.	c #B29E93",
"!%.	c #B09D93",
"~%.	c #AE9B93",
"{%.	c #AD9A92",
"]%.	c #AC9A92",
"^%.	c #AC9992",
"/%.	c #AB9991",
"(%.	c #AD9B94",
"_%.	c #AB9D94",
":%.	c #B39287",
"<%.	c #B08F85",
"[%.	c #94654B",
"}%.	c #96674C",
"|%.	c #AE826A",
"1%.	c #C39981",
"2%.	c #C2947B",
"3%.	c #AF7B66",
"4%.	c #9A6752",
"5%.	c #986752",
"6%.	c #996554",
"7%.	c #9B6756",
"8%.	c #9D6856",
"9%.	c #A26B59",
"0%.	c #A06854",
"a%.	c #99604B",
"b%.	c #945C44",
"c%.	c #8F5A40",
"d%.	c #9B694B",
"e%.	c #A16D55",
"f%.	c #A26E55",
"g%.	c #9B654C",
"h%.	c #9C6147",
"i%.	c #A76F54",
"j%.	c #AD7256",
"k%.	c #A66D52",
"l%.	c #A46B52",
"m%.	c #945D44",
"n%.	c #91593B",
"o%.	c #7B4C35",
"p%.	c #5F3926",
"q%.	c #593828",
"r%.	c #3A2016",
"s%.	c #331E17",
"t%.	c #2C1B14",
"u%.	c #2D1C15",
"v%.	c #2E1F18",
"w%.	c #2C1E16",
"x%.	c #2E1F17",
"y%.	c #35251A",
"z%.	c #3B2318",
"A%.	c #3B2217",
"B%.	c #392418",
"C%.	c #452A1A",
"D%.	c #4C2A17",
"E%.	c #593321",
"F%.	c #5E3423",
"G%.	c #7B4830",
"H%.	c #8E5539",
"I%.	c #A86C4D",
"J%.	c #AB6F4F",
"K%.	c #A77356",
"L%.	c #AE7960",
"M%.	c #A36C51",
"N%.	c #975E46",
"O%.	c #99624A",
"P%.	c #975F4A",
"Q%.	c #915D48",
"R%.	c #895540",
"S%.	c #8E5844",
"T%.	c #996651",
"U%.	c #A06E59",
"V%.	c #A77665",
"W%.	c #AC806F",
"X%.	c #A77E68",
"Y%.	c #906953",
"Z%.	c #855942",
"`%.	c #9D7258",
" &.	c #B0876E",
".&.	c #AA856D",
"+&.	c #8D7058",
"@&.	c #8B705A",
"#&.	c #AA8375",
"$&.	c #A88681",
"%&.	c #828D98",
"&&.	c #7E909D",
"*&.	c #80929F",
"=&.	c #8291A0",
"-&.	c #768494",
";&.	c #455B64",
">&.	c #1E484F",
",&.	c #56ACBC",
"'&.	c #81D6E7",
")&.	c #92E1EE",
"!&.	c #95E1F0",
"~&.	c #97E1F0",
"{&.	c #9FE1F0",
"]&.	c #9CDCEC",
"^&.	c #7DCCD8",
"/&.	c #4FB0B5",
"(&.	c #43999D",
"_&.	c #3D8B90",
":&.	c #32747C",
"<&.	c #25585C",
"[&.	c #1E4549",
"}&.	c #1D4447",
"|&.	c #1F3F41",
"1&.	c #1E3E40",
"2&.	c #B4A097",
"3&.	c #B39F94",
"4&.	c #B19D93",
"5&.	c #B09C93",
"6&.	c #AE9B92",
"7&.	c #AC9A90",
"8&.	c #AC9991",
"9&.	c #AB9891",
"0&.	c #AB9791",
"a&.	c #AB9892",
"b&.	c #AC9993",
"c&.	c #AA9B93",
"d&.	c #AA9A93",
"e&.	c #AA9A94",
"f&.	c #AB9C97",
"g&.	c #9D8982",
"h&.	c #875A42",
"i&.	c #97674E",
"j&.	c #AB7D67",
"k&.	c #BD967A",
"l&.	c #B9896F",
"m&.	c #AE7A65",
"n&.	c #9B6852",
"o&.	c #996953",
"p&.	c #966551",
"q&.	c #92624E",
"r&.	c #96654F",
"s&.	c #946047",
"t&.	c #905840",
"u&.	c #956047",
"v&.	c #996649",
"w&.	c #9C6B4A",
"x&.	c #A27153",
"y&.	c #976548",
"z&.	c #8D583F",
"A&.	c #925D3F",
"B&.	c #A6745B",
"C&.	c #9B6246",
"D&.	c #966041",
"E&.	c #9A634A",
"F&.	c #8C5A41",
"G&.	c #925E3B",
"H&.	c #804F36",
"I&.	c #7D4B2F",
"J&.	c #673F28",
"K&.	c #533525",
"L&.	c #3A241A",
"M&.	c #2C1B13",
"N&.	c #281912",
"O&.	c #281A15",
"P&.	c #251712",
"Q&.	c #23170F",
"R&.	c #2C1E14",
"S&.	c #362115",
"T&.	c #41261B",
"U&.	c #3C2316",
"V&.	c #4B2F1E",
"W&.	c #5B341D",
"X&.	c #542C18",
"Y&.	c #4F2817",
"Z&.	c #62341C",
"`&.	c #8B5437",
" *.	c #925533",
".*.	c #AA7051",
"+*.	c #9B664A",
"@*.	c #9D684B",
"#*.	c #9A6445",
"$*.	c #915B3E",
"%*.	c #986446",
"&*.	c #99654A",
"**.	c #9A6D54",
"=*.	c #8F6552",
"-*.	c #6E4330",
";*.	c #734530",
">*.	c #8B5945",
",*.	c #9B6C58",
"'*.	c #A77E69",
")*.	c #9B755E",
"!*.	c #7B5340",
"~*.	c #82543D",
"{*.	c #996C51",
"]*.	c #A87B5D",
"^*.	c #9F7C61",
"/*.	c #85684F",
"(*.	c #82644F",
"_*.	c #AA8777",
":*.	c #94807E",
"<*.	c #5F5F62",
"[*.	c #5B6268",
"}*.	c #60666C",
"|*.	c #64686F",
"1*.	c #545B65",
"2*.	c #2A373B",
"3*.	c #0A1718",
"4*.	c #2D646D",
"5*.	c #66BDCE",
"6*.	c #8EDCEE",
"7*.	c #9AE3F2",
"8*.	c #9AE3F1",
"9*.	c #9AE2F1",
"0*.	c #9FE1F1",
"a*.	c #95D9E8",
"b*.	c #6EC3CC",
"c*.	c #42A4A6",
"d*.	c #3D9398",
"e*.	c #3E8F93",
"f*.	c #388388",
"g*.	c #2E6C72",
"h*.	c #265658",
"i*.	c #20494B",
"j*.	c #1F4548",
"k*.	c #1D3D3F",
"l*.	c #1D3E41",
"m*.	c #B6A096",
"n*.	c #B19D94",
"o*.	c #AF9B92",
"p*.	c #AD9B8F",
"q*.	c #AB988F",
"r*.	c #AA9790",
"s*.	c #AC9C94",
"t*.	c #A99A93",
"u*.	c #A89992",
"v*.	c #A79894",
"w*.	c #A79891",
"x*.	c #A79893",
"y*.	c #A79892",
"z*.	c #94837C",
"A*.	c #8B6D5D",
"B*.	c #936548",
"C*.	c #A2765A",
"D*.	c #B58769",
"E*.	c #AE7B61",
"F*.	c #AA765F",
"G*.	c #A5725A",
"H*.	c #996750",
"I*.	c #94624E",
"J*.	c #8D5F48",
"K*.	c #94654E",
"L*.	c #976750",
"M*.	c #946249",
"N*.	c #946448",
"O*.	c #946444",
"P*.	c #905C3C",
"Q*.	c #93603F",
"R*.	c #855334",
"S*.	c #714328",
"T*.	c #936242",
"U*.	c #905E3F",
"V*.	c #8B5536",
"W*.	c #915A3A",
"X*.	c #905C42",
"Y*.	c #905D3F",
"Z*.	c #845030",
"`*.	c #945B3D",
" =.	c #835439",
".=.	c #764C32",
"+=.	c #523120",
"@=.	c #3E2519",
"#=.	c #2F1E17",
"$=.	c #24150F",
"%=.	c #20140F",
"&=.	c #231712",
"*=.	c #211612",
"==.	c #291C14",
"-=.	c #352015",
";=.	c #4A2E1F",
">=.	c #48281B",
",=.	c #47281A",
"'=.	c #603923",
")=.	c #5C351D",
"!=.	c #552F1A",
"~=.	c #633820",
"{=.	c #7E4729",
"]=.	c #8C5232",
"^=.	c #9D613E",
"/=.	c #9A6849",
"(=.	c #8F5D42",
"_=.	c #905D3B",
":=.	c #8B5637",
"<=.	c #956240",
"[=.	c #926142",
"}=.	c #996B50",
"|=.	c #9A6F5C",
"1=.	c #6B4735",
"2=.	c #613822",
"3=.	c #794833",
"4=.	c #976952",
"5=.	c #A57C65",
"6=.	c #86604A",
"7=.	c #6D422F",
"8=.	c #895B43",
"9=.	c #986C50",
"0=.	c #A1745A",
"a=.	c #A17B64",
"b=.	c #7C5E46",
"c=.	c #826751",
"d=.	c #9C8476",
"e=.	c #5C5958",
"f=.	c #37383A",
"g=.	c #303235",
"h=.	c #303435",
"i=.	c #343636",
"j=.	c #282D2F",
"k=.	c #131C1D",
"l=.	c #091717",
"m=.	c #2F6E75",
"n=.	c #66BDCF",
"o=.	c #8DDBED",
"p=.	c #97E1F1",
"q=.	c #99E2F0",
"r=.	c #9AE2F0",
"s=.	c #9CE0F0",
"t=.	c #88D4E1",
"u=.	c #5EB8BF",
"v=.	c #3D969A",
"w=.	c #3A8E93",
"x=.	c #3A8B8F",
"y=.	c #3C858B",
"z=.	c #2B666C",
"A=.	c #265557",
"B=.	c #21484B",
"C=.	c #1B3C3E",
"D=.	c #214B4D",
"E=.	c #B5A196",
"F=.	c #B4A095",
"G=.	c #B09D94",
"H=.	c #AF9C91",
"I=.	c #AC9A8F",
"J=.	c #AB998F",
"K=.	c #AA988F",
"L=.	c #A99C95",
"M=.	c #A79992",
"N=.	c #A69790",
"O=.	c #A59692",
"P=.	c #A59690",
"Q=.	c #A4958F",
"R=.	c #A4958E",
"S=.	c #A49590",
"T=.	c #A4918B",
"U=.	c #8E6F5D",
"V=.	c #96684B",
"W=.	c #9C7052",
"X=.	c #B48569",
"Y=.	c #AB7A60",
"Z=.	c #A9775D",
"`=.	c #A46F54",
" -.	c #A4735C",
".-.	c #9A6550",
"+-.	c #94654F",
"@-.	c #986A53",
"#-.	c #9E7058",
"$-.	c #986953",
"%-.	c #95674C",
"&-.	c #93664A",
"*-.	c #8E5D3B",
"=-.	c #855433",
"--.	c #824D2C",
";-.	c #7A4A2C",
">-.	c #75482A",
",-.	c #72462F",
"'-.	c #7E5134",
")-.	c #7B4F31",
"!-.	c #815236",
"~-.	c #8C5838",
"{-.	c #76442B",
"]-.	c #865035",
"^-.	c #7C472C",
"/-.	c #854F31",
"(-.	c #824D2F",
"_-.	c #664633",
":-.	c #4F2F1E",
"<-.	c #41281B",
"[-.	c #301F15",
"}-.	c #24160F",
"|-.	c #1D1109",
"1-.	c #1F140F",
"2-.	c #221411",
"3-.	c #281A11",
"4-.	c #352116",
"5-.	c #492E1E",
"6-.	c #48281A",
"7-.	c #4A2C20",
"8-.	c #4F2F1B",
"9-.	c #603921",
"0-.	c #5F3822",
"a-.	c #623921",
"b-.	c #764628",
"c-.	c #7E4A2A",
"d-.	c #905B39",
"e-.	c #92613F",
"f-.	c #7F4E34",
"g-.	c #804F2F",
"h-.	c #7D4B2C",
"i-.	c #8C5834",
"j-.	c #936140",
"k-.	c #9A6B51",
"l-.	c #9D6E58",
"m-.	c #815C47",
"n-.	c #7B4E33",
"o-.	c #946045",
"p-.	c #A0745C",
"q-.	c #A57E67",
"r-.	c #784D36",
"s-.	c #784C34",
"t-.	c #8D6246",
"u-.	c #9B7055",
"v-.	c #986E52",
"w-.	c #9B775A",
"x-.	c #7B5E45",
"y-.	c #836C56",
"z-.	c #6F6761",
"A-.	c #424347",
"B-.	c #3F4048",
"C-.	c #363B42",
"D-.	c #33383C",
"E-.	c #2E3235",
"F-.	c #1E2327",
"G-.	c #0E1618",
"H-.	c #061514",
"I-.	c #22585A",
"J-.	c #55A6B3",
"K-.	c #70CCD8",
"L-.	c #80D6E4",
"M-.	c #87DAE8",
"N-.	c #8ADCEB",
"O-.	c #8EDAE8",
"P-.	c #77C9D6",
"Q-.	c #4FA7AC",
"R-.	c #3A8C92",
"S-.	c #38898D",
"T-.	c #358689",
"U-.	c #368187",
"V-.	c #357D83",
"W-.	c #317077",
"X-.	c #296265",
"Y-.	c #235157",
"Z-.	c #204447",
"`-.	c #1D3B3E",
" ;.	c #1E4445",
".;.	c #276063",
"+;.	c #B7A297",
"@;.	c #B5A095",
"#;.	c #AF9D91",
"$;.	c #AC9990",
"%;.	c #AA978F",
"&;.	c #AB9B95",
"*;.	c #C5B7B4",
"=;.	c #C9BDB9",
"-;.	c #C7B9B6",
";;.	c #C1B4B2",
">;.	c #BBAEAC",
",;.	c #B7AAA7",
"';.	c #B1A5A2",
");.	c #ADA2A0",
"!;.	c #AB9F9C",
"~;.	c #9A7967",
"{;.	c #8E5F42",
"];.	c #A67457",
"^;.	c #A47052",
"/;.	c #A47252",
"(;.	c #A47055",
"_;.	c #AE7C66",
":;.	c #A7755D",
"<;.	c #9E6F54",
"[;.	c #A5755C",
"};.	c #A4765D",
"|;.	c #9E725A",
"1;.	c #936448",
"2;.	c #835639",
"3;.	c #754B2C",
"4;.	c #724424",
"5;.	c #6F4123",
"6;.	c #59311B",
"7;.	c #5B331C",
"8;.	c #7C5034",
"9;.	c #68412B",
"0;.	c #6D422A",
"a;.	c #6D442E",
"b;.	c #73472E",
"c;.	c #6A3D26",
"d;.	c #8F5B43",
"e;.	c #885234",
"f;.	c #693B22",
"g;.	c #86553D",
"h;.	c #442719",
"i;.	c #492A1D",
"j;.	c #3C2317",
"k;.	c #2A1C13",
"l;.	c #21120D",
"m;.	c #21130F",
"n;.	c #241611",
"o;.	c #2A1911",
"p;.	c #311E13",
"q;.	c #442A1D",
"r;.	c #4B2D21",
"s;.	c #3F261A",
"t;.	c #432818",
"u;.	c #53321C",
"v;.	c #5E3A25",
"w;.	c #5C3720",
"x;.	c #673D20",
"y;.	c #77492D",
"z;.	c #8B5838",
"A;.	c #8F5F40",
"B;.	c #6B4328",
"C;.	c #623A20",
"D;.	c #6D3E23",
"E;.	c #7A4826",
"F;.	c #8C5B37",
"G;.	c #976A4E",
"H;.	c #9C6E56",
"I;.	c #8D644C",
"J;.	c #A87459",
"K;.	c #B2836A",
"L;.	c #A37D64",
"M;.	c #764C33",
"N;.	c #815439",
"O;.	c #9D7155",
"P;.	c #996F51",
"Q;.	c #8F6C4F",
"R;.	c #72533B",
"S;.	c #8B7661",
"T;.	c #757171",
"U;.	c #4F555F",
"V;.	c #464F5A",
"W;.	c #445059",
"X;.	c #424E57",
"Y;.	c #3A444D",
"Z;.	c #212B31",
"`;.	c #0D1818",
" >.	c #061613",
".>.	c #133231",
"+>.	c #327174",
"@>.	c #44A0A4",
"#>.	c #57B5BE",
"$>.	c #62C4CB",
"%>.	c #6FCCD4",
"&>.	c #70C8D2",
"*>.	c #5AB2BC",
"=>.	c #3D8E93",
"->.	c #367F82",
";>.	c #357D81",
">>.	c #337A7F",
",>.	c #33787F",
"'>.	c #31777E",
")>.	c #327277",
"!>.	c #2F696D",
"~>.	c #295C63",
"{>.	c #234A4E",
"]>.	c #204346",
"^>.	c #235557",
"/>.	c #2D6C70",
"(>.	c #B6A297",
"_>.	c #B09C91",
":>.	c #AE9B90",
"<>.	c #AD998F",
"[>.	c #AA988E",
"}>.	c #AB9890",
"|>.	c #B3A49F",
"1>.	c #D5C6C4",
"2>.	c #EAD8D9",
"3>.	c #EEDFE0",
"4>.	c #EEDEDF",
"5>.	c #E8D8D9",
"6>.	c #E2D2D2",
"7>.	c #DFCFCF",
"8>.	c #DBCCCA",
"9>.	c #CAB8B7",
"0>.	c #A88A7B",
"a>.	c #8C5D40",
"b>.	c #956549",
"c>.	c #9C6A4C",
"d>.	c #9D6A4B",
"e>.	c #9A6747",
"f>.	c #98664B",
"g>.	c #A77760",
"h>.	c #AD7D63",
"i>.	c #9E7055",
"j>.	c #AE7D64",
"k>.	c #AF7F66",
"l>.	c #9B6E53",
"m>.	c #895F42",
"n>.	c #6A432B",
"o>.	c #5E3A23",
"p>.	c #553119",
"q>.	c #54321A",
"r>.	c #502F1B",
"s>.	c #5E3724",
"t>.	c #603A26",
"u>.	c #533222",
"v>.	c #5F3A25",
"w>.	c #583321",
"x>.	c #603623",
"y>.	c #633926",
"z>.	c #6E4634",
"A>.	c #6A3D24",
"B>.	c #5B2E1B",
"C>.	c #714634",
"D>.	c #4B2A1E",
"E>.	c #432218",
"F>.	c #45271C",
"G>.	c #402319",
"H>.	c #3D2218",
"I>.	c #2A1811",
"J>.	c #261710",
"K>.	c #361E17",
"L>.	c #361F16",
"M>.	c #43271B",
"N>.	c #492C21",
"O>.	c #361F14",
"P>.	c #3E2214",
"Q>.	c #4C2C1B",
"R>.	c #563320",
"S>.	c #613B26",
"T>.	c #663D27",
"U>.	c #613A25",
"V>.	c #7F4D2E",
"W>.	c #784E33",
"X>.	c #66422A",
"Y>.	c #553722",
"Z>.	c #512D17",
"`>.	c #63361A",
" ,.	c #7F502C",
".,.	c #8B5A37",
"+,.	c #976946",
"@,.	c #8D6244",
"#,.	c #996644",
"$,.	c #B48165",
"%,.	c #B98E73",
"&,.	c #A17962",
"*,.	c #7B4D32",
"=,.	c #97674A",
"-,.	c #9F7255",
";,.	c #9D7252",
">,.	c #866147",
",,.	c #7C5B43",
"',.	c #836C57",
"),.	c #5F5D5D",
"!,.	c #505D69",
"~,.	c #4E5F6B",
"{,.	c #4D5F6B",
"],.	c #4F606D",
"^,.	c #44545F",
"/,.	c #233237",
"(,.	c #0B1817",
"_,.	c #071817",
":,.	c #112E2C",
"<,.	c #1B4848",
"[,.	c #276869",
"},.	c #368889",
"|,.	c #419BA0",
"1,.	c #4BA5AB",
"2,.	c #4BA2A9",
"3,.	c #39898E",
"4,.	c #2D686C",
"5,.	c #2E6366",
"6,.	c #2C6264",
"7,.	c #2B6064",
"8,.	c #2A6065",
"9,.	c #2A6167",
"0,.	c #2A6368",
"a,.	c #2B6065",
"b,.	c #295A60",
"c,.	c #254D52",
"d,.	c #245053",
"e,.	c #286063",
"f,.	c #317176",
"g,.	c #B7A398",
"h,.	c #B6A296",
"i,.	c #B3A094",
"j,.	c #B19D92",
"k,.	c #B09C90",
"l,.	c #AD9A8F",
"m,.	c #C4B6B0",
"n,.	c #E8D7D8",
"o,.	c #F8E8E9",
"p,.	c #FCEEEE",
"q,.	c #FCEDED",
"r,.	c #FBEDED",
"s,.	c #FAEBEC",
"t,.	c #F9E9EB",
"u,.	c #F9E8EB",
"v,.	c #F4E4E5",
"w,.	c #E6D5D7",
"x,.	c #BDA59C",
"y,.	c #86593B",
"z,.	c #915E3F",
"A,.	c #946142",
"B,.	c #926042",
"C,.	c #905C3E",
"D,.	c #906044",
"E,.	c #A07358",
"F,.	c #A57757",
"G,.	c #A17253",
"H,.	c #B28269",
"I,.	c #B88871",
"J,.	c #A67759",
"K,.	c #83593A",
"L,.	c #6C432B",
"M,.	c #563623",
"N,.	c #4A2C19",
"O,.	c #503221",
"P,.	c #452617",
"Q,.	c #4F2F1F",
"R,.	c #48291B",
"S,.	c #45271B",
"T,.	c #623F2C",
"U,.	c #502A1D",
"V,.	c #512A20",
"W,.	c #5D362B",
"X,.	c #56322A",
"Y,.	c #592F20",
"Z,.	c #5B2D1E",
"`,.	c #582C22",
" '.	c #532C24",
".'.	c #451F16",
"+'.	c #4E271F",
"@'.	c #4F2720",
"#'.	c #442018",
"$'.	c #351A15",
"%'.	c #43211A",
"&'.	c #4F2820",
"*'.	c #43211B",
"='.	c #47221C",
"-'.	c #402118",
";'.	c #41231A",
">'.	c #3B221A",
",'.	c #3F2118",
"''.	c #553626",
")'.	c #623F2F",
"!'.	c #613926",
"~'.	c #512F21",
"{'.	c #573221",
"]'.	c #6C4630",
"^'.	c #5B3827",
"/'.	c #523321",
"('.	c #4D301F",
"_'.	c #402415",
":'.	c #55301A",
"<'.	c #683C22",
"['.	c #7F512E",
"}'.	c #8D5E37",
"|'.	c #976949",
"1'.	c #AC7A5B",
"2'.	c #BB8A6C",
"3'.	c #BE937A",
"4'.	c #967057",
"5'.	c #8C5D3C",
"6'.	c #956340",
"7'.	c #996849",
"8'.	c #9B6C4D",
"9'.	c #996C4C",
"0'.	c #886249",
"a'.	c #77573E",
"b'.	c #866F5B",
"c'.	c #606062",
"d'.	c #54626E",
"e'.	c #53636F",
"f'.	c #526472",
"g'.	c #50626F",
"h'.	c #40505C",
"i'.	c #1E2E32",
"j'.	c #091515",
"k'.	c #081918",
"l'.	c #143132",
"m'.	c #1B494A",
"n'.	c #1F5255",
"o'.	c #275A5D",
"p'.	c #327274",
"q'.	c #398386",
"r'.	c #35767E",
"s'.	c #295A61",
"t'.	c #204146",
"u'.	c #203D41",
"v'.	c #1E3B3E",
"w'.	c #1F3B40",
"x'.	c #214144",
"y'.	c #234F52",
"z'.	c #2C6366",
"A'.	c #2F6F75",
"B'.	c #B7A396",
"C'.	c #B7A296",
"D'.	c #B5A193",
"E'.	c #B3A092",
"F'.	c #B29E90",
"G'.	c #AF9C8F",
"H'.	c #AD998E",
"I'.	c #AC998F",
"J'.	c #AB9A8E",
"K'.	c #CFC0BE",
"L'.	c #E9DADB",
"M'.	c #F5E7E7",
"N'.	c #F7E9E8",
"O'.	c #F8EAEA",
"P'.	c #F9EAEB",
"Q'.	c #F9EBEC",
"R'.	c #FBECEC",
"S'.	c #FBECED",
"T'.	c #F9EBEB",
"U'.	c #EADAD8",
"V'.	c #BAA498",
"W'.	c #7B4E31",
"X'.	c #8E5F3F",
"Y'.	c #956143",
"Z'.	c #8A5A3E",
"`'.	c #89573A",
" ).	c #885738",
".).	c #8D5E3D",
"+).	c #9D6A48",
"@).	c #A57556",
"#).	c #AE795D",
"$).	c #B58269",
"%).	c #B17F67",
"&).	c #95684E",
"*).	c #7C513A",
"=).	c #573724",
"-).	c #51321F",
";).	c #5B3B27",
">).	c #563220",
",).	c #4B271B",
"').	c #3E1F15",
")).	c #2A140E",
"!).	c #301814",
"~).	c #3C1916",
"{).	c #47201B",
"]).	c #582E27",
"^).	c #502822",
"/).	c #542920",
"().	c #562820",
"_).	c #542720",
":).	c #53261F",
"<).	c #562721",
"[).	c #5B2A25",
"}).	c #5B2B26",
"|).	c #562924",
"1).	c #522320",
"2).	c #672E29",
"3).	c #6B332E",
"4).	c #602A26",
"5).	c #552620",
"6).	c #411D19",
"7).	c #452B26",
"8).	c #412019",
"9).	c #58392E",
"0).	c #522B20",
"a).	c #48271C",
"b).	c #4E2D23",
"c).	c #533227",
"d).	c #4F2F23",
"e).	c #472D1F",
"f).	c #482A1D",
"g).	c #3B2114",
"h).	c #492919",
"i).	c #542F1B",
"j).	c #754C2E",
"k).	c #7F5634",
"l).	c #986847",
"m).	c #B98666",
"n).	c #BE8F74",
"o).	c #BB9278",
"p).	c #8E624A",
"q).	c #8D6143",
"r).	c #946542",
"s).	c #96664A",
"t).	c #976C4C",
"u).	c #9A6F50",
"v).	c #875F45",
"w).	c #795942",
"x).	c #816B5A",
"y).	c #5F6064",
"z).	c #55636F",
"A).	c #546470",
"B).	c #536372",
"C).	c #4F5F6D",
"D).	c #384752",
"E).	c #1A282A",
"F).	c #081314",
"G).	c #0B1C1B",
"H).	c #163637",
"I).	c #1E4C4E",
"J).	c #205354",
"K).	c #225354",
"L).	c #225052",
"M).	c #255353",
"N).	c #22494B",
"O).	c #1D3638",
"P).	c #1C2A2E",
"Q).	c #1A292C",
"R).	c #1A2629",
"S).	c #182527",
"T).	c #182327",
"U).	c #182325",
"V).	c #182426",
"W).	c #19252D",
"X).	c #1A272C",
"Y).	c #192C30",
"Z).	c #285C60",
"`).	c #2D6D6F",
" !.	c #B9A498",
".!.	c #B7A496",
"+!.	c #B6A294",
"@!.	c #B4A193",
"#!.	c #B49E91",
"$!.	c #B19E90",
"%!.	c #B09D8F",
"&!.	c #AE9B8E",
"*!.	c #AD9A8E",
"=!.	c #AC988D",
"-!.	c #AC998E",
";!.	c #B8A9A2",
">!.	c #D6C5C6",
",!.	c #E6D8D8",
"'!.	c #EDDFDF",
")!.	c #EFE1E1",
"!!.	c #F0E2E2",
"~!.	c #F1E2E3",
"{!.	c #F3E4E4",
"]!.	c #F3E5E4",
"^!.	c #DDCCC8",
"/!.	c #B49B8F",
"(!.	c #734A33",
"_!.	c #906345",
":!.	c #875438",
"<!.	c #815137",
"[!.	c #8D5D44",
"}!.	c #7D4E2F",
"|!.	c #805231",
"1!.	c #925E3D",
"2!.	c #9A6A49",
"3!.	c #A16D51",
"4!.	c #B27F66",
"5!.	c #B78770",
"6!.	c #AA7E65",
"7!.	c #926B50",
"8!.	c #734D36",
"9!.	c #78543E",
"0!.	c #835741",
"a!.	c #875942",
"b!.	c #875E44",
"c!.	c #7F513D",
"d!.	c #693A32",
"e!.	c #4F2320",
"f!.	c #50221F",
"g!.	c #592925",
"h!.	c #632C29",
"i!.	c #652C2B",
"j!.	c #612824",
"k!.	c #5D2520",
"l!.	c #612823",
"m!.	c #521F1A",
"n!.	c #4E1C18",
"o!.	c #5A231F",
"p!.	c #692B27",
"q!.	c #6D312C",
"r!.	c #6B2B28",
"s!.	c #732E2A",
"t!.	c #7C3330",
"u!.	c #722E2C",
"v!.	c #642A27",
"w!.	c #4F221F",
"x!.	c #4A1E1B",
"y!.	c #471C19",
"z!.	c #4C1E1A",
"A!.	c #4E211D",
"B!.	c #532421",
"C!.	c #552724",
"D!.	c #502622",
"E!.	c #4D2822",
"F!.	c #4B2921",
"G!.	c #462319",
"H!.	c #563325",
"I!.	c #553121",
"J!.	c #543221",
"K!.	c #613C27",
"L!.	c #7B5238",
"M!.	c #8B6246",
"N!.	c #A77756",
"O!.	c #BD8E71",
"P!.	c #C0947D",
"Q!.	c #B58D73",
"R!.	c #86593A",
"S!.	c #825336",
"T!.	c #96654C",
"U!.	c #8F6444",
"V!.	c #956C4E",
"W!.	c #7E5A41",
"X!.	c #7C5B42",
"Y!.	c #6B5C51",
"Z!.	c #5C6368",
"`!.	c #51606C",
" ~.	c #53646E",
".~.	c #34434C",
"+~.	c #152222",
"@~.	c #081313",
"#~.	c #0E201F",
"$~.	c #18393C",
"%~.	c #1F4C4E",
"&~.	c #204D4F",
"*~.	c #1E4647",
"=~.	c #1E3C3E",
"-~.	c #192E30",
";~.	c #162527",
">~.	c #152022",
",~.	c #141F21",
"'~.	c #141D20",
")~.	c #151E21",
"!~.	c #162025",
"~~.	c #162026",
"{~.	c #151F21",
"]~.	c #1A2A2D",
"^~.	c #244C4E",
"/~.	c #2B6769",
"(~.	c #B8A499",
"_~.	c #B7A395",
":~.	c #B49F92",
"<~.	c #B29F90",
"[~.	c #AE9B8F",
"}~.	c #AE9A8F",
"|~.	c #AE9D91",
"1~.	c #C3B2AE",
"2~.	c #E9DBDB",
"3~.	c #EBDBDC",
"4~.	c #E3D3D3",
"5~.	c #CDBBB5",
"6~.	c #AA9283",
"7~.	c #876148",
"8~.	c #8B5E3C",
"9~.	c #754A2E",
"0~.	c #774A31",
"a~.	c #7F5138",
"b~.	c #774B32",
"c~.	c #73472A",
"d~.	c #855335",
"e~.	c #8E5A3A",
"f~.	c #976443",
"g~.	c #A8785D",
"h~.	c #B4866D",
"i~.	c #B1856C",
"j~.	c #9E7459",
"k~.	c #7F553E",
"l~.	c #8D624C",
"m~.	c #A3725B",
"n~.	c #AC7B60",
"o~.	c #A97C62",
"p~.	c #A4765F",
"q~.	c #A3725D",
"r~.	c #9F6356",
"s~.	c #94584F",
"t~.	c #97534F",
"u~.	c #98504A",
"v~.	c #954D4D",
"w~.	c #984F4D",
"x~.	c #994F4B",
"y~.	c #99514B",
"z~.	c #984D45",
"A~.	c #9F4E48",
"B~.	c #994841",
"C~.	c #A34C42",
"D~.	c #A54A43",
"E~.	c #9A433D",
"F~.	c #9E4642",
"G~.	c #A44C46",
"H~.	c #A84F46",
"I~.	c #A44F46",
"J~.	c #9D4A41",
"K~.	c #984B46",
"L~.	c #8F4845",
"M~.	c #904946",
"N~.	c #924D49",
"O~.	c #995753",
"P~.	c #965955",
"Q~.	c #905753",
"R~.	c #88534D",
"S~.	c #835448",
"T~.	c #8F5F51",
"U~.	c #916350",
"V~.	c #895B42",
"W~.	c #8A5E43",
"X~.	c #865B42",
"Y~.	c #855A43",
"Z~.	c #885F46",
"`~.	c #9C7457",
" {.	c #B48564",
".{.	c #BE9073",
"+{.	c #B48C72",
"@{.	c #A47D62",
"#{.	c #825636",
"${.	c #7D5035",
"%{.	c #916144",
"&{.	c #906247",
"*{.	c #946949",
"={.	c #8D6247",
"-{.	c #79583F",
";{.	c #6E5038",
">{.	c #5F5954",
",{.	c #5E656B",
"'{.	c #505F6A",
"){.	c #50616C",
"!{.	c #51616B",
"~{.	c #495A65",
"{{.	c #2D3C43",
"]{.	c #121C1D",
"^{.	c #091313",
"/{.	c #0F2020",
"({.	c #1A3E42",
"_{.	c #1B3A3C",
":{.	c #183130",
"<{.	c #172526",
"[{.	c #141E20",
"}{.	c #121D1F",
"|{.	c #131E20",
"1{.	c #131D1F",
"2{.	c #152024",
"3{.	c #172226",
"4{.	c #161F24",
"5{.	c #141C1F",
"6{.	c #161D20",
"7{.	c #1E3839",
"8{.	c #255B5C",
"9{.	c #B8A498",
"0{.	c #B9A497",
"a{.	c #B8A295",
"b{.	c #B6A194",
"c{.	c #B3A091",
"d{.	c #B19F91",
"e{.	c #AF9D8F",
"f{.	c #AE9A8E",
"g{.	c #AD9A8D",
"h{.	c #B4A296",
"i{.	c #CDBCBA",
"j{.	c #DFD0D0",
"k{.	c #E7D9D9",
"l{.	c #DCCCCB",
"m{.	c #C5B1AC",
"n{.	c #A68D7F",
"o{.	c #805535",
"p{.	c #73492D",
"q{.	c #774D34",
"r{.	c #7A4E36",
"s{.	c #6F442B",
"t{.	c #6F452C",
"u{.	c #77492F",
"v{.	c #74492F",
"w{.	c #895738",
"x{.	c #906545",
"y{.	c #A0775C",
"z{.	c #A0775E",
"A{.	c #99735C",
"B{.	c #794E37",
"C{.	c #875D48",
"D{.	c #A8735D",
"E{.	c #B48169",
"F{.	c #BA8771",
"G{.	c #B7866C",
"H{.	c #B18166",
"I{.	c #B07F6A",
"J{.	c #B67A6D",
"K{.	c #B67368",
"L{.	c #B9756E",
"M{.	c #B56F6B",
"N{.	c #B56865",
"O{.	c #B56863",
"P{.	c #B56B64",
"Q{.	c #BC6D64",
"R{.	c #C47972",
"S{.	c #C57A72",
"T{.	c #C5756E",
"U{.	c #C5716D",
"V{.	c #C26E66",
"W{.	c #C06E67",
"X{.	c #C1706A",
"Y{.	c #C26E68",
"Z{.	c #C2726B",
"`{.	c #C1756D",
" ].	c #C17870",
".].	c #BB746D",
"+].	c #B46B67",
"@].	c #AB6967",
"#].	c #AB6A69",
"$].	c #AD6F6C",
"%].	c #AE766A",
"&].	c #AA7C6F",
"*].	c #A57965",
"=].	c #A77860",
"-].	c #AD7E5E",
";].	c #B5886A",
">].	c #B4896D",
",].	c #A77E61",
"'].	c #936B51",
")].	c #AB8060",
"!].	c #B58565",
"~].	c #B4866A",
"{].	c #A78065",
"]].	c #8A6547",
"^].	c #7C5538",
"/].	c #7B4E32",
"(].	c #906148",
"_].	c #93694C",
":].	c #815A42",
"<].	c #75563E",
"[].	c #604934",
"}].	c #56626A",
"|].	c #52616B",
"1].	c #52636D",
"2].	c #50616B",
"3].	c #43535F",
"4].	c #27343C",
"5].	c #071010",
"6].	c #0C1A1A",
"7].	c #132727",
"8].	c #172B2B",
"9].	c #162626",
"0].	c #142122",
"a].	c #121C1E",
"b].	c #121B1D",
"c].	c #141D1F",
"d].	c #162124",
"e].	c #16232A",
"f].	c #182427",
"g].	c #151E22",
"h].	c #13191D",
"i].	c #15191C",
"j].	c #192627",
"k].	c #B9A597",
"l].	c #BAA497",
"m].	c #B9A396",
"n].	c #B8A294",
"o].	c #B6A093",
"p].	c #B09E90",
"q].	c #AF9C8E",
"r].	c #AE9C8E",
"s].	c #AE9C90",
"t].	c #BBAAA3",
"u].	c #D5C5C4",
"v].	c #E4D4D5",
"w].	c #E8D9DA",
"x].	c #E6D6D7",
"y].	c #D6C6C6",
"z].	c #BAA69D",
"A].	c #9E8676",
"B].	c #9D7F6B",
"C].	c #7A4B30",
"D].	c #6B4228",
"E].	c #6E4930",
"F].	c #714C33",
"G].	c #795138",
"H].	c #6F472F",
"I].	c #6B432C",
"J].	c #6A442C",
"K].	c #6F4529",
"L].	c #774E33",
"M].	c #865941",
"N].	c #8A644C",
"O].	c #7D523B",
"P].	c #805742",
"Q].	c #9B6A52",
"R].	c #B07C64",
"S].	c #BC8872",
"T].	c #BE8F78",
"U].	c #BD8E76",
"V].	c #B98971",
"W].	c #BE8D78",
"X].	c #C1907C",
"Y].	c #C2837B",
"Z].	c #C37E77",
"`].	c #BF756F",
" ^.	c #BF756E",
".^.	c #C67C74",
"+^.	c #C67E72",
"@^.	c #CA8379",
"#^.	c #C88079",
"$^.	c #C67A70",
"%^.	c #C47870",
"&^.	c #C57C73",
"*^.	c #C67971",
"=^.	c #C47B71",
"-^.	c #C47A71",
";^.	c #C1786E",
">^.	c #BE776D",
",^.	c #BE7770",
"'^.	c #BD7C78",
")^.	c #BE857D",
"!^.	c #BC8A80",
"~^.	c #BC9080",
"{^.	c #B88F7B",
"]^.	c #B68B75",
"^^.	c #B78A73",
"/^.	c #BC8C6F",
"(^.	c #C29373",
"_^.	c #C3987A",
":^.	c #B88D70",
"<^.	c #A97E61",
"[^.	c #8F674D",
"}^.	c #A37C5B",
"|^.	c #A57E5F",
"1^.	c #A67D62",
"2^.	c #966E54",
"3^.	c #805B3C",
"4^.	c #744D31",
"5^.	c #7E5339",
"6^.	c #8C5E43",
"7^.	c #94694D",
"8^.	c #866045",
"9^.	c #7B5640",
"0^.	c #71533C",
"a^.	c #6F5E4F",
"b^.	c #56595C",
"c^.	c #505E66",
"d^.	c #52606A",
"e^.	c #52626B",
"f^.	c #51626B",
"g^.	c #404F5B",
"h^.	c #222F33",
"i^.	c #0B1112",
"j^.	c #070E0E",
"k^.	c #0B1514",
"l^.	c #111D1E",
"m^.	c #122021",
"n^.	c #132021",
"o^.	c #131B1E",
"p^.	c #131D20",
"q^.	c #131F22",
"r^.	c #162327",
"s^.	c #18252C",
"t^.	c #18262E",
"u^.	c #172129",
"v^.	c #141B1F",
"w^.	c #13181C",
"x^.	c #15181D",
"y^.	c #161B1F",
"z^.	c #1C3334",
"A^.	c #BBA597",
"B^.	c #BAA597",
"C^.	c #B9A496",
"D^.	c #B9A395",
"E^.	c #B79F93",
"F^.	c #B59F92",
"G^.	c #B49D91",
"H^.	c #B09D90",
"I^.	c #B2A094",
"J^.	c #C6B5AF",
"K^.	c #E2D4D4",
"L^.	c #CFBDBC",
"M^.	c #AC9787",
"N^.	c #927C6F",
"O^.	c #997C6C",
"P^.	c #82573F",
"Q^.	c #693F26",
"R^.	c #664129",
"S^.	c #66412B",
"T^.	c #704730",
"U^.	c #6E4730",
"V^.	c #613E28",
"W^.	c #57341F",
"X^.	c #664029",
"Y^.	c #774A34",
"Z^.	c #754E37",
"`^.	c #78523A",
" /.	c #815941",
"./.	c #76513C",
"+/.	c #81553D",
"@/.	c #A77158",
"#/.	c #B8846C",
"$/.	c #BF9079",
"%/.	c #C2927B",
"&/.	c #BE9179",
"*/.	c #BE927C",
"=/.	c #C0937E",
"-/.	c #C2917E",
";/.	c #C59782",
">/.	c #CA9584",
",/.	c #C68D7D",
"'/.	c #C28376",
")/.	c #C48073",
"!/.	c #C47D72",
"~/.	c #C5796D",
"{/.	c #C57C6E",
"]/.	c #C47C6F",
"^/.	c #C47D71",
"//.	c #C6857A",
"(/.	c #C28476",
"_/.	c #BF796A",
":/.	c #C27A6F",
"</.	c #C37A6E",
"[/.	c #C27D6E",
"}/.	c #C38473",
"|/.	c #C28B79",
"1/.	c #C4927F",
"2/.	c #C39584",
"3/.	c #BD9584",
"4/.	c #B38975",
"5/.	c #B68C77",
"6/.	c #BC967E",
"7/.	c #C59A81",
"8/.	c #CA9C80",
"9/.	c #C89B7E",
"0/.	c #C59C7E",
"a/.	c #B78F72",
"b/.	c #A97E65",
"c/.	c #8B654D",
"d/.	c #967255",
"e/.	c #956E52",
"f/.	c #936A4E",
"g/.	c #865E41",
"h/.	c #744B30",
"i/.	c #764E31",
"j/.	c #81553B",
"k/.	c #8A5D40",
"l/.	c #8A6345",
"m/.	c #815D42",
"n/.	c #75523A",
"o/.	c #664B35",
"p/.	c #63584F",
"q/.	c #555D62",
"r/.	c #4D5C65",
"s/.	c #4F5D68",
"t/.	c #505F69",
"u/.	c #4E5E67",
"v/.	c #3A4751",
"w/.	c #1C2429",
"x/.	c #080E0E",
"y/.	c #080D0D",
"z/.	c #0D1314",
"A/.	c #131F21",
"B/.	c #131F20",
"C/.	c #121B1E",
"D/.	c #131B1D",
"E/.	c #151D20",
"F/.	c #141F22",
"G/.	c #17262D",
"H/.	c #192830",
"I/.	c #19242C",
"J/.	c #161E24",
"K/.	c #14191D",
"L/.	c #15191D",
"M/.	c #151A1D",
"N/.	c #172224",
"O/.	c #BAA496",
"P/.	c #BBA395",
"Q/.	c #B8A194",
"R/.	c #BA9F93",
"S/.	c #B69F92",
"T/.	c #B29F91",
"U/.	c #B8A599",
"V/.	c #D0BEBB",
"W/.	c #E0D0D1",
"X/.	c #C7B5B3",
"Y/.	c #9A8679",
"Z/.	c #856F60",
"`/.	c #977C69",
" (.	c #95705B",
".(.	c #5A351D",
"+(.	c #644029",
"@(.	c #5D3C27",
"#(.	c #6D4832",
"$(.	c #5C3B25",
"%(.	c #583623",
"&(.	c #54311E",
"*(.	c #51321E",
"=(.	c #6C432D",
"-(.	c #6A442E",
";(.	c #6C4731",
">(.	c #6F4E38",
",(.	c #63422D",
"'(.	c #845841",
")(.	c #A27056",
"!(.	c #AF7D64",
"~(.	c #BC8D74",
"{(.	c #C19279",
"](.	c #BC8A73",
"^(.	c #B88971",
"/(.	c #B3856E",
"((.	c #B3816A",
"_(.	c #BA8B72",
":(.	c #BB8B75",
"<(.	c #B98770",
"[(.	c #B77A64",
"}(.	c #B67A6A",
"|(.	c #B6786A",
"1(.	c #B77767",
"2(.	c #B67867",
"3(.	c #B67A68",
"4(.	c #B6796B",
"5(.	c #B77C6B",
"6(.	c #B57D69",
"7(.	c #B87C67",
"8(.	c #B57D6A",
"9(.	c #B4816F",
"0(.	c #B3846E",
"a(.	c #B78973",
"b(.	c #B68C76",
"c(.	c #B28B78",
"d(.	c #AF846E",
"e(.	c #B98C73",
"f(.	c #C3987F",
"g(.	c #C6987C",
"h(.	c #C5997D",
"i(.	c #BF9576",
"j(.	c #AA7E63",
"k(.	c #936C50",
"l(.	c #856149",
"m(.	c #866247",
"n(.	c #805B3F",
"o(.	c #7F593F",
"p(.	c #714D31",
"q(.	c #684128",
"r(.	c #7D553B",
"s(.	c #855A41",
"t(.	c #8B5E43",
"u(.	c #78563C",
"v(.	c #6D4E39",
"w(.	c #6D5944",
"x(.	c #555453",
"y(.	c #59636A",
"z(.	c #515F68",
"A(.	c #505E69",
"B(.	c #505F68",
"C(.	c #4C5963",
"D(.	c #333F48",
"E(.	c #181D20",
"F(.	c #070B0C",
"G(.	c #080D0E",
"H(.	c #0F1516",
"I(.	c #131D1E",
"J(.	c #121A1D",
"K(.	c #18272E",
"L(.	c #192A32",
"M(.	c #171C21",
"N(.	c #15191E",
"O(.	c #161A1E",
"P(.	c #14181D",
"Q(.	c #151A1E",
"R(.	c #BCA698",
"S(.	c #BCA597",
"T(.	c #BCA497",
"U(.	c #BCA496",
"V(.	c #BAA396",
"W(.	c #B9A294",
"X(.	c #BAA294",
"Y(.	c #B9A194",
"Z(.	c #B7A193",
"`(.	c #B5A093",
" _.	c #B5A094",
"._.	c #C1AEA4",
"+_.	c #D6C6C5",
"@_.	c #DECCCE",
"#_.	c #BFACA8",
"$_.	c #8F7D71",
"%_.	c #7E6A5C",
"&_.	c #9A816F",
"*_.	c #997D6E",
"=_.	c #734A36",
"-_.	c #623D25",
";_.	c #633F27",
">_.	c #5D3C28",
",_.	c #6A4731",
"'_.	c #5E3C25",
")_.	c #543723",
"!_.	c #492B1D",
"~_.	c #4B2D1E",
"{_.	c #5B3B26",
"]_.	c #704A36",
"^_.	c #63402B",
"/_.	c #604033",
"(_.	c #725342",
"__.	c #734C38",
":_.	c #A97B5E",
"<_.	c #B98A6B",
"[_.	c #BB8A6D",
"}_.	c #BB8A71",
"|_.	c #B78C75",
"1_.	c #AB7C65",
"2_.	c #A8775F",
"3_.	c #A27057",
"4_.	c #A57154",
"5_.	c #A97253",
"6_.	c #A47153",
"7_.	c #9F6849",
"8_.	c #9A674D",
"9_.	c #986852",
"0_.	c #9A6955",
"a_.	c #A06C57",
"b_.	c #A36B5A",
"c_.	c #A06B57",
"d_.	c #A1715D",
"e_.	c #A2735C",
"f_.	c #A2765D",
"g_.	c #9D705A",
"h_.	c #9A7158",
"i_.	c #A0735B",
"j_.	c #A47A62",
"k_.	c #AC846D",
"l_.	c #AB806B",
"m_.	c #A1765F",
"n_.	c #AB7F68",
"o_.	c #BA8D73",
"p_.	c #BD9177",
"q_.	c #BD8F72",
"r_.	c #BE9379",
"s_.	c #B3886D",
"t_.	c #A77C61",
"u_.	c #886145",
"v_.	c #714D37",
"w_.	c #725039",
"x_.	c #6A472E",
"y_.	c #6C482E",
"z_.	c #5B3A22",
"A_.	c #5F3A24",
"B_.	c #784F36",
"C_.	c #885A3E",
"D_.	c #7A553B",
"E_.	c #694A2F",
"F_.	c #6A4D35",
"G_.	c #635445",
"H_.	c #494F52",
"I_.	c #4A5960",
"J_.	c #4E5C65",
"K_.	c #4D5B65",
"L_.	c #46535C",
"M_.	c #2C383E",
"N_.	c #121718",
"O_.	c #07090B",
"P_.	c #090E0F",
"Q_.	c #0E1818",
"R_.	c #131F1F",
"S_.	c #142020",
"T_.	c #151E20",
"U_.	c #162024",
"V_.	c #172427",
"W_.	c #19282E",
"X_.	c #1A2B33",
"Y_.	c #16242C",
"Z_.	c #171E22",
"`_.	c #171A1F",
" :.	c #181A1F",
".:.	c #161A1D",
"+:.	c #14191C",
"@:.	c #15181C",
"#:.	c #BFA598",
"$:.	c #BEA497",
"%:.	c #BDA396",
"&:.	c #BBA497",
"*:.	c #BBA194",
"=:.	c #B7A295",
"-:.	c #B7A498",
";:.	c #CAB8B2",
">:.	c #D8C7C6",
",:.	c #B5A49B",
"':.	c #867667",
"):.	c #7C6A5B",
"!:.	c #927E6F",
"~:.	c #A4897C",
"{:.	c #8C6A59",
"]:.	c #59351F",
"^:.	c #5E3C26",
"/:.	c #5E3B25",
"(:.	c #613F27",
"_:.	c #67452D",
"::.	c #523422",
"<:.	c #462C20",
"[:.	c #53392B",
"}:.	c #50341F",
"|:.	c #65422B",
"1:.	c #674431",
"2:.	c #583B2D",
"3:.	c #5E4331",
"4:.	c #6A4432",
"5:.	c #8F644F",
"6:.	c #98684A",
"7:.	c #B08369",
"8:.	c #B18168",
"9:.	c #B88C74",
"0:.	c #B48971",
"a:.	c #A77861",
"b:.	c #8E5E47",
"c:.	c #8C593D",
"d:.	c #945E3F",
"e:.	c #905A3C",
"f:.	c #925C3F",
"g:.	c #8C5A3C",
"h:.	c #895940",
"i:.	c #906147",
"j:.	c #906045",
"k:.	c #825640",
"l:.	c #92644C",
"m:.	c #946A59",
"n:.	c #8E624E",
"o:.	c #815742",
"p:.	c #8E644A",
"q:.	c #956C4F",
"r:.	c #93654B",
"s:.	c #956A51",
"t:.	c #976B50",
"u:.	c #976C53",
"v:.	c #966B50",
"w:.	c #95684D",
"x:.	c #A5806A",
"y:.	c #BB9680",
"z:.	c #BD977C",
"A:.	c #B99175",
"B:.	c #B2876A",
"C:.	c #AA7D5E",
"D:.	c #A07559",
"E:.	c #957156",
"F:.	c #86654A",
"G:.	c #5C412B",
"H:.	c #604430",
"I:.	c #684832",
"J:.	c #5E3D25",
"K:.	c #492D19",
"L:.	c #65442C",
"M:.	c #6F4730",
"N:.	c #80553B",
"O:.	c #785037",
"P:.	c #75533B",
"Q:.	c #684930",
"R:.	c #664D38",
"S:.	c #4D4B49",
"T:.	c #4B5258",
"U:.	c #4E5C64",
"V:.	c #4F5C65",
"W:.	c #444E58",
"X:.	c #232E33",
"Y:.	c #0D0F11",
"Z:.	c #08090B",
"`:.	c #0B1111",
" <.	c #101A1A",
".<.	c #161E21",
"+<.	c #141C21",
"@<.	c #151D21",
"#<.	c #1A2931",
"$<.	c #1B2C34",
"%<.	c #192930",
"&<.	c #162126",
"*<.	c #17191D",
"=<.	c #16191D",
"-<.	c #14181B",
";<.	c #BFA699",
"><.	c #BEA698",
",<.	c #BDA496",
"'<.	c #BBA496",
")<.	c #BAA596",
"!<.	c #BBA396",
"~<.	c #BEAAA0",
"{<.	c #D2C1BD",
"]<.	c #E0D1D2",
"^<.	c #D3C1C1",
"/<.	c #AE9D93",
"(<.	c #8B796A",
"_<.	c #857163",
":<.	c #947E6F",
"<<.	c #A88E81",
"[<.	c #A98D7D",
"}<.	c #67462F",
"|<.	c #5C3A22",
"1<.	c #70472E",
"2<.	c #5D3D26",
"3<.	c #64422A",
"4<.	c #4F3322",
"5<.	c #3C261A",
"6<.	c #462D1F",
"7<.	c #5A3B28",
"8<.	c #5D3C2A",
"9<.	c #5D3F2E",
"0<.	c #5A4030",
"a<.	c #704C38",
"b<.	c #865E4B",
"c<.	c #8A6048",
"d<.	c #946E58",
"e<.	c #A0735E",
"f<.	c #AF826B",
"g<.	c #B2856C",
"h<.	c #A3735D",
"i<.	c #7D4E38",
"j<.	c #794B34",
"k<.	c #724426",
"l<.	c #774728",
"m<.	c #7C4B2E",
"n<.	c #7E4E34",
"o<.	c #815039",
"p<.	c #8D5F45",
"q<.	c #84563C",
"r<.	c #845C44",
"s<.	c #895E47",
"t<.	c #855C49",
"u<.	c #805744",
"v<.	c #855D45",
"w<.	c #795239",
"x<.	c #886041",
"y<.	c #8C6148",
"z<.	c #8E6249",
"A<.	c #895D45",
"B<.	c #92654E",
"C<.	c #9A6D55",
"D<.	c #A67B62",
"E<.	c #B0886F",
"F<.	c #B99178",
"G<.	c #BF977B",
"H<.	c #BC9478",
"I<.	c #AE8266",
"J<.	c #9F775A",
"K<.	c #936F55",
"L<.	c #76563C",
"M<.	c #785C45",
"N<.	c #523A29",
"O<.	c #503B2A",
"P<.	c #4E321F",
"Q<.	c #4E3320",
"R<.	c #624129",
"S<.	c #6E4831",
"T<.	c #734C33",
"U<.	c #735038",
"V<.	c #6B4933",
"W<.	c #593B25",
"X<.	c #604B3C",
"Y<.	c #4C4C4D",
"Z<.	c #4A5258",
"`<.	c #4F5B63",
" [.	c #515C65",
".[.	c #4F5B64",
"+[.	c #3E4750",
"@[.	c #1E272A",
"#[.	c #0A0C0C",
"$[.	c #090B0C",
"%[.	c #0E1415",
"&[.	c #141F1F",
"*[.	c #182526",
"=[.	c #192A2B",
"-[.	c #1B3233",
";[.	c #1A3335",
">[.	c #172B2F",
",[.	c #192126",
"'[.	c #182125",
")[.	c #19252A",
"![.	c #1B2A31",
"~[.	c #1D2E36",
"{[.	c #1B2E35",
"][.	c #1A2529",
"^[.	c #15191A",
"/[.	c #15191B",
"([.	c #BDA79A",
"_[.	c #BCA697",
":[.	c #BEA696",
"<[.	c #BDA595",
"[[.	c #BEA597",
"}[.	c #BDA69A",
"|[.	c #C6B3AB",
"1[.	c #D8C8C7",
"2[.	c #E1D2D3",
"3[.	c #D0BFBB",
"4[.	c #A3897D",
"5[.	c #9E8579",
"6[.	c #A28B7D",
"7[.	c #AD9789",
"8[.	c #B29B8B",
"9[.	c #947666",
"0[.	c #5A3920",
"a[.	c #623E27",
"b[.	c #583923",
"c[.	c #65432C",
"d[.	c #4D3220",
"e[.	c #342217",
"f[.	c #3F2A1D",
"g[.	c #5F412F",
"h[.	c #684935",
"i[.	c #4F3424",
"j[.	c #3D271A",
"k[.	c #482E22",
"l[.	c #6E4B38",
"m[.	c #5E3B2A",
"n[.	c #77533F",
"o[.	c #89634E",
"p[.	c #99705B",
"q[.	c #A27962",
"r[.	c #AA7B62",
"s[.	c #9F7059",
"t[.	c #8D604C",
"u[.	c #835942",
"v[.	c #784E34",
"w[.	c #754B31",
"x[.	c #754A31",
"y[.	c #6F422B",
"z[.	c #7E4E38",
"A[.	c #794A34",
"B[.	c #734830",
"C[.	c #744E37",
"D[.	c #673F2A",
"E[.	c #80533D",
"F[.	c #7C533E",
"G[.	c #815A3E",
"H[.	c #795339",
"I[.	c #7A5236",
"J[.	c #82563B",
"K[.	c #84573F",
"L[.	c #8A5E46",
"M[.	c #936851",
"N[.	c #A3775F",
"O[.	c #B1876E",
"P[.	c #BC9178",
"Q[.	c #BC9177",
"R[.	c #B88B6E",
"S[.	c #AC7F5F",
"T[.	c #9F7356",
"U[.	c #946C4F",
"V[.	c #866549",
"W[.	c #705138",
"X[.	c #5D4232",
"Y[.	c #4D3527",
"Z[.	c #493426",
"`[.	c #553B2A",
" }.	c #513624",
".}.	c #4C3320",
"+}.	c #63432E",
"@}.	c #6F4A34",
"#}.	c #6F4C36",
"$}.	c #60422E",
"%}.	c #6C4E3B",
"&}.	c #533722",
"*}.	c #483D37",
"=}.	c #3E4043",
"-}.	c #454C52",
";}.	c #465159",
">}.	c #485058",
",}.	c #445156",
"'}.	c #434C54",
")}.	c #323840",
"!}.	c #191C20",
"~}.	c #090A0A",
"{}.	c #0A0E0E",
"]}.	c #121C1C",
"^}.	c #1A3031",
"/}.	c #204648",
"(}.	c #26555D",
"_}.	c #2A5862",
":}.	c #244E53",
"<}.	c #1C3C41",
"[}.	c #1C3134",
"}}.	c #1A2C31",
"|}.	c #1B2D35",
"1}.	c #1C2E36",
"2}.	c #1A2830",
"3}.	c #182124",
"4}.	c #141B1E",
"5}.	c #151A1B",
"6}.	c #151A1C",
"7}.	c #161A1C",
"8}.	c #151B1C",
"9}.	c #151C1E",
"0}.	c #BDA799",
"a}.	c #BEA697",
"b}.	c #BFA596",
"c}.	c #BCA696",
"d}.	c #C0A697",
"e}.	c #BEA798",
"f}.	c #BEA899",
"g}.	c #C1A799",
"h}.	c #C2A99D",
"i}.	c #CFBCB6",
"j}.	c #DDCDCE",
"k}.	c #E6D7D8",
"l}.	c #E0CFD0",
"m}.	c #CFBCB7",
"n}.	c #BAA598",
"o}.	c #B59C8F",
"p}.	c #B29A8D",
"q}.	c #B19A8C",
"r}.	c #B39F90",
"s}.	c #B6A393",
"t}.	c #AF9687",
"u}.	c #715445",
"v}.	c #5C3A24",
"w}.	c #53331F",
"x}.	c #5B3A23",
"y}.	c #482C1C",
"z}.	c #301E14",
"A}.	c #3F2A1E",
"B}.	c #5E412F",
"C}.	c #6E4D3A",
"D}.	c #5D402D",
"E}.	c #4C3124",
"F}.	c #5A3E30",
"G}.	c #513728",
"H}.	c #694A37",
"I}.	c #845F4A",
"J}.	c #8B654F",
"K}.	c #9A715D",
"L}.	c #9C6E55",
"M}.	c #B2856D",
"N}.	c #AB7E68",
"O}.	c #936650",
"P}.	c #8A5F47",
"Q}.	c #734B35",
"R}.	c #734A32",
"S}.	c #674029",
"T}.	c #5A3422",
"U}.	c #68412E",
"V}.	c #724D39",
"W}.	c #663F2D",
"X}.	c #694330",
"Y}.	c #6B4833",
"Z}.	c #7D573B",
"`}.	c #744C32",
" |.	c #785137",
".|.	c #795139",
"+|.	c #83553F",
"@|.	c #895B44",
"#|.	c #966852",
"$|.	c #9F705A",
"%|.	c #AF836A",
"&|.	c #BB8D72",
"*|.	c #BA8E75",
"=|.	c #A77C60",
"-|.	c #9A7053",
";|.	c #81593C",
">|.	c #7A583A",
",|.	c #5C4739",
"'|.	c #4A3527",
")|.	c #604D3F",
"!|.	c #4B3221",
"~|.	c #4C3120",
"{|.	c #4A311F",
"]|.	c #5F402D",
"^|.	c #63412C",
"/|.	c #6A4D39",
"(|.	c #68503E",
"_|.	c #604733",
":|.	c #503827",
"<|.	c #3F3D3A",
"[|.	c #37373B",
"}|.	c #3A3F43",
"||.	c #3D4246",
"1|.	c #3B3F42",
"2|.	c #394042",
"3|.	c #353C3F",
"4|.	c #262A2D",
"5|.	c #121315",
"6|.	c #080A0A",
"7|.	c #0D1313",
"8|.	c #162A2A",
"9|.	c #286165",
"0|.	c #30727A",
"a|.	c #35787F",
"b|.	c #2F6B74",
"c|.	c #245861",
"d|.	c #22474E",
"e|.	c #203C43",
"f|.	c #1E333A",
"g|.	c #1C3037",
"h|.	c #1A2C33",
"i|.	c #192329",
"j|.	c #171E21",
"k|.	c #161B1C",
"l|.	c #161C1D",
"m|.	c #171C1F",
"n|.	c #161D1F",
"o|.	c #161E20",
"p|.	c #BEA89A",
"q|.	c #C0A699",
"r|.	c #C0A797",
"s|.	c #C0A999",
"t|.	c #C1A798",
"u|.	c #C2A899",
"v|.	c #C3A99C",
"w|.	c #C5B0A6",
"x|.	c #D6C4BF",
"y|.	c #E5D6D7",
"z|.	c #DCCDCB",
"A|.	c #CCB9B0",
"B|.	c #BCA89A",
"C|.	c #BAA696",
"D|.	c #BAA495",
"E|.	c #B8A395",
"F|.	c #B7A194",
"G|.	c #9B8173",
"H|.	c #6A4B3A",
"I|.	c #50301D",
"J|.	c #52311E",
"K|.	c #462B1A",
"L|.	c #341F14",
"M|.	c #3A261B",
"N|.	c #553C2B",
"O|.	c #6C4D3A",
"P|.	c #6C4C38",
"Q|.	c #614534",
"R|.	c #473025",
"S|.	c #311F15",
"T|.	c #40291D",
"U|.	c #5B3E2E",
"V|.	c #744E3A",
"W|.	c #8B6856",
"X|.	c #8C634C",
"Y|.	c #AB7C62",
"Z|.	c #B1836C",
"`|.	c #A0735F",
" 1.	c #996C58",
".1.	c #885F47",
"+1.	c #754F38",
"@1.	c #6C442D",
"#1.	c #603D27",
"$1.	c #5D3825",
"%1.	c #68422F",
"&1.	c #6F4934",
"*1.	c #65402C",
"=1.	c #603C2B",
"-1.	c #66422E",
";1.	c #805538",
">1.	c #82553A",
",1.	c #784F33",
"'1.	c #7E523B",
")1.	c #91654D",
"!1.	c #9A6D57",
"~1.	c #AC8069",
"{1.	c #B5876E",
"]1.	c #AE866D",
"^1.	c #8D6952",
"/1.	c #785440",
"(1.	c #78553D",
"_1.	c #7A583B",
":1.	c #704F32",
"<1.	c #644830",
"[1.	c #493829",
"}1.	c #473429",
"|1.	c #4B3529",
"11.	c #593C2D",
"21.	c #4B3523",
"31.	c #5B402E",
"41.	c #684E3A",
"51.	c #6C5544",
"61.	c #6A5545",
"71.	c #614938",
"81.	c #574231",
"91.	c #31302E",
"01.	c #2F2F30",
"a1.	c #2E2E30",
"b1.	c #2D2D2D",
"c1.	c #2C2C2C",
"d1.	c #292929",
"e1.	c #1B1B1D",
"f1.	c #0C0D0F",
"g1.	c #090C0C",
"h1.	c #111A1B",
"i1.	c #1C3434",
"j1.	c #244E4F",
"k1.	c #27595A",
"l1.	c #2C686E",
"m1.	c #34777F",
"n1.	c #347A81",
"o1.	c #317379",
"p1.	c #2D686E",
"q1.	c #295B61",
"r1.	c #234D54",
"s1.	c #204149",
"t1.	c #1F3A3F",
"u1.	c #1C2F35",
"v1.	c #192427",
"w1.	c #171D20",
"x1.	c #171E20",
"y1.	c #171F21",
"z1.	c #181F21",
"A1.	c #191F22",
"B1.	c #182022",
"C1.	c #171F22",
"D1.	c #BFA79A",
"E1.	c #BFA798",
"F1.	c #C0A798",
"G1.	c #C1A899",
"H1.	c #BFAA9B",
"I1.	c #C2AA9B",
"J1.	c #C4AA9B",
"K1.	c #C4AB9E",
"L1.	c #CBB9AE",
"M1.	c #DBCBC7",
"N1.	c #E5D7D8",
"O1.	c #D8C9C7",
"P1.	c #CAB6AC",
"Q1.	c #C0AA9C",
"R1.	c #BDA899",
"S1.	c #B59D92",
"T1.	c #93786C",
"U1.	c #523527",
"V1.	c #4E3220",
"W1.	c #482D1D",
"X1.	c #3C2619",
"Y1.	c #352216",
"Z1.	c #4E3728",
"`1.	c #664835",
" 2.	c #7D5D49",
".2.	c #664736",
"+2.	c #352219",
"@2.	c #3B251A",
"#2.	c #57382B",
"$2.	c #7F5945",
"%2.	c #84624E",
"&2.	c #89634A",
"*2.	c #B0836A",
"=2.	c #B78B76",
"-2.	c #AD7D68",
";2.	c #9E705C",
">2.	c #926952",
",2.	c #8D634C",
"'2.	c #835E47",
")2.	c #7B5642",
"!2.	c #774B37",
"~2.	c #744836",
"{2.	c #6A412E",
"]2.	c #6C422D",
"^2.	c #653D29",
"/2.	c #734B34",
"(2.	c #84573B",
"_2.	c #94654A",
":2.	c #936547",
"<2.	c #986954",
"[2.	c #A87860",
"}2.	c #AC7B64",
"|2.	c #B38770",
"12.	c #BB9075",
"22.	c #BC8E73",
"32.	c #A17961",
"42.	c #805C47",
"52.	c #674833",
"62.	c #6C4E36",
"72.	c #644B34",
"82.	c #503D2B",
"92.	c #543A27",
"02.	c #443223",
"a2.	c #413429",
"b2.	c #433126",
"c2.	c #5D3F32",
"d2.	c #3D271C",
"e2.	c #4E3626",
"f2.	c #674F3D",
"g2.	c #6C5643",
"h2.	c #665141",
"i2.	c #655040",
"j2.	c #50382A",
"k2.	c #302E2B",
"l2.	c #2B2B2C",
"m2.	c #2B2B2D",
"n2.	c #2A2A2A",
"o2.	c #272727",
"p2.	c #232323",
"q2.	c #171718",
"r2.	c #0D0D0F",
"s2.	c #0C0F11",
"t2.	c #152122",
"u2.	c #1F3E3F",
"v2.	c #265153",
"w2.	c #2A5D60",
"x2.	c #2F6D73",
"y2.	c #306D73",
"z2.	c #2B646B",
"A2.	c #2B5D63",
"B2.	c #28545A",
"C2.	c #264B51",
"D2.	c #234246",
"E2.	c #1F353A",
"F2.	c #1B292B",
"G2.	c #182324",
"H2.	c #192123",
"I2.	c #BFA89A",
"J2.	c #BEA797",
"K2.	c #C1AA9B",
"L2.	c #C1AB9D",
"M2.	c #C4AB9C",
"N2.	c #C5AB9C",
"O2.	c #C9AFA2",
"P2.	c #D3C0BC",
"Q2.	c #E5D8D8",
"R2.	c #E3D3D4",
"S2.	c #D7C6C3",
"T2.	c #C8B2A8",
"U2.	c #C2A99C",
"V2.	c #C0A89B",
"W2.	c #BBA698",
"X2.	c #B8A496",
"Y2.	c #AF988D",
"Z2.	c #8F6E61",
"`2.	c #4B3021",
" 3.	c #3F2A1B",
".3.	c #3E291A",
"+3.	c #322114",
"@3.	c #442E21",
"#3.	c #624835",
"$3.	c #725541",
"%3.	c #775644",
"&3.	c #4D352A",
"*3.	c #452E25",
"=3.	c #4C3428",
"-3.	c #614232",
";3.	c #745244",
">3.	c #7C5A4A",
",3.	c #7C5640",
"'3.	c #926D55",
")3.	c #AB7F66",
"!3.	c #AA7C65",
"~3.	c #B1826D",
"{3.	c #B68773",
"]3.	c #B1846E",
"^3.	c #A3745E",
"/3.	c #9C6E5A",
"(3.	c #8E5F4D",
"_3.	c #8A5C47",
":3.	c #7B5039",
"<3.	c #7F513A",
"[3.	c #6B412C",
"}3.	c #94654D",
"|3.	c #A37359",
"13.	c #A6755B",
"23.	c #9F7157",
"33.	c #B58670",
"43.	c #BC8F76",
"53.	c #C49980",
"63.	c #C59A7F",
"73.	c #C4967D",
"83.	c #A3785E",
"93.	c #825D48",
"03.	c #654935",
"a3.	c #523824",
"b3.	c #573F2C",
"c3.	c #503D30",
"d3.	c #473528",
"e3.	c #392B22",
"f3.	c #33261E",
"g3.	c #443227",
"h3.	c #553D2E",
"i3.	c #3E291E",
"j3.	c #5E4633",
"k3.	c #6F5847",
"l3.	c #5D493A",
"m3.	c #534031",
"n3.	c #543E30",
"o3.	c #4B3B30",
"p3.	c #413B37",
"q3.	c #433D3A",
"r3.	c #3F3D3C",
"s3.	c #3E3D3E",
"t3.	c #39393A",
"u3.	c #353435",
"v3.	c #313030",
"w3.	c #262626",
"x3.	c #161616",
"y3.	c #0C0D0E",
"z3.	c #0F1315",
"A3.	c #19272A",
"B3.	c #2B6165",
"C3.	c #35767C",
"D3.	c #327077",
"E3.	c #2E686E",
"F3.	c #2A6064",
"G3.	c #26585E",
"H3.	c #275156",
"I3.	c #244A4E",
"J3.	c #234548",
"K3.	c #223B3E",
"L3.	c #1D2F30",
"M3.	c #192526",
"N3.	c #182323",
"O3.	c #B59E92",
"P3.	c #C1A79A",
"Q3.	c #C0A79A",
"R3.	c #C2A99A",
"S3.	c #C2AB9B",
"T3.	c #C6AC9D",
"U3.	c #C8AEA0",
"V3.	c #CCB6A9",
"W3.	c #D8C8C4",
"X3.	c #E6D7D7",
"Y3.	c #E1D0D1",
"Z3.	c #D4C3BE",
"`3.	c #C8B1A6",
" 4.	c #C5AC9F",
".4.	c #C5AB9E",
"+4.	c #C4AA9D",
"@4.	c #BFA99B",
"#4.	c #BBA598",
"$4.	c #BA9889",
"%4.	c #876356",
"&4.	c #432D1D",
"*4.	c #3A2619",
"=4.	c #2D1D12",
"-4.	c #39261A",
";4.	c #573F2E",
">4.	c #725845",
",4.	c #7E5E4B",
"'4.	c #6A4F40",
")4.	c #533B31",
"!4.	c #543E32",
"~4.	c #785D51",
"{4.	c #5B4339",
"]4.	c #6B4836",
"^4.	c #835E45",
"/4.	c #AA7D66",
"(4.	c #BD917D",
"_4.	c #C69685",
":4.	c #BA8B76",
"<4.	c #AD7A64",
"[4.	c #AC7966",
"}4.	c #956452",
"|4.	c #8A5A43",
"14.	c #895C45",
"24.	c #83543B",
"34.	c #784A34",
"44.	c #794C39",
"54.	c #92624D",
"64.	c #976650",
"74.	c #A4745B",
"84.	c #A97760",
"94.	c #A27159",
"04.	c #B3836C",
"a4.	c #B78771",
"b4.	c #BA8D74",
"c4.	c #AD7F63",
"d4.	c #A17557",
"e4.	c #7E5C45",
"f4.	c #5E4532",
"g4.	c #412D1D",
"h4.	c #503B2C",
"i4.	c #463325",
"j4.	c #46352A",
"k4.	c #332721",
"l4.	c #312420",
"m4.	c #423126",
"n4.	c #513C2E",
"o4.	c #5B4734",
"p4.	c #624B36",
"q4.	c #4F3E2D",
"r4.	c #4A382A",
"s4.	c #473526",
"t4.	c #514136",
"u4.	c #564F4B",
"v4.	c #534D4A",
"w4.	c #55514E",
"x4.	c #5C5757",
"y4.	c #5E5656",
"z4.	c #585352",
"A4.	c #554D4C",
"B4.	c #393836",
"C4.	c #191919",
"D4.	c #0D0E0E",
"E4.	c #101617",
"F4.	c #192B2E",
"G4.	c #224647",
"H4.	c #295557",
"I4.	c #2D676C",
"J4.	c #327379",
"K4.	c #317278",
"L4.	c #306A71",
"M4.	c #2B6367",
"N4.	c #2A5A5E",
"O4.	c #265158",
"P4.	c #244C4F",
"Q4.	c #213C3E",
"R4.	c #1E3232",
"S4.	c #1A2929",
"T4.	c #172424",
"U4.	c #172222",
"V4.	c #B19B8F",
"W4.	c #C1A89A",
"X4.	c #C2A89A",
"Y4.	c #C9AD9F",
"Z4.	c #CAB0A2",
"`4.	c #D3BDB2",
" 5.	c #DDCCCA",
".5.	c #E4D7D7",
"+5.	c #DECECE",
"@5.	c #D2C0B9",
"#5.	c #C8B3A6",
"$5.	c #C9AEA3",
"%5.	c #C8ADA2",
"&5.	c #C7ACA0",
"*5.	c #C2AB9D",
"=5.	c #C1A99C",
"-5.	c #BDA79C",
";5.	c #B6A299",
">5.	c #B19F9B",
",5.	c #BA9D8E",
"'5.	c #B08573",
")5.	c #6B4C41",
"!5.	c #322014",
"~5.	c #2B1E14",
"{5.	c #352419",
"]5.	c #443022",
"^5.	c #6D5542",
"/5.	c #7D604C",
"(5.	c #6D5341",
"_5.	c #4E352A",
":5.	c #4A3124",
"<5.	c #54392C",
"[5.	c #5F4A3E",
"}5.	c #482E23",
"|5.	c #603F2D",
"15.	c #7C5941",
"25.	c #8D654F",
"35.	c #BE9280",
"45.	c #B48772",
"55.	c #B6856E",
"65.	c #A9745F",
"75.	c #9F6758",
"85.	c #96624D",
"95.	c #865740",
"05.	c #895941",
"a5.	c #764B36",
"b5.	c #815340",
"c5.	c #966752",
"d5.	c #996149",
"e5.	c #A06F57",
"f5.	c #AD7963",
"g5.	c #AD7863",
"h5.	c #B6836C",
"i5.	c #C1917A",
"j5.	c #BF907A",
"k5.	c #B78C71",
"l5.	c #966A53",
"m5.	c #876049",
"n5.	c #74553F",
"o5.	c #533D2B",
"p5.	c #402F20",
"q5.	c #463427",
"r5.	c #423326",
"s5.	c #322924",
"t5.	c #2E2521",
"u5.	c #48372C",
"v5.	c #5C4532",
"w5.	c #604C37",
"x5.	c #513C29",
"y5.	c #413022",
"z5.	c #38281D",
"A5.	c #46362D",
"B5.	c #4C4B58",
"C5.	c #494B5D",
"D5.	c #4E5061",
"E5.	c #55576D",
"F5.	c #5D5D70",
"G5.	c #6A6872",
"H5.	c #6F6A74",
"I5.	c #6F6B6E",
"J5.	c #6E6869",
"K5.	c #4B4648",
"L5.	c #1D1F1E",
"M5.	c #0C0E10",
"N5.	c #11181A",
"O5.	c #234848",
"P5.	c #295A5C",
"Q5.	c #316B72",
"R5.	c #347078",
"S5.	c #306B72",
"T5.	c #2E6369",
"U5.	c #295459",
"V5.	c #244C50",
"W5.	c #203F42",
"X5.	c #1E3B3C",
"Y5.	c #1E3434",
"Z5.	c #1C2B2C",
"`5.	c #192626",
" 6.	c #182424",
".6.	c #192124",
"+6.	c #AD998A",
"@6.	c #BEA998",
"#6.	c #C7AC9D",
"$6.	c #C7AF9E",
"%6.	c #CBB0A0",
"&6.	c #CEB5A6",
"*6.	c #D8C3BD",
"=6.	c #E0D0CE",
"-6.	c #E4D5D6",
";6.	c #DBCCCB",
">6.	c #D2BDB5",
",6.	c #CBB4A7",
"'6.	c #CBB1A5",
")6.	c #CAB0A5",
"!6.	c #CAAFA3",
"~6.	c #C6AFA2",
"{6.	c #BEACA3",
"]6.	c #A2969A",
"^6.	c #787586",
"/6.	c #606382",
"(6.	c #3E496D",
"_6.	c #987E7A",
":6.	c #916D5D",
"<6.	c #473124",
"[6.	c #25160E",
"}6.	c #332319",
"|6.	c #3F2C20",
"16.	c #685140",
"26.	c #795D49",
"36.	c #6E5442",
"46.	c #594236",
"56.	c #463024",
"66.	c #493024",
"76.	c #574438",
"86.	c #4B3024",
"96.	c #5E3F2D",
"06.	c #684A37",
"a6.	c #7B5A4A",
"b6.	c #A07F70",
"c6.	c #A97B67",
"d6.	c #A57A65",
"e6.	c #B08066",
"f6.	c #A26E58",
"g6.	c #946352",
"h6.	c #986853",
"i6.	c #956343",
"j6.	c #865841",
"k6.	c #7F533D",
"l6.	c #885B46",
"m6.	c #95654F",
"n6.	c #9E6A50",
"o6.	c #9E6B52",
"p6.	c #A67258",
"q6.	c #B07A65",
"r6.	c #B9856E",
"s6.	c #C39179",
"t6.	c #B08065",
"u6.	c #A27861",
"v6.	c #966B51",
"w6.	c #88614E",
"x6.	c #72523E",
"y6.	c #5A412F",
"z6.	c #4F3A27",
"A6.	c #3B2C1E",
"B6.	c #423325",
"C6.	c #392C22",
"D6.	c #312621",
"E6.	c #2E2723",
"F6.	c #2F2521",
"G6.	c #4C3A2E",
"H6.	c #624B37",
"I6.	c #53402E",
"J6.	c #3F2E21",
"K6.	c #312318",
"L6.	c #443228",
"M6.	c #7D6C64",
"N6.	c #161A28",
"O6.	c #121627",
"P6.	c #14182B",
"Q6.	c #191F36",
"R6.	c #181E35",
"S6.	c #252E46",
"T6.	c #313D5B",
"U6.	c #474E6C",
"V6.	c #5E5D75",
"W6.	c #585668",
"X6.	c #212225",
"Y6.	c #121A1C",
"Z6.	c #244B4B",
"`6.	c #2C5F61",
" 7.	c #336C75",
".7.	c #30666B",
"+7.	c #2A5E64",
"@7.	c #27555B",
"#7.	c #264D50",
"$7.	c #224749",
"%7.	c #204243",
"&7.	c #1F3B3D",
"*7.	c #1E3837",
"=7.	c #1F3535",
"-7.	c #1C2E2E",
";7.	c #192727",
">7.	c #192425",
",7.	c #1A2225",
"'7.	c #1A2223",
")7.	c #191F21",
"!7.	c #AB9587",
"~7.	c #BEA999",
"{7.	c #C0A99A",
"]7.	c #C8AD9F",
"^7.	c #CAB0A0",
"/7.	c #CDB2A3",
"(7.	c #D2BAAF",
"_7.	c #DAC9C5",
":7.	c #E2D3D3",
"<7.	c #E2D3D4",
"[7.	c #E0CFCD",
"}7.	c #DFCDCA",
"|7.	c #E1CFCE",
"17.	c #DBC9C6",
"27.	c #D2BCB2",
"37.	c #CFB5A9",
"47.	c #CEB4A8",
"57.	c #CCB4A8",
"67.	c #C6AEA9",
"77.	c #998F9A",
"87.	c #54587C",
"97.	c #303D66",
"07.	c #273054",
"a7.	c #1F2646",
"b7.	c #192039",
"c7.	c #94776F",
"d7.	c #BB8E7C",
"e7.	c #AC8370",
"f7.	c #7C5545",
"g7.	c #4B362C",
"h7.	c #291A14",
"i7.	c #59483E",
"j7.	c #5F4D3D",
"k7.	c #765C47",
"l7.	c #664B3B",
"m7.	c #553E30",
"n7.	c #3B291E",
"o7.	c #4D382D",
"p7.	c #4F3C30",
"q7.	c #452E21",
"r7.	c #452E23",
"s7.	c #553C30",
"t7.	c #77594A",
"u7.	c #866553",
"v7.	c #906652",
"w7.	c #A5765B",
"x7.	c #A6735D",
"y7.	c #8F604C",
"z7.	c #8B5F4A",
"A7.	c #956649",
"B7.	c #7E503B",
"C7.	c #82533C",
"D7.	c #8C5C47",
"E7.	c #926751",
"F7.	c #996B52",
"G7.	c #9A705A",
"H7.	c #96664D",
"I7.	c #A2705D",
"J7.	c #AA785F",
"K7.	c #B17D63",
"L7.	c #AE7C63",
"M7.	c #976C57",
"N7.	c #8D6A52",
"O7.	c #6D4E3E",
"P7.	c #715443",
"Q7.	c #594130",
"R7.	c #513B2A",
"S7.	c #3B2D20",
"T7.	c #3C2E21",
"U7.	c #2C221E",
"V7.	c #241D1A",
"W7.	c #483931",
"X7.	c #3A2C22",
"Y7.	c #624C3E",
"Z7.	c #302319",
"`7.	c #2E2016",
" 8.	c #7A6258",
".8.	c #9F877E",
"+8.	c #0D101A",
"@8.	c #0A0D18",
"#8.	c #0F1222",
"$8.	c #101324",
"%8.	c #121628",
"&8.	c #14182C",
"*8.	c #191D38",
"=8.	c #19223E",
"-8.	c #1C2745",
";8.	c #2B3861",
">8.	c #2B3A5B",
",8.	c #10171F",
"'8.	c #1C3535",
")8.	c #254E4E",
"!8.	c #2D6264",
"~8.	c #316A6F",
"{8.	c #2F676D",
"]8.	c #2D6065",
"^8.	c #29565C",
"/8.	c #244E51",
"(8.	c #214143",
"_8.	c #203F3F",
":8.	c #1E3C3B",
"<8.	c #1E3838",
"[8.	c #1F3536",
"}8.	c #1E3233",
"|8.	c #1C2F2F",
"18.	c #1A2526",
"28.	c #1A2324",
"38.	c #1A2224",
"48.	c #192023",
"58.	c #A79184",
"68.	c #BFA698",
"78.	c #C1A99A",
"88.	c #C1AB9C",
"98.	c #C5AC9C",
"08.	c #CCB2A3",
"a8.	c #CFB5A6",
"b8.	c #D6C0B7",
"c8.	c #DECECC",
"d8.	c #E1D1D2",
"e8.	c #DBC9C7",
"f8.	c #D6C2B8",
"g8.	c #D4BEB4",
"h8.	c #D8C4BD",
"i8.	c #DFCECC",
"j8.	c #DAC6C3",
"k8.	c #D1BBB0",
"l8.	c #D1B7AB",
"m8.	c #CEB7AD",
"n8.	c #AD9DA3",
"o8.	c #66668B",
"p8.	c #303B63",
"q8.	c #293259",
"r8.	c #1F2645",
"s8.	c #1C223C",
"t8.	c #171B2F",
"u8.	c #141625",
"v8.	c #91766E",
"w8.	c #C09685",
"x8.	c #B18570",
"y8.	c #A27868",
"z8.	c #805C4D",
"A8.	c #4C352D",
"B8.	c #4A3A2D",
"C8.	c #69513E",
"D8.	c #584031",
"E8.	c #594637",
"F8.	c #412F24",
"G8.	c #483329",
"H8.	c #3F2C22",
"I8.	c #2D1E16",
"J8.	c #36241D",
"K8.	c #715145",
"L8.	c #825C4B",
"M8.	c #916652",
"N8.	c #A77A62",
"O8.	c #9D6B52",
"P8.	c #895A43",
"Q8.	c #82553D",
"R8.	c #8D5C43",
"S8.	c #84593F",
"T8.	c #875741",
"U8.	c #895943",
"V8.	c #8E5F49",
"W8.	c #986B53",
"X8.	c #9A6E5A",
"Y8.	c #8C604C",
"Z8.	c #8D624B",
"`8.	c #8E614A",
" 9.	c #9F6F57",
".9.	c #996950",
"+9.	c #9E6F55",
"@9.	c #775945",
"#9.	c #65493A",
"$9.	c #533E33",
"%9.	c #4E3C31",
"&9.	c #372A21",
"*9.	c #372B23",
"=9.	c #31251F",
"-9.	c #2B231E",
";9.	c #251E19",
">9.	c #463931",
",9.	c #3F3229",
"'9.	c #5D493B",
")9.	c #372921",
"!9.	c #261913",
"~9.	c #6E554B",
"{9.	c #A6877C",
"]9.	c #A38A80",
"^9.	c #0A0D14",
"/9.	c #0A0C17",
"(9.	c #0C0E1B",
"_9.	c #0C0F1C",
":9.	c #0D101E",
"<9.	c #0F1326",
"[9.	c #151A32",
"}9.	c #151C39",
"|9.	c #181F3C",
"19.	c #1B2142",
"29.	c #27335A",
"39.	c #344163",
"49.	c #172125",
"59.	c #1E3739",
"69.	c #275254",
"79.	c #2D6266",
"89.	c #30676B",
"99.	c #2C6065",
"09.	c #29575B",
"a9.	c #214648",
"b9.	c #203E40",
"c9.	c #1F3A3B",
"d9.	c #1D3636",
"e9.	c #1F3534",
"f9.	c #1D3233",
"g9.	c #1D3132",
"h9.	c #1B2D2F",
"i9.	c #1B2A2B",
"j9.	c #1B2627",
"k9.	c #A38D7F",
"l9.	c #BEA596",
"m9.	c #BFAA9A",
"n9.	c #C5AB9D",
"o9.	c #C8AE9F",
"p9.	c #CFB6A9",
"q9.	c #DBC5BE",
"r9.	c #D9C7C6",
"s9.	c #CFB9B1",
"t9.	c #CAB2A5",
"u9.	c #CEB3A7",
"v9.	c #D1B9AD",
"w9.	c #DAC8C2",
"x9.	c #E1D2D2",
"y9.	c #E1D0D0",
"z9.	c #DAC5BF",
"A9.	c #D2BBAF",
"B9.	c #D0B8AE",
"C9.	c #9A8F9B",
"D9.	c #404A78",
"E9.	c #28325D",
"F9.	c #222A4E",
"G9.	c #20274A",
"H9.	c #1B203E",
"I9.	c #15182D",
"J9.	c #121423",
"K9.	c #0F121E",
"L9.	c #8E7169",
"M9.	c #C39A8A",
"N9.	c #B18574",
"O9.	c #A77A6C",
"P9.	c #9D7265",
"Q9.	c #3D2A1F",
"R9.	c #3E2F24",
"S9.	c #5C483A",
"T9.	c #513D30",
"U9.	c #59483A",
"V9.	c #402F24",
"W9.	c #3D2D24",
"X9.	c #2F1F17",
"Y9.	c #453329",
"Z9.	c #664839",
"`9.	c #734F3F",
" 0.	c #845E4E",
".0.	c #8E654D",
"+0.	c #95654D",
"@0.	c #8D6048",
"#0.	c #6F462E",
"$0.	c #895D43",
"%0.	c #8A6148",
"&0.	c #885B45",
"*0.	c #84563F",
"=0.	c #8C5C44",
"-0.	c #946651",
";0.	c #855A46",
">0.	c #7D513C",
",0.	c #865C45",
"'0.	c #94664E",
")0.	c #90684F",
"!0.	c #8A6046",
"~0.	c #71533E",
"{0.	c #6A503E",
"]0.	c #433328",
"^0.	c #43332A",
"/0.	c #2E241C",
"(0.	c #2E241D",
"_0.	c #362D26",
":0.	c #312822",
"<0.	c #28231D",
"[0.	c #2D2520",
"}0.	c #423631",
"|0.	c #47392F",
"10.	c #2A201B",
"20.	c #624940",
"30.	c #9F8374",
"40.	c #AE9287",
"50.	c #A58C83",
"60.	c #09090F",
"70.	c #0A0C16",
"80.	c #080A14",
"90.	c #070A11",
"00.	c #080B14",
"a0.	c #0E1121",
"b0.	c #14172C",
"c0.	c #151934",
"d0.	c #161A37",
"e0.	c #181D3C",
"f0.	c #1C2244",
"g0.	c #2A3860",
"h0.	c #2C4057",
"i0.	c #275657",
"j0.	c #2E6164",
"k0.	c #2C6165",
"l0.	c #28585C",
"m0.	c #254E4F",
"n0.	c #234446",
"o0.	c #214041",
"p0.	c #1E3938",
"q0.	c #1E3333",
"r0.	c #1C3230",
"s0.	c #1C2E2F",
"t0.	c #1B2D2E",
"u0.	c #1A2A2B",
"v0.	c #192728",
"w0.	c #192426",
"x0.	c #192325",
"y0.	c #192225",
"z0.	c #192326",
"A0.	c #1B272C",
"B0.	c #A1887B",
"C0.	c #BCA395",
"D0.	c #BDA697",
"E0.	c #C6AE9D",
"F0.	c #CDB8AD",
"G0.	c #DAC9C4",
"H0.	c #DBCBCB",
"I0.	c #C9B7B1",
"J0.	c #BEA99B",
"K0.	c #C9AFA3",
"L0.	c #CCB2A7",
"M0.	c #D6C3BD",
"N0.	c #E0D1D0",
"O0.	c #E5D5D6",
"P0.	c #E0CECC",
"Q0.	c #D7C4B9",
"R0.	c #D5BBB0",
"S0.	c #B6A4A6",
"T0.	c #404673",
"U0.	c #293563",
"V0.	c #2A3561",
"W0.	c #232C50",
"X0.	c #1F2748",
"Y0.	c #1D213C",
"Z0.	c #16182B",
"`0.	c #0D0F1B",
" a.	c #0C0E18",
".a.	c #886A63",
"+a.	c #C39787",
"@a.	c #AD7E6F",
"#a.	c #A47869",
"$a.	c #936E5D",
"%a.	c #5A4337",
"&a.	c #3C2B22",
"*a.	c #4A382C",
"=a.	c #4C3A2F",
"-a.	c #392A21",
";a.	c #37271F",
">a.	c #35251D",
",a.	c #3D2C25",
"'a.	c #3D2B23",
")a.	c #674E40",
"!a.	c #644433",
"~a.	c #7F5A46",
"{a.	c #825643",
"]a.	c #875D45",
"^a.	c #704B33",
"/a.	c #714831",
"(a.	c #825A42",
"_a.	c #81553F",
":a.	c #855840",
"<a.	c #8A5B43",
"[a.	c #865A42",
"}a.	c #875943",
"|a.	c #875C49",
"1a.	c #7D5844",
"2a.	c #734F3A",
"3a.	c #815740",
"4a.	c #86614A",
"5a.	c #78543D",
"6a.	c #745440",
"7a.	c #674A38",
"8a.	c #564133",
"9a.	c #3E3227",
"0a.	c #302720",
"aa.	c #26201A",
"ba.	c #26201B",
"ca.	c #2F2722",
"da.	c #302B25",
"ea.	c #2E261F",
"fa.	c #433933",
"ga.	c #433832",
"ha.	c #2F251E",
"ia.	c #3A2D27",
"ja.	c #876A5E",
"ka.	c #A08173",
"la.	c #AA8D81",
"ma.	c #A78C83",
"na.	c #0F0E12",
"oa.	c #0A0C12",
"pa.	c #07090F",
"qa.	c #04070C",
"ra.	c #070910",
"sa.	c #101120",
"ta.	c #15192E",
"ua.	c #12172F",
"va.	c #121631",
"wa.	c #161937",
"xa.	c #171D3D",
"ya.	c #182244",
"za.	c #304568",
"Aa.	c #24444A",
"Ba.	c #285558",
"Ca.	c #2B5D61",
"Da.	c #27565B",
"Ea.	c #264B4E",
"Fa.	c #203F3E",
"Ga.	c #1F3B39",
"Ha.	c #1E3937",
"Ia.	c #1E3535",
"Ja.	c #1C3031",
"Ka.	c #1B2F2F",
"La.	c #1A2D2D",
"Ma.	c #1B2C2D",
"Na.	c #1A2A2A",
"Oa.	c #1A2527",
"Pa.	c #1A2326",
"Qa.	c #1A2428",
"Ra.	c #1C282F",
"Sa.	c #1D2C35",
"Ta.	c #9A8477",
"Ua.	c #BA9F92",
"Va.	c #BCA295",
"Wa.	c #C3AA9C",
"Xa.	c #CBB1A4",
"Ya.	c #D4BFB7",
"Za.	c #DDCDCB",
"`a.	c #D1C1C0",
" b.	c #B9A89E",
".b.	c #BDA89C",
"+b.	c #D0BAAF",
"@b.	c #CDB6AC",
"#b.	c #C6B1A5",
"$b.	c #D2C0BA",
"%b.	c #DECCC8",
"&b.	c #D7C3B8",
"*b.	c #CEB7B0",
"=b.	c #6B6A89",
"-b.	c #323D6B",
";b.	c #26315F",
">b.	c #253059",
",b.	c #20284C",
"'b.	c #202748",
")b.	c #1B1D38",
"!b.	c #151628",
"~b.	c #0C0C17",
"{b.	c #0B0C13",
"]b.	c #82665E",
"^b.	c #C19485",
"/b.	c #BC8F7F",
"(b.	c #AF8272",
"_b.	c #A17466",
":b.	c #8E6858",
"<b.	c #6A4F41",
"[b.	c #523B33",
"}b.	c #58483D",
"|b.	c #4D3C33",
"1b.	c #433329",
"2b.	c #362922",
"3b.	c #3A2921",
"4b.	c #31221A",
"5b.	c #2F201A",
"6b.	c #3A2923",
"7b.	c #4F3B2E",
"8b.	c #503A29",
"9b.	c #5D4132",
"0b.	c #73503F",
"ab.	c #734A37",
"bb.	c #8C654D",
"cb.	c #694531",
"db.	c #784F39",
"eb.	c #7A5137",
"fb.	c #7A503A",
"gb.	c #8C5F48",
"hb.	c #80573E",
"ib.	c #80563F",
"jb.	c #7C543E",
"kb.	c #7F5744",
"lb.	c #7A5745",
"mb.	c #6E4C37",
"nb.	c #72513B",
"ob.	c #73513C",
"pb.	c #73533E",
"qb.	c #725543",
"rb.	c #5F4736",
"sb.	c #49372B",
"tb.	c #352A23",
"ub.	c #28221C",
"vb.	c #231F1A",
"wb.	c #302A24",
"xb.	c #39312C",
"yb.	c #362C27",
"zb.	c #312922",
"Ab.	c #372F29",
"Bb.	c #4A3F37",
"Cb.	c #4A3E36",
"Db.	c #776257",
"Eb.	c #907164",
"Fb.	c #9D7F6E",
"Gb.	c #AB8F82",
"Hb.	c #A78B81",
"Ib.	c #110F12",
"Jb.	c #08080E",
"Kb.	c #06070B",
"Lb.	c #03070A",
"Mb.	c #06080D",
"Nb.	c #0F1221",
"Ob.	c #13182C",
"Pb.	c #101529",
"Qb.	c #11162C",
"Rb.	c #141834",
"Sb.	c #151C3A",
"Tb.	c #182041",
"Ub.	c #233158",
"Vb.	c #304E62",
"Wb.	c #285457",
"Xb.	c #265256",
"Yb.	c #244A4D",
"Zb.	c #224144",
"`b.	c #1F3A39",
" c.	c #1E3736",
".c.	c #1D3633",
"+c.	c #1B2F30",
"@c.	c #192D2D",
"#c.	c #1A2C2C",
"$c.	c #1B2B2B",
"%c.	c #1B2A2C",
"&c.	c #1B292A",
"*c.	c #1C282A",
"=c.	c #1C282B",
"-c.	c #1B282B",
";c.	c #1D2A32",
">c.	c #202E38",
",c.	c #20313B",
"'c.	c #937E71",
")c.	c #B99E91",
"!c.	c #C2AC9C",
"~c.	c #CFB2A4",
"{c.	c #D7BBAF",
"]c.	c #DCC6C1",
"^c.	c #C6B5AC",
"/c.	c #D6BFB9",
"(c.	c #DEC7C3",
"_c.	c #D2BEB5",
":c.	c #CBB7AD",
"<c.	c #D4C3BF",
"[c.	c #E0D1D1",
"}c.	c #E2D2D3",
"|c.	c #DDCAC5",
"1c.	c #D9C2B7",
"2c.	c #A89AA1",
"3c.	c #394272",
"4c.	c #2A3261",
"5c.	c #28315E",
"6c.	c #222C53",
"7c.	c #232B50",
"8c.	c #1F2546",
"9c.	c #1A1D38",
"0c.	c #121426",
"ac.	c #0C0C16",
"bc.	c #0A0B0F",
"cc.	c #876A62",
"dc.	c #BE9383",
"ec.	c #B78D7C",
"fc.	c #B28878",
"gc.	c #A4796B",
"hc.	c #966E60",
"ic.	c #876759",
"jc.	c #745749",
"kc.	c #493830",
"lc.	c #45372F",
"mc.	c #372B24",
"nc.	c #34251E",
"oc.	c #372720",
"pc.	c #392A22",
"qc.	c #2B1C19",
"rc.	c #2E1E1A",
"sc.	c #3D2B20",
"tc.	c #5F4335",
"uc.	c #553A2C",
"vc.	c #664532",
"wc.	c #7E553C",
"xc.	c #64412D",
"yc.	c #6A4430",
"zc.	c #65422C",
"Ac.	c #815942",
"Bc.	c #7C503A",
"Cc.	c #835B45",
"Dc.	c #7A543E",
"Ec.	c #67442F",
"Fc.	c #714D39",
"Gc.	c #684431",
"Hc.	c #553A29",
"Ic.	c #714E3C",
"Jc.	c #5E4332",
"Kc.	c #5C4539",
"Lc.	c #48382D",
"Mc.	c #49392F",
"Nc.	c #2C231D",
"Oc.	c #211D18",
"Pc.	c #211D19",
"Qc.	c #352F2A",
"Rc.	c #352B27",
"Sc.	c #483B38",
"Tc.	c #2E2520",
"Uc.	c #37312B",
"Vc.	c #6F5D4D",
"Wc.	c #9A7C6F",
"Xc.	c #A38677",
"Yc.	c #AF9186",
"Zc.	c #A6897E",
"`c.	c #1B1618",
" d.	c #06070C",
".d.	c #05070B",
"+d.	c #04060A",
"@d.	c #06080E",
"#d.	c #111424",
"$d.	c #0F1428",
"%d.	c #0F1429",
"&d.	c #131731",
"*d.	c #161A39",
"=d.	c #18203F",
"-d.	c #1C284C",
";d.	c #2D465D",
">d.	c #234549",
",d.	c #224043",
"'d.	c #1F3A3D",
")d.	c #1D373B",
"!d.	c #1E3637",
"~d.	c #203536",
"{d.	c #203739",
"]d.	c #20383B",
"^d.	c #1F383D",
"/d.	c #20393F",
"(d.	c #203940",
"_d.	c #213A40",
":d.	c #223B3F",
"<d.	c #233C40",
"[d.	c #243D43",
"}d.	c #243F46",
"|d.	c #25424B",
"1d.	c #274950",
"2d.	c #25454C",
"3d.	c #20363C",
"4d.	c #21323B",
"5d.	c #22333D",
"6d.	c #21333D",
"7d.	c #8A796B",
"8d.	c #B59D8D",
"9d.	c #CDB1A3",
"0d.	c #D3B7A9",
"ad.	c #DAC1B6",
"bd.	c #DECDC8",
"cd.	c #E2D0D0",
"dd.	c #DDC9C6",
"ed.	c #E2CEC8",
"fd.	c #E4D0C9",
"gd.	c #DECAC2",
"hd.	c #D8C5BE",
"id.	c #DDC9C2",
"jd.	c #DAC3B7",
"kd.	c #7E768C",
"ld.	c #2C3564",
"md.	c #2D3564",
"nd.	c #262F5C",
"od.	c #252F59",
"pd.	c #21294E",
"qd.	c #1E2448",
"rd.	c #1A1D3A",
"sd.	c #131527",
"td.	c #0D0D16",
"ud.	c #09090D",
"vd.	c #BD9382",
"wd.	c #B98F7F",
"xd.	c #AF7F71",
"yd.	c #A67C70",
"zd.	c #9C7666",
"Ad.	c #967260",
"Bd.	c #5C4538",
"Cd.	c #40332B",
"Dd.	c #3C2E26",
"Ed.	c #382D26",
"Fd.	c #40332C",
"Gd.	c #3B2D26",
"Hd.	c #392B24",
"Id.	c #2A1D1A",
"Jd.	c #2D1F1C",
"Kd.	c #251813",
"Ld.	c #2F2119",
"Md.	c #33241B",
"Nd.	c #4C362A",
"Od.	c #473123",
"Pd.	c #5C4230",
"Qd.	c #65462E",
"Rd.	c #5E3E2B",
"Sd.	c #583B2A",
"Td.	c #533827",
"Ud.	c #764D37",
"Vd.	c #785038",
"Wd.	c #74503A",
"Xd.	c #593D2C",
"Yd.	c #5B3E2F",
"Zd.	c #4F3427",
"`d.	c #573E32",
" e.	c #5F4235",
".e.	c #503E30",
"+e.	c #41342C",
"@e.	c #2E2019",
"#e.	c #241E19",
"$e.	c #1F1C18",
"%e.	c #1F1A16",
"&e.	c #26211C",
"*e.	c #342B26",
"=e.	c #302623",
"-e.	c #3D3731",
";e.	c #3B342D",
">e.	c #846857",
",e.	c #9A7D70",
"'e.	c #A08174",
")e.	c #A28577",
"!e.	c #A78776",
"~e.	c #A58777",
"{e.	c #2A2222",
"]e.	c #05060A",
"^e.	c #040509",
"/e.	c #080B13",
"(e.	c #111426",
"_e.	c #101325",
":e.	c #0F1225",
"<e.	c #111529",
"[e.	c #10152D",
"}e.	c #141936",
"|e.	c #191F3D",
"1e.	c #1C284A",
"2e.	c #2F4164",
"3e.	c #192628",
"4e.	c #1A2728",
"5e.	c #172829",
"6e.	c #1A282B",
"7e.	c #1C2E31",
"8e.	c #20363B",
"9e.	c #233D44",
"0e.	c #25444C",
"ae.	c #274A55",
"be.	c #294D5E",
"ce.	c #2B5363",
"de.	c #2E5666",
"ee.	c #2F5B69",
"fe.	c #315D6F",
"ge.	c #315F72",
"he.	c #356A78",
"ie.	c #3C7A85",
"je.	c #36707B",
"ke.	c #29515A",
"le.	c #23353F",
"me.	c #7B6D62",
"ne.	c #AE9789",
"oe.	c #CAAF9F",
"pe.	c #D4B7A9",
"qe.	c #D7BBAD",
"re.	c #DBC3B9",
"se.	c #E0CFCC",
"te.	c #E3D1CE",
"ue.	c #E1CFC7",
"ve.	c #E4D2CC",
"we.	c #E3D0CB",
"xe.	c #E2D0CE",
"ye.	c #E4D3D4",
"ze.	c #DFD0CE",
"Ae.	c #DBC9C0",
"Be.	c #D6C0B8",
"Ce.	c #5A567D",
"De.	c #313968",
"Ee.	c #2B3260",
"Fe.	c #252F58",
"Ge.	c #29325B",
"He.	c #1F274C",
"Ie.	c #23284D",
"Je.	c #1D213F",
"Ke.	c #131628",
"Le.	c #0C0D14",
"Me.	c #08090D",
"Ne.	c #907063",
"Oe.	c #C19585",
"Pe.	c #B78D7D",
"Qe.	c #9C7366",
"Re.	c #8E6659",
"Se.	c #866354",
"Te.	c #684B3E",
"Ue.	c #432F27",
"Ve.	c #352922",
"We.	c #433B34",
"Xe.	c #372A23",
"Ye.	c #35261F",
"Ze.	c #2C1F1C",
"`e.	c #221613",
" f.	c #2B1E15",
".f.	c #322217",
"+f.	c #372519",
"@f.	c #513827",
"#f.	c #4C3322",
"$f.	c #4B311F",
"%f.	c #4F3625",
"&f.	c #503626",
"*f.	c #6E4A35",
"=f.	c #6F4A35",
"-f.	c #684430",
";f.	c #644536",
">f.	c #563B2F",
",f.	c #503527",
"'f.	c #513629",
")f.	c #4F3629",
"!f.	c #4E372B",
"~f.	c #45362A",
"{f.	c #302620",
"]f.	c #2F2520",
"^f.	c #231C18",
"/f.	c #181511",
"(f.	c #1A1613",
"_f.	c #221D19",
":f.	c #2E2924",
"<f.	c #322B26",
"[f.	c #211C17",
"}f.	c #3B332E",
"|f.	c #4D413A",
"1f.	c #91786C",
"2f.	c #9F8372",
"3f.	c #977869",
"4f.	c #A58B7C",
"5f.	c #AC8E7C",
"6f.	c #43362F",
"7f.	c #05060B",
"8f.	c #0F1224",
"9f.	c #111327",
"0f.	c #12152B",
"af.	c #13172E",
"bf.	c #151A37",
"cf.	c #181F3D",
"df.	c #182142",
"ef.	c #29395C",
"ff.	c #181E2A",
"gf.	c #101314",
"hf.	c #111415",
"if.	c #111518",
"jf.	c #13181B",
"kf.	c #192A2F",
"lf.	c #1C343B",
"mf.	c #213C44",
"nf.	c #24444D",
"of.	c #274A58",
"pf.	c #294F5E",
"qf.	c #2D5363",
"rf.	c #2E5B68",
"sf.	c #305F70",
"tf.	c #356477",
"uf.	c #3C7482",
"vf.	c #488997",
"wf.	c #43818F",
"xf.	c #305D66",
"yf.	c #243840",
"zf.	c #22343D",
"Af.	c #67574F",
"Bf.	c #A48A7C",
"Cf.	c #C5AA98",
"Df.	c #D6B9A8",
"Ef.	c #D9BCAE",
"Ff.	c #D6BDAE",
"Gf.	c #D9C6BF",
"Hf.	c #DFCFCD",
"If.	c #E9D8D8",
"Jf.	c #DECEC9",
"Kf.	c #D7C5C1",
"Lf.	c #DDCACA",
"Mf.	c #E5D3D2",
"Nf.	c #E4D4D4",
"Of.	c #DECFCB",
"Pf.	c #DBC8BF",
"Qf.	c #D2BDB7",
"Rf.	c #4B5177",
"Sf.	c #2B3462",
"Tf.	c #28305D",
"Uf.	c #252D55",
"Vf.	c #21284E",
"Wf.	c #22274D",
"Xf.	c #202544",
"Yf.	c #181B30",
"Zf.	c #0B0C14",
"`f.	c #08080C",
" g.	c #997668",
".g.	c #C29484",
"+g.	c #BA8C7E",
"@g.	c #AF8071",
"#g.	c #AB7D6F",
"$g.	c #A47B6F",
"%g.	c #976F65",
"&g.	c #896555",
"*g.	c #795B4A",
"=g.	c #6B5343",
"-g.	c #443730",
";g.	c #221B17",
">g.	c #332723",
",g.	c #3A2C27",
"'g.	c #2E201D",
")g.	c #1E1711",
"!g.	c #221A15",
"~g.	c #201813",
"{g.	c #231814",
"]g.	c #2A1D15",
"^g.	c #312218",
"/g.	c #483325",
"(g.	c #412D20",
"_g.	c #3A281B",
":g.	c #432E20",
"<g.	c #473122",
"[g.	c #5B3E2A",
"}g.	c #563C28",
"|g.	c #513828",
"1g.	c #4D362B",
"2g.	c #493325",
"3g.	c #473223",
"4g.	c #463123",
"5g.	c #4C3629",
"6g.	c #432F23",
"7g.	c #37281F",
"8g.	c #44372E",
"9g.	c #261E19",
"0g.	c #28221E",
"ag.	c #1A1512",
"bg.	c #14100D",
"cg.	c #332F2A",
"dg.	c #2B2722",
"eg.	c #28211C",
"fg.	c #443930",
"gg.	c #635048",
"hg.	c #886F61",
"ig.	c #9A7D6B",
"jg.	c #937061",
"kg.	c #9C7B6B",
"lg.	c #A88572",
"mg.	c #564239",
"ng.	c #040508",
"og.	c #050609",
"pg.	c #07080E",
"qg.	c #0F1321",
"rg.	c #121528",
"sg.	c #12152A",
"tg.	c #12172C",
"ug.	c #151932",
"vg.	c #151B37",
"wg.	c #232E53",
"xg.	c #242D40",
"yg.	c #0D0E10",
"zg.	c #0D0E12",
"Ag.	c #0E1012",
"Bg.	c #101213",
"Cg.	c #111517",
"Dg.	c #14181A",
"Eg.	c #151D1F",
"Fg.	c #172225",
"Gg.	c #1A262A",
"Hg.	c #1D2B2E",
"Ig.	c #1E3034",
"Jg.	c #20363D",
"Kg.	c #223D47",
"Lg.	c #2A5156",
"Mg.	c #35686E",
"Ng.	c #33666E",
"Og.	c #27434D",
"Pg.	c #1E2C33",
"Qg.	c #1E2931",
"Rg.	c #1E2C34",
"Sg.	c #3D3934",
"Tg.	c #816E61",
"Ug.	c #A8947E",
"Vg.	c #C2A893",
"Wg.	c #C8ACA0",
"Xg.	c #CBB6AC",
"Yg.	c #D7C5C4",
"Zg.	c #E7DAD9",
"`g.	c #EDDCDB",
" h.	c #D8C7C8",
".h.	c #D2C0BE",
"+h.	c #D6C7C5",
"@h.	c #DDCECD",
"#h.	c #DECDC9",
"$h.	c #DEC8BD",
"%h.	c #D8C0B7",
"&h.	c #484C72",
"*h.	c #2C3462",
"=h.	c #27305B",
"-h.	c #252C53",
";h.	c #252A51",
">h.	c #20274D",
",h.	c #242B4C",
"'h.	c #1F223D",
")h.	c #0E0F1A",
"!h.	c #A67E71",
"~h.	c #C49686",
"{h.	c #BE8F80",
"]h.	c #B38677",
"^h.	c #AD7E70",
"/h.	c #A67C6C",
"(h.	c #936B61",
"_h.	c #866151",
":h.	c #7C5B4A",
"<h.	c #705242",
"[h.	c #5A4336",
"}h.	c #2C201A",
"|h.	c #1C1411",
"1h.	c #251B17",
"2h.	c #30221F",
"3h.	c #291F1B",
"4h.	c #1D1612",
"5h.	c #1D1510",
"6h.	c #241A16",
"7h.	c #251A11",
"8h.	c #31231B",
"9h.	c #291B13",
"0h.	c #302118",
"ah.	c #37271A",
"bh.	c #362419",
"ch.	c #453122",
"dh.	c #4E3524",
"eh.	c #4C3526",
"fh.	c #483225",
"gh.	c #3D2A1C",
"hh.	c #3D2B1F",
"ih.	c #36251C",
"jh.	c #35271D",
"kh.	c #231911",
"lh.	c #4D4038",
"mh.	c #211C18",
"nh.	c #1E1916",
"oh.	c #191512",
"ph.	c #171310",
"qh.	c #322B28",
"rh.	c #37332D",
"sh.	c #42362C",
"th.	c #59493D",
"uh.	c #675249",
"vh.	c #84685C",
"wh.	c #8E6D60",
"xh.	c #9A796C",
"yh.	c #9E7E6D",
"zh.	c #A0816E",
"Ah.	c #AB8C7A",
"Bh.	c #A3806C",
"Ch.	c #624B3F",
"Dh.	c #040507",
"Eh.	c #0B0C16",
"Fh.	c #101526",
"Gh.	c #14162A",
"Hh.	c #13162B",
"Ih.	c #12172D",
"Jh.	c #171C39",
"Kh.	c #171E3C",
"Lh.	c #191F40",
"Mh.	c #1C264A",
"Nh.	c #484D5D",
"Oh.	c #3B3637",
"Ph.	c #2C2B2C",
"Qh.	c #201F21",
"Rh.	c #17161B",
"Sh.	c #101012",
"Th.	c #0F0F11",
"Uh.	c #0E0F0F",
"Vh.	c #0F100F",
"Wh.	c #100F10",
"Xh.	c #101011",
"Yh.	c #101113",
"Zh.	c #101414",
"`h.	c #141919",
" i.	c #161E1F",
".i.	c #15181A",
"+i.	c #17191B",
"@i.	c #181A1E",
"#i.	c #292728",
"$i.	c #3D3A35",
"%i.	c #665D54",
"&i.	c #897669",
"*i.	c #9E8D7D",
"=i.	c #BFAEAA",
"-i.	c #EFDFDF",
";i.	c #EADBDB",
">i.	c #CABDBA",
",i.	c #CEBFBF",
"'i.	c #DFCBC4",
")i.	c #DEC6B9",
"!i.	c #DDC1B7",
"~i.	c #56587A",
"{i.	c #242C57",
"]i.	c #232A4F",
"^i.	c #23294E",
"/i.	c #22294E",
"(i.	c #22284E",
"_i.	c #20274B",
":i.	c #232849",
"<i.	c #131526",
"[i.	c #08070B",
"}i.	c #AC8272",
"|i.	c #C19383",
"1i.	c #BB8D7D",
"2i.	c #B28273",
"3i.	c #AB7C6D",
"4i.	c #A37767",
"5i.	c #9D756A",
"6i.	c #8E6959",
"7i.	c #835F4F",
"8i.	c #704F40",
"9i.	c #63483B",
"0i.	c #513C2F",
"ai.	c #2A1D19",
"bi.	c #19120E",
"ci.	c #241A17",
"di.	c #31241E",
"ei.	c #281D1B",
"fi.	c #1E1613",
"gi.	c #1D1610",
"hi.	c #241A15",
"ii.	c #271C16",
"ji.	c #211511",
"ki.	c #2C1E17",
"li.	c #37271D",
"mi.	c #2E2118",
"ni.	c #32231A",
"oi.	c #37261B",
"pi.	c #3D291D",
"qi.	c #382820",
"ri.	c #3C2B1F",
"si.	c #2D1D13",
"ti.	c #37251B",
"ui.	c #291D16",
"vi.	c #2C241E",
"wi.	c #16120F",
"xi.	c #15110E",
"yi.	c #161210",
"zi.	c #191513",
"Ai.	c #211B18",
"Bi.	c #453933",
"Ci.	c #4F3F36",
"Di.	c #503F32",
"Ei.	c #6C594B",
"Fi.	c #82685D",
"Gi.	c #7B5B51",
"Hi.	c #825B52",
"Ii.	c #936F63",
"Ji.	c #A38476",
"Ki.	c #A78877",
"Li.	c #A88673",
"Mi.	c #9D7964",
"Ni.	c #705643",
"Oi.	c #030406",
"Pi.	c #0B0E19",
"Qi.	c #101427",
"Ri.	c #11162A",
"Si.	c #111429",
"Ti.	c #11162B",
"Ui.	c #121730",
"Vi.	c #141835",
"Wi.	c #161D39",
"Xi.	c #181E3D",
"Yi.	c #1A2040",
"Zi.	c #1F284A",
"`i.	c #90838E",
" j.	c #A09394",
".j.	c #968B8B",
"+j.	c #8E8081",
"@j.	c #847777",
"#j.	c #766B6C",
"$j.	c #675F61",
"%j.	c #595453",
"&j.	c #4B4844",
"*j.	c #3A3A39",
"=j.	c #2F2D2D",
"-j.	c #232123",
";j.	c #181819",
">j.	c #121316",
",j.	c #101013",
"'j.	c #0F1010",
")j.	c #0F0F0F",
"!j.	c #100E10",
"~j.	c #0F0D10",
"{j.	c #100E11",
"]j.	c #101010",
"^j.	c #2B2A2B",
"/j.	c #2E2C2D",
"(j.	c #343234",
"_j.	c #3E3C3B",
":j.	c #75726D",
"<j.	c #BBAFAE",
"[j.	c #D9CBCB",
"}j.	c #C7BAB8",
"|j.	c #BCAEAC",
"1j.	c #CDBEBE",
"2j.	c #DACBCC",
"3j.	c #DED0D0",
"4j.	c #DECFCE",
"5j.	c #DAC8BF",
"6j.	c #D5C1B1",
"7j.	c #D8BEB2",
"8j.	c #726D81",
"9j.	c #28315D",
"0j.	c #272E59",
"aj.	c #20264B",
"bj.	c #21284C",
"cj.	c #20274C",
"dj.	c #21284D",
"ej.	c #242A4D",
"fj.	c #1D203C",
"gj.	c #1B1213",
"hj.	c #B18170",
"ij.	c #BC9183",
"jj.	c #BB8C7E",
"kj.	c #B7897A",
"lj.	c #A27767",
"mj.	c #987061",
"nj.	c #8D6456",
"oj.	c #775549",
"pj.	c #66483D",
"qj.	c #5C4134",
"rj.	c #4C3429",
"sj.	c #3E2C22",
"tj.	c #1F1410",
"uj.	c #312421",
"vj.	c #1E1611",
"wj.	c #1C150F",
"xj.	c #1A130E",
"yj.	c #19110D",
"zj.	c #1A110D",
"Aj.	c #352821",
"Bj.	c #31251E",
"Cj.	c #20150F",
"Dj.	c #2C1F14",
"Ej.	c #36261B",
"Fj.	c #382A22",
"Gj.	c #201610",
"Hj.	c #271D15",
"Ij.	c #2D1E15",
"Jj.	c #32231B",
"Kj.	c #1E1511",
"Lj.	c #1C1410",
"Mj.	c #14120E",
"Nj.	c #191613",
"Oj.	c #251E1B",
"Pj.	c #483B39",
"Qj.	c #6B5953",
"Rj.	c #67564A",
"Sj.	c #6B574A",
"Tj.	c #886D60",
"Uj.	c #9A776B",
"Vj.	c #9A7262",
"Wj.	c #9B7565",
"Xj.	c #A98572",
"Yj.	c #A47E6A",
"Zj.	c #9E7964",
"`j.	c #7E5D49",
" k.	c #040406",
".k.	c #040407",
"+k.	c #0F111F",
"@k.	c #111528",
"#k.	c #161B37",
"$k.	c #191F3F",
"%k.	c #1E2747",
"&k.	c #A499A0",
"*k.	c #CCBCBE",
"=k.	c #C8B8BB",
"-k.	c #C3B4B6",
";k.	c #BFAFB1",
">k.	c #B9A9AC",
",k.	c #B2A4A5",
"'k.	c #AC9E9F",
")k.	c #A39798",
"!k.	c #9B8F8E",
"~k.	c #918486",
"{k.	c #867A7B",
"]k.	c #7A6F6D",
"^k.	c #6B6362",
"/k.	c #5E5655",
"(k.	c #4F4849",
"_k.	c #3C3B3B",
":k.	c #2D2D2E",
"<k.	c #202122",
"[k.	c #131315",
"}k.	c #111113",
"|k.	c #646869",
"1k.	c #535558",
"2k.	c #46474A",
"3k.	c #494949",
"4k.	c #928A88",
"5k.	c #C8BBBA",
"6k.	c #DECFD0",
"7k.	c #B5A9A8",
"8k.	c #DACACB",
"9k.	c #DDCFCF",
"0k.	c #CFC0B6",
"ak.	c #C4B1A3",
"bk.	c #BEAEA0",
"ck.	c #7A7282",
"dk.	c #262E58",
"ek.	c #28305A",
"fk.	c #1D2447",
"gk.	c #1F2648",
"hk.	c #22284D",
"ik.	c #22284B",
"jk.	c #422F31",
"kk.	c #AE7D6C",
"lk.	c #B78679",
"mk.	c #BC8C7F",
"nk.	c #BA8B7C",
"ok.	c #B18273",
"pk.	c #A17666",
"qk.	c #987161",
"rk.	c #8B6656",
"sk.	c #815D4F",
"tk.	c #7B5A4F",
"uk.	c #6C4F44",
"vk.	c #63483C",
"wk.	c #5A4034",
"xk.	c #543D32",
"yk.	c #49352D",
"zk.	c #33241F",
"Ak.	c #271A17",
"Bk.	c #211813",
"Ck.	c #18120F",
"Dk.	c #1B1511",
"Ek.	c #332821",
"Fk.	c #1A140E",
"Gk.	c #1F1510",
"Hk.	c #2A201A",
"Ik.	c #1F1811",
"Jk.	c #261D16",
"Kk.	c #18120C",
"Lk.	c #19130D",
"Mk.	c #231914",
"Nk.	c #2F241B",
"Ok.	c #261B14",
"Pk.	c #1D1411",
"Qk.	c #1C1512",
"Rk.	c #17110E",
"Sk.	c #120F0C",
"Tk.	c #100F0B",
"Uk.	c #12100E",
"Vk.	c #211E1A",
"Wk.	c #2D241F",
"Xk.	c #473A33",
"Yk.	c #5F4841",
"Zk.	c #725C4F",
"`k.	c #644D41",
" l.	c #7A6154",
".l.	c #917467",
"+l.	c #9A7A6B",
"@l.	c #A28070",
"#l.	c #A07968",
"$l.	c #A4826E",
"%l.	c #A57F6B",
"&l.	c #A37D68",
"*l.	c #9B745E",
"=l.	c #886550",
"-l.	c #0D0B09",
";l.	c #0E1120",
">l.	c #101327",
",l.	c #10152B",
"'l.	c #151933",
")l.	c #171F3C",
"!l.	c #171F3E",
"~l.	c #252C4B",
"{l.	c #B5A8AB",
"]l.	c #DCCCCD",
"^l.	c #DBCDCB",
"/l.	c #DCCCCC",
"(l.	c #DCCBCC",
"_l.	c #D9CACB",
":l.	c #D8C8C9",
"<l.	c #D8C6C8",
"[l.	c #D4C3C5",
"}l.	c #D0C0C3",
"|l.	c #CDBCBF",
"1l.	c #C9B7B9",
"2l.	c #C3B2B5",
"3l.	c #BCADB0",
"4l.	c #B9A7A9",
"5l.	c #B19FA2",
"6l.	c #A8989B",
"7l.	c #9D9192",
"8l.	c #958787",
"9l.	c #887D7D",
"0l.	c #7B7072",
"al.	c #6B6565",
"bl.	c #D5CDCE",
"cl.	c #C8C2C1",
"dl.	c #BDB2B3",
"el.	c #A7A29F",
"fl.	c #B8ADAC",
"gl.	c #D3C4C6",
"hl.	c #ECDCDC",
"il.	c #CABCBA",
"jl.	c #B0A3A3",
"kl.	c #BDB1B0",
"ll.	c #D0C2C2",
"ml.	c #DAC9C8",
"nl.	c #BFB5AB",
"ol.	c #9E9E8E",
"pl.	c #939582",
"ql.	c #848484",
"rl.	c #2B335C",
"sl.	c #262D55",
"tl.	c #202849",
"ul.	c #1D2345",
"vl.	c #1F2547",
"wl.	c #22284C",
"xl.	c #1F264B",
"yl.	c #21264C",
"zl.	c #39334C",
"Al.	c #A06F63",
"Bl.	c #B07E70",
"Cl.	c #B7887A",
"Dl.	c #B28475",
"El.	c #AB7F70",
"Fl.	c #9F7868",
"Gl.	c #866257",
"Hl.	c #7E5B51",
"Il.	c #68483F",
"Jl.	c #5D4237",
"Kl.	c #5F4439",
"Ll.	c #62493C",
"Ml.	c #5E443B",
"Nl.	c #5A463B",
"Ol.	c #3A2B26",
"Pl.	c #2D1F1B",
"Ql.	c #2F231C",
"Rl.	c #2C221B",
"Sl.	c #221D17",
"Tl.	c #1C1613",
"Ul.	c #1B1610",
"Vl.	c #1A1510",
"Wl.	c #1D1713",
"Xl.	c #221C18",
"Yl.	c #1A1611",
"Zl.	c #15120C",
"`l.	c #15110B",
" m.	c #16110B",
".m.	c #1A150F",
"+m.	c #15100D",
"@m.	c #16110E",
"#m.	c #110C09",
"$m.	c #100C0A",
"%m.	c #12110D",
"&m.	c #12110F",
"*m.	c #25201B",
"=m.	c #362A24",
"-m.	c #5A493F",
";m.	c #755B4F",
">m.	c #765A4D",
",m.	c #86695D",
"'m.	c #856859",
")m.	c #856352",
"!m.	c #977463",
"~m.	c #977561",
"{m.	c #9D7965",
"]m.	c #A57E6B",
"^m.	c #A0745F",
"/m.	c #876350",
"(m.	c #291A16",
"_m.	c #080910",
":m.	c #0F1122",
"<m.	c #141931",
"[m.	c #151936",
"}m.	c #141A36",
"|m.	c #131935",
"1m.	c #141B38",
"2m.	c #131C39",
"3m.	c #2A3150",
"4m.	c #C3B5B8",
"5m.	c #DCCDCD",
"6m.	c #DECECF",
"7m.	c #E0CED0",
"8m.	c #E0CFCF",
"9m.	c #E1CFD1",
"0m.	c #DECDCF",
"am.	c #DCCBCD",
"bm.	c #DAC9CA",
"cm.	c #D7C6C8",
"dm.	c #D3C3C6",
"em.	c #CFBFC2",
"fm.	c #C8BBBD",
"gm.	c #C5B5B8",
"hm.	c #BEAFB2",
"im.	c #F4F0F2",
"jm.	c #F0EAEC",
"km.	c #EAE0E4",
"lm.	c #DACFD0",
"mm.	c #D4C9C8",
"nm.	c #DBCCCE",
"om.	c #EADADA",
"pm.	c #C0B1B1",
"qm.	c #B3A5A5",
"rm.	c #BFB2B2",
"sm.	c #D1C2C3",
"tm.	c #B9AEA5",
"um.	c #909184",
"vm.	c #85897B",
"wm.	c #8B8A88",
"xm.	c #3E4267",
"ym.	c #21264A",
"zm.	c #1E2446",
"Am.	c #212B51",
"Bm.	c #1C2043",
"Cm.	c #1D2347",
"Dm.	c #1C2247",
"Em.	c #24294C",
"Fm.	c #6D565E",
"Gm.	c #A8776B",
"Hm.	c #B28176",
"Im.	c #B08175",
"Jm.	c #AF8275",
"Km.	c #AA7D6F",
"Lm.	c #9B7364",
"Mm.	c #946B60",
"Nm.	c #8C655B",
"Om.	c #80594E",
"Pm.	c #7A594E",
"Qm.	c #715349",
"Rm.	c #715449",
"Sm.	c #6B5144",
"Tm.	c #6F5348",
"Um.	c #664C40",
"Vm.	c #533E35",
"Wm.	c #3A2B24",
"Xm.	c #443329",
"Ym.	c #4B392E",
"Zm.	c #523C32",
"`m.	c #3B2D24",
" n.	c #1E1712",
".n.	c #16130E",
"+n.	c #1B1713",
"@n.	c #13100C",
"#n.	c #15120D",
"$n.	c #16110D",
"%n.	c #18140F",
"&n.	c #18110D",
"*n.	c #17120E",
"=n.	c #13100B",
"-n.	c #15120E",
";n.	c #100C09",
">n.	c #110D0A",
",n.	c #110E0B",
"'n.	c #151210",
")n.	c #302922",
"!n.	c #3F342C",
"~n.	c #43352D",
"{n.	c #564539",
"]n.	c #6C564B",
"^n.	c #675345",
"/n.	c #7A6152",
"(n.	c #84675A",
"_n.	c #7D5D52",
":n.	c #977565",
"<n.	c #9B7765",
"[n.	c #9B7663",
"}n.	c #9F7763",
"|n.	c #9C735F",
"1n.	c #946A55",
"2n.	c #7B5745",
"3n.	c #2E1E19",
"4n.	c #0E101A",
"5n.	c #111427",
"6n.	c #16192E",
"7n.	c #161A34",
"8n.	c #151C38",
"9n.	c #131B38",
"0n.	c #172040",
"an.	c #2B3656",
"bn.	c #C1B4B8",
"cn.	c #E0D0D0",
"dn.	c #E2D1D2",
"en.	c #FCFAFB",
"fn.	c #FCF7F8",
"gn.	c #F7F0F0",
"hn.	c #ECE1E2",
"in.	c #E0D4D4",
"jn.	c #E1D3D4",
"kn.	c #E5D5D5",
"ln.	c #D2C2C3",
"mn.	c #B8AAA9",
"nn.	c #B6A8A8",
"on.	c #C1B4B4",
"pn.	c #D1C3C3",
"qn.	c #D2C2C1",
"rn.	c #B1A8A3",
"sn.	c #898C84",
"tn.	c #7F7A8F",
"un.	c #44446C",
"vn.	c #21274B",
"wn.	c #1F2649",
"xn.	c #22294F",
"yn.	c #22274C",
"zn.	c #212649",
"An.	c #20264A",
"Bn.	c #1F274B",
"Cn.	c #21264B",
"Dn.	c #2B2C4D",
"En.	c #87665F",
"Fn.	c #AA7C6C",
"Gn.	c #AD7D71",
"Hn.	c #A7796E",
"In.	c #A5796B",
"Jn.	c #936A5D",
"Kn.	c #8A6157",
"Ln.	c #845A50",
"Mn.	c #816054",
"Nn.	c #78594E",
"On.	c #77594D",
"Pn.	c #684D40",
"Qn.	c #5C4136",
"Rn.	c #63463A",
"Sn.	c #674D3F",
"Tn.	c #4F3C32",
"Un.	c #48362A",
"Vn.	c #4C3B2F",
"Wn.	c #382B20",
"Xn.	c #221A14",
"Yn.	c #15120F",
"Zn.	c #1B1712",
"`n.	c #16120E",
" o.	c #16120D",
".o.	c #17130E",
"+o.	c #110F0B",
"@o.	c #120F0B",
"#o.	c #120E0B",
"$o.	c #181210",
"%o.	c #241D18",
"&o.	c #362C25",
"*o.	c #45382F",
"=o.	c #504137",
"-o.	c #57473D",
";o.	c #624B3E",
">o.	c #6B5548",
",o.	c #6B5245",
"'o.	c #7F6156",
")o.	c #836458",
"!o.	c #8B6A5C",
"~o.	c #957261",
"{o.	c #906C5A",
"]o.	c #956E5E",
"^o.	c #9E7864",
"/o.	c #98725D",
"(o.	c #97705B",
"_o.	c #8D6853",
":o.	c #6A4936",
"<o.	c #231A15",
"[o.	c #131422",
"}o.	c #13172C",
"|o.	c #15172E",
"1o.	c #131730",
"2o.	c #131732",
"3o.	c #131735",
"4o.	c #131B39",
"5o.	c #162041",
"6o.	c #2B3659",
"7o.	c #C2B7BA",
"8o.	c #DDCDCD",
"9o.	c #E1D1D1",
"0o.	c #FBFAFA",
"ao.	c #FBF6F7",
"bo.	c #F4EEEE",
"co.	c #EBE1E1",
"do.	c #E1D4D4",
"eo.	c #E1D2D4",
"fo.	c #C9B8B9",
"go.	c #B4A8A6",
"ho.	c #B9AAAA",
"io.	c #CDBBBB",
"jo.	c #A99D9B",
"ko.	c #828482",
"lo.	c #8D898A",
"mo.	c #626081",
"no.	c #3F3E65",
"oo.	c #2B3155",
"po.	c #22294D",
"qo.	c #1F2448",
"ro.	c #1F2244",
"so.	c #1B2043",
"to.	c #1A2143",
"uo.	c #1C2144",
"vo.	c #1F2346",
"wo.	c #403951",
"xo.	c #976E60",
"yo.	c #A9796B",
"zo.	c #A6776A",
"Ao.	c #A37669",
"Bo.	c #9D7365",
"Co.	c #997264",
"Do.	c #896258",
"Eo.	c #886257",
"Fo.	c #88655A",
"Go.	c #7C5B51",
"Ho.	c #7F6055",
"Io.	c #694C41",
"Jo.	c #66493E",
"Ko.	c #6E5246",
"Lo.	c #5D4239",
"Mo.	c #5A4339",
"No.	c #4C392C",
"Oo.	c #533F31",
"Po.	c #3A2B22",
"Qo.	c #2E241E",
"Ro.	c #29201B",
"So.	c #1F1914",
"To.	c #201814",
"Uo.	c #15130E",
"Vo.	c #1E1812",
"Wo.	c #2B231C",
"Xo.	c #3B2C25",
"Yo.	c #45362C",
"Zo.	c #57473E",
"`o.	c #5D4B3F",
" p.	c #644E43",
".p.	c #6E584B",
"+p.	c #72584A",
"@p.	c #755A4F",
"#p.	c #75584D",
"$p.	c #826255",
"%p.	c #886654",
"&p.	c #93705D",
"*p.	c #8F6C5A",
"=p.	c #886050",
"-p.	c #946656",
";p.	c #996D5A",
">p.	c #99735F",
",p.	c #936E58",
"'p.	c #86624C",
")p.	c #523B2D",
"!p.	c #1C171A",
"~p.	c #131627",
"{p.	c #13172D",
"]p.	c #14162D",
"^p.	c #11152E",
"/p.	c #111530",
"(p.	c #131733",
"_p.	c #171A39",
":p.	c #1B2547",
"<p.	c #303C61",
"[p.	c #C4B5B8",
"}p.	c #E0D2D3",
"|p.	c #E0D2D4",
"1p.	c #DFD3D4",
"2p.	c #DFD3D3",
"3p.	c #FBFAFB",
"4p.	c #F9F4F5",
"5p.	c #F2EBEB",
"6p.	c #E7DCDE",
"7p.	c #E1D5D5",
"8p.	c #C0B1B0",
"9p.	c #B5A8A7",
"0p.	c #BBAEAE",
"ap.	c #D5C7C7",
"bp.	c #DBCACA",
"cp.	c #C4B2AC",
"dp.	c #998A86",
"ep.	c #757674",
"fp.	c #90848D",
"gp.	c #56537C",
"hp.	c #3D3B63",
"ip.	c #31355A",
"jp.	c #283054",
"kp.	c #1A1E3F",
"lp.	c #1B2041",
"mp.	c #191C3C",
"np.	c #1D2243",
"op.	c #192043",
"pp.	c #5F4B54",
"qp.	c #9B6F5F",
"rp.	c #A47667",
"sp.	c #9F7164",
"tp.	c #9C7364",
"up.	c #997465",
"vp.	c #8C665B",
"wp.	c #835E53",
"xp.	c #876358",
"yp.	c #806055",
"zp.	c #77574D",
"Ap.	c #73554A",
"Bp.	c #6F5044",
"Cp.	c #6B4F42",
"Dp.	c #684E42",
"Ep.	c #5A4437",
"Fp.	c #543C2F",
"Gp.	c #573D30",
"Hp.	c #433429",
"Ip.	c #352820",
"Jp.	c #34261D",
"Kp.	c #3B2E25",
"Lp.	c #3A2D24",
"Mp.	c #33271E",
"Np.	c #34261C",
"Op.	c #423125",
"Pp.	c #5E4B3F",
"Qp.	c #614E42",
"Rp.	c #5C483C",
"Sp.	c #604D40",
"Tp.	c #715C4F",
"Up.	c #6F584B",
"Vp.	c #7A5E52",
"Wp.	c #735849",
"Xp.	c #6E5345",
"Yp.	c #7C5F53",
"Zp.	c #806255",
"`p.	c #866857",
" q.	c #906D5A",
".q.	c #8F6A57",
"+q.	c #997461",
"@q.	c #976B5B",
"#q.	c #966153",
"$q.	c #966856",
"%q.	c #936D58",
"&q.	c #916D57",
"*q.	c #7D5945",
"=q.	c #181724",
"-q.	c #15182B",
";q.	c #11142A",
">q.	c #13152B",
",q.	c #182141",
"'q.	c #1A2449",
")q.	c #364065",
"!q.	c #D0BEC2",
"~q.	c #DDD1D2",
"{q.	c #DDD2D2",
"]q.	c #DED2D3",
"^q.	c #DFD2D4",
"/q.	c #DFD3D5",
"(q.	c #E0D3D5",
"_q.	c #F7F4F7",
":q.	c #F2EDF0",
"<q.	c #EAE2E4",
"[q.	c #E5D9DA",
"}q.	c #E7D6D6",
"|q.	c #E4D2D2",
"1q.	c #B8ACAA",
"2q.	c #B8A9A9",
"3q.	c #C2B4B4",
"4q.	c #CEC0C0",
"5q.	c #D7C6C6",
"6q.	c #B8A79F",
"7q.	c #7D7062",
"8q.	c #5A5050",
"9q.	c #7C7389",
"0q.	c #4A4675",
"aq.	c #3E3C66",
"bq.	c #323158",
"cq.	c #252A4E",
"dq.	c #1E2646",
"eq.	c #1B2040",
"fq.	c #1D2142",
"gq.	c #1C1F3E",
"hq.	c #1C2040",
"iq.	c #181E3F",
"jq.	c #1D2244",
"kq.	c #28294B",
"lq.	c #7A5E5D",
"mq.	c #9C6F62",
"nq.	c #9C6E60",
"oq.	c #976A5D",
"pq.	c #9A7268",
"qq.	c #997368",
"rq.	c #92695F",
"sq.	c #8A6358",
"tq.	c #8E675E",
"uq.	c #866459",
"vq.	c #7B5A50",
"wq.	c #7B5D52",
"xq.	c #705146",
"yq.	c #74554A",
"zq.	c #705448",
"Aq.	c #63473C",
"Bq.	c #5F4438",
"Cq.	c #674B3E",
"Dq.	c #5F4337",
"Eq.	c #5B4134",
"Fq.	c #564034",
"Gq.	c #534133",
"Hq.	c #4E3D2D",
"Iq.	c #4E3C2D",
"Jq.	c #413125",
"Kq.	c #45352A",
"Lq.	c #3D2E23",
"Mq.	c #48372A",
"Nq.	c #544133",
"Oq.	c #5C4639",
"Pq.	c #5A4438",
"Qq.	c #5E493C",
"Rq.	c #6D574A",
"Sq.	c #705C4E",
"Tq.	c #7F695B",
"Uq.	c #755E50",
"Vq.	c #7D6052",
"Wq.	c #85685A",
"Xq.	c #84685B",
"Yq.	c #816357",
"Zq.	c #806152",
"`q.	c #82624D",
" r.	c #916B59",
".r.	c #956E5B",
"+r.	c #986657",
"@r.	c #9A6959",
"#r.	c #956B58",
"$r.	c #8E6651",
"%r.	c #8D6651",
"&r.	c #644430",
"*r.	c #352622",
"=r.	c #161829",
"-r.	c #13152A",
";r.	c #10142A",
">r.	c #111329",
",r.	c #11142B",
"'r.	c #111531",
")r.	c #171B38",
"!r.	c #151E3D",
"~r.	c #172142",
"{r.	c #1F2C51",
"]r.	c #374065",
"^r.	c #E2D1D1",
"/r.	c #DAD0D3",
"(r.	c #D4CFD5",
"_r.	c #D3D0D4",
":r.	c #D4CFD6",
"<r.	c #D5D0D5",
"[r.	c #D5D1D5",
"}r.	c #D6D1D6",
"|r.	c #D8D2D5",
"1r.	c #D8D2D7",
"2r.	c #D9D2D7",
"3r.	c #DAD3D6",
"      .  +  @                       @  #  $  %  &  *  =  -  ;  >  ,  '  )  !  ~  {  ]  ^  /  (  _  :  <  [  }  |  1  2  3  4  5  6  7  8  9  0  a  b  c  d  e  f  g  h  i  j  k  l  m  n  o  p  q  r  s  t  u  v  w  x  y  z  A                                         B  C  D  E  F  G     H  I  J  K  L  M  N  O  P  Q  R  S  T  U  V  W  X  Y  Z  `   . .. +. @. #. $. %. &. *. =. M  -. ;. ",
"         >. ,.                      @  '. ). !. ~. {. ]. ^. /. (. _. :. <. [. }. |. 1. 2. 3. 4. 5. 6. 7. 8. 9. 0. a. b. c. d. e. f. g. h. i. j. k. l. m. n. o. p. q. r. s. t. u. v. w. x. y. z. A. B. C. D. E. F. G. H. I. J. K. .                                         .        L. M. N. O. P. Q. R. S. T. U. V. W. X. Y. Z. `.  + .+ ++ @+ #+ $+ %+ &+ *+ =+ @. -+ ;+ >+    @  ,+ '+    )+ ",
"!+                                     ~+ {+ ]+ ^+ /+ (+ _+ :+ <+ [+ }+ |+ 1+ 2+ 3+ 4+ 5+ 3. 6+ 7+ 8+ 9+ 0+ a+ b+ c+ d+ e+ f+ g+ h+ i+ j+ k+ l+ m+ n+ o+ p+ q+ r+ s+ t+ u+ v+ w+ x+ y+ z+ A+ B+ C+ D+ E+ F+ G+ H+ I+ J+ K+    L+ M+                ,.                                  .  N+ O+ P+ Q+ R+ S+ T+    .  U+ V+ W+ X+ Y+ Z+ `+  @ .@ +@ @@ #@ $@ %@ &@ *@ =@ -@ ;@ >@    ,@ '@ @  )@ ",
"!@                                     ~@ {@ ]@ ^@ /@ (@ _@ :@ <@ [@ }@ |@ 1@ 2@ 3@ 4@ 5@ 6@ 7@ 8@ 9@ 0@ a@ b@ c@ d@ e@ f@ g@ h@ i@ j@ k@ l@ m@ n@ o@ p@ q@ r@ s@ t@ u@ v@ w@ x@ y@ z@ A@ B@ C@ D@ E@ F@ G@ H@ I@ J@ K@ L@ M@                   N@ @                                         O@ P@ Q@ R@ S@ T@    @     U. U@ V@ W@ X@ Y@ Z@ `@  # .# +# @# ## $# %# &# *# =# -# ;# ># ,# '# )# ",
"!# ~#                            {# ]# ^# /# (# _# :# <# [# }# |# 1# 2# 3# 4# 5# 6# 7# 8# 8# 9# 0# a# b# c# d# e# f# g# h# i# j# k# l# m# n# o# p# q# r# s# t# u# v# w# x# y# z# A# B# C# D# E# F# G# H# I# J# K# L# M# N# O# P# Q# R# !+ &. S# T#                                                 U# V# W# X# Y# Z# `#  $ .$ +$ @$ #$ $$ %$ &$ *$ =$ -$ ;$ >$ ,$ '$ )$ !$ ~$ {$ ]$ ^$ /$ ($ _$ ",
"                           :$ <$ [$ }$ |$ 1$ 2$ 3$ 4$ 5$ 6$ 7$ 8$ 9$ 0$ a$ b$ c$ d$ e$ f$ g$ g$ h$ i$ j$ k$ l$ m$ n$ o$ p$ q$ r$ s$ t$ u$ v$ w$ x$ y$ z$ A$ B$ C$ D$ E$ F$ G$ H$ I$ J$ K$ L$ M$ N$ O$ P$ Q$ R$ S$ T$ U$ V$ W$ X$ Y$ Z$ `$  % .% O@                               &. F+ +% @% #% $% %% &% *% =% -% ;% >% ,% '% )% !% ~% {% ]% ^% /% (% _% :% <% [% }% |% 1% 2% 3% 4% 5% 6% 7% 8% ",
"                           9% 0% a% b% c% d% e% f% g% h% i% j% k% l% m% h% n% o% p% q% 8# r% s% t% u% v% w% x% y% z% A% B% C% D% E% F% G% H% I% J% K% L% M% N% O% P% Q% R% S% T% U% V% W% X% Y% Z% `%  & .& +& @& #& $& %& && *& =& -& ;& >& ,& M                                   '& )& !& ~& {& ]& ^& /& (& _& :& <& [& }& |& 1& 2& 3& 4& 5& 6& 7& 8& 9& 0& a& b& c& d& e& f& g& h& i& j& k& ",
"                              l& m& n& o& p& q& r& s& t& u& v& w& x& y& z& A& B& C& D& 8# E& s% F& G& H& I& J& K& L& M& N& O& P& Q& R& S& T& U& V& W& X& Y& Z& `&  * .* +* @* #* $* %* &* ** =* -* ;* >* ,* '* )* !* ~* {* ]* ^* /* (* _* :* <* [* }* |*                               1* 2* 3* 4* 5* 6* 7* 8* 9* 0* a* b* c* d* e* f* g* h* i* j* k* l* m* n* o* p* q* r* s* t* u* v* w* x* y* ",
"                              z* A* B* C* D* E* F* G* H* I* J* K* L* M* N* O* P* Q* R* S* T* U* V* W* X* Y* Z* `*  = .= += @= #= $= %= &= *= == -= ;= >= ,= '= )= != ~= {= ]= ^= /= (= _= := <= [= }= |= 1= 2= 3= 4= 5= 6= 7= 8= 9= 0= a= b= c= d= e= f= g= R#                            @  h= i= j= @  k= l= m= n= o= p= q= r= s= t= u= v= w= x= y= z= A= B= C= D= E= F= G= H= I= J= K= L= M= ",
"                  '. @           N= O= P= Q= R= S= T= U= V= W= X= Y= Z= `=  - .- +- @- #- $- %- &- *- =- -- ;- >- ,- '- )- !- ~- {- ]- ^- /- (- _- :- <- [- }- {- |- 1- 2- 3- 4- 5- 6- 7- 8- 9- 0- a- b- c- d- e- f- g- h- i- j- k- l- m- n- o- p- q- r- s- t-                      .        u- v- w- x- y- z- A- B- C- D- E- F- G- H- I- J- K- L- M- N- O- P- Q- R- S- T- U- V- W- X- Y- Z- `- ",
"                   ; .; M           +; @; #; $; %; &; *; =; -; ;; >; ,; M* '; ); !; ~; {; ]; ^; v% /; (; _; :; <; [; }; |; 1; 2; 3; 4; h- 5; 6; 7; 8; 9; 0; a; b; c; d; e; f; g; h; i; j; k; l; m; n; o; p; q; r; s; t; u; v; w; x; y; z; A; B; C; D; E; F; G; H; I;                J; K; L; M; N; O; P; Q; R; S; T; U; V; W; X; Y; Z; `;  > .> +> @> #> $> %> &> *> => -> ;> >> ,> '> )> !> ~> ",
"                     {> ]> @        >. ^> /> (> _> :> <> [> }> |> 1> 2> 3> 4> 5> 6> 7> 8> 9> 0> a> b> c> d> e> f> g> h> i> j> k> 8; l> m> n> o> p> q> r> s> t> u> v> w> x> y> z> A> B> C> D> E> F> G> H> I> J> K> L> M> N> O> P> Q> R> S> T> U> V> W> X> Y> Z> `>  , .,                +, P@ @, #, $, %, &, *, =, -, ;, >, ,, ', ), !, ~, {, ], ^, /, (, _, :, <, [, }, |, 1, 2, 3, 4, 5, 6, 7, ",
"                     >. 8, 9,          0, a, b, c, d, e, [> f, g, h, i, j, k, l, m, n, o, p, q, r, s, t, u, v, w, x, y, z, A, B, C, D, E, F, G, H, I, J, K, L, M, N, O, P, Q, R, S, T, U, V, W, X, Y, Z, `,  ' .' +' @' #' $' %' &' *' =' -' ;' >' ,' '' )' !' ~' {' ]' ^' /'                ,. (' _' :' <' [' }' |' 1' 2' 3' 4' 5' 6' 7' 8' 9' 0' a' b' c' d' e' f' g' h' i' j' k' l' m' n' o' ",
"                        p' q' r'       s' t' u' 4. v' w' x' y' z' A' B' C' D' E' F' G' H' I' J' J' K' L' M' N' O' P' Q' 9; R' S' T' U' V' W' X' Y' Z' `'  ) .) +) @) #) $) %) &) *) =) -) ;) >) ,) ') )) !) ~) {) ]) ^) /) () _) :) <) [) }) |) 1) 2) 3) 4) 5) 6) 7) 8) 9) 0) a)                b) c) d) e) f) g) h) i) j) k) l) m) n) o) p) q) r) s) t) u) v) w) x) y) z) A) B) C) D) E) F) G) ",
"                           H) I) J)    K) L) M) N) O) P) Q) R) S) T) U) V) W) X) Y) Z) `)  ! .! +! @! #! $! %! &! *! =! -! ;! H, >! ,! m> C, '! )! !! ~! {! ]! ^! /! (! _! :! <! [! }! |! 1! 2! 3! 4! 5! 6! 7! 8! 9! 0! a! b! c! d! e! f! g! h! i! j! k! l! m! n! E; o! p! q! r! s!             t! u! v!    w! x! y! z! A! B! C! D! E! F! G! H! I! J! K! L! M! N! O! P! Q! R! S! T! U! V! W! X! ",
"                              Y! Z! @  `!  ~ .~ +~ @~ #~ $~ %~ &~ *~ =~ -~ ;~ >~ ,~ '~ )~ !~ ~~ {~ ]~ ^~ /~ (~ _~ :~ <~ [~ }~ |~ 1~ 2~ 3~ 4~ 5~ 6~ 7~ 8~ 9~ 0~ a~ b~ c~ d~ e~ f~ g~ h~ i~ j~ j~ k~ l~ m~ n~ o~ p~ q~ r~ s~ t~ u~ v~ w~ x~ $= y~ i! z~ A~ B~ C~ D~ E~ F~ G~ H~ I~ J~ K~          L~ M~ N~ O~ P~ Q~ R~ j=    S~ T~ U~ V~ W~ X~ Y~ Z~ `~  { .{ +{ @{ #{ ${ %{ &{ *{ ={ -{ ;{ >{ ,{ ",
"                                 '{ ){ !{ ~{ {{ ]{ ^{ /{ ({ _{ :{ <{ [{ }{ |{ 1{ 2{ 3{ 3{ 4{ 5{ 6{ 7{ 8{ 9{ 0{ a{ b{ c{ d{ e{ f{ g{ h{ i{ j{ k{ l{ m{ n{ o{ p{ q{ r{ s{ j~ t{ u{ v{ w{ x{ y{ z{ A{ B{ C{ D{ E{ F{ G{ H{ I{ J{ K{ L{ M{ N{ O{ P{ Q{ R{ S{ T{ U{ V{ W{ X{ Y{ Z{ `{  ] .] +]          ~# @] #] $] *{ %] &] *] =] -] ;] >] ,] '] )] !] ~] {] ]] ^] /] (] _] :] <] [] }] |] 1] 2] 3] ",
"                                    ~+ 4] 5] 6] 7] 8] 9] 0] a] b] c] d] e] f] g] h] i] j] k] l] m] n] o] p] q] r] s] t] u] v] w] x] y] z] A] B] C] D] E] F] G] H] I] J] K] L] M] N] O] P] Q] R] S] T] U] V] W] X] Y] Z] `]  ^ .^ +^ @^ #^ $^ %^ &^ *^ =^ -^ ;^ >^ ,^ S{ X{ '^ )^ !^ ~^ {^             ]^ ^^ /^ (^ _^ :^ <^ [^ }^ |^ 1^ 2^ 3^ 4^ 5^ 6^ 7^ 8^ 9^ 0^ a^ b^ c^ d^ e^ f^ g^ h^ %+ i^ ",
"                                    @  j^ k^ l^ m^ n^ o^ p^ q^ r^ <{ s^ t^ o, u^ v^ w^ x^ y^ z^ A^ B^ C^ D^ E^ F^ G^ H^ I^ J^ K^ L^ M^ N^ O^ P^ Q^ R^ S^ T^ U^ V^ W^ X^ Y^ Z^ `^  / ./ +/ @/ U] #/ $/ %/ &/ */ =/ -/ ;/ >/ ,/ '/ )/ !/ ;) ~/ {/ ]/ ^/ // (/ _/ :/ </ [/ b= }/ |/ 1/ 2/ 3/ 4/          5/ U# 6/ 7/ 8/ 9/ 0/ a/ b/ c/ d/ e/ f/ g/ h/ i/ j/ k/ l/ m/ n/ o/ p/ q/ r/ s/ t/ u/ v/ w/ ",
"                                    ~+ x/ y/ z/ A/ B/ C/ D/ E/ F/ [+ G/ H/ I/ J/ K/ L/ M/ N/ O/ P/ U' Q/ R/ S/ T/ U/ V/ W/ X/ Y/ Z/ `/  ( .( +( @( #( $( %( &( *( =( -( ;( >( ,( '( )( !( ~( {( ]( ^( /( (( _( :( (( <( [( }( |( 1( :( S] 2( 3( 4( 5( 6( 7( 8( 9( 0( a( b( c( d( e( f( g( h( K~             i( j( k( l( m( n( o( p( q( r( s( t( u( v( w( x( y( z( A( B( C( D( E( F( G( H( m$ I( ",
"                                    J( K( L( M( N( O( P( Q( R( S( T( U( V( W( X( Y( Z( `(  _ ._ A, +_ @_ #_ $_ %_ &_ *_ =_ -_ ;_ >_ ,_ '_ )_ !_ ~_ {_ ]_ R^ ^_ /_ (_ __ :_ <_ [_ }_ U^ |_ 1_ 2_ /( 3_ 4_ 5_ 6_ 7_ 8_ 9_ 0_ a_ b_ 7_ c_ d_ e_ f_ g_ h_ i_ j_ k_ l_ m_ n_ o_ p_ q_ r_ s_ t_ u_ v_             w_ x_ y_ z_ A_ B_ C_ D_ E_ F_ G_ H_ I_ J_ K_ L_ M_ N_ c  O_ P_ Q_ R_ S_ T_ U_ V_ W_ ",
"                                    X_ Y_ Z_ `_  : x' .: Q( +: @: #: $: %: &: *: =: -: ;: >: ,: ': ): !: ~: {: ]: ^: /: (: _: :: <: [: }: |: 1: 2: 3: 4: 5: 6: 7: 8: 9: 9: }: 0: a: b: c: d: e: f: g: 3_ f: h: i: b_ j: k: l: m: n: o: V] p: q: r: s: t: u: v: w: x: y: z: A: B: C: D: E: F: G: a)          H: I: J: K: L: M: N: O: P: Q: R: S: T: U: V: W: X: Y: Z: `:  < .< +< @< #< $< %< &< ",
"                                    ,. *< =< -< ;< >< ,< '< )< !< ~< {< ]< ^< /< (< _< :< << [< }< z] |< 1< 2< 3< 4< 5< 6< 7< 8< 9< 0< a< b< c< d< e< f< g< h< i< j< k< k< l< m< n< >( o< p< q< r< s< t< u< v< w< x< y< a_ z< A< B< C< e_ D< E< F< G< H< I< i_ J< K< L< M< N< O< P< Q< R< S< T< U<    V< W< X< Y< Z< L~ `<  [ .[ +[ @[ #[ $[ %[ &[ *[ =[ -[ ;[ >[ ,[ '[ )[ ![ ~[ {[ ][ ^[ /[ ([ ",
")+                                  _[ :[ <[ [[ }[ O( ,< |[ 1[ 2[ 3[ 4[ 5[ 6[ 7[ 8[ 9[ 0[ a[ b[ c[ d[ e[ f[ g[ h[ i[ j[ k[ l[ m[ n[ o[ p[ q[ r[ s[ t[ u[ v[ w[ x[ y[ z[ A[ B[ C[ D[ E[ F[ G[ H[ I[ J[ x< K[ w< L[ s< u< h: M[ m: N[ O[ P[ Q[ R[ S[ T[ U[ V[ W[ X[ J< Y[ Z[ M< `[  } .} +} -' @} #} $} %} &} *} =} -} ;} >} ,} '} )} !} ~} {} ]} ^} /} (} _} :} <} [} }} |} 1} 2} 3} 4} 5} 6} 7} ",
"O@       @  @                       8} 9} 0} a} b} c} ,< d} e} f} g} h} i} j} k} l} m} B^ n} o} p} q} r} s} t} u} v} w} x} m[ y} z} A} B} C} D} E} F} h< G} H} I} J} K} L} M} N} O} P} Q} R} S} T} U} V} x< W} X} s< Y} h: M[ y< O[ Z} `}  | .| +| m~ @| #| W[ $| %| J< &| *| `[ =| -| ;| >| ,| '| )| !| ~| {| ]| ^| /| (| _| :| <| [| }| || 1| 2| 3| 4| 5| 6| 7| 8| 9| 0| a| b| c| d| e| f| g| ",
"   h| i| j| @                       k| 9} l| m| n| c} o| p| q| r| s| V) t| u| v| w| x| y| z| A| B| C| D| E| F| G| H| x} I| J| K| L| M| N| O| P| Q| R| S| T| U| V| W| X| Y| Z| `|  1 .1 +1 2_ @1 #1 K[ $1 %1 &1 t< y< *1 =1 -1 /( Z} ;1 >1 ,1 '1 )1 !1 ~1 {1 ]1 ^1 /1 (1 _1 :1 j_ <1 [1 }1 |1 11 21 31 41 51 61 71 81 91 01 a1 b1 c1 d1 e1 f1 g1 h1 i1 j1 k1 l1 m1 n1 o1 p1 q1 r1 s1 t1 u1 v1 w1 ",
"x1 J( y1                            k| z1 A1 B1 C1 D1 E1 F1 G1 H1 I1 J1 K1 L1 M1 N1 O1 P1 Q1 p} R1 S1 T1 i[ U1 V1 I| x} I| w} f[ 7< .( 9< W1 X1 P| Y1 Z1 `1  2 .2 m< +2 @2 #2 $2 ^( %2 +1 &2 *2 =2 -2 ;2 /( >2 ,2 '2 )2 t< !2 ~2 {2 ]2 w{ ^2 /2 (2 _2 :2 <2 [2 }2 %| |2 12 22 32 42 `[ 52 62 72 82 92 02 a2 b2 c2 d2 e2 f2 g2 h2 i2 j2 k2 l2 m2 n2 o2 p2 q2 r2 s2 t2 u2 v2 w2 x2 y2 z2 A2 B2 C2 ",
"D2 @                                E2 F2 G2 H2 I2 J2 K2 L2 M2 N2 O2 P2 Q2 R2 S2 T2 U2 V2 W2 X2 h[ Y2 j[ k[ G| G| Z2 `2  3 .3 +3 @3 @3 ,( #3 $3 %3 &3 *3 =3 O} F[ -3 ;3 &2 >3 ,3 '3 )3 !3 ~3 ~3 {( {3 ]3 ^3 /3 (3 _3 :3 &1 &1 &1 3_  | ~3 <3 [3 }3 |3 13 23 33 43 53 63 J< 73 83 93 03 a3 b3 c3 d3 e3 f3 g3 h3 i3 j3 k3 l3 m3 n3 o3 p3 q3 r3 s3 t3 u3 v3 w3 x3 y3 z3 A3 B3 C3 D3 E3 F3 G3 H3 I3 ",
"                                    J3 K3 L3 M3 N3 O3 P3 Q3 R3 S3 T3 U3 V3 W3 X3 Y3 Z3 `3  4 5< A] .4 +4 @4 m[ #4 Z2 $4 %4 &4 *_ *4 =4 -4 ;4 >4 =4 ,4 '4 +3 )4 !4 ~4 {4 ]4 ^4 ^4 /4 (4 _4 :4 <4 [4 ;/ }4 |4 14 24 34 44 14 54 64 (( ^3 ]3 '1 74 84 94 04 a4 b4 c4 53 d4 J< e4 f4 g4 h4 i4 j4 k4 l4 m4 n4 o4 p4 q4 r4 s4 t4 u4 v4 w4 x4 y4 z4 A4 B4 C4 D4 E4 F4 G4 H4 I4 J4 K4 L4 M4 N4 O4 z4 P4 ",
"            @  -. j= .           8} *< Y_ Q4 R4 S4 T4 U4 V4 W4 X4 Y4 Z4 `4  5 h> .5 +5 @5 #5 1< $5 %5 &5 @4 *5 ]: =5 -5 ;5 >5 ,5 '5 )5 !5 ~5 {5 u{ ]5 ^5 !5 /5 ~3 (5 _5 .| :5 <5 [5 }5 |5 15 }4 25 35 >/ 45 55 65 >/ 75 85 65 95 <4 05 */ 35 a5 b5 a5 =/ c5 d5 e5 f5 d4 J< g5 J< h5 i5 j5 k5 l5 m5 n5 o5 p5 q5 r5 s5 t5 u5 v5 w5 x5 y5 z5 A5 B5 C5 D5 E5 F5 G5 H5 I5 J5 K5 L5 M5 N5 O5 P5 Q5 R5 ",
"   ,. j= S5 T5 U5 V5 W5 X5 Y5 Z5 `5  6 .6 +6 @6 #6 $6 %6 &6 *6 =6 -6 ;6 >6 ,6 '6 )6 !6 ~6 {6 R1 ]6 $4 ^6 /6 (6 u} _6 :6 <6 [6 }6 |6 16 26 36 46 56 66 O] 76 86 96 06 :4 a6 _2 b6 c6 d6 e6 f6 !1 94 g6 h6 i6 j6 */ 15 k6 l6 m6 n6 95 o6 p6 <2 q6 r6 s6 t6 u6 v6 w6 x6 y6 %| %| z6 A6 B6 C6 D6 E6 F6 G6 H6 I6 J6 K6 L6 M6 N6 O6 P6 Q6 R6 S6 T6 U6 V6 W6 X6 Y6 Z6 `6  7 .7 +7 @7 #7 $7 %7 &7 *7 =7 ",
"-7 ;7 h3 >7 ,7 '7 )7 !7 )7 '7 ~7 {7 {7 ]7 ^7 /7 #6 (7 _7 :7 <7 [7 }7 |7 17 27 37 47 57 67 77 6< 87 Z2 97 07 a7 b7 *_ c7 d7 e7 f7 g7 h7 i7 j7 k7 l7 m7 n7 ,/ o7 p7 q7 !1 r7 :2 s7 t7 u7 v7 m~ ~1 w7 ~1 x7 T[ y7 T[ z7 A7 B7 C7 D7 E7 F7 G7 H7 I7 J7 K7 L7 M7 N7 e5 f5 O7 P7 |2 Q7 R7 S7 T7 U7 V7 W7 X7 Y7 Z7 `7  8 .8 +8 @8 #8 $8 %8 j| &8 *8 =8 -8 ;8 >8 ,8 '8 )8 !8 ~8 {8 ]8 ^8 /8 (8 _8 :8 <8 ",
"[8 }8 |8 18 28 28 38 48 48 58 68 78 78 88 98 08 #6 a8 b8 c8 d8 e8 f8 g8 h8 i8 j8 k8 l8 m8 n8 Z2 G| `2 R1 -5 o8 p8 q8 r8 s8 |6 t8 u8 v8 w8 x8 y8 z8 A8 B8 C8 D8 E8 F8 G8 23 H8 I8 J8 K8 L8 x7 E8 x7 M8 x8 N8 O8 P8 G8 Q8 G< R8 {1 I7 I< S8 T8 U8 h_ V8 W8 X8 Y8 d4 X[ O7 53 53 J< w: Z8 `8 U7  9 .9 +9 @9 #9 $9 %9 &9 *9 =9 -9 b2 ;7 ;9 b2 >9 ,9 '9 )9 <, !9 ~9 {9 ]9 ^9 /9 (9 _9 :9 <9 [9 }9 |9 ",
"19 29 18 39 49 59 69 49 39 79 89 99 99 09 a9 b9 c9 d9 e9 f9 g9 h9 i9 j9 ,6 k9 l9 m9 n9 o9 p9 q9 `2 r9 s9 t9 u9 p8 v9 w9 x9 y9 z9 A9 B9 B{ C9 D9 E9 F9 G9 H9 I9 J9 K9 L9 M9 N9 O9 P9 Q9 R9 S9 T9 U9 V9 W9 H< X9 Y9 Z9 `9  0 .0 +0 @0 #0 $0 %0 &0 *0 =0 -0 ;0 >0 ,0 '0 O7 f5 )0 /1 !0 ~0 Z8 {0 ]0 ^0 /0 (0 _0 :0 <0 [0 }0 U. S5 Y5 S5 ;7 |0 10 20 30 40 50 60 70 80 90 00 a0 b0 c0 %[ d0 }9 e0 f0 ",
"29 `< 49 g0 h0 i0 j0 j0 k0 k0 l0 m0 79 n0 o0 p0 q0 r0 s0 t0 u0 v0 w0 x0 y0 z0 A0 B0 C0 D0 E0 Z2 @4 r9 F0 G0 H0 I0 J0 /5 K0 L0 v8 I8 #| C9 M0 N0 O0 P0 Q0 R0 S0 T0 K7 U0 V0 W0 X0 Y0 Z0 {1 `0  a s: D7 .a +a @a #a @a $a %a &a *a =a -a -a ;a >a ,a 'a )a !a ~a {a ]a ^a G9 /a (a ~0 _a _a {0 :a <a [a }a |a 1a 2a 3a 4a 5a Y5 J( 6a 7a 8a 9a 0a aa ba ca da ea fa ga ha ia ja ka la ma na oa oa ",
"pa 39 qa ra sa ta ua ua va wa wa xa xa ya za Aa Ba Ca Da Ea Fa Ga Ha Ia Ja Ka La Ma Na Oa Pa Qa Ra Sa *4 Ta Ua Va Wa Xa Ya 1! Za `a  b C9 O0 O0 .b +b @b #b $b %b Q0 &b 33 *b b4 =b -b M9 ;b >b ,b 'b )b +a !b ~b W9 {b ]b ]b ^b ^b /b 'a (b _b :b <b [b =0 }b d4 |b 1b *a 2b P7 3b 4b 5b Z8 j5 6b 7b 8b m4 9b 0b ab bb S5 cb b2 db eb fb gb hb ib jb kb lb mb nb ob pb qb rb sb tb ub vb wb xb ",
"yb zb Ab Bb Cb Db Eb Cb ta ua Fb Gb Hb Ib Jb Kb Lb Ca Mb Nb Ob Pb Qb Rb Sb Tb Ub Vb Wb Xb Yb Zb `b <3  c J0 .c +c S] @c #c $c %c &c E9 *c =c D9 -c ;c >c ,c 'c )c =0 !c &b ~c {c ]c *b E9 ^c /c (c _c :c _c x8 <c W9 [c }c G7 @a |c 1c 2c 3c ^b 4c 5c =0 6c 7c 53 8c 9c 0c )a ac bc ~0 ~0 _a cc dc ec fc @9 gc hc ic &8 cb j| &8 jc kc lc mc nc oc pc qc rc sc tc uc vc wc xc yc zc ub Ac Bc Cc ",
"Dc Ec Fc Gc Hc Ic Hc Gc Jc Kc Lc Mc Nc Oc Pc Qc Rc Sc Tc Uc Vc Wc Xc Yc Zc `c  d .d +d @d #d $d %d &d *d =d -d ;d >d ,d 'd )d !d A8 ~d D{ {d ]d ^d /d (d _d :d M0 <d Z] %0 &b [d }d |d 1d 33 T9 2d 3d R8 4d H< 5d {b 6d }c 7d 8d 9d 0d ad }c bd cd dd ed fd gd hd id jd fd u: ,0 kd ld ~0 _a md nd od w, pd qd rd sd td j| jc ud ud ud vd wd xd yd zd Ad Bd Cd Dd Ed Fd Gd Hd Id Jd Kd na xb Ld ",
"Md Nd Od Pd Qd Rd Sd Td Ud Vd Vd Lc Fb Wd Xd Yd Zd `d  e .e +e @e #e $e %e &e *e =e -e ;e >e t8 ,e 'e )e !e l~ 56 ~e {e ]e ^e /e (e _e @| :e <e [e [e }e |e 1e B{ 2e `a 3e 4e 5e 5e 1d W0 b4 6e b4 7e 8e 9e 0e ae g_ 9d be ce de de ee bd 3c 3c fe $a ge 6c he ie Q0 je je ke le me ne M< oe pe qe re se te Y7 ue ve we jc ud kc xe vd ye ze Ae Be Ce De Ee Fe Ge He Ie Je Ke Le Me Ne Oe Pe Pe ",
"Qe Re Pd Qd Qd Se Te Ue Ve Ic We Xe Ye Ze `e  f .f =; p^ +f @f #f $f %f &f *f =f -f ;f >f ,f 'f )f !f 86 ~f ~f ,/ F< {f ]f C9 =c ^f /f (f _f f6 :f <f [f '/ }f |! |f 1f 2f 4d !b 3f r6 4f 5f [2 P0 6f 7f 6f T0 [c 8f 9f X9 0f ee af bf 0f cf Z9 df ef ff fd ac gf je hf if jf kf lf ne mf nf of pf qf rf sf tf uf vf wf ud xe Z5 Z5 Z5 xf yf zf Af Bf Cf Df Ef Ff Gf Hf If Jf Kf Me Lf Mf Oe Nf ",
"ua Of Pf Qf Qf Rf Sd Sf Tf Uf Vf Wf Xf Yf Zf `f .f  g .g +g Ob e8 @g #g $g %g &g *g =g -g ;g >g t7 X] ,g 'g 'g 'g r: )g C9 ^e /f A7 .a !g 56 [f ~g 1( {g ]g ^g m7 ,b /g S[ (g (e M0 @b W[ _g :g %b %0 <g [g 4e }g 8f |g 1g 2g 3g af 4g 5g 6g )b 7g ff 8g 'a 9g |b 0g ag bg kd cg dg mf Z8 eg fg gg hg ig jg kg lg mg ng h3 Z5 Z5 Z5 Z5 xf og pg qg rg sg Df tg ug vg wg xg yg zg Ag Bg Cg Dg Eg ",
"ta Hc Pf Qf Qf Se Fg Gg Hg Ig Jg Kg Lg Mg Ng Og .f Pg Qg Rg Sg Tg Ug Vg Wg Xg Yg Zg `g  h @^ .h +h @h ~1 ~1 #h D7 .a #h D8 $h %h N8 &h W] -d *h {5 =h 3_ -h J0 ;h :( >h >h (f ,h 'h .b W[ )h h_ 4e !h U8 ~h {h ]h @| ^h /h (h ee _h :h <h [h }h |h 1h 0e 2h 3h 4h 5h 6h 7h 8h 9h ne 0h ah bh ch dh eh fh gh hh ih jh kh lh Z5 mh Z5 Z5 nh oh ph qh rh sg sh th uh vh wh xh yh zh Ah Bh Bh Ch Dh ",
"Lc Ic Pf Eh Fh Gh Hh Ih Jh Kh Xe Lh Mh Nh Oh Ph Qh Rh Sh Th Uh Vh Wh Xh Yh Zh `h  i .i +i @i #i #b @h !/ $i %i ,b #h g_ D8 &i *i */ */ 56 Xa -d 76 S] =i -i x9 t{ -h :( ~f h7 ;i `a >i ,i 'i 5! )i !i ^d ~i ^d {i ]h ^h %h ]i ^i /i (i _i :i <i [i F7 }i |i 1i 2i 3i 6h 4i 5i 6i 7i 8i 9i 0i ai bi ci di ei fi gi hi ii ji xf Z5 Z5 ki li mi ni oi pi qi ri si ti ui vi wi xi yi zi Ai Bi Ci Di ",
"Mc Ei Uf Fi Hh Gi Kh Hi Ii Ji Kg Ki Li Nh Mi Ni Oi Pi Qi Ri Si Ti Ui Vi Wi Xi Yi Zi `i  j .j +j @j :g @h /f #j ^f $j @| r: r: %j h6 F< #c ~g Ya ,/ F< !g _f &j ,d 56 #c *j =j (c -j ;j >j ,j ]1 'j )j !j ~j U8 {j ]j ^j /j (j _j :j <j [j }j |j F7 1j 2j 3j 4j 5j 6j 7j 8j kf bc 9j 8i 0j aj bj cj dj ej fj gj hj ij jj kj lj wd mj nj oj pj qj rj ^' sj tj uj vj wj xj yj zj Aj Bj Cj Dj Ej Fj ",
"Gj Hj Ij Jj Kj Lj Lh Mj Nj Oj Pj Qj Rj Sj Mi Ni Tj Uj Vj Wj Xj Yj Zj `j  k .k +k @k #k $k %k &k *k =k -k $j }e ;k U[ >k f_ 0f ,k /g _f ;i ,b 'k $j {j )k !k ~k {k ]k ^k f6 (g C8 /k !j P0 {c (k #| ~h _k :k <k [k }k |k !j 1k 2k 3k 4k 5k 6k 7k $0 8k 9k 0k ak bk ck dk ek 9h fk gk hk ik jk kk lk mk nk ok pk qk rk 6* xf sk tk uk vk wk xk yk zk Ak Bk Ck Dk Ek Fk Gk Hk Ik Jk Kk Lk Mk Nk Ok ",
"Pk Qk Rk Sk Tk Uk Vk Wk Xk Yk Zk `k  l .l +l @l #l $l Rh %l &l *l =l -l ;l >l ,l 'l )l !l ~l {l ]l ^l /l .b |e (l {j _l >k :l <l $j |e [l M0 }l )c 'c |l 1l 2l 1l 3l 4l {j 5l (e $i 6l 5! 7l 6l 8l @h D9 9l /j 0l ;c al bl cl dl el fl gl >a hl /b il jl <b kl ll ml nl ol pl ql R7 rl sl tl ul vl wl xl yl zl Al Bl Cl Dl El Fl Gl Hl Il Jl Kl Ll Ml Nl Ol Pl Ql Rl Sl Tl Ul Vl Wl Xl Yl Zl `l ",
" m .m .m +m @m #m $m %m &m *m =m -m ;m >m ,m 'm Ca )m P3 !m &l ~m {m ]m ^m /m (m _m :m <m [m }m |m 8! 1m +b 2m 3m U[ |j ee 4m $j 5m /j 6m 7m 8m 9m 0m am bm cm dm em fm gm hm im =c ,a cl %b +h T9 J9 s: M0 jm km lm mm nm om pm qm rm sm *k 2i tm um vm wm xm ym zm Am Bm dk Cm Dm Em Fm Gm Hm Im Jm Km Lm Mm Nm Om Pm Qm Rm Sm Tm Gd Um Vm Wm Xm Ym Zm `m  n .n +n @n >. #n zh $n %n &n *n =n ",
"-n ;n >n ,n 'n )n !n ~n {n ]n ^n /n (n _n :n <n |[ [n }n |n 1n 2n 3n 4n 5n 6n 7n 8n 9n 0n an bn cn dn en +b <l 3m fn gn hn W9 in jn kn ln mn nn on pn qn rn sn tn un vn wn mm xn yn zn 8m )c An Bn &0 $b Cn Dn En Fn Gn Hn In Jn Kn Ln Mn Nn On Pn Qn Rn 8j 4i Sn Tn Un Vn Wn Xn Yn Zn `n  o .o +o @o g- #o pd $o %o &o *o =o -o ;o >o ,o 'o )o !o ~o {o ]o ^o /o (o _o       :o <o [o }o |o 1o ",
"2o 3o 4o 5o 6o 7o 8o 9o 0o ao bo co do eo fo go ho )m .g io jo ko 3n lo mo no oo po qo ro so to uo vo wo xo 3k _h yo zo Ao (f Bo Co Do Eo Fo o~ Go Ho Io Jo Ko Lo Mo No Oo Po Qo Ro So To Uo en Vo 7m Wo Xo Yo Zo `o  p Mo .p +p @p Rn #p $p %p &p *p =p -p 8j bg 8j ;p Vn >p ,p 'p )p !p ~p {p ]p ^p /p (p _p :p <p [p }p |p 1p 2p 3p 4p 5p 6p 7p Nl 8p 9p 0p ap bp cp .  @  dp ep fp gp hp ip ",
"jp kp lp mp np op pp qp rp <n sp tp up vp wp xp yp zp Ap Bp Cp Dp Ep Fp Gp Hp Ip Jp Kp Lp Mp Np Op Pp Qp {h Rp A7 Sp Tp )g |! 'f xn Up Vp Wp Xp Yp Zp `p  q .q +q @q #q $q %q &q *q =q -p -q ;q Pp qn >q ,q 'q )q !q ~q {q ]q ^q /q (q _q :q <q [q }q |q 1q 2q 3q ml 4q 5q Vn 6q 7q 8q 9q 0q aq bq cq dq eq fq gq hq iq jq kq lq mq nq oq pq qq rq sq tq uq vq wq xq yq U. zq Aq Bq Cq Dq Eq Fq ",
"Gq Hq Iq Jq Kq Lq Mq Nq Oq Pq Qq Rq Sq Tq Uq Vq Wq Xq Yq Zq `q  r .r +r @r #r $r %r &r *r =r -r ;r >r ,r ^b <e ,d l~ ,/ 'r )r !r ~r {r ]r ^r /r (r _r :r <r [r }r |r 1r 2r 3r 4r 5r 6r 7r 8r 9r 0r ar br cr dr er fr gr hr ir jr kr lr mr nr or pr qr rr sr tr ur vr wr xr yr zr Ar Br Cr Dr Er Fr Gr Hr Ir Jr Kr Lr Mr Nr Or Pr Qr Rr Sr Tr Tr Ur Vr Wr ^' Xr Yr Zr `r  s .s +s @s #s $s %s &s ",
"*s =s -s ;s >s ,s 's )s !s ~s {s ]s ^s /s (s _s :s <s [s }s |s 1s 2s 3s 4s 5s 6s 7s 8s 9s 0s as 8! 9m bs }g .a h7 :f cs !r ds es fs gs hs is js ks ls ms ns os ps qs rs ss ts us vs ws xs es ys zs As Bs Cs Ds Es Fs Gs Hs Is Js Ks Ls Ms Ns Os Ps Qs Rs Ss Ts Us Vs Ws Xs Ys Zs `s  t .t +t @t #t $t %t &t *t =t Lr -t ;t >t ,t 't )t !t ~t {t ]t ^t Sr zd /t (t _t :t <t [t }t |t 1t 2t 3t 4t ",
"5t 5t 6t 7t 8t 9t 0t at bt ct dt et ft gt ht it jt kt lt mt nt ot pt qt rt st tt ut vt wt xt yt en zt At @b ^e ^g +h Bt Ct Dt Et Ft Gt Ht It Jt Kt Lt Mt Nt Ot Pt Qt Rt St Tt Ut Vt Wt Xt Yt Zt cr `t  u .u +u @u #u $u %u &u *u =u -u ;u >u ,u 'u )u !u ~u {u ]u ^u /u Mn (u _u :u <u [u }u |u 1u 2u 3u 4u 5u 6u 7u 8u 9u 0u au u/ bu cu du eu fu gu hu iu ju ku lu mu nu ou pu qu ru su tu uu ",
"vu wu xu yu zu Au xu xu Bu Cu Du Eu Fu Gu Hu Iu Ju Ku Lu Mu Nu Ou Pu Qu Ru Su Tu Uu Vu Wu Xu Yu Zu `u  v .v 7l +v @v #v $v %v &v *v =v -v ;v >v ,v 'v )v !v ~v {v ]v ^v /v (v _v :v <v [v }v |v cr 1v 2v 3v 4v 5v 6v 7v 8v 9v 0v av bv cv dv ev fv gv hv iv jv kv lv mv nv ov @p pv qv rv sv tv uv vv wv _p xv yv yv zv Av Bv Cv Dv Ev Fv Gv Hv Iv Jv Kv Lv Mv Nv Ov Pv Qv Rv Sv Tv Uv Vv Wv Xv ",
"Yv Zv `v  w vu wu Cu xu .w +w @w #w $w +w %w %w &w &w *w =w -w ;w >w ,w 'w )w !w ~w {w ]w ^w /w Qp en  ^ (w _w :w <w [w }w |w 1w 2w 3w )v 4w 5w 6w 7w 8w 9w 0w aw bw cw dw ew fw gw hw iw jw kw lw mw nw ow pw qw rw sw tw uw vw ww xw yw zw >v Aw Bw Cw Dw Ew Fw Gw Hw Iw Jw Kw Lw Mw Nw Ow Pw Qw Rw wv Sw Tw Uw Vw Ww Xw Yw Zw `w  x .x +x @x #x $x %x &x *x =x -x ;x >x ,x 'x )x !x ~x {x ]x ",
"^x /x (x _x :x <x [x  w }x Du Du |x |x |x xu 1x +w +w $w 2x 3x 4x 5x 6x 7x 8x 9x 0x ax bx cx dx ex _w fx gx hx ix jx kx lx mx nx ox px 6w qx rx sx tx ux vx wx xx yx zx Ax Bx Cx Dx Ex Fx Gx Hx Ix Jx Kx Lx Mx Nx Ox Px Qx Rx xx Sx Tx Ux Vx Wx Xx Yx Zx `x  y .y +y @y #y $y %y &y *y =y -y ;y >y ,y 'y gc )y ,' !y ~y {y ]y ^y /y (y _y :y <y [y }y |y 1y 2y 3y 4y 5y 6y 7y 8y 9y 0y ay by cy ",
"dy ey fy gy hy iy jy ky ly <x <x my  w  w  w ny oy py qy ry sy ty uy vy 7x wy xy yy zy Ay By Cy Dy Ey uo Fy Gy Hy Iy Jy Ky Ly My Ny Oy Py Qy Ry Sy Ty Uy Vy Wy Xy Yy Zy `y  z .z Dx +z @z #z 6k *k $z %z &z *z =z 5v -z ;z >z ,z 'z )z !z ~z {z ]z ^z /z (z _z :z <z [z }z |z 1z 2z 3z 4z 5z 6z 7z 8z 'y gc 9z 9z 0z az bz cz dz ez fz gz hz iz jz kz lz mz nz oz pz qz rz sz tz uz vz wz xz yz ",
"zz Az Bz Cz Dz Ez gy /x Fz (x ky ky Zv Gz [x `v Hz my Iz Jz Kz Lz Mz Nz Oz Pz Qz Rz Sz Tz d4 Uz -q Vz Wz Xz Yz Zz `z  A .A +A @A #A $A %A &A *A =A -A ;A >A ,A 'A )A !A ~A {A ]A ^A /A hm F< (A _A :A <A ^q [A }A |A 1A 2A 3A 4A 5A 6A 7A 8A 9A 0A aA bA cA dA eA fA gA hA iA jA kA lA mA nA oA pA qA rA sA tA =t uA vA wA xA yA zA AA BA CA DA EA FA GA HA IA JA KA LA MA NA OA PA QA RA SA TA ",
"UA VA WA XA YA ZA `A  B .B /x /x iy jy +B @B #B $B Zv %B &B *B =B -B xy ;B >B ,B 'B )B !B ~B {B ]B ^B /B (B gA _B :B <B [B }B |B 1B 2B 3B 4B 5B 6B 7B 8B 9B 0B aB bB cB dB eB fB gB hB iB [( jB kB lB !r mB nB oB pB qB rB sB tB uB vB wB xB yB zB AB BB CB DB Ft EB FB GB HB IB JB KB LB nA MB NB OB PB gc QB RB SB TB UB VB WB XB YB ZB `B  C .C +C @C #C $C %C &C *C =C -C ;C >C ,C 'C )C !C ",
"~C {C ]C ^C /C XA Bz ZA (C  B Ez _C :C <C [C }C ky |C 1C 2C 3C 4C 5C 6C 7C 8C 9C 0C aC bC cC dC eC fC gC hC iC jC kC lC sw mC nC oC pC qC rC sC tC uC vC wC xC yC zC AC BC CC DC EC FC GC k: HC IC F< JC KC LC MC NC OC PC QC RC SC TC UC VC z; WC XC YC ZC `C  D .D +D @D #D $D %D &D *D =D -D ;D >D ,D gq 'D )D !D ~D {D ]D ^D /D /D (D _D :D <D [D }D |D 1D Ni 2D 2D 3D 4D 5D 6D 7D 8D 9D 0D ",
"aD bD cD dD eD fD gD hD Bz iD jD kD lD mD gy nD oD pD qD rD sD tD uD vD wD xD yD zD [z AD BD ]1 CD DD ED FD GD HD ID JD KD LD MD ND OD PD QD RD SD TD UD VD WD XD YD ZD `D  E .E +E @E #E $E %E &E *E =E -E ;E >E ,E 'E )E !E ~E {E ]E ^E /E (E 5u _E :E <E [E }E |E 1E 2E 3E 4E 5E 6E 7E MB 8E 9E 0E aE bE cE dE sA eE fE gE hE iE jE kE lE mE nE oE pE qE rE sE tE uE vE wE xE yE zE AE BE CE ",
"DE EE FE GE {C ]C HE zz IE Az JE KE LE ME NE Ez gy OE PE QE RE SE TE UE VE WE Rz XE l9 YE ZE `E  F .F +F @F #F $F %F &F *F =F -F ;F >F ,F 'F )F !F ~F {F ]F ^F /F (F _F :F <F [F }F |F 1F 2F 3F 4F 5F %b 6F 7F 8F 9F 0F aF bF cF dF eF fF ^E gF hF iF *' jF kF lF mF nF oF pF qF rF sF tF uF vF wF xF yF zF AF BF CF DF EF FF GF iE HF IF JF KF LF MF NF OF PF QF RF SF TF UF VF WF XF YF ZF `F ",
" G .G +G @G GE #G $G eD ^C %G &G *G Bz =G LE (C NE -G ;G >G ,G 'G )G !G ~G {G ut ]G ^G /G (G ,a ^l _G :G <G [G }G |G 1G 2G 3G 4G 5G 6G 7G 8G 9G 0G aG bG cG dG eG fG gG hG iG jG kG ]5 lG mG nG oG pG qG rG sG tG uG vG wG xG yG zG AG BG CG DG EG FG GG HG IG JG KG LG MG NG OG PG QG RG !B SG TG UG VG WG XG YG ZG `G  H .H GF iE +H @H #H $H %H &H *H =H -H ;H >H >H ,H 'H )H !H ~H {H ]H ^H ",
"/H (H _H :H <H [H }H {C ]C |H 1H /C IE Az 2H 3H ZA ey 4H 5H 6H 7H 8H 9H 0H aH bH cH dH eH }d fH gH hH iH jH kH lH mH nH oH pH qH rH sH tH uH vH wH xH yH zH AH BH CH DH EH FH GH HH IH JH KH LH MH NH OH PH QH RH SH TH UH VH WH XH YH ZH `H  I .I +I @I #I $I %I &I *I =I -I ;I >I ,I 'I )I !I ~I }; {I ]I ^I /I (I _I :I <I iE [I }I |I 1I 2I 3I Q4 4I 5I 6I >H 7I 8I 9I 0I aI bI cI dI eI fI ",
"gI hI iI jI kI <H lI mI {C nI ]C oI pI gD IE Az Bz qI rI sI tI uI vI wI xI yI UE zI AI BI CI DI EI FI GI HI II JI KI LI -I MI NI OI PI QI RI SI TI UI VI WI XI YI ZI `I  J .J +J @J #J $J %J &J *J =J -J Bt ;J 6F >J ,J 'J )J !J ~J {J ]J ^J /J (J _J nw :J <J [J }J |J 1J 2J 3J 4J 5J 6J 7J 8J 9J y| 0J aJ bJ cJ dJ eJ fJ gJ hE hJ iJ jJ kJ lJ mJ nJ oJ pJ qJ rJ sJ tJ uJ vJ wJ xJ yJ zJ AJ BJ ",
"CJ gI hI DJ EJ FJ GJ HJ GE }H dD ]C IJ ^C WA /C IE JJ KJ LJ MJ NJ OJ PJ QJ RJ SJ TJ UJ VJ P0 $b !c WJ XJ YJ ZJ `J  K .K +K @K #K $K %K &K *K =K -K ;K >K ,K 'K )K !K ~K {K ]K ^K /K (K _K :K <K [K }K |K 1K 2K 3K 4K 5K 6K 7K 8K 9K 0K aK bK cK dK eK fK gK hK iK jK kK lK mK nK oK pK qK rK sK tK uK vK wK xK yK zK AK BK CK /D DK EK FK GK HK IK JK KK LK MK NK OK PK QK RK SK TK UK VK WK XK ",
"YK ZK `K  L DJ .L +L @L #L $L %L &L dD ]C |H *L %G /C =L -L ;L >L ,L 'L )L !L ~L {L ]L ^L /L $b (L _L :L <L [L }L |L 1L 2L 3L 4L 5L 6L 7L 8L 9L 0L aL bL cL dL eL fL gL hL iL jL kL lL mL nL oL pL qL rL sL tL uL vL wL xL yL zL AL BL CL DL EL FL GL HL IL JL KL LL ML NL OL PL QL RL SL TL UL VL WL XL YL ZL `L  M .M +M @M #M $M %M &M *M =M -M ;M >M ,M 'M )M !M ~M {M ]M ^M /M (M _M :M <M ",
"[M }M |M `K 1M 2M 3M 4M 5M 6M HJ GE %L 7M 8M 9M 0M 1H aM bM cM dM eM fM gM hM iM jM kM lM N0 mM 4m nM oM pM qM rM ^e sM tM uM vM wM xM yM zM AM BM CM DM EM FM GM dm HM IM JM JM KM LM mL MM NM OM PM QM RM SM TM UM VM WM XM YM ZM `M  N .N EH +N @N #N $N %N &N *N =N -N ;N >N ,N 'N )N !N ~N {N ]N a[ ^N /N (N _N :N <N [N }N |N 1N 2N 3N 4N 5N 6N 7N 8N 9N 0N aN bN cN dN eN fN AJ gN hN iN ",
"jN kN }M lN `K mN nN .G oN pN qN rN $L sN }H 7M tN eD uN vN wN xN yN zN AN BN CN DN EN FN GN /b HN IN JN KN LN MN NN ON PN QN RN SN TN UN VN WN XN YN ZN `N  O .O IM +O @O #O $O $O %O &O *O =O -O ;O >O ,O 'O )O !O ~O {O ]O ^O bm /O (O _O :O <O [O }O |O 1O 2O 3O 4O 5O 6O 7O 8O 9O 0O aO bO cO dO eO fO gO hO iO jO kO lO mO nO oO pO qO rO sO tO uO vO wO xO yO zO AO BO CO {H DO EO FO GO ",
"HO IO kN JO lN `K 1M KO LO .G MO NO OO #L lI PO #G uN QO RO SO TO UO VO WO XO YO ZO `O  P Q0 .P +P kB @P #P $P %P &P *P =P -P ;P >P ,P 'P )P !P ~P {P ]P ^P /P (P _P :P <P [P }P |P 1P 2P 3P 4P 5P 6P 7P 8P 9P 0P aP bP cP FM dP eP fP gP hP iP jP kP lP mP nP oP pP qP rP =N sP tP uP vP wP xP yP zP AP BP CP DP EP FP GP HP IP JP KP LP MP NP OP PP QP RP SP TP UP VP WP XP YP ZP `P  Q .Q +Q ",
"@Q #Q IO $Q %Q &Q *Q hI =Q -Q ;Q >Q ,Q 'Q )Q @G GE !Q (H ~Q {Q ]Q ^Q /Q (Q _Q :Q <Q [Q }Q |Q 1Q 2Q 3Q 4Q 5Q 6Q 7Q 8Q 9Q 0Q aQ bQ cQ dQ eQ fQ gQ hQ :P iQ jQ kQ lQ mQ nQ oQ pQ qQ rQ sQ tQ uQ vQ ;P wQ xQ yQ zQ AQ BQ CQ cP DQ EQ FQ GQ HQ IQ JQ KQ LQ MQ NQ OQ PQ QQ RQ SQ TQ UQ VQ WQ XQ YQ ZQ `Q  R .R +R @R #R $R %R &R *R =R -R ;R >R ,R 'R )R !R ~R {R ]R ^R /R (R _R :R <R [R }R |R 1R 2R ",
"3R 4R #Q 5R 6R JO 7R 8R 9R 1M 0R iI aR oN bR cR dR eR fR gR hR iR jR kR lR mR nR oR pR qR rR sR tR uR vR wR xR yR zR AR BR CR DR ER FR GR HR IR JR LM KR @E LR MR NR OR PR QR RR SR TR UR VR WR XR YR ZR `R  S .S +S @S {O #S $S %S &S xN *S =S -S ;S >S ,S 'S )S !S ~S {S ]S ^S /S (S _S :S <S [S }S |S 1S 2S 3S 4S 5S 6S 7S HP 8S 9S 0S aS bS cS dS eS fS gS hS iS jS kS lS mS nS oS pS qS rS ",
"RO sS tS uS vS wS xS CJ lN yS zS AS  G BS .G CS 'Q DS ES FS GS HS IS JS KS LS MS NS OS PS QS RS SS TS US VS WS XS YS ZS `S  T .T +T @T #T $T %T &T *T =T -T ;T >T ,T 'T )T !T ~T {T ]T ^T /T (T _T :T <T [T }T |T 1T 2T 3T 4T 5T 6T 7T 8T 9T JQ 0T aT bT cT dT eT fT gT hT iT jT kT lT mT nT oT pT qT rT sT tT uT vT wT xT yT zT AT BT CT DT ET FT GT HT IT JT KT LT MT NT OT PT QT RT ST TT UT ",
"VT WT XT @Q YT IO wS xS }M |M ZT `K  L `T (H  U .U 4M +U @U #U $U %U &U *U =U -U ;U >U ,U 'U )U !U ~U {U ]U ^U /U (U _U :U <U [U }U |U 1U 2U 3U 4U 5U 6U 7U 8U 9U 0U lP aU bU cU dU eU fU FR gU HR hU iU jU kU lU mU nU oU pU qU rU sU tU iQ uU qU vU wU xU yU zU AU BU CU DU 6T LQ EU FU 7r GU HU IU JU KU LU MU NU OU PU QU RU SU TU UU VU WU XU YU ZU `U  V .V +V @V #V $V %V &V *V =V -V ;V ",
">V ,V XT 'V HO )V IO kN !V }M CJ |M gI fR ~V KO {V ]V ^V /V (V _V :V <V [V }V |V 1V 2V 3V 4V 5V 1Q 6V 7V 8V 9V 0V aV bV cV dV eV fV gV hV iV jV kV lV mV nV oV pV iP qV rV sV tV uV vV wV xV yV zV AV qU BV CV DV EV FV GV HV IV JV KV LV MV NV OV PV QV 9U RV SV TV UV VV qU WV XV YV ZV `V  W .W +W @W #W $W %W &W *W =W -W ;W >W ,W 'W )W !W XU HT ~W {W ]W ^W /W (W _W :W <W [W }W |W 1W 2W ",
"3W 4W 5W 6W 7W 8W 9W 0W IO kN xS }M ZK aW bW cW dW KO eW fW gW [f hW 9U iW jW sL kW lW mW nW oW 4k pW qW rW sW tW uW vW wW gV xW yW zW AW BW CW DW EW FW GW HW IW JW KW LW MW NW OW PW QW RW SW TW UW VW WW XW YW ZW `W  X .X +X @X #X $X $X %X &X *X =X -X ;X >X ,X 'X )X !X ~X {X ]X ^X /X (X _X :X <X [X }X |X 1X 2X 3X 4X 5X 6X 7X 8X 9X 0X XU aX bX cX dX eX fX gX hX iX jX kX lX mX nX oX ",
"3W pX 5W 5W 6W qX @Q rX #Q 0W sX wS xS tX |M lN uX vX wX xX yX zX AX BX CX [U DX EX FX GX HX IX JX KX LX MX NX OX PX QX RX SX TX UX VX WX QX XX YX ZX `X  Y .Y +Y @Y #Y $Y %Y &Y eU *Y =Y -Y ;Y >Y ,Y 'Y )Y !Y ~Y {Y ]Y ^Y /Y (Y _Y :Y <Y [Y }Y OV |Y 1Y 2Y 3Y 4Y 5Y 6Y 7Y 8Y 9Y 0Y aY bY cY dY eY fY gY hY iY jY kY lY mY ao nY oY pY qY rY sY tY uY vY wY xY yY zY AY BY CY DY EY FY GY HY IY ",
"JY 3W KY KY KY LY MY qX NY HO OY PY QY xS xS JO |M RY gI SY TY UY VY WY 1F XY YY ZY `Y  Z HX .Z +Z @Z #Z $Z %Z &Z *Z =Z -Z ;Z >Z ,Z 'Z 'Y )Z !Z ~Z {Z ]Z ^Z /Z (Z _Z :Z <Z PW [Z }Z |Z 1Z 2Z ~X 3Z 4Z 5Z 6Z 7Z 8Z 9Z 0Z aZ bZ cZ dZ eZ fZ gZ hZ iZ iR jZ kZ lZ mZ nZ oZ pZ qZ rZ sZ 0r &p 7r tZ uZ vZ wZ xZ yZ zZ AZ BZ CZ DZ EZ FZ GZ HZ IZ JZ KZ LZ MZ NZ OZ PZ QZ RZ SZ TZ UZ VZ WZ oX XZ YZ ",
"ZZ 3W KY `Z  ` .` +` @` #` sS tS $` )V IO kN wS xS }M CJ ZK RY %` &` *` O] =` -` ;` >` ,` '` )` !` WW ~` {` ]` ^` /` (` _` :` <` [` }` |` 1` 2` 3` 4` 5` 6` 7` 8` 9` 0` a` b` kU c` d` e` f` g` h` i` j` k` l` m` n` o` p` q` r` s` t` u` v` w` x` y` z` A` B` C` D` E` F` G` H` I` J` K` L` M` N` O` P` Q` R` S` T` U` V` W` X` Y` Z` ``   .. .+ .@ .# .$ .% .& .* .= .- .; .> ., .' .) .! .~ .",
"ZZ { .] .`Z ^ .+` / .KY ( .#` qX tS 9W #Q )V IO kN wS !V %Q }M }M _ .: .< .[ .} .| .1 .2 .3 .4 .5 .6 .7 .8 .9 .0 .a .b .c .d . Y e .f .g .h .i .j .k .l .m .n .o .p .q .r .s .t .u .v .w .x .y .z .A .B .C .D .E .F .G .H .yM I .J .K .L .M .N .O .P .IW Q .R .S .T .U .V .W .X .Y .Z .` . .....+..@..#..$..%..&..*..=..-..;..>..,..'..)..!..~..{..]..^../..(.._..:..<..[..}..|..1..2..3..4..5..",
"6..7..] .8..9..0../ .KY KY .` LY a..b..c..d..#Q )V IO IO e..f..wS g..h..i..j..k..l..m..n..o..p..q..r..s..t..u..v..w..x..y..z..A..B..C..D..E..F..G..H..I..J..K..L..M..N..O..P..Q..R..S..T..U..V..W..X..Y..Z..`.. +..+.++.@+.#+.$+.%+.&+.*+.=+.-+.;+.>+.,+.'+.)+.!+.~+.{+.]+.^+./+.(+.1v ws _+.:+.<+.[+.}+.|+.1+.2+.3+.4+.5+.6+.7+.8+.9+.0+.a+.b+.c+.d+.e+.f+.g+.h+.i+.j+.k+.l+.m+.n+.o+.FY p+.5..",
"q+.7..r+.s+.t+./ .u+.v+./ .w+.x+.y+.z+.A+.c..B+.OY OY C+.8W D+.E+.YK F+.G+.H+.I+.J+.K+.L+.M+.N+.O+.P+.Q+.R+.S+.T+.U+.V+.W+.X+.Y+.Z+.`+. @..@.+@.@@.R+.#@.$@.%@.&@.*@.=@.-@.;@.>@.,@.'@.)@.!@.~@.{@.]@.^@./@.(@._@.:@.<@.[@.}@.|@.1@.2@.$N 3@.4@.5@.6@.7@.8@.9@.0@.a@.b@.c@.d@.e@.f@.g@.h@.i@.j@.k@.l@.m@.n@.o@.p@.q@.r@.s@.t@.u@.v@.w@.x@.y@.z@.A@.B@.C@.D@.E@.F@.G@.H@.I@.J@.o+.K@.L@.M@.N@.O@.",
"P@.6..{ .Q@.t+.u+.R@.v+.S@.T@./ .KY LY LY sS A+.A+.A+.U@.A+.@Q V@.#Q W@.X@.Y@.Z@.`@. #..#.+#.@#.##.$#.%#.&#.*#.=#.-#.;#.;#.>#.,#.'#.)#.!#.~#.{#.]#.^#./#.(#.#@._#.:#.<#.[#.}#.|#.1#.2#.3#.4#.5#.6#.7#.8#.9#.0#.a#.b#.c#.d#.e#.f#.g#.h#.i#.j#.k#.l#.m#.n#.o#.p#.q#.r#.s#.t#.u#.v#.+F w#.x#.y#.z#.A#.B#.C#.D#.E#.F#.G#.H#.I#.J#.K#.L#.M#.N#.O#.P#.y@.Q#.R#.S#.T#.U#.V#.W#.YZ X#.Y#.Z#.`#. $.O@.~ .",
".$.q+.{ .Q@.+$.R@.R@.@$.T@.T@.v+./ ./ .LY LY LY #$.LY LY XT XT z+.$$.c..%$.&$.*$.=$.-$.;$.>$.,$.'$.)$.!$.!$.~$.{$.I .]$.^$./$.($._$.:$.<$.[$.}$.|$.1$.2$.3$.4$.5$.6$.7$.8$.9$.0$.a$.b$.TC c$.d$.e$.f$.g$.h$.i$.j$.k$.l$.m$.n$.o$.p$.q$.r$.s$.t$.u$.v$.w$.x$.y$.z$.A$.B$.C$.D$.E$.F$.G$.H$.I$.J$.K$.L$.M$.N$.O$.P$.Q$.R$.S$.T$.U$.V$.W$.X$.z@.Y$.Z$.`$. %..%.+%.@%.#%.$%.%%.&%.G@.*%.=%.-%.;%.>%.",
",%.'%.)%.!%.~%.{%.]%.^%./%.S@.@$./%.(%..` LY .` .` .` x+._%. ` KY x+. ` @Q :%.<%.[%.}%.|%.1%.2%.3%.4%.5%.6%.7%.8%.9%.~#.0%.a%.b%.c%.d%.e%.f%.g%.h%.i%.j%.k%.l%.m%.n%.o%.p%.q%.r%.s%.t%.u%.v%.w%.x%.y%.z%.A%.B%.C%.D%.E%.F%.G%.H%.I%.J%.K%.L%.M%.N%.O%.P%.Q%.R%.S%.T%.U%.V%.W%.X%.Y%.Z%.`%. &..&.+&.@&.#&.$&.%&.&&.*&.=&.-&.;&.MP >&.,&.'&.)&.!&.~&.{&.]&.^&./&.(&._&.:&.<&.[&.}&.*%.4..|&.1&.! .",
"2&.3&.4&.5&.6&.+$.7&.8&.9&.0&.9&.a&.b&./ . ` .` .` w+.w+.c&.d&.d&.d&.d&.e&.f&.g&.h&.i&.j&.k&.l&.m&.n&.o&.p&.q&.r&.o&.T%.s&.t&.u&.v&.w&.x&.y&.z&.A&.B&.C&.D&.E&.F&.G&.H&.I&.J&.K&.L&.M&.N&.O&.P&.Q&.R&.S&.T&.U&.V&.W&.X&.Y&.Z&.`&. *..*.+*.@*.#*.$*.%*.&*.**.=*.-*.;*.>*.,*.'*.)*.!*.~*.{*.]*.^*./*.(*._*.:*.<*.[*.}*.|*.1*.2*.3*.4*.5*.6*.7*.8*.9*.0*.a*.b*.c*.d*.e*.f*.g*.h*.i*.j*.4..[..k*.l*.",
"m*.3&.'%.n*.o*.+$.p*.8&.9&.q*.r*.9&.^%.R@.s*. ` +` v+.+` t*.u*.v*.w*.x*.y*.w*.z*.A*.B*.C*.D*.E*.F*.G*.H*.I*.J*.K*.L*.L*.M*.[%.N*.O*.P*.Q*.R*.S*.T*.U*.V*.W*.X*.Y*.Z*.`*. =..=.+=.@=.#=.$=.%=.&=.*=.==.-=.;=.>=.,=.'=.)=.!=.~=.{=.]=.^=./=.(=._=.:=.<=.[=.}=.|=.1=.2=.3=.4=.5=.6=.7=.8=.9=.0=.a=.b=.c=.d=.e=.f=.g=.h=.i=.j=.k=.l=.m=.n=.o=.p=.q=.r=.s=.t=.u=.v=.w=.x=.y=.OT z=.A=.B=.4.., .C=.D=.",
"E=.F=.'%.G=.H=.+$.I=.J=.J=.K=.r*.r*.9&.R@.0../ .+` c&.L=.M=.N=.O=.P=.Q=.R=.S=.T=.U=.V=.W=.X=.Y=.Z=.`=. -..-.+-.@-.#-.$-.%-.&-.*-.=-.--.;-.>-.,-.'-.)-.!-.~-.{-.]-.^-./-.(-._-.:-.<-.[-.}-.|-.1-.2-.3-.4-.5-.6-.7-.8-.9-.0-.a-.b-.c-.d-.e-.f-.g-.h-.i-.j-.k-.l-.m-.n-.o-.p-.q-.r-.s-.t-.u-.v-.w-.x-.y-.z-.A-.B-.C-.D-.E-.F-.G-.H-.I-.J-.K-.L-.M-.N-.O-.P-.Q-.R-.S-.T-.U-.V-.W-.X-.Y-.Z-.`-. ;..;.",
"+;.@;.3&.4&.#;.Q@.$;.J=.J=.%;.r*.r*.r*.^%.u+.&;.xS *;.=;.-;.;;.>;.,;.';.);.!;.u*.~;.{;.{*.];.^;./;.(;._;.:;.<;.[;.};.|;.1;.2;.3;.4;.5;.6;.7;.8;.9;.0;.a;.b;.c;.d;.e;.f;.g;.h;.i;.j;.[-.k;.l;.m;.n;.o;.p;.q;.r;.s;.t;.u;.v;.w;.x;.y;.z;.A;.B;.C;.D;.E;.F;.G;.H;.I;.[=.J;.K;.L;.M;.N;.V=.O;.P;.Q;.R;.S;.T;.U;.V;.W;.X;.Y;.Z;.`;. >..>.+>.@>.#>.$>.%>.&>.*>.=>.->.;>.>>.,>.'>.)>.!>.~>.{>.]>.^>./>.",
"(>.E=.3&.)%._>.H=.:>.<>.J=.[>.%;.r*.}>.^%.R@.|>.1>.2>.3>.4>.vu 5>.Yv 6>.7>.8>.9>.0>.a>.b>.c>.d>.e>.f>.g>.h>.i>.j>.k>.l>.m>.n>.o>.p>.q>.r>.s>.t>.u>.v>.w>.x>.y>.z>.A>.B>.C>.D>.E>.F>.G>.H>.I>.J>.zw K>.L>.M>.N>.O>.P>.Q>.R>.S>.T>.U>.V>.W>.X>.Y>.Z>.`>. ,..,.+,.@,.#,.$,.%,.&,.*,.T*.=,.-,.;,.>,.,,.',.),.!,.~,.{,.],.^,./,.(,._,.:,.<,.[,.},.|,.1,.2,.3,.4,.5,.6,.7,.8,.9,.0,.a,.b,.c,.d,.e,.f,.",
"g,.h,.i,.)%.j,.k,.p*.l,.7&.[>.%;.K=.J=.^%.(%.m,.n,.o,.p,.q,.r,.r,.s,.t,.u,.v,.w,.x,.y,.z,.A,.B,.C,.D,.E,.F,.G,.H,.I,.J,.K,.L,.M,.N,.O,.P,.Q,.R,.S,.T,.U,.V,.W,.X,.Y,.Z,.`,. '..'.+'.@'.#'.$'.%'.&'.*'.='.-'.;'.>'.,'.''.)'.!'.~'.{'.]'.^'./'.('._'.:'.<'.['.}'.|'.1'.2'.3'.4'.5'.6'.7'.8'.9'.0'.a'.b'.c'.d'.e'.f'.g'.h'.i'.j'.k'.l'.m'.n'.o'.p'.q'.r'.s'.t'.~ .u'.v'.w'.u'.x'.p+.p+.G@.y'.z'.A'.",
"B'.C'.D'.E'.F'.k,.G'.H'.I'.J=.q*.K=.J'.+$.uS K'.L'.M'.N'.O'.P'.Q'.R'.S'.r,.T'.U'.V'.W'.X'.Y'.Z'.`'. )..).+).@).#).$).%).&).*).=).-).;).>).,).').)).!).~).{).]).^)./).()._).:).<).[).}).|).1).2).3).4).5).{).6).7).8).9).b#.0).a).b).c).d).e).f).g).h).i).j).k).l).m).n).o).p).q).r).s).t).u).v).w).x).y).z).A).B).C).D).E).F).G).H).I).J).K).L).M).N).O).P).Q).R).S).T).U).V).W).X).Y).4..Z).`).",
" !..!.+!.@!.#!.$!.%!.&!.*!.=!.-!.J=.J'.7&.;!.>!.,!.'!.'!.*w )!.!!.~!.{!.]!.@w ^!./!.(!._!.:!.<!.[!.}!.|!.1!.2!.3!.4!.5!.6!.7!.8!.9!.0!.a!.b!.c!.d!.e!.f!.g!.h!.i!.j!.k!.l!.m!.n!.o!.p!.q!.r!.s!.t!.u!.v!.w!.x!.y!.z!.A!.B!.C!.D!.E!.F!.G!.{v H!.I!.J!.K!.L!.M!.N!.O!.P!.Q!.R!.S!.[=.T!.U!.V!.W!.X!.Y!.Z!.`!. ~.A).~,..~.+~.@~.#~.$~.%~.&~.*~.=~.-~.;~.>~.>~.>~.,~.,~.'~.)~.,~.!~.~~.{~.]~.^~./~.",
"(~..!._~.@!.:~.<~.%!.%!.[~.}~.H'.-!.*!.|~.1~.JE #B 2~.2~.2~.2~.3~.vu Eu Du 4~.5~.6~.7~.8~.9~.0~.a~.b~.c~.d~.e~.f~.g~.h~.i~.j~.k~.l~.m~.n~.o~.p~.q~.r~.s~.t~.u~.v~.w~.x~.y~.z~.A~.B~.C~.D~.E~.F~.G~.H~.I~.J~.K~.L~.M~.N~.O~.P~.Q~.R~.S~.T~.U~.V~.W~.X~.Y~.Z~.`~. {..{.+{.@{.#{.${.%{.&{.*{.={.-{.;{.>{.,{.'{.){.!{.~{.{{.]{.^{./{.HY ({._{.:{.<{.[{.}{.|{.|{.,~.'~.1{.1{.[{.2{.3{.4{.5{.6{.7{.8{.",
"9{.0{.a{.b{.@!.c{.d{.%!.e{.G'.f{.g{.}~.h{.i{.j{.k{.<x <x <x <x <x `v <x k{.l{.m{.n{./) o{.p{.q{.r{.s{.t{.u{.v{.w{.x{.y{.z{.A{.B{.C{.D{.E{.F{.G{.H{.I{.J{.K{.L{.M{.N{.O{.P{.Q{.R{.S{.T{.U{.V{.W{.X{.Y{.Z{.`{. ]..].+].@].#].$].%].7F &].*].=].-].;].>].,].'].)].!].~].{].]].^]./].(].}%._].:].<].[].[s }].|].1].2].3].4].G-.5].6].7].8].9].0].1{.a].b].|{.|{.c].5{.}{.|{.d].e].f].g].h].i].j].B=.",
"k].l].m].n].D'.o].:~.F'.p].%!.q].r].s].t].u].v].w].<x k{.k{.w].Hz <x w].x].y].z].A].B].C].D].E].F].G].H].I].J].K].L].M].p).N].O].P].Q].R].S].T].U].V].W].X].c@.Y].Z].`]. ^.`{..^.+^.@^.#^.$^.%^.&^.*^.=^.-^.;^.>^.,^.'^.)^.!^.~^.{^.]^.^^./^.(^._^.:^.<^.[^.}^.|^.1^.2^.3^.4^.5^.6^.7^.8^.9^.0^.a^.b^.c^.d^.e^.f^.g^.h^.i^.j^.k^.l^.m^.n^.|{.a].b].o^.c].p^.'~.'~.q^.r^.s^.t^.u^.v^.w^.x^.y^.z^.",
"A^.B^.C^.D^.+!.o].E^.F^.G^.F'.%!.H^.I^.J^.Bz _x k{.k{.<x k{.Ku $B Iu <x K^.L^.M^.N^.O^.P^.Q^.R^.S^.T^.U^.V^.V^.W^.X^.Y^.Z^.`^. /../.+/.@/.#/.$/.%/.&/.*/.=/.-/.;/.>/.,/.'/.)/.!/.~/.{/.]/.^/.//.(/._/.:/.</.[/.}/.|/.1/.2/.3/.4/.5/.6/.7/.8/.9/.0/.a/.b/.c/.d/.e/.f/.g/.h/.i/.j/.k/.l/.m/.n/.o/.p/.q/.r/.s/.t/.u/.v/.w/.x/.y/.z/.a].A/.B/.p^.C/.D/.D/.5{.E/.'~.F/.r^.G/.H/.I/.J/.K/.L/.M/.L/.N/.",
"A^.A^.O/.P/.m].Q/.R/.E^.S/.#!.T/.T/.U/.V/.W/.,!.,!.k{.k{.k{.<x k{.<x k{.fy X/.Y/.Z/.`/. (.b~..(.+(.@(.#(.$(.%(.&(.*(.=(.-(.;(.>(.,(.'(.)(.!(.~(.{(.](.^(./(.((._(.:(.<(.%+.[(.}(.|(.1(.2(.3(.4(.5(.6(.[X 7(.8(.9(.0(.a(.b(.c(.d(.y#.e(.f(.g(.h(.i(.j(.k(.l(.m(.n(.o(.p(.q(.r(.s(.t(.v).u(.v(.w(.x(.y(.z(.A(.B(.C(.D(.E(.F(.G(.H(.I(.,~.[{.5{.o^.J(.o^.5{.'~.F/.r^.K(.L(.H/.FZ M(.N(.O(.M/.P(.Q(.",
"R(.S(.T(.U(.V(.W(.X(.Y(.Z(.o].`(. _.._.+_.v].,!.,!.k{.k{.k{.k{.k{.k{.#B @_.#_.$_.%_.&_.*_.=_.-_.;_.>_.,_.'_.)_.!_.~_.{_.]_.^_./_.(_.__.@-.:_.<_.[_.}_.|_.1_.2_.3_.4_.5_.6_.7_.8_.9_.3v 0_.a_.b_.c_.d_.e_.f_.g_.h_.i_.j_.k_.l_.m_.n_.o_.p_.q_.r_.s_.t_.u_.v_.w_.x_.y_.z_.A_.B_.X~.C_.D_.E_.F_.G_.H_.I_.J_.J_.K_.L_.M_.N_.O_.P_.Q_.R_.S_.E/.5{.o^.o^.5{.T_.U_.V_.W_.X_.X_.Y_.Z_.`_. :..:.+:.@:.O(.",
"R(.#:.$:.%:.&:.D^.D^.D^.*:.n].=:.-:.;:.3H _x ,!.k{.k{.,!.k{.k{.k{.k{.x].>:.,:.':.):.!:.~:.{:.]:.^:./:.(:._:.::.<:.[:.}:.|:.1:.2:.3:.4:.5:.6:.7:.8:.9:.0:.a:.b:.c:.d:.e:.f:.g:.h:.i:.j:.k:.l:.m:.n:.o:.p:.q:.r:.s:.t:.u:.v:.w:.x:.y:.z:.A:.B:.C:.D:.E:.F:.G:.H:.I:.J:.K:.L:.M:.N:.O:.P:.Q:.R:.S:.T:.U:.V:.V:.J_.W:.X:.Y:.Z:.`:. <.S_.S_..<.E/.+<.@<.)~.U_.s^.#<.$<.$<.%<.&<.y^.*<.=<.i].-<.i].M/.",
"R(.;<.><.,<.'<.)<.O/.A^.!<.V(.0{.~<.{<.]<.,!.,!.k{.,!.,!.k{.,!.k{.k{.[C ^<./<.(<._<.:<.<<.[<.}<.|<.1<.2<.3<.4<.5<.6<.7<.8<.9<.>u 0<.a<.b<.c<.d<.e<.f<.g<.h<.i<.j<.k<.l<.m<.n<.o<.p<.q<.r<.s<.t<.u<.v<.w<.x<.y<.z<.A<.B<.C<.D<.E<.F<.G<.H<.I<.J<.K<.L<.M<.N<.O<.Dw P<.Q<.R<.S<.T<.U<.V<.W<.X<.Y<.Z<.`<. [.J_..[.+[.@[.#[.$[.%[.&[.*[.=[.-[.;[.>[.,[.'[.)[.![.~[.{[.$<.][.E/.M/.i].i].+:.^[./[.i].",
"R(.([._[.:[.,<.S(.<[.S(.R(.[[.}[.|[.1[.Fz ,!.,!.,!.,!.,!.k{.,!.,!.,!.2[.3[.3&.4[.5[.6[.7[.8[.9[.0[.a[.b[.c[.d[.e[.f[.g[.h[.i[.j[.k[.l[.m[.n[.o[.p[.q[.r[.s[.t[.u[.v[.w[.x[.y[.z[.A[.B[.C[.D[.E[.F[.G[.H[.I[.J[.K[.L[.M[.N[.O[.P[.Q[.R[.S[.T[.U[.V[.W[.X[.Y[.Z[.`[. }..}.+}.@}.#}.$}.%}.&}.*}.=}.-}.;}.>}.,}.'}.)}.!}.~}.{}.]}.^}.YZ /}.(}._}.:}.<}.[}.}}.|}.1}.{[.2}.3}.4}.+:./[.5}.6}.7}.8}.9}.",
"0}.0}._[.a}.b}.c}.d}.e}.f}.g}.h}.i}.j}._x ,!.,!.,!.,!.,!.,!.,!.,!.k}.l}.m}.n}.o}.p}.q}.r}.s}.t}.u}.v}.w}.x}.y}.z}.A}.B}.C}.D}.E}.F}._z G}.H}.I}.J}.K}.L}.M}.N}.O}.P}.+/.Q}.R}.S}.T}.U}.V}.W}.X}.Y}.Z}.`}. |..|.+|.@|.#|.$|.%|.&|.*|.=|.-|.={.;|.>|.Q:.,|.'|.)|.!|.~|.{|.]|.^|./|.(|._|.:|.<|.[|.}|.||.1|.2|.3|.4|.5|.6|.7|.8|.p+.y'.9|.0|.a|.b|.c|.d|.e|.f|.g|.h|.i|.j|.M/.M/.k|.l|.m|.E(.n|.o|.",
"0}.p|.R(.><.q|.r|.s|.t|.u|.v|.w|.x|.6>._x ,!._x _x ,!.,!.,!.,!.k{.y|.z|.A|.B|.C|.D|.D^.D^.E|.F|.G|.H|.I|.J|.K|.L|.M|.N|.O|.P|.Q|.R|.S|.T|.U|.V|.W|.X|.k-.Y|.Z|.`|. 1..1.+1.@1.#1.$1.%1.&1.*1.=1.-1.;1.>1.,1.'1.+|.)1.!1.~1.{1./^.]1.^1./1.(1._1.:1.<1.[1.}1.|1.11.cH 21.31.41.51.61.71.81.91.01.a1.a1.b1.c1.d1.e1.f1.g1.h1.i1.j1.k1.l1.m1.n1.o1.p1.q1.r1.s1.t1.u1.v1.o|.w1.x1.y1.y1.z1.A1.B1.C1.",
"&:.D1.e}.E1.F1.G1.H1.I1.J1.K1.L1.M1.Fz N1._x _x _x _x ,!.,!.,!.,!.(x O1.P1.Q1.f}.R1.R(.A^.O/.m].S1.T1.U1.V1.W1.X1.Y1.Z1.`1. 2..2.T|.+2.@2.#2.$2.%2.&2.`%.*2.=2.-2.;2.>2.,2.'2.)2.!2.~2.{2.]2.^2./2.(2._2.:2.&{.<2.[2.}2.|2.12.22.32.42.52.62.72.82.92.02.a2.b2.c2.d2.e2.f2.g2.h2.i2.j2.$& k2.l2.m2.n2.d1.o2.p2.q2.r2.s2.t2.u2.v2.w2.x2.a|.lS y2.z2.A2.B2.C2.D2.E2.F2.G2.B1.H2.H2.H2.H2.H2.H2.A1.",
"Y(.I2.f}.J2.G1.K2.L2.M2.N2.O2.P2.`A (x N1._x _x _x Q2.,!._x _x ,!.R2.S2.T2.L2.U2.U2.V2.0}.W2.l].X2.Y2.Z2.`2. 3..3.+3.@3.#3.$3.%3.&3.*3.=3.-3.;3.>3.,3.'3.)3.!3.~3.{3.]3.^3./3.(3.|E _3.:3.<3.[3.k:.}3.|3.13.23.2_.33.43.53.63.73.83.93.03.a3.b3.c3.d3.e3.f3.g3.h3.i3.j3.k3.l3.m3.n3.o3.p3.q3.r3.s3.t3.u3.v3.w3.x3.y3.z3.A3.5..v2.B3.:R C3.D3.E3.F3.G3.H3.I3.J3.K3.L3.M3.N3.H2.H2.H2.H2.H2.B1.z1.",
"O3.P3.Q3.G1.R3.S3.N2.T3.U3.V3.W3._C _x _x _x _x _x _x _x _x _x X3.Y3.Z3.`3. 4..4.+4.v|.@4.([.#4.k].m].$4.%4.&4.*4.=4.-4.;4.>4.,4.'4.)4.!4.)B ~4.{4.]4.^4.**./4.(4._4.:4.<4.[4.}4.|4.14.24.34.44.54.64.74.84.94.04.a4.M+.f(.b4.c4.d4.e4.f4.g4.h4.i4.j4.k4.l4.m4.n4.o4.p4.q4.r4.s4.t4.u4.v4.w4.x4.x4.y4.z4.A4.B4.C4.D4.E4.F4.G4.H4.I4.J4.K4.L4.M4.N4.O4.P4.o+.%%.Q4.R4.S4.T4.H2.H2.H2.B1.U4.y1.z1.",
"V4.W4.X4.X4.S3.N2.T3.Y4.Z4.`4. 5.Fz _x _x .5._x _x ,!._x _x _x y|.+5.@5.#5.$5.%5.&5. 4.*5.=5.-5.;5.>5.,5.'5.)5.!5.~5.{5.]5.^5./5.(5._5.:5.<5.[5.}5.|5.15.25.@F 35.45.55.65.75.85.95.c:.05.a5.b5.c5.d5.e5.f5.g5.h5.i5.j5.k5.=].l5.m5.n5.o5.p5.q5.r5.f3.s5.t5.u5.v5.w5.x5.y5.z5.A5.B5.C5.D5.E5.F5.G5.H5.I5.J5.K5.L5.M5.N5.^}.O5.P5.Q5.R5.S5.T5.q1.U5.V5.o+.2..W5.X5.Y5.Z5.`5. 6..6.H2.H2.H2.B1.z1.",
"+6.@6.G1.u|.J1.#6.$6.%6.&6.*6.=6.(x _x _x (x (x (x _x _x _x _x -6.;6.>6.,6.'6.)6.!6.~6.{6.]6.^6./6.(6._6.QG :6.<6.[6.}6.|6.16.26.36.46.56.66.76.86.96.06.a6.b6.c6.d6.e6.f6.g6.h6.a~.i6.j6.k6.l6.m6.n6.o6.p6.q6.r6.s6.t6.u6.v6.w6.x6.y6.z6.A6.B6.C6.D6.E6.F6.G6.H6.I6.J6.K6.L6.M6.N6.O6.P6.Q6.R6.S6.T6.U6.V6.W6.X6.s2.Y6.-[.Z6.`6.Q5. 7..7.+7.@7.#7.$7.%7.[..&7.*7.=7.-7.;7.>7.,7.'7.'7.H2.B1.)7.",
"!7.~7.{7.v|.N2.]7.^7./7.(7._7.:7.(x _x <7.[7.}7.|7.R2.y|._x _x v].17.27.37.47.57.67.77.87.97.07.a7.b7.c7.d7.e7.f7.g7.h7.i7.j7.k7.l7.m7.n7.o7.p7.q7.r7.s7.t7.u7.v7.$F w7.x7.y7.z7.24.A7.B7.C7.D7.E7.F7.G7.H7.I7.J7.K7.L7.M7.N7.O7.P7.Q7.R7.S7.T7.f3.U7.V7.W7.X7.Y7.J6.Z7.`7. 8..8.+8.@8.#8.$8.%8.&8.*8.=8.-8.;8.>8.,8.c].'8.)8.!8.~8.{8.]8.^8./8.o+.(8._8.:8.<8.[8.}8.|8.S4.18.28.38.38.H2.B1.48.",
"58.68.78.88.98.]7.08.a8.b8.c8.[C (x d8.e8.f8.g8.h8.i8.hy _x _x 2[.j8.k8.l8.m8.n8.o8.p8.q8.r8.s8.t8.u8.v8.w8.x8.y8.z8.A8.Zh B8.C8.D8.E8.F8.G8.H8.I8.J8.&3.K8.%3.L8.M8.N8.O8.P8.Q8.R8.S8.T8.U8.V8.W8.X8.Y8.Z8.`8. 9..9.+9.Z8.@9.#9.$9.%9.`j &9.*9.=9.-9.;9.>9.,9.'9.)9.!9.~9.{9.]9.^9./9.(9._9.:9.<9.[9.}9.|9.19.29.39.49.59.69.79.89.99.09.#7.a9.J@.b9.c9.d9.e9.f9.g9.h9.i9.j9.>7.38.H2.B1.B1..6.",
"k9.l9.m9.L2.88.n9.o9.p9.q9.W/.(x :7.r9.s9.t9.u9.v9.w9.x9._x _x y9.z9.A9.B9.C9.D9.E9.F9.G9.H9.I9.J9.K9.L9.M9.N9.O9.P9.YC Q9.R9.S9.T9.U9.V9.C^ W9.X9.,: Xg Y9.Z9.`9. 0..0.+0.@0.#0.$0.%0.&0.*0.=0.u:.-0.;0.>0.,0.'0.)0.!0.r(.~0.{0.]0.^0./0.(0._0.:0.<0.[0.}0.wD |0.10.20.30.40.50.60.70.80.90.00.a0.b0.c0.d0.e0.f0.g0.h0.`-.i0.j0.k0.l0.m0.n0.o0.=~.p0.[8.q0.r0.|8.s0.t0.u0.v0.w0.x0.y0..6.z0.A0.",
"B0.C0.D0.B^.l].v|.E0.F0.G0.:7.[C H0.I0.J0.K0.L0.,6.M0.N0.y|.O0.P0.Q0.R0.S0.T0.U0.V0.W0.X0.Y0.Z0.`0. a..a.+a.H> @a.#a.$a.%a.&a.ei *a.=a.-a.x| $g ;a.>a.,a.'a.)a.!a./z ~a.{a.]a.^a./a.(a._a.:a.<a.[a.}a.|a.1a.2a.3a.4a.5a.6a.7a.8a.9a.0a.aa.ba.ca.wK da.ea.fa.ga.ha.ia.ja.ka.la.ma.na.oa.pa.qa.ra.sa.ta.ua.va.wa.xa.ya.za.Aa.Ba.Ca.Da.Ea.n0.Fa.Ga.Ha.Ia.}8.Ja.Ka.La.Ma.i9.Na.v0.Oa.w0.Pa.Qa.Ra.Sa.",
"Ta.Ua.Va.V(.#4.Wa.Xa.Ya.Za.nD :7.`a. b..b.+b.@b.#b.$b.j{.(x v].%b.&b.*b.=b.-b.;b.>b.,b.'b.)b.!b.~b.{b.]b.^b./b.(b._b.:b.<b.[b.}b.|b.1b.2b.x| >a.3b.4b.5b.6b.7b.8b.9b.0b.ab.bb.cb.db.eb.fb.gb.hb.ib.jb.kb.lb.mb.nb.ob.pb.qb.rb.sb.tb.ub.vb.Oz wb.xb.yb.zb.Ab.Bb.Cb.Db.Eb.Fb.Gb.Hb.Ib.Jb.Kb.Lb.Mb.Nb.Ob.Pb.Qb.Rb.Sb.Tb.Ub.Vb.Wb.Xb.Yb.Zb.Q4.`b. c..c.f9.Ja.+c.@c.#c.$c.%c.i9.&c.*c.=c.-c.;c.>c.,c.",
"'c.)c.X4.b}.!c.~c.{c.]c.W/.Fz ]<.`a.^c./c.(c._c.:c.<c.[c.(x }c.|c.1c.2c.3c.4c.5c.6c.7c.8c.9c.0c.ac.bc.cc.dc.ec.fc.gc.hc.ic.jc.;: kc.lc.mc.nc.oc.pc.5b.qc.rc.oo sc.tc.uc.vc.wc.xc.yc.zc.Ac.Bc.Cc.Dc.Ec.Fc.Gc.Hc.O|.Ic.Jc.Kc.Lc.Mc.Nc.Oc.sA Pc.Qc.Rc.Sc.Tc.Uc.te Vc.Wc.^0 Xc.Yc.Zc.`c. d..d.+d.@d.#d.$d.<9.%d.&d.*d.=d.-d.;d.>d.,d.'d.)d.!d.~d.{d.]d.^d./d.(d._d.:d.<d.[d.}d.|d.1d.2d.3d.4d.5d.6d.",
"7d.8d.Y4.9d.08.0d.ad.bd.}c.Fz nD cd.dd.ed.fd.gd.hd. 5.<7.-6.[c.id.jd.kd.ld.md.nd.od.pd.qd.rd.sd.td.ud.A# vd.wd.xd.yd.zd.Ad.#k Bd.Cd.Dd.Ed.Fd.Gd.Hd.Id.Jd.Kd.Ld.Md.Nd.Od.Pd.Qd.Rd.Sd.Td.Ud.Vd.Wd.dA .A Xd.Yd.Zd.`d. e..e.+e.@e.A5.#e.$e.sA %e.&e.*e.=e.-e.;e.7{ >e.,e.'e.)e.!e.~e.{e.]e.^e.]e./e.(e._e.:e.<e.[e.}e.|e.1e.2e.i'.3e.4e.5e.6e.7e.8e.9e.0e.ae.be.ce.de.ee.fe.ge.he.ie.je.ke.le.le.le.",
"me.ne.oe.pe.pe.qe.re.se.}c.Fz L'.2>.te.ue.ve.we.xe.ye.Fz hy ze.Ae.Be.Ce.De.Ee.Fe.Ge.He.Ie.Je.Ke.Le.Me.Ne.Oe.Pe.[m #a.Qe.Re.Se.Te.Ue.Ve.We.Xe.Ye.l4.10.Ze.`e.)F  f..f.+f.@f.#f.$f.%f.&f.*f.=f.-f.;f.>f.,f.'f.)f.!f.&3.~f.{f.]f.^f./f.(f.tA _f.:f.<f.[f.}f.|f.1f.2f.C# 3f.4f.5f._X 6f.]e.^e.7f.`0.(e.8f.9f.0f.af.bf.cf.df.ef.ff.gf.hf.if.jf.{~.kf.lf.mf.nf.of.pf.qf.rf.sf.tf.uf.vf.wf.xf.yf.zf.le.",
"Af.Bf.Cf.Df.Ef.Ff.Gf.Hf.<7.(x py If.Jf.Kf.Lf.Mf.Nf.hy Fz nD Of.Pf.Qf.Rf.Sf.Tf.Uf.Vf.Vf.Wf.Xf.Yf.Zf.`f. g..g.+g.@g.#g.$g.%g.&g.*g.=g.-g.;g.>g.,g.'g.)g.!g.~g.{g.]g.^g.{5./g.(g._g.:g.<g.[g.}g.|g.1g.2g.3g.4g.5g.6g.7g.8g.9g.0g.ag.bg.bg.sA Oz cg.dg.eg.fg.gg.hg.ig.jg.kg.~e.5f.lg.mg.ng.og.pg.qg.(e.rg.sg.tg.ug.vg.cf.Tb.wg.xg.f1.yg.zg.zg.Ag.Bg.Cg.Dg.Eg.Fg.Gg.Hg.Ig.Jg.Kg.Lg.Mg.Ng.Og.Pg.Qg.Rg.",
"Sg.Tg.Ug.Vg.Wg.Xg.Yg.Dz <7.Zg.|x `g. h..h.+h.@h.fy K^.K^.:7.#h.$h.%h.&h.*h.=h.-h.;h.>h.pd.,h.'h.)h.`f.!h.~h.{h.]h.^h./h.(h._h.:h.<h.[h.}h.|h.1h.2h.3h.4h.5h.6h.7h.8h.9h.0h.ah.UD bh.ch.dh.eh.V9.%r fh.gh.hh.ih.jh.kh.lh.mh.nh.oh.bg.ph.XG qh.rh.:f.sh.th.uh.vh.wh.xh.yh.zh.Ah.Bh.Ch.Dh.ng.Eh.Fh.9f.Gh.Hh.Ih.&d.Jh.Kh.Lh.Mh.Nh.Oh.Ph.Qh.Rh.5|.Sh.Sh.Th.Th.Uh.Vh.Wh.Xh.Yh.Zh.`h. 6.4e. i..i.+i.@i.",
"#i.$i.%i.&i.*i.=i.%G .B nD vu -i.;i.pI >i.,i.YA fy _C K^.[c.'i.)i.!i.~i.4c.{i.]i.^i./i.(i._i.:i.<i.[i.}i.|i.1i.2i.3i.4i.5i.6i.7i.8i.9i.0i.ai.bi.ci.di.ei.fi.gi.hi.ii.ji.ki.li.mi.ni.oi.pi.hh.5b.qi.ri.si.ti. f.ui.Tu vi.wi.gc xi.yi.zi.Ai.j! Bi.Ci.Di.Ei.Fi.Gi.Hi.Ii.Ji.Ki.Li.Mi.Ni.Oi.Dh.Pi.Qi.Ri.Si.Ti.Ui.Vi.Wi.Xi.Yi.Zi.`i. j..j.+j.@j.#j.$j.%j.&j.*j.=j.-j.;j.>j.,j.'j.)j.!j.~j.{j.)j.]j.Sh.",
"^j./j.(j._j.:j.<j.[j._C x].oy 1x 6>.}j.|j.1j.2j.3j..B _C 4j.5j.6j.7j.8j.9j.0j.aj.bj.cj.Vf.dj.ej.fj.gj.hj.ij.jj.kj.M$.lj.mj.nj.z8.oj.pj.qj.rj.sj.tj.Id.uj.vj.wj.xj.yj.zj.Aj.Bj.Cj.Hp Dj.Ej.Fj.Gj.ui.Hj.Ij.Jj.{f.Kj.Lj.7C bg.Mj.Nj.ph.AF Oj.Pj.Qj.Rj.xl Sj.Tj.C# Uj.Vj.Wj.Xj.Yj.Zj.`j. k..k.+k.rg.@k.$d.Ih.&d.#k.}9.Kh.$k.%k.&k.tN *k.=k.-k.;k.>k.,k.'k.)k.!k.~k.{k.]k.^k./k.(k._k.:k.<k.q2.[k.}k.",
"|k.1k.2k.3k.4k.5k.6k._C :x oy `v %G 7k.1M tN 8k.9k..B .B z|.0k.ak.bk.ck.dk.ek.fk.gk.aj.hk.He.dj.ik.jk.kk.lk.mk.nk.ok.pk.qk.rk.sk.tk.uk.vk.wk.xk.yk.zk.Ak.1h.Bk.|h.Ck.Dk.Ek.Fk.Gk.Tu Hk.Ik.Jk.Kk.Lk.Mk.Nk.Ok.Pk.Qk.Rk.AF Sk.Tk.Uk.Vk.Wk.Xk.i> Yk.Zk.`k. l..l.+l.@l.#l.$l.%l.&l.*l.=l.-l.^e.;l.8f.>l.,l.'l.c0.vg.}9.)l.!l.~l.{l.]l.3H ^l./l.(l._l.:l.<l.[l.}l.|l.1l.2l.3l.4l.5l.6l.7l.8l.9l.0l.al.",
"bl.cl.dl.el.fl.gl..B K^.[x hl.}c.il.jl.kl.ll.[j.9k.fy W/.ml.nl.ol.pl.ql.rl.sl.tl.ul.vl.wl.dj.xl.yl.zl.Al.Bl.Kz Cl.Dl.El.Fl.M, Gl.Hl.Il.Jl.Kl.Ll.Ml.Nl.Ol.Pl.Ql.Rl.Sl.Tl.Ul.Vl.Wl.Xl.Yl.Zl.`l. m.bi.!g.)g..m.+m.@m.#m.$m.%m.&m.*m.=m.dq -m.>! ;m.>m.,m.'m.)m.KB !m.~m.{m.]m.^m.=$./m.(m._m.:m._e.<e.<m.[m.}m.|m.1m.2m.=d.3m.4m.]l.5m.ZA @h.+5.6m.Dz 7m.W/.W/.8m.9m.7m.0m.am.bm.cm.dm.em.fm.gm.hm.",
"im.jm.km.lm.mm.nm..B (x my om.8k.pm.qm.rm.sm.*G 9k.fy Dz Yg.tm.um.vm.wm.xm.ym.zm.Am.Bm.Cm.Cm.Dm.yl.Em.Fm.Gm.Hm.Im.Jm.Km.Lm.Mm.Nm.Om.Pm.Qm.Rm.Sm.Tm.Um.Vm.Wm.Xm.Ym.Zm.`m. n..n.+n.@n.@n.#n.$n.%n.&n.*n.=n.-n.;n.>n.,n.'n.^f.)n.!n.~n.{n.]n.^n./n.(n._n.'m.{:.:n.<n.Ad.[n.}n.|n.1n.2n.3n.4n.5n.rg.6n.7n.Rb.|m.8n.|m.9n.0n.an.bn./l.5m.5m.@h.6m.6m.Dz W/.cn.cn.[c.[c.d8.d8.d8.dn.}c._C 2[.d8.Y3.Dz ",
"en.fn.gn.hn.in..B jn.@B `v kn.ln.mn.nn.on.pn.[j.9k..B `A qn.rn.sn.k@ tn.un.vn.wn.xn.yn.zn.An.Bn.aj.Cn.Dn.En.Fn.Gn.Hn.In.x> Jn.Kn.Ln.Mn.Nn.On.Pn.Qn.Rn.Sn.Tn..k Un.3= F6 Vn.Wn.Xn.SD Yn.Zn.`n. o..o.;n.+o.@o.#o.$o.%o.&o.*o.yl =o.-o./0 ;o.>o.,o.'o.)o.!o.~o.{o.]o.[n.^o./o.(o._o.:o.<o.[o.<e.}o.|o.1o.2o.va.vg.3o.4o.5o.6o.7o.8o.8o.jD (C 6m.Dz Dz j{.cn.W/.9o.[c..B d8.2[.2[.x9._C _C _C :7._C ",
"0o.ao.bo.co.do.2[.eo.@B Zv 8m.fo.go.ho.rN HE YA 3j.fy 8o.io.jo.ko.lo.mo.no.oo.po.qd.qo.ro.so.to.uo.vo.vn.wo.xo.yo.zo.Ao.Bo.Co.Do.Eo.Fo.Go.Ho.Io.Jo.uk.Ko.Lo.Mo.No.i4.Oo.E8.,l Po.Qo.Ro.So.To.So..m.`n.Uo.Vo.Wo.ia.Xo.Yo.Zo.`o.f-  p..p.+p.7z @p.#p.$p.%p.&p.*p.=p.-p.;p.>p.,p.'p.)p.!p.~p.}o.{p.]p.Qb.^p./p.(p._p.!l.:p.<p.[p.8o.+5.4j.4j.`A Dz j{.j{.cn.W/.d8.]<.x9.x9..B _C _C }p.|p.1p.2p._C ",
"3p.4p.5p.6p.7p.d8.}c.Yv kn. h.8p.9p.0p.GE ap.Cz fy [c.bp.cp.dp.ep.fp.gp.hp.ip.jp.'b.zm.kp.8c.lp.mp.np.op.wn.pp.qp.rp.sp.tp.up.vp.Eo.wp.xp.yp.zp.Ap.Bp.Cp.`h Dp.Ep.37 Fp.Gp.37 Tn.Hp.mo Ip.Jp.Kp.Lp.Mp.Np.Op.^m {n.Pp.Qp.Rp.Sp.Tp.Up.Vp.Wp.Xp.Yp.Zp.`p. q..q.+q.@q.#q.$q.%q.&q.*q.Bw =q.-q.Qb.;q.>q.,l.[e.c0.}m.Xi.,q.'q.)q.!q.+5.+5.+5.7>.7>.Dz Dz cn.cd.[c.fy ~q.~q.{q.]q.^q.1p.^q./q./q./q.(q.",
"_q.:q.<q.[q.in.fy :7.}q.|q.1j.1q.2q.3q.4q.*G `A fy cn.5q.6q.7q.8q.9q.0q.aq.bq.cq.Lh.dq.eq.fq.np.gq.hq.iq.jq.kq.lq.mq.nq.oq.pq.qq.rq.sq.tq.uq.vq.wq.xq.yq.Nn.zq.Aq.Bq.Cq.Dq.Eq.Fq.Gq.Hq.Iq.Jq.Kq.Ja Lq.Mq.Nq.Oq.Pq.Qq.-: Rq.Sq.Tq.Uq.Vq.Wq.Xq.Yq.Zq.`q.&p. r..r.+r.@r.#r.$r.%r.&r.*r.=r.-r.;r.Si.>r.,r.'r.)r.}9.!r.~r.{r.]r.sm.Dz 8m.7>.8m.Dz W/.W/.9o.^r.~q./r.(r._r._r.:r.<r.[r.}r.|r.1r.2r.3r."};
