/* XPM */
static char * nielxa_128_xpm[] = {
"128 128 12115 3",
"   	c #0E1416",
".  	c #101216",
"+  	c #0F1215",
"@  	c #0E1215",
"#  	c #0E1214",
"$  	c #0E1213",
"%  	c #0F1314",
"&  	c #0F1315",
"*  	c #0F1316",
"=  	c #101417",
"-  	c #303336",
";  	c #121618",
">  	c #111314",
",  	c #111214",
"'  	c #111215",
")  	c #151619",
"!  	c #191A1D",
"~  	c #121315",
"{  	c #131416",
"]  	c #131718",
"^  	c #1B1E1E",
"/  	c #222324",
"(  	c #262627",
"_  	c #29292A",
":  	c #2A2B2C",
"<  	c #2B2C2E",
"[  	c #3E3F43",
"}  	c #323335",
"|  	c #4C4D4E",
"1  	c #676768",
"2  	c #777878",
"3  	c #7E7F7F",
"4  	c #7B7C7C",
"5  	c #676767",
"6  	c #343535",
"7  	c #121517",
"8  	c #111415",
"9  	c #0F1213",
"0  	c #121415",
"a  	c #171719",
"b  	c #1F1F21",
"c  	c #1C1C1E",
"d  	c #141416",
"e  	c #1E1E20",
"f  	c #101213",
"g  	c #0F1113",
"h  	c #101113",
"i  	c #0F1012",
"j  	c #0E0F11",
"k  	c #0D0E10",
"l  	c #0C0F10",
"m  	c #0A1010",
"n  	c #0B0F10",
"o  	c #111015",
"p  	c #0F1115",
"q  	c #34373A",
"r  	c #121619",
"s  	c #101316",
"t  	c #111416",
"u  	c #212225",
"v  	c #18191C",
"w  	c #131518",
"x  	c #131418",
"y  	c #1B1B1D",
"z  	c #262728",
"A  	c #1C1D1F",
"B  	c #1D1E1F",
"C  	c #1B1D1E",
"D  	c #181B1C",
"E  	c #101415",
"F  	c #111516",
"G  	c #18191B",
"H  	c #1E1E21",
"I  	c #3A393E",
"J  	c #1E1D22",
"K  	c #222125",
"L  	c #2D2C31",
"M  	c #2C2B30",
"N  	c #28272A",
"O  	c #2C2C2E",
"P  	c #323234",
"Q  	c #333335",
"R  	c #363638",
"S  	c #3F3F40",
"T  	c #373739",
"U  	c #414042",
"V  	c #434244",
"W  	c #38373A",
"X  	c #373437",
"Y  	c #2B282C",
"Z  	c #211E21",
"`  	c #0F1216",
" . 	c #14181B",
".. 	c #292C2E",
"+. 	c #15191A",
"@. 	c #141719",
"#. 	c #16191B",
"$. 	c #1B1E1F",
"%. 	c #26282A",
"&. 	c #3A3D3E",
"*. 	c #222627",
"=. 	c #202325",
"-. 	c #232527",
";. 	c #1F2123",
">. 	c #1C1F20",
",. 	c #232526",
"'. 	c #222425",
"). 	c #222526",
"!. 	c #222426",
"~. 	c #1F2023",
"{. 	c #25272A",
"]. 	c #2C2D30",
"^. 	c #2B2C2F",
"/. 	c #151719",
"(. 	c #141818",
"_. 	c #161919",
":. 	c #181A1B",
"<. 	c #242425",
"[. 	c #3B3B3C",
"}. 	c #363536",
"|. 	c #514E50",
"1. 	c #434041",
"2. 	c #454042",
"3. 	c #4C4548",
"4. 	c #5A5254",
"5. 	c #615B5D",
"6. 	c #534F51",
"7. 	c #4D494B",
"8. 	c #4A4748",
"9. 	c #585355",
"0. 	c #615D5F",
"a. 	c #5F5B5C",
"b. 	c #64605F",
"c. 	c #696565",
"d. 	c #5F5B5B",
"e. 	c #5B5757",
"f. 	c #5D5A5A",
"g. 	c #5E5859",
"h. 	c #4D4747",
"i. 	c #444144",
"j. 	c #1A1B1D",
"k. 	c #0D1214",
"l. 	c #0D1313",
"m. 	c #0C0E10",
"n. 	c #191B1E",
"o. 	c #202125",
"p. 	c #3E3E42",
"q. 	c #252529",
"r. 	c #27282A",
"s. 	c #3B3B3F",
"t. 	c #252528",
"u. 	c #242528",
"v. 	c #1D1F21",
"w. 	c #393A3B",
"x. 	c #2C2D2F",
"y. 	c #303133",
"z. 	c #292A2B",
"A. 	c #292A2C",
"B. 	c #2D2E30",
"C. 	c #29292B",
"D. 	c #252527",
"E. 	c #16151A",
"F. 	c #1D1B20",
"G. 	c #1C1B20",
"H. 	c #2B2A2E",
"I. 	c #37373B",
"J. 	c #26262B",
"K. 	c #2A2A2E",
"L. 	c #48464B",
"M. 	c #4F4C51",
"N. 	c #514B51",
"O. 	c #555150",
"P. 	c #5A564F",
"Q. 	c #5E5852",
"R. 	c #6B645E",
"S. 	c #6F6660",
"T. 	c #6D625E",
"U. 	c #6D645E",
"V. 	c #6D655E",
"W. 	c #716A63",
"X. 	c #7B736C",
"Y. 	c #79726B",
"Z. 	c #807973",
"`. 	c #7A726D",
" + 	c #776F6B",
".+ 	c #7A726E",
"++ 	c #79716D",
"@+ 	c #726A66",
"#+ 	c #716966",
"$+ 	c #6A615D",
"%+ 	c #706662",
"&+ 	c #766B69",
"*+ 	c #6B6262",
"=+ 	c #564D4D",
"-+ 	c #3C3537",
";+ 	c #221F20",
">+ 	c #181A1D",
",+ 	c #3C3B3F",
"'+ 	c #323035",
")+ 	c #454348",
"!+ 	c #28272B",
"~+ 	c #3D3B40",
"{+ 	c #434146",
"]+ 	c #48454D",
"^+ 	c #4C4A50",
"/+ 	c #59575E",
"(+ 	c #343239",
"_+ 	c #3C3940",
":+ 	c #59575C",
"<+ 	c #585659",
"[+ 	c #4F4D50",
"}+ 	c #484649",
"|+ 	c #3E3C3F",
"1+ 	c #444245",
"2+ 	c #4B4A4D",
"3+ 	c #525154",
"4+ 	c #464547",
"5+ 	c #3E3C3E",
"6+ 	c #3F3D40",
"7+ 	c #3D3B3E",
"8+ 	c #4C494D",
"9+ 	c #4F4A50",
"0+ 	c #484349",
"a+ 	c #4E494F",
"b+ 	c #4D484E",
"c+ 	c #4D494E",
"d+ 	c #4D484B",
"e+ 	c #615C5E",
"f+ 	c #827B7E",
"g+ 	c #736A6E",
"h+ 	c #80757A",
"i+ 	c #85797E",
"j+ 	c #837977",
"k+ 	c #807970",
"l+ 	c #7A7269",
"m+ 	c #7B7169",
"n+ 	c #756A62",
"o+ 	c #766962",
"p+ 	c #796C63",
"q+ 	c #6F6257",
"r+ 	c #675B50",
"s+ 	c #61554A",
"t+ 	c #65594E",
"u+ 	c #675A4F",
"v+ 	c #675A50",
"w+ 	c #6E6159",
"x+ 	c #72655D",
"y+ 	c #70635B",
"z+ 	c #756860",
"A+ 	c #74675F",
"B+ 	c #75685F",
"C+ 	c #81746C",
"D+ 	c #7E716B",
"E+ 	c #7A6C69",
"F+ 	c #706260",
"G+ 	c #635756",
"H+ 	c #5B504E",
"I+ 	c #58504E",
"J+ 	c #413B3B",
"K+ 	c #1A191A",
"L+ 	c #15181A",
"M+ 	c #252629",
"N+ 	c #515054",
"O+ 	c #4D4B50",
"P+ 	c #545357",
"Q+ 	c #5A585C",
"R+ 	c #555358",
"S+ 	c #676469",
"T+ 	c #4A474C",
"U+ 	c #3E3A3F",
"V+ 	c #3E3B41",
"W+ 	c #5C575F",
"X+ 	c #736F77",
"Y+ 	c #7F7A83",
"Z+ 	c #807B84",
"`+ 	c #7E7982",
" @ 	c #545056",
".@ 	c #433D43",
"+@ 	c #6D676D",
"@@ 	c #686368",
"#@ 	c #524C52",
"$@ 	c #4C454C",
"%@ 	c #686268",
"&@ 	c #5B555B",
"*@ 	c #726C72",
"=@ 	c #817B81",
"-@ 	c #78717A",
";@ 	c #7E7580",
">@ 	c #8E868F",
",@ 	c #9C959C",
"'@ 	c #968F94",
")@ 	c #8C8487",
"!@ 	c #877F7E",
"~@ 	c #837B77",
"{@ 	c #847B78",
"]@ 	c #89807D",
"^@ 	c #958A87",
"/@ 	c #908481",
"(@ 	c #887D7A",
"_@ 	c #796F6C",
":@ 	c #7C706E",
"<@ 	c #786B69",
"[@ 	c #7C6D6B",
"}@ 	c #746463",
"|@ 	c #6D5D58",
"1@ 	c #66554E",
"2@ 	c #67564F",
"3@ 	c #695851",
"4@ 	c #614F48",
"5@ 	c #63524B",
"6@ 	c #615148",
"7@ 	c #65544B",
"8@ 	c #67574D",
"9@ 	c #6A5A51",
"0@ 	c #69584F",
"a@ 	c #6B5B51",
"b@ 	c #6E5F55",
"c@ 	c #6A5C51",
"d@ 	c #6A5C52",
"e@ 	c #6B5D54",
"f@ 	c #6D5E57",
"g@ 	c #72635D",
"h@ 	c #746560",
"i@ 	c #766762",
"j@ 	c #756662",
"k@ 	c #6B5D59",
"l@ 	c #534743",
"m@ 	c #342C2A",
"n@ 	c #151416",
"o@ 	c #0F1112",
"p@ 	c #232429",
"q@ 	c #34343B",
"r@ 	c #53535C",
"s@ 	c #75747A",
"t@ 	c #706F74",
"u@ 	c #68676B",
"v@ 	c #5B5A60",
"w@ 	c #515057",
"x@ 	c #67666D",
"y@ 	c #817F87",
"z@ 	c #636269",
"A@ 	c #6E6C72",
"B@ 	c #848285",
"C@ 	c #99979B",
"D@ 	c #69676B",
"E@ 	c #6A686C",
"F@ 	c #838186",
"G@ 	c #A49FA5",
"H@ 	c #9E959D",
"I@ 	c #8F858F",
"J@ 	c #958B94",
"K@ 	c #968C95",
"L@ 	c #918891",
"M@ 	c #918890",
"N@ 	c #898086",
"O@ 	c #857C81",
"P@ 	c #8C8388",
"Q@ 	c #8B8287",
"R@ 	c #82787E",
"S@ 	c #7C717A",
"T@ 	c #6D616D",
"U@ 	c #7C7179",
"V@ 	c #82787A",
"W@ 	c #8F8583",
"X@ 	c #867D77",
"Y@ 	c #8F8882",
"Z@ 	c #8F8984",
"`@ 	c #928C87",
" # 	c #8F8985",
".# 	c #847E79",
"+# 	c #7F7974",
"@# 	c #887F7B",
"## 	c #807572",
"$# 	c #7B706E",
"%# 	c #7D726F",
"&# 	c #716663",
"*# 	c #6E615C",
"=# 	c #72635F",
"-# 	c #6E605B",
";# 	c #6E5F5A",
"># 	c #71625D",
",# 	c #786964",
"'# 	c #756862",
")# 	c #776C67",
"!# 	c #7A6F69",
"~# 	c #726862",
"{# 	c #746963",
"]# 	c #6A5F59",
"^# 	c #6A5C56",
"/# 	c #6E5F58",
"(# 	c #70615A",
"_# 	c #6F5F58",
":# 	c #705F59",
"<# 	c #6F5E57",
"[# 	c #6C5C55",
"}# 	c #72615A",
"|# 	c #77665F",
"1# 	c #7C6A64",
"2# 	c #6F5F5A",
"3# 	c #514543",
"4# 	c #292424",
"5# 	c #13171A",
"6# 	c #202126",
"7# 	c #26262C",
"8# 	c #53525A",
"9# 	c #63616C",
"0# 	c #686670",
"a# 	c #8F8E95",
"b# 	c #656469",
"c# 	c #4F4E52",
"d# 	c #56555B",
"e# 	c #4E4B53",
"f# 	c #7F7B85",
"g# 	c #8B8790",
"h# 	c #7C7781",
"i# 	c #716C76",
"j# 	c #7F7B80",
"k# 	c #9F9A99",
"l# 	c #8C8887",
"m# 	c #938E8D",
"n# 	c #95908F",
"o# 	c #999493",
"p# 	c #9E9797",
"q# 	c #817979",
"r# 	c #877F7F",
"s# 	c #857C7D",
"t# 	c #908888",
"u# 	c #766D6E",
"v# 	c #6A6260",
"w# 	c #706962",
"x# 	c #756E66",
"y# 	c #777068",
"z# 	c #69625B",
"A# 	c #655E56",
"B# 	c #746D63",
"C# 	c #7A7266",
"D# 	c #7C746A",
"E# 	c #7C746C",
"F# 	c #867D76",
"G# 	c #827973",
"H# 	c #948B85",
"I# 	c #928982",
"J# 	c #928A83",
"K# 	c #8B837B",
"L# 	c #887F78",
"M# 	c #837973",
"N# 	c #7D726C",
"O# 	c #796E68",
"P# 	c #6F645E",
"Q# 	c #6E635D",
"R# 	c #776D66",
"S# 	c #7D6E69",
"T# 	c #756661",
"U# 	c #73645F",
"V# 	c #665752",
"W# 	c #62534E",
"X# 	c #5F514C",
"Y# 	c #5C4E49",
"Z# 	c #675954",
"`# 	c #70625D",
" $ 	c #5F514B",
".$ 	c #594A44",
"+$ 	c #55463F",
"@$ 	c #5A4B44",
"#$ 	c #54453E",
"$$ 	c #554640",
"%$ 	c #5D4E47",
"&$ 	c #6E5E57",
"*$ 	c #6E5D56",
"=$ 	c #76655E",
"-$ 	c #73635C",
";$ 	c #806F68",
">$ 	c #7C6B64",
",$ 	c #796964",
"'$ 	c #6E605E",
")$ 	c #3D3333",
"!$ 	c #15191B",
"~$ 	c #38383B",
"{$ 	c #67666A",
"]$ 	c #3E3D43",
"^$ 	c #24232B",
"/$ 	c #494851",
"($ 	c #57555F",
"_$ 	c #494751",
":$ 	c #717077",
"<$ 	c #59585E",
"[$ 	c #4D4C51",
"}$ 	c #6C696C",
"|$ 	c #878284",
"1$ 	c #908A8C",
"2$ 	c #8F8A8B",
"3$ 	c #898486",
"4$ 	c #857F7F",
"5$ 	c #928B85",
"6$ 	c #8B847F",
"7$ 	c #857D78",
"8$ 	c #87807B",
"9$ 	c #867F78",
"0$ 	c #7B746C",
"a$ 	c #736C64",
"b$ 	c #787168",
"c$ 	c #7D766E",
"d$ 	c #7A736A",
"e$ 	c #827B73",
"f$ 	c #847D75",
"g$ 	c #847E76",
"h$ 	c #857D75",
"i$ 	c #867D75",
"j$ 	c #887F77",
"k$ 	c #8D857B",
"l$ 	c #7A7168",
"m$ 	c #7E766B",
"n$ 	c #887E74",
"o$ 	c #8A7E75",
"p$ 	c #7D7168",
"q$ 	c #7B6F66",
"r$ 	c #81756C",
"s$ 	c #897E75",
"t$ 	c #796E64",
"u$ 	c #70665C",
"v$ 	c #695E55",
"w$ 	c #62584F",
"x$ 	c #6D635A",
"y$ 	c #6F645B",
"z$ 	c #6B5E57",
"A$ 	c #70615C",
"B$ 	c #6A5B56",
"C$ 	c #655652",
"D$ 	c #6C5D59",
"E$ 	c #604F4B",
"F$ 	c #5D4B47",
"G$ 	c #71605C",
"H$ 	c #665450",
"I$ 	c #5A4A44",
"J$ 	c #584942",
"K$ 	c #564740",
"L$ 	c #554740",
"M$ 	c #574942",
"N$ 	c #5E4E47",
"O$ 	c #584841",
"P$ 	c #604F48",
"Q$ 	c #6B5A53",
"R$ 	c #786760",
"S$ 	c #7F7066",
"T$ 	c #7E7064",
"U$ 	c #84736A",
"V$ 	c #7C6963",
"W$ 	c #89726F",
"X$ 	c #886F6E",
"Y$ 	c #6F5E5E",
"Z$ 	c #4B4243",
"`$ 	c #171819",
" % 	c #14171A",
".% 	c #2F3132",
"+% 	c #5A5D5E",
"@% 	c #565759",
"#% 	c #6F6F73",
"$% 	c #605E66",
"%% 	c #54525C",
"&% 	c #5E5B65",
"*% 	c #6E6D72",
"=% 	c #78767A",
"-% 	c #646064",
";% 	c #7E797B",
">% 	c #878182",
",% 	c #888080",
"'% 	c #8F8685",
")% 	c #948A89",
"!% 	c #908786",
"~% 	c #8E8584",
"{% 	c #918986",
"]% 	c #85807B",
"^% 	c #908B86",
"/% 	c #827D79",
"(% 	c #7D7773",
"_% 	c #7E7874",
":% 	c #7D756F",
"<% 	c #83766E",
"[% 	c #847870",
"}% 	c #837970",
"|% 	c #8A8177",
"1% 	c #867E74",
"2% 	c #918D82",
"3% 	c #88877C",
"4% 	c #9A978D",
"5% 	c #949086",
"6% 	c #948E84",
"7% 	c #9E968D",
"8% 	c #948C84",
"9% 	c #8C857B",
"0% 	c #877F76",
"a% 	c #8E877D",
"b% 	c #8D867C",
"c% 	c #887F75",
"d% 	c #776B60",
"e% 	c #7B6F63",
"f% 	c #786C61",
"g% 	c #71655A",
"h% 	c #7F7368",
"i% 	c #776960",
"j% 	c #74655D",
"k% 	c #71625A",
"l% 	c #72625B",
"m% 	c #71615A",
"n% 	c #70615B",
"o% 	c #63554E",
"p% 	c #675851",
"q% 	c #65564F",
"r% 	c #594842",
"s% 	c #5F4C46",
"t% 	c #5A4741",
"u% 	c #5D4944",
"v% 	c #63504B",
"w% 	c #5E4A45",
"x% 	c #5B4943",
"y% 	c #594841",
"z% 	c #574740",
"A% 	c #584740",
"B% 	c #57463F",
"C% 	c #54433C",
"D% 	c #51413B",
"E% 	c #594A45",
"F% 	c #5B4C47",
"G% 	c #544540",
"H% 	c #695A55",
"I% 	c #776662",
"J% 	c #84736F",
"K% 	c #8A7875",
"L% 	c #877572",
"M% 	c #83706D",
"N% 	c #857270",
"O% 	c #938384",
"P% 	c #8F8184",
"Q% 	c #76686C",
"R% 	c #494044",
"S% 	c #1F1D1F",
"T% 	c #121518",
"U% 	c #413F42",
"V% 	c #5A585B",
"W% 	c #5E5F61",
"X% 	c #626264",
"Y% 	c #8F8D92",
"Z% 	c #8F8C91",
"`% 	c #8D888E",
" & 	c #807B81",
".& 	c #A09C9F",
"+& 	c #918C8E",
"@& 	c #958E8F",
"#& 	c #9B9292",
"$& 	c #99908E",
"%& 	c #978D8B",
"&& 	c #9F9593",
"*& 	c #9B918F",
"=& 	c #9D9391",
"-& 	c #A09694",
";& 	c #948A88",
">& 	c #988F8B",
",& 	c #837B75",
"'& 	c #8D857F",
")& 	c #928A84",
"!& 	c #938B85",
"~& 	c #99918B",
"{& 	c #938882",
"]& 	c #8E8079",
"^& 	c #857870",
"/& 	c #8D8179",
"(& 	c #998F86",
"_& 	c #928A81",
":& 	c #8D877C",
"<& 	c #989387",
"[& 	c #A59F93",
"}& 	c #9D958B",
"|& 	c #9D9389",
"1& 	c #958980",
"2& 	c #897E74",
"3& 	c #857A70",
"4& 	c #877C72",
"5& 	c #998E84",
"6& 	c #7E736A",
"7& 	c #80746A",
"8& 	c #7F7166",
"9& 	c #83756A",
"0& 	c #827469",
"a& 	c #8A7C71",
"b& 	c #8C7E73",
"c& 	c #77685F",
"d& 	c #74635C",
"e& 	c #74645C",
"f& 	c #76655D",
"g& 	c #73625A",
"h& 	c #77665E",
"i& 	c #6F5F57",
"j& 	c #655650",
"k& 	c #63544D",
"l& 	c #60514A",
"m& 	c #61524B",
"n& 	c #605049",
"o& 	c #615049",
"p& 	c #5D4C46",
"q& 	c #604E48",
"r& 	c #5F4E47",
"s& 	c #5E4D47",
"t& 	c #5D4D46",
"u& 	c #55453E",
"v& 	c #5B4C46",
"w& 	c #554641",
"x& 	c #51433E",
"y& 	c #52433E",
"z& 	c #4A3B36",
"A& 	c #503F3D",
"B& 	c #5F4D4B",
"C& 	c #715F5E",
"D& 	c #847371",
"E& 	c #8B7977",
"F& 	c #806E6C",
"G& 	c #847473",
"H& 	c #918182",
"I& 	c #968688",
"J& 	c #8C7B80",
"K& 	c #78676E",
"L& 	c #53494D",
"M& 	c #171618",
"N& 	c #2F3032",
"O& 	c #565457",
"P& 	c #484548",
"Q& 	c #5F5A5E",
"R& 	c #777377",
"S& 	c #838185",
"T& 	c #7D7B7E",
"U& 	c #979295",
"V& 	c #9F999A",
"W& 	c #999292",
"X& 	c #978F90",
"Y& 	c #9B9596",
"Z& 	c #9F9797",
"`& 	c #9C9392",
" * 	c #988E8B",
".* 	c #958986",
"+* 	c #8E837E",
"@* 	c #A09790",
"#* 	c #A19892",
"$* 	c #9F968F",
"%* 	c #9B928C",
"&* 	c #968C85",
"** 	c #998F87",
"=* 	c #9F948C",
"-* 	c #9B9188",
";* 	c #948981",
">* 	c #968C83",
",* 	c #9C9088",
"'* 	c #8F8079",
")* 	c #9B8E86",
"!* 	c #9A8F86",
"~* 	c #9B9289",
"{* 	c #989086",
"]* 	c #A79E93",
"^* 	c #9C9183",
"/* 	c #9E9285",
"(* 	c #998A7E",
"_* 	c #928276",
":* 	c #8E7C71",
"<* 	c #99887D",
"[* 	c #98877B",
"}* 	c #8E7D72",
"|* 	c #8F7E72",
"1* 	c #89786C",
"2* 	c #8D7C71",
"3* 	c #8C7B70",
"4* 	c #938278",
"5* 	c #827167",
"6* 	c #8D7B71",
"7* 	c #837268",
"8* 	c #78675D",
"9* 	c #8B7B70",
"0* 	c #8E7E72",
"a* 	c #7E6E63",
"b* 	c #77675B",
"c* 	c #7E6E62",
"d* 	c #746458",
"e* 	c #6B5C53",
"f* 	c #766761",
"g* 	c #6F6059",
"h* 	c #685952",
"i* 	c #695A53",
"j* 	c #6B5D56",
"k* 	c #6F615A",
"l* 	c #685A53",
"m* 	c #665851",
"n* 	c #64564F",
"o* 	c #5B4F47",
"p* 	c #5A4F46",
"q* 	c #5D524A",
"r* 	c #5A4F47",
"s* 	c #5D534B",
"t* 	c #594F46",
"u* 	c #5A4D46",
"v* 	c #584A45",
"w* 	c #574843",
"x* 	c #564742",
"y* 	c #594845",
"z* 	c #5A4846",
"A* 	c #5C4A48",
"B* 	c #746361",
"C* 	c #8A7977",
"D* 	c #877474",
"E* 	c #8F7C7C",
"F* 	c #998688",
"G* 	c #937F83",
"H* 	c #907D82",
"I* 	c #796D70",
"J* 	c #3F393E",
"K* 	c #222224",
"L* 	c #535153",
"M* 	c #555154",
"N* 	c #332D30",
"O* 	c #534B4F",
"P* 	c #857E81",
"Q* 	c #B4AFB2",
"R* 	c #A29C9E",
"S* 	c #8C8586",
"T* 	c #A59D9D",
"U* 	c #A79E9D",
"V* 	c #A29998",
"W* 	c #ABA3A3",
"X* 	c #A59D9B",
"Y* 	c #938B88",
"Z* 	c #A29A96",
"`* 	c #9C938D",
" = 	c #A89F97",
".= 	c #999087",
"+= 	c #A39A92",
"@= 	c #999189",
"#= 	c #8C837B",
"$= 	c #8D8278",
"%= 	c #9D9287",
"&= 	c #A79A90",
"*= 	c #B4A79C",
"== 	c #94867A",
"-= 	c #9C8D80",
";= 	c #A09084",
">= 	c #9C8B7F",
",= 	c #A39388",
"'= 	c #B4A49A",
")= 	c #AFA196",
"!= 	c #AA9D93",
"~= 	c #B6A89D",
"{= 	c #A19084",
"]= 	c #A79488",
"^= 	c #B09C8F",
"/= 	c #A89285",
"(= 	c #AD9589",
"_= 	c #A1897C",
":= 	c #957D70",
"<= 	c #9D8679",
"[= 	c #988275",
"}= 	c #927C70",
"|= 	c #958074",
"1= 	c #937F73",
"2= 	c #8D786C",
"3= 	c #8C776B",
"4= 	c #8E7A6F",
"5= 	c #8A776C",
"6= 	c #847167",
"7= 	c #7D6B5F",
"8= 	c #6F5D4F",
"9= 	c #7C6A5D",
"0= 	c #7C695C",
"a= 	c #756356",
"b= 	c #766457",
"c= 	c #736057",
"d= 	c #6E5851",
"e= 	c #77645D",
"f= 	c #6F5D55",
"g= 	c #84766D",
"h= 	c #85786F",
"i= 	c #7C6F67",
"j= 	c #71645C",
"k= 	c #5F524A",
"l= 	c #675A51",
"m= 	c #50433B",
"n= 	c #493C33",
"o= 	c #4A3D34",
"p= 	c #52463D",
"q= 	c #594D44",
"r= 	c #564A42",
"s= 	c #51443D",
"t= 	c #534640",
"u= 	c #50423D",
"v= 	c #4C3E39",
"w= 	c #51423D",
"x= 	c #574944",
"y= 	c #584944",
"z= 	c #53443F",
"A= 	c #554542",
"B= 	c #574745",
"C= 	c #5B4A48",
"D= 	c #594946",
"E= 	c #685855",
"F= 	c #776664",
"G= 	c #837171",
"H= 	c #786666",
"I= 	c #897677",
"J= 	c #8C7879",
"K= 	c #947F80",
"L= 	c #998585",
"M= 	c #968588",
"N= 	c #96878D",
"O= 	c #655A61",
"P= 	c #302C30",
"Q= 	c #36363A",
"R= 	c #454347",
"S= 	c #504E4F",
"T= 	c #757374",
"U= 	c #5A5657",
"V= 	c #686063",
"W= 	c #7C7376",
"X= 	c #938A8C",
"Y= 	c #AFA6A7",
"Z= 	c #9F9697",
"`= 	c #A9A1A2",
" - 	c #ABA2A3",
".- 	c #B9B0B1",
"+- 	c #A09797",
"@- 	c #A69E9C",
"#- 	c #A7A09D",
"$- 	c #A39C97",
"%- 	c #A09992",
"&- 	c #A7A198",
"*- 	c #A39A91",
"=- 	c #9A8E84",
"-- 	c #A49992",
";- 	c #9E948D",
">- 	c #A1948B",
",- 	c #908072",
"'- 	c #948376",
")- 	c #A19186",
"!- 	c #97877B",
"~- 	c #BCAA9C",
"{- 	c #AC998B",
"]- 	c #B39F8F",
"^- 	c #B7A190",
"/- 	c #B8A290",
"(- 	c #BFA998",
"_- 	c #C3AC9E",
":- 	c #C3AC9F",
"<- 	c #B8A195",
"[- 	c #C4ADA2",
"}- 	c #B8A296",
"|- 	c #AF988B",
"1- 	c #BBA294",
"2- 	c #BDA394",
"3- 	c #AF9384",
"4- 	c #A98C7A",
"5- 	c #A88A78",
"6- 	c #A78A79",
"7- 	c #B19585",
"8- 	c #B3998B",
"9- 	c #A78F81",
"0- 	c #988071",
"a- 	c #A58C7B",
"b- 	c #A48C7C",
"c- 	c #957F70",
"d- 	c #867164",
"e- 	c #978376",
"f- 	c #8A7567",
"g- 	c #856E60",
"h- 	c #8C7668",
"i- 	c #836D5F",
"j- 	c #7D6759",
"k- 	c #6E584A",
"l- 	c #654D43",
"m- 	c #6B544E",
"n- 	c #7C6861",
"o- 	c #7C6B62",
"p- 	c #72645B",
"q- 	c #73685D",
"r- 	c #75685E",
"s- 	c #706057",
"t- 	c #625349",
"u- 	c #5A4A41",
"v- 	c #5A4B42",
"w- 	c #5F4E45",
"x- 	c #5C4B41",
"y- 	c #5A4A42",
"z- 	c #5B4B44",
"A- 	c #52403C",
"B- 	c #4D3C38",
"C- 	c #493935",
"D- 	c #453632",
"E- 	c #443530",
"F- 	c #443631",
"G- 	c #463732",
"H- 	c #41322D",
"I- 	c #473935",
"J- 	c #51423F",
"K- 	c #524340",
"L- 	c #534441",
"M- 	c #544643",
"N- 	c #5B4D4A",
"O- 	c #6C5E5F",
"P- 	c #78696C",
"Q- 	c #776869",
"R- 	c #7B6A6A",
"S- 	c #877473",
"T- 	c #95817F",
"U- 	c #968182",
"V- 	c #9A8789",
"W- 	c #9C8B90",
"X- 	c #8E8188",
"Y- 	c #574F56",
"Z- 	c #161518",
"`- 	c #212326",
" ; 	c #212125",
".; 	c #302F34",
"+; 	c #3A383C",
"@; 	c #666465",
"#; 	c #777576",
"$; 	c #706C6D",
"%; 	c #8F878A",
"&; 	c #90878A",
"*; 	c #8F8688",
"=; 	c #ACA4A5",
"-; 	c #B2A9AA",
";; 	c #B5ACAD",
">; 	c #B3AAAB",
",; 	c #AFA6A5",
"'; 	c #B7AEAA",
"); 	c #B1A6A1",
"!; 	c #9C9089",
"~; 	c #9F918A",
"{; 	c #A09088",
"]; 	c #A08D83",
"^; 	c #A59388",
"/; 	c #A4948C",
"(; 	c #B0A199",
"_; 	c #A8968B",
":; 	c #AD9586",
"<; 	c #B59C8B",
"[; 	c #BDA595",
"}; 	c #C4AB9C",
"|; 	c #C2AA9A",
"1; 	c #C4AD9F",
"2; 	c #C7B1A3",
"3; 	c #C6AD9D",
"4; 	c #CAAD9A",
"5; 	c #C5A896",
"6; 	c #C9AC9D",
"7; 	c #CAAD9F",
"8; 	c #CEB1A4",
"9; 	c #CAAFA3",
"0; 	c #C3AA9D",
"a; 	c #C6AB9D",
"b; 	c #C7AB9B",
"c; 	c #C8AB99",
"d; 	c #B79885",
"e; 	c #B69581",
"f; 	c #B18F7B",
"g; 	c #B79884",
"h; 	c #BEA08E",
"i; 	c #B79B8A",
"j; 	c #B19686",
"k; 	c #AB8D7D",
"l; 	c #A48573",
"m; 	c #AB8D7C",
"n; 	c #B29586",
"o; 	c #A4897A",
"p; 	c #AC9284",
"q; 	c #A38A7B",
"r; 	c #977E6D",
"s; 	c #977D6C",
"t; 	c #8B7260",
"u; 	c #846B59",
"v; 	c #7B6251",
"w; 	c #826B60",
"x; 	c #8A766E",
"y; 	c #8B7870",
"z; 	c #7D6C63",
"A; 	c #726159",
"B; 	c #73655C",
"C; 	c #705F56",
"D; 	c #675549",
"E; 	c #68564A",
"F; 	c #69574C",
"G; 	c #6A584D",
"H; 	c #6D5B50",
"I; 	c #68574D",
"J; 	c #6B5A50",
"K; 	c #67574F",
"L; 	c #5C4A46",
"M; 	c #5C4A47",
"N; 	c #584945",
"O; 	c #483935",
"P; 	c #453631",
"Q; 	c #3C2D29",
"R; 	c #433432",
"S; 	c #463734",
"T; 	c #4F403D",
"U; 	c #524341",
"V; 	c #584A48",
"W; 	c #685A59",
"X; 	c #716261",
"Y; 	c #796768",
"Z; 	c #816D6F",
"`; 	c #8D787A",
" > 	c #917A7C",
".> 	c #957F80",
"+> 	c #988588",
"@> 	c #9F8F95",
"#> 	c #988B94",
"$> 	c #5C535B",
"%> 	c #2D292E",
"&> 	c #111113",
"*> 	c #2A2E30",
"=> 	c #44474A",
"-> 	c #2D2C30",
";> 	c #39383C",
">> 	c #4B484C",
",> 	c #787577",
"'> 	c #9B989A",
")> 	c #8E898B",
"!> 	c #968E90",
"~> 	c #948A8D",
"{> 	c #978E8F",
"]> 	c #ADA4A5",
"^> 	c #B6ADAE",
"/> 	c #A59C9D",
"(> 	c #A19896",
"_> 	c #B3A9A3",
":> 	c #9A8D86",
"<> 	c #A3918A",
"[> 	c #98837B",
"}> 	c #9F857D",
"|> 	c #A1867C",
"1> 	c #A0887D",
"2> 	c #B29C93",
"3> 	c #BEAAA0",
"4> 	c #BCA598",
"5> 	c #BFA394",
"6> 	c #BE9F8B",
"7> 	c #C5A490",
"8> 	c #C8A997",
"9> 	c #D1B4A3",
"0> 	c #CFB3A5",
"a> 	c #D3B9AC",
"b> 	c #D9BDAD",
"c> 	c #DBBAA5",
"d> 	c #D3B19E",
"e> 	c #D1AF9E",
"f> 	c #D2AFA0",
"g> 	c #CEAC9E",
"h> 	c #CCADA0",
"i> 	c #D0B5A6",
"j> 	c #D2B5A5",
"k> 	c #CEB19F",
"l> 	c #CDAD9A",
"m> 	c #CDAC98",
"n> 	c #CAA792",
"o> 	c #CCA993",
"p> 	c #C7A590",
"q> 	c #C6A692",
"r> 	c #C0A18E",
"s> 	c #C2A391",
"t> 	c #C09F8C",
"u> 	c #B79380",
"v> 	c #BF9B89",
"w> 	c #BE9C8A",
"x> 	c #AF8F80",
"y> 	c #B79889",
"z> 	c #B69A89",
"A> 	c #A78B78",
"B> 	c #A38774",
"C> 	c #9B7F6D",
"D> 	c #9C816E",
"E> 	c #A78D7D",
"F> 	c #9C8475",
"G> 	c #82695A",
"H> 	c #7D6355",
"I> 	c #775D4F",
"J> 	c #73584B",
"K> 	c #7B6356",
"L> 	c #705A4D",
"M> 	c #624D3F",
"N> 	c #5E493B",
"O> 	c #685245",
"P> 	c #634E41",
"Q> 	c #5B493D",
"R> 	c #57463C",
"S> 	c #55453D",
"T> 	c #4E3E37",
"U> 	c #4F3D39",
"V> 	c #4B3936",
"W> 	c #443430",
"X> 	c #41332E",
"Y> 	c #4A3C37",
"Z> 	c #5D4F4A",
"`> 	c #6A5C57",
" , 	c #5D4E4A",
"., 	c #493B37",
"+, 	c #3C2E2B",
"@, 	c #372926",
"#, 	c #3E2F2D",
"$, 	c #40312E",
"%, 	c #483937",
"&, 	c #534541",
"*, 	c #5E514C",
"=, 	c #625452",
"-, 	c #6C5A5C",
";, 	c #796469",
">, 	c #79636A",
",, 	c #7F6768",
"', 	c #816A68",
"), 	c #947F7F",
"!, 	c #9D8B8E",
"~, 	c #9C8E93",
"{, 	c #978B93",
"], 	c #877F86",
"^, 	c #3D3A3F",
"/, 	c #151517",
"(, 	c #111518",
"_, 	c #131819",
":, 	c #49484A",
"<, 	c #555054",
"[, 	c #5C5559",
"}, 	c #6B6268",
"|, 	c #989198",
"1, 	c #888186",
"2, 	c #897F81",
"3, 	c #9A908E",
"4, 	c #A49895",
"5, 	c #9A8E87",
"6, 	c #A89C94",
"7, 	c #A49795",
"8, 	c #B0A3A5",
"9, 	c #AD9FA2",
"0, 	c #A19493",
"a, 	c #AB9D9A",
"b, 	c #B29F9B",
"c, 	c #A18C87",
"d, 	c #AC938B",
"e, 	c #AD9086",
"f, 	c #B4968A",
"g, 	c #B5968C",
"h, 	c #B59991",
"i, 	c #C4A99F",
"j, 	c #C7ACA0",
"k, 	c #C6AB9C",
"l, 	c #C6AC9A",
"m, 	c #CEB19D",
"n, 	c #CBAB95",
"o, 	c #CDAD98",
"p, 	c #D5B5A1",
"q, 	c #D9B9A7",
"r, 	c #DDBCAC",
"s, 	c #DCBCAB",
"t, 	c #DCBCA8",
"u, 	c #DDBCA8",
"v, 	c #DCBBA7",
"w, 	c #DDBDA9",
"x, 	c #D6B6A2",
"y, 	c #D3B6A2",
"z, 	c #D5BDA9",
"A, 	c #D1B7A4",
"B, 	c #CEB2A0",
"C, 	c #D5B8A5",
"D, 	c #CCAD9B",
"E, 	c #D2B3A0",
"F, 	c #CDAC99",
"G, 	c #CFAE9A",
"H, 	c #CBA893",
"I, 	c #CBA790",
"J, 	c #C19D85",
"K, 	c #C6A38C",
"L, 	c #C1A18C",
"M, 	c #C6A691",
"N, 	c #BF9F8A",
"O, 	c #BE9E8A",
"P, 	c #B79782",
"Q, 	c #C0A18D",
"R, 	c #B69A85",
"S, 	c #B29681",
"T, 	c #B59984",
"U, 	c #B39782",
"V, 	c #AE927D",
"W, 	c #A88C77",
"X, 	c #A38773",
"Y, 	c #947866",
"Z, 	c #836656",
"`, 	c #846759",
" ' 	c #95776C",
".' 	c #816558",
"+' 	c #684E3F",
"@' 	c #695041",
"#' 	c #654D40",
"$' 	c #665144",
"%' 	c #5C483D",
"&' 	c #4F3B30",
"*' 	c #48362B",
"=' 	c #46352A",
"-' 	c #42332A",
";' 	c #44362E",
">' 	c #4B3E36",
",' 	c #4F413B",
"'' 	c #50413C",
")' 	c #4D3E3A",
"!' 	c #4B3D38",
"~' 	c #50413D",
"{' 	c #50433D",
"]' 	c #4D423C",
"^' 	c #4F443F",
"/' 	c #493E3C",
"(' 	c #3B302F",
"_' 	c #483C3C",
":' 	c #453B37",
"<' 	c #443A35",
"[' 	c #4A3E3B",
"}' 	c #564747",
"|' 	c #6F5C60",
"1' 	c #736067",
"2' 	c #6D5959",
"3' 	c #6F5B55",
"4' 	c #746158",
"5' 	c #7E6B64",
"6' 	c #8B7978",
"7' 	c #968489",
"8' 	c #9D8E97",
"9' 	c #988C94",
"0' 	c #655C63",
"a' 	c #221F23",
"b' 	c #111417",
"c' 	c #131617",
"d' 	c #3B3C3E",
"e' 	c #3C3B3D",
"f' 	c #575255",
"g' 	c #675F63",
"h' 	c #72686F",
"i' 	c #979097",
"j' 	c #988F94",
"k' 	c #857B7D",
"l' 	c #928786",
"m' 	c #8B7D7A",
"n' 	c #83756D",
"o' 	c #8A7970",
"p' 	c #988783",
"q' 	c #AA9798",
"r' 	c #B29FA0",
"s' 	c #A99796",
"t' 	c #AA9793",
"u' 	c #C7B2AD",
"v' 	c #BFA7A1",
"w' 	c #B0958B",
"x' 	c #BD9F93",
"y' 	c #C2A092",
"z' 	c #C0A08F",
"A' 	c #BEA18D",
"B' 	c #C8AC97",
"C' 	c #CDB19C",
"D' 	c #D1B59F",
"E' 	c #CEB19C",
"F' 	c #D4B6A1",
"G' 	c #D0B29D",
"H' 	c #D8B9A7",
"I' 	c #D7B8A8",
"J' 	c #DCBDAE",
"K' 	c #DABBAC",
"L' 	c #E0C2B0",
"M' 	c #E0C1AF",
"N' 	c #DEC0AE",
"O' 	c #DFC1AF",
"P' 	c #DABCAA",
"Q' 	c #D8BAA6",
"R' 	c #DCBEA8",
"S' 	c #D9BBA6",
"T' 	c #D6B5A0",
"U' 	c #D5B29E",
"V' 	c #DAB6A2",
"W' 	c #CFAE9C",
"X' 	c #D1B3A2",
"Y' 	c #D0B19F",
"Z' 	c #D7B6A3",
"`' 	c #CEAC97",
" ) 	c #C5A28C",
".) 	c #C6A48E",
"+) 	c #CCAC97",
"@) 	c #C5A590",
"#) 	c #C9A994",
"$) 	c #C0A08C",
"%) 	c #C3A490",
"&) 	c #BFA08C",
"*) 	c #BB9C89",
"=) 	c #AF917D",
"-) 	c #B4947E",
";) 	c #B3927B",
">) 	c #A88771",
",) 	c #9C7A66",
"') 	c #9A7967",
")) 	c #947262",
"!) 	c #896857",
"~) 	c #7F5F4F",
"{) 	c #7C5D4E",
"]) 	c #75584A",
"^) 	c #694E41",
"/) 	c #62493D",
"() 	c #5B4439",
"_) 	c #4C3A2F",
":) 	c #56453B",
"<) 	c #52433A",
"[) 	c #554841",
"}) 	c #544640",
"|) 	c #4E3F3B",
"1) 	c #483A35",
"2) 	c #463833",
"3) 	c #4D4139",
"4) 	c #4B403A",
"5) 	c #413631",
"6) 	c #3F3432",
"7) 	c #483E3C",
"8) 	c #493D3D",
"9) 	c #564B4A",
"0) 	c #453A39",
"a) 	c #4C403F",
"b) 	c #4A3B3B",
"c) 	c #594749",
"d) 	c #675456",
"e) 	c #6D5B61",
"f) 	c #756267",
"g) 	c #6E5B5B",
"h) 	c #6C5955",
"i) 	c #74615A",
"j) 	c #7E6A63",
"k) 	c #8C7877",
"l) 	c #9E8D8F",
"m) 	c #97888C",
"n) 	c #84797E",
"o) 	c #4F494D",
"p) 	c #131618",
"q) 	c #161719",
"r) 	c #151819",
"s) 	c #1A1E1F",
"t) 	c #424345",
"u) 	c #535255",
"v) 	c #716B6F",
"w) 	c #655D61",
"x) 	c #685E64",
"y) 	c #8A838B",
"z) 	c #8E858A",
"A) 	c #988E90",
"B) 	c #978A87",
"C) 	c #97877F",
"D) 	c #917A6F",
"E) 	c #A48D88",
"F) 	c #B89FA0",
"G) 	c #CCB3B3",
"H) 	c #C0A7A5",
"I) 	c #BDA5A0",
"J) 	c #C3ABA4",
"K) 	c #D0B5AC",
"L) 	c #CBADA2",
"M) 	c #C9A899",
"N) 	c #D5B1A0",
"O) 	c #D3B19C",
"P) 	c #CFB098",
"Q) 	c #D2B39D",
"R) 	c #DABBA7",
"S) 	c #DFBFAD",
"T) 	c #DBBAAA",
"U) 	c #D8BAA9",
"V) 	c #E1C6B2",
"W) 	c #DFC4B2",
"X) 	c #DCC1B1",
"Y) 	c #DBBFB1",
"Z) 	c #DFC3B7",
"`) 	c #D8BCAF",
" ! 	c #DBBFB0",
".! 	c #DDC1B2",
"+! 	c #E2C6B7",
"@! 	c #DDC2B2",
"#! 	c #E1C5B6",
"$! 	c #DEC3B2",
"%! 	c #E0C4B4",
"&! 	c #E2C3B4",
"*! 	c #E0BFB1",
"=! 	c #E1C0B1",
"-! 	c #DFC0B2",
";! 	c #D9BEAF",
">! 	c #D4B8A8",
",! 	c #D2B4A3",
"'! 	c #D5B5A2",
")! 	c #D5B4A0",
"!! 	c #CEAE99",
"~! 	c #D1B19C",
"{! 	c #C9A995",
"]! 	c #C6A591",
"^! 	c #CCA996",
"/! 	c #C9A693",
"(! 	c #C7A491",
"_! 	c #C6A491",
":! 	c #C29F8C",
"<! 	c #C19C85",
"[! 	c #B79175",
"}! 	c #BA947A",
"|! 	c #B48E76",
"1! 	c #AC856F",
"2! 	c #A37B67",
"3! 	c #9B7461",
"4! 	c #906B59",
"5! 	c #8E6958",
"6! 	c #876455",
"7! 	c #856456",
"8! 	c #6C4C40",
"9! 	c #6D5449",
"0! 	c #6C5A4E",
"a! 	c #716055",
"b! 	c #67584F",
"c! 	c #5B4C45",
"d! 	c #584B43",
"e! 	c #51433D",
"f! 	c #4C3D38",
"g! 	c #493A35",
"h! 	c #483B34",
"i! 	c #4A403A",
"j! 	c #4A3F3A",
"k! 	c #473C39",
"l! 	c #3F3433",
"m! 	c #423737",
"n! 	c #453A3B",
"o! 	c #615558",
"p! 	c #514445",
"q! 	c #473737",
"r! 	c #4D3C3A",
"s! 	c #584644",
"t! 	c #625557",
"u! 	c #6C5D63",
"v! 	c #7E6C73",
"w! 	c #7A646A",
"x! 	c #765E5D",
"y! 	c #745A53",
"z! 	c #775E56",
"A! 	c #816A64",
"B! 	c #907C79",
"C! 	c #8F7E80",
"D! 	c #897B82",
"E! 	c #786E75",
"F! 	c #1B1C1F",
"G! 	c #212224",
"H! 	c #242527",
"I! 	c #282A2B",
"J! 	c #2B2E2D",
"K! 	c #28292A",
"L! 	c #3F3C3E",
"M! 	c #666063",
"N! 	c #766C70",
"O! 	c #7C7177",
"P! 	c #938A90",
"Q! 	c #92878C",
"R! 	c #8E8182",
"S! 	c #9C8D8B",
"T! 	c #A3918D",
"U! 	c #B29D97",
"V! 	c #C8AFA7",
"W! 	c #D0B6B0",
"X! 	c #D4BAB6",
"Y! 	c #DAC0BC",
"Z! 	c #CFB5B0",
"`! 	c #CAB0A8",
" ~ 	c #CFB5A8",
".~ 	c #D3B6A9",
"+~ 	c #D1B1A1",
"@~ 	c #DAB6A1",
"#~ 	c #E1BEA8",
"$~ 	c #DCBFA9",
"%~ 	c #DEC0AC",
"&~ 	c #DBBDAA",
"*~ 	c #E2C4B4",
"=~ 	c #E6C7BA",
"-~ 	c #E9CCBF",
";~ 	c #E5CBBC",
">~ 	c #E9CFC1",
",~ 	c #E9CFC2",
"'~ 	c #E6CCBF",
")~ 	c #E4CABD",
"!~ 	c #E3C9BC",
"~~ 	c #E0C7B8",
"{~ 	c #DAC0B1",
"]~ 	c #DEC2B4",
"^~ 	c #E7CBBD",
"/~ 	c #E2C4B6",
"(~ 	c #E3C8BA",
"_~ 	c #DFC6B8",
":~ 	c #E2C7BA",
"<~ 	c #E1C6B9",
"[~ 	c #E1C5B8",
"}~ 	c #E3C6BA",
"|~ 	c #E4CBBD",
"1~ 	c #DEC8B9",
"2~ 	c #DAC2B2",
"3~ 	c #D9C0B0",
"4~ 	c #DCC0B0",
"5~ 	c #DEC1B1",
"6~ 	c #D8B8A6",
"7~ 	c #D8B6A3",
"8~ 	c #DBB9A5",
"9~ 	c #DAB9A5",
"0~ 	c #D7B5A1",
"a~ 	c #D9B7A4",
"b~ 	c #D3B29E",
"c~ 	c #D0AF9B",
"d~ 	c #D2AF9B",
"e~ 	c #D4B09D",
"f~ 	c #D3AE9B",
"g~ 	c #CDA794",
"h~ 	c #C8A18A",
"i~ 	c #C59D82",
"j~ 	c #CBA289",
"k~ 	c #C59B82",
"l~ 	c #BD927A",
"m~ 	c #B1856F",
"n~ 	c #A77E69",
"o~ 	c #A07A68",
"p~ 	c #A5816F",
"q~ 	c #9D7B6A",
"r~ 	c #8F6E5F",
"s~ 	c #866658",
"t~ 	c #7D6356",
"u~ 	c #725E50",
"v~ 	c #655347",
"w~ 	c #57483E",
"x~ 	c #574A42",
"y~ 	c #544943",
"z~ 	c #534841",
"A~ 	c #52453F",
"B~ 	c #4C403B",
"C~ 	c #4B413C",
"D~ 	c #473E3A",
"E~ 	c #453C38",
"F~ 	c #473D39",
"G~ 	c #483D3C",
"H~ 	c #423735",
"I~ 	c #4B403F",
"J~ 	c #564A4A",
"K~ 	c #554949",
"L~ 	c #403536",
"M~ 	c #534749",
"N~ 	c #45383A",
"O~ 	c #4A3C3B",
"P~ 	c #4F413C",
"Q~ 	c #4A3D39",
"R~ 	c #534543",
"S~ 	c #665455",
"T~ 	c #756063",
"U~ 	c #715959",
"V~ 	c #725957",
"W~ 	c #644B43",
"X~ 	c #644D43",
"Y~ 	c #7A665F",
"Z~ 	c #928383",
"`~ 	c #9C8E91",
" { 	c #141618",
".{ 	c #151618",
"+{ 	c #333534",
"@{ 	c #333333",
"#{ 	c #5D595A",
"${ 	c #80787B",
"%{ 	c #8D8286",
"&{ 	c #897D81",
"*{ 	c #988D8F",
"={ 	c #9A8D8D",
"-{ 	c #A69594",
";{ 	c #B4A09B",
">{ 	c #CAB3AC",
",{ 	c #DBC2BA",
"'{ 	c #DEC3BA",
"){ 	c #DEC4BA",
"!{ 	c #DCC1B8",
"~{ 	c #E7CCC3",
"{{ 	c #DFC4BB",
"]{ 	c #D7BBAF",
"^{ 	c #D6B8A8",
"/{ 	c #DCBEAC",
"({ 	c #DEBEAB",
"_{ 	c #DDBBA7",
":{ 	c #E0BEA8",
"<{ 	c #E4C5B0",
"[{ 	c #E5CBB6",
"}{ 	c #EACFBB",
"|{ 	c #ECD1C0",
"1{ 	c #E2C8B8",
"2{ 	c #E9CEC0",
"3{ 	c #EACFC1",
"4{ 	c #E8CEC1",
"5{ 	c #ECD2C5",
"6{ 	c #EBD1C4",
"7{ 	c #EED4C7",
"8{ 	c #E9D0C2",
"9{ 	c #E3CCBC",
"0{ 	c #DEC4B6",
"a{ 	c #DCC0B2",
"b{ 	c #E5C8BA",
"c{ 	c #EACABD",
"d{ 	c #E7C9BC",
"e{ 	c #E3C7B9",
"f{ 	c #E0C4B6",
"g{ 	c #E4C8BA",
"h{ 	c #E6CABC",
"i{ 	c #E4CCBC",
"j{ 	c #DEC9B8",
"k{ 	c #E1CABA",
"l{ 	c #DCC3B4",
"m{ 	c #DFC3B5",
"n{ 	c #DBBEB0",
"o{ 	c #D7B7A7",
"p{ 	c #D9B6A3",
"q{ 	c #D7B4A1",
"r{ 	c #D8B5A2",
"s{ 	c #D4B39F",
"t{ 	c #D1AE9A",
"u{ 	c #D6B19E",
"v{ 	c #D3AD9A",
"w{ 	c #D3AA98",
"x{ 	c #D0AA94",
"y{ 	c #CDA88F",
"z{ 	c #CFA890",
"A{ 	c #CAA28A",
"B{ 	c #C99E87",
"C{ 	c #BF937D",
"D{ 	c #B88F79",
"E{ 	c #B38E79",
"F{ 	c #AE8A76",
"G{ 	c #997764",
"H{ 	c #906F5D",
"I{ 	c #8C6C5C",
"J{ 	c #836756",
"K{ 	c #816858",
"L{ 	c #938177",
"M{ 	c #8E7F77",
"N{ 	c #857872",
"O{ 	c #897C75",
"P{ 	c #837771",
"Q{ 	c #786D68",
"R{ 	c #695F5C",
"S{ 	c #69615E",
"T{ 	c #5B5451",
"U{ 	c #554B4A",
"V{ 	c #574B4B",
"W{ 	c #453939",
"X{ 	c #413636",
"Y{ 	c #433737",
"Z{ 	c #514545",
"`{ 	c #544946",
" ] 	c #4E4342",
".] 	c #3E3335",
"+] 	c #3F3437",
"@] 	c #3D3232",
"#] 	c #483E3A",
"$] 	c #4E413C",
"%] 	c #564642",
"&] 	c #574642",
"*] 	c #76625F",
"=] 	c #735D5A",
"-] 	c #6C554F",
";] 	c #67524A",
">] 	c #66534C",
",] 	c #786660",
"'] 	c #7F6E69",
")] 	c #92827E",
"!] 	c #1A1C1D",
"~] 	c #232423",
"{] 	c #2E2E2E",
"]] 	c #625E5F",
"^] 	c #7A7174",
"/] 	c #92868A",
"(] 	c #84787A",
"_] 	c #978986",
":] 	c #B3A39D",
"<] 	c #CBB8B0",
"[] 	c #DCC6BB",
"}] 	c #E6CDC0",
"|] 	c #E7CCBE",
"1] 	c #E7CABC",
"2] 	c #E4C8B9",
"3] 	c #E5C9BA",
"4] 	c #E2C5B7",
"5] 	c #E4C5B4",
"6] 	c #DEBDA8",
"7] 	c #E3C1AD",
"8] 	c #E6C5B2",
"9] 	c #E6C8B4",
"0] 	c #EACBBA",
"a] 	c #EACEBC",
"b] 	c #ECD5C1",
"c] 	c #EDD6C5",
"d] 	c #E9D2C2",
"e] 	c #E2CBBD",
"f] 	c #E7CFC2",
"g] 	c #EBD2C6",
"h] 	c #EDD3C6",
"i] 	c #EAD0C3",
"j] 	c #E6CDBF",
"k] 	c #E0C9B9",
"l] 	c #DFC5B6",
"m] 	c #E3C6B8",
"n] 	c #E5C5B8",
"o] 	c #E4C6B9",
"p] 	c #E5C9BB",
"q] 	c #E2C6B8",
"r] 	c #E1C7B8",
"s] 	c #E3CABB",
"t] 	c #E0C2B4",
"u] 	c #E0BFB2",
"v] 	c #DDBBAB",
"w] 	c #DBB8A5",
"x] 	c #DAB7A4",
"y] 	c #D7B6A2",
"z] 	c #D4B49F",
"A] 	c #D6B39F",
"B] 	c #D8B3A0",
"C] 	c #D5AF9C",
"D] 	c #D7AE9C",
"E] 	c #D0AC98",
"F] 	c #CFAD97",
"G] 	c #D6B29D",
"H] 	c #D0AA96",
"I] 	c #CCA491",
"J] 	c #C89F8C",
"K] 	c #BA907B",
"L] 	c #B48B74",
"M] 	c #A8816B",
"N] 	c #9D7763",
"O] 	c #94705D",
"P] 	c #8B6956",
"Q] 	c #8C6B59",
"R] 	c #816251",
"S] 	c #795D4E",
"T] 	c #6F574B",
"U] 	c #655047",
"V] 	c #67544C",
"W] 	c #61514C",
"X] 	c #62534F",
"Y] 	c #645755",
"Z] 	c #665B5A",
"`] 	c #615656",
" ^ 	c #5F5454",
".^ 	c #594D4D",
"+^ 	c #524646",
"@^ 	c #4D4141",
"#^ 	c #413535",
"$^ 	c #4F4343",
"%^ 	c #463B3A",
"&^ 	c #55494B",
"*^ 	c #493D41",
"=^ 	c #3F3334",
"-^ 	c #332824",
";^ 	c #392E28",
">^ 	c #4A3E38",
",^ 	c #554742",
"'^ 	c #584844",
")^ 	c #5A4844",
"!^ 	c #6A5854",
"~^ 	c #685652",
"{^ 	c #675651",
"]^ 	c #715E59",
"^^ 	c #624F48",
"/^ 	c #6C5851",
"(^ 	c #79645D",
"_^ 	c #17181A",
":^ 	c #1F2022",
"<^ 	c #2B2C2D",
"[^ 	c #2B2B2C",
"}^ 	c #4A4648",
"|^ 	c #5C5558",
"1^ 	c #877C7F",
"2^ 	c #ADA1A1",
"3^ 	c #CABAB3",
"4^ 	c #DBC9C0",
"5^ 	c #E0CABF",
"6^ 	c #E6CDBE",
"7^ 	c #E8CCBB",
"8^ 	c #ECCDBB",
"9^ 	c #E8C8B4",
"0^ 	c #ECCCB8",
"a^ 	c #EACAB7",
"b^ 	c #E8C9B5",
"c^ 	c #E9C8B5",
"d^ 	c #ECCAB5",
"e^ 	c #E9C8B4",
"f^ 	c #ECCFBF",
"g^ 	c #F3D7C8",
"h^ 	c #F0D7C8",
"i^ 	c #EBD6C5",
"j^ 	c #EDD8C8",
"k^ 	c #E9D3C5",
"l^ 	c #ECD6C8",
"m^ 	c #ECD6CA",
"n^ 	c #EBD3C7",
"o^ 	c #E7CDC0",
"p^ 	c #E6CCBE",
"q^ 	c #EAD0C2",
"r^ 	c #E7CEC0",
"s^ 	c #E2CABA",
"t^ 	c #E2C7B9",
"u^ 	c #E1C4B6",
"v^ 	c #E4C5B7",
"w^ 	c #E2C5B6",
"x^ 	c #E7CBBC",
"y^ 	c #E3C7B8",
"z^ 	c #E6CABB",
"A^ 	c #E4C7B9",
"B^ 	c #E2C3B6",
"C^ 	c #DEBDB0",
"D^ 	c #E1BEB1",
"E^ 	c #DFBBAC",
"F^ 	c #DEBBA7",
"G^ 	c #DDB9A6",
"H^ 	c #DCB9A6",
"I^ 	c #D6B4A0",
"J^ 	c #D3B29D",
"K^ 	c #D5B19E",
"L^ 	c #D7B29F",
"M^ 	c #D6B09D",
"N^ 	c #D6AE9C",
"O^ 	c #D1AD99",
"P^ 	c #CCAB97",
"Q^ 	c #D1AC99",
"R^ 	c #CBA592",
"S^ 	c #C39A83",
"T^ 	c #BC9279",
"U^ 	c #B48B73",
"V^ 	c #A37C66",
"W^ 	c #A27C68",
"X^ 	c #9A7763",
"Y^ 	c #8C6A56",
"Z^ 	c #846350",
"`^ 	c #775848",
" / 	c #684C3F",
"./ 	c #664C41",
"+/ 	c #5F483F",
"@/ 	c #5C4941",
"#/ 	c #6B5A54",
"$/ 	c #54443F",
"%/ 	c #4D3E3C",
"&/ 	c #554645",
"*/ 	c #635555",
"=/ 	c #544848",
"-/ 	c #534747",
";/ 	c #514645",
">/ 	c #5A4F4F",
",/ 	c #5F5354",
"'/ 	c #504644",
")/ 	c #3F3533",
"!/ 	c #423738",
"~/ 	c #605558",
"{/ 	c #55494A",
"]/ 	c #3B312E",
"^/ 	c #302622",
"// 	c #2F2521",
"(/ 	c #332823",
"_/ 	c #3D302C",
":/ 	c #584843",
"</ 	c #695B58",
"[/ 	c #685650",
"}/ 	c #57423C",
"|/ 	c #5C463E",
"1/ 	c #141718",
"2/ 	c #222325",
"3/ 	c #343539",
"4/ 	c #403F46",
"5/ 	c #2D2A2F",
"6/ 	c #595356",
"7/ 	c #807677",
"8/ 	c #ADA1A0",
"9/ 	c #D5C6C3",
"0/ 	c #DECAC3",
"a/ 	c #E7D1C7",
"b/ 	c #E9CEC2",
"c/ 	c #E9CABB",
"d/ 	c #EAC9B7",
"e/ 	c #EDCAB5",
"f/ 	c #EFCBB2",
"g/ 	c #F1CCB5",
"h/ 	c #EFCCB7",
"i/ 	c #EFCEB9",
"j/ 	c #F0D0BD",
"k/ 	c #EACCBB",
"l/ 	c #F2D8CA",
"m/ 	c #EFD5C8",
"n/ 	c #F2D8CB",
"o/ 	c #EFD7C9",
"p/ 	c #EDD6C8",
"q/ 	c #F0D9CB",
"r/ 	c #EFD8CA",
"s/ 	c #EED6C8",
"t/ 	c #ECD0C2",
"u/ 	c #EACFC0",
"v/ 	c #E5CABC",
"w/ 	c #E5CABB",
"x/ 	c #E8CCBE",
"y/ 	c #E0C3B3",
"z/ 	c #E2C5B3",
"A/ 	c #E3C6B4",
"B/ 	c #DEC1AF",
"C/ 	c #E2C5B4",
"D/ 	c #E3C6B5",
"E/ 	c #E5C7B6",
"F/ 	c #E4C5B5",
"G/ 	c #E2C0B1",
"H/ 	c #E2BFB0",
"I/ 	c #E0BCAA",
"J/ 	c #DEB9A6",
"K/ 	c #DCB7A4",
"L/ 	c #D5B09D",
"M/ 	c #D2AD9A",
"N/ 	c #D0AB98",
"O/ 	c #D2AE9B",
"P/ 	c #CEA996",
"Q/ 	c #C7A28F",
"R/ 	c #C39B85",
"S/ 	c #C0967D",
"T/ 	c #B89078",
"U/ 	c #B18B76",
"V/ 	c #AF8B77",
"W/ 	c #B18E7C",
"X/ 	c #AB8D78",
"Y/ 	c #9C816C",
"Z/ 	c #907563",
"`/ 	c #7C6153",
" ( 	c #71574C",
".( 	c #7A6159",
"+( 	c #705E52",
"@( 	c #5F5145",
"#( 	c #66564D",
"$( 	c #695853",
"%( 	c #5C4B49",
"&( 	c #544142",
"*( 	c #504241",
"=( 	c #584D49",
"-( 	c #4B403D",
";( 	c #413638",
">( 	c #352A2B",
",( 	c #504647",
"'( 	c #5B5253",
")( 	c #554C4D",
"!( 	c #5C5354",
"~( 	c #493F40",
"{( 	c #514649",
"]( 	c #493E41",
"^( 	c #413637",
"/( 	c #3A2F2B",
"(( 	c #453B36",
"_( 	c #473939",
":( 	c #605152",
"<( 	c #6A5A5B",
"[( 	c #6C5D5D",
"}( 	c #625252",
"|( 	c #5E4E4D",
"1( 	c #141819",
"2( 	c #393A3D",
"3( 	c #4A474D",
"4( 	c #5E585B",
"5( 	c #867B7A",
"6( 	c #BCACA7",
"7( 	c #DFCBC3",
"8( 	c #E6CFC5",
"9( 	c #ECD1C4",
"0( 	c #EDD1C4",
"a( 	c #ECCFC1",
"b( 	c #ECCDBC",
"c( 	c #ECCCBA",
"d( 	c #ECCAB7",
"e( 	c #F1CEB9",
"f( 	c #F0CEB9",
"g( 	c #EFCFBB",
"h( 	c #EFD0BE",
"i( 	c #F1D4C3",
"j( 	c #EFD3C4",
"k( 	c #F1D7CA",
"l( 	c #F6DCCF",
"m( 	c #F3D9CC",
"n( 	c #F0D6C9",
"o( 	c #F1D8CB",
"p( 	c #F0D8CA",
"q( 	c #EED5C8",
"r( 	c #EDD5C7",
"s( 	c #EDD4C7",
"t( 	c #EDCEC1",
"u( 	c #EACCBF",
"v( 	c #E7C9BB",
"w( 	c #E5C7B9",
"x( 	c #E7C8BB",
"y( 	c #E8CBBD",
"z( 	c #E6C9BB",
"A( 	c #E4C5B6",
"B( 	c #E5C5B3",
"C( 	c #E4C4B2",
"D( 	c #E4C4B3",
"E( 	c #E6C6B5",
"F( 	c #E3C3B1",
"G( 	c #E2C3AF",
"H( 	c #E2C1AE",
"I( 	c #E2BFAC",
"J( 	c #DEBAA8",
"K( 	c #DDB7A5",
"L( 	c #D9B3A1",
"M( 	c #D9B4A1",
"N( 	c #DBB6A3",
"O( 	c #DAB5A2",
"P( 	c #D4AF9C",
"Q( 	c #CCA794",
"R( 	c #CBA48E",
"S( 	c #C59C84",
"T( 	c #C39A82",
"U( 	c #BF967F",
"V( 	c #B58C75",
"W( 	c #B28971",
"X( 	c #A67E68",
"Y( 	c #A7826D",
"Z( 	c #A17E6B",
"`( 	c #9A7B6B",
" _ 	c #94786B",
"._ 	c #83695E",
"+_ 	c #7C675B",
"@_ 	c #705D52",
"#_ 	c #5A4940",
"$_ 	c #53433D",
"%_ 	c #615350",
"&_ 	c #5C4E4E",
"*_ 	c #554A48",
"=_ 	c #514643",
"-_ 	c #564B48",
";_ 	c #5D5251",
">_ 	c #5C5052",
",_ 	c #483D3F",
"'_ 	c #352B2D",
")_ 	c #2C2223",
"!_ 	c #423839",
"~_ 	c #4D4445",
"{_ 	c #605657",
"]_ 	c #5B5152",
"^_ 	c #544A4A",
"/_ 	c #504544",
"(_ 	c #3C3231",
"__ 	c #382B28",
":_ 	c #413230",
"<_ 	c #4C3C3C",
"[_ 	c #564647",
"}_ 	c #655558",
"|_ 	c #746469",
"1_ 	c #27272A",
"2_ 	c #4D494F",
"3_ 	c #82797A",
"4_ 	c #C7B7B3",
"5_ 	c #E5CEC5",
"6_ 	c #EBCEC0",
"7_ 	c #F0CFBF",
"8_ 	c #F0CFBE",
"9_ 	c #EDCCBA",
"0_ 	c #EACAB8",
"a_ 	c #EBCCBA",
"b_ 	c #EECFBE",
"c_ 	c #F2D2C1",
"d_ 	c #F3D2BF",
"e_ 	c #F1D1BE",
"f_ 	c #F1D3C2",
"g_ 	c #EFD3C3",
"h_ 	c #F1D7C8",
"i_ 	c #F3D9CB",
"j_ 	c #F5DBCE",
"k_ 	c #EDD2C6",
"l_ 	c #F0D4C8",
"m_ 	c #EED2C6",
"n_ 	c #EBCFC3",
"o_ 	c #ECD0C4",
"p_ 	c #EED1C6",
"q_ 	c #ECCDC2",
"r_ 	c #EAC8BC",
"s_ 	c #E9C7BB",
"t_ 	c #E9C8BC",
"u_ 	c #E9C8BB",
"v_ 	c #E4C4B5",
"w_ 	c #E6C2B2",
"x_ 	c #E4C0B0",
"y_ 	c #E2BEAE",
"z_ 	c #E3BFAF",
"A_ 	c #E2C0AD",
"B_ 	c #DEBBA5",
"C_ 	c #DFBAA5",
"D_ 	c #E0BAA6",
"E_ 	c #DFB6A3",
"F_ 	c #DCB6A2",
"G_ 	c #CCA691",
"H_ 	c #C39B84",
"I_ 	c #C29880",
"J_ 	c #BC9076",
"K_ 	c #B28469",
"L_ 	c #AD7E61",
"M_ 	c #AB7B62",
"N_ 	c #A97A64",
"O_ 	c #A47966",
"P_ 	c #987260",
"Q_ 	c #856656",
"R_ 	c #806557",
"S_ 	c #6E5649",
"T_ 	c #685248",
"U_ 	c #6D5A52",
"V_ 	c #695A54",
"W_ 	c #6A5E5B",
"X_ 	c #564D4B",
"Y_ 	c #544A48",
"Z_ 	c #423733",
"`_ 	c #443B38",
" : 	c #4D4242",
".: 	c #5A4F50",
"+: 	c #564A4C",
"@: 	c #574D4E",
"#: 	c #3D3434",
"$: 	c #2F2526",
"%: 	c #443A3B",
"&: 	c #4A4041",
"*: 	c #564C49",
"=: 	c #423835",
"-: 	c #4A3F3E",
";: 	c #514547",
">: 	c #5E5256",
",: 	c #483B37",
"': 	c #483A33",
"): 	c #4C3D3A",
"!: 	c #4A3B3C",
"~: 	c #4D3D43",
"{: 	c #615159",
"]: 	c #121719",
"^: 	c #121B1A",
"/: 	c #121A1A",
"(: 	c #13191B",
"_: 	c #12191C",
":: 	c #14181C",
"<: 	c #1C1920",
"[: 	c #4C4348",
"}: 	c #9A8A8B",
"|: 	c #D5C3C0",
"1: 	c #E6D0C8",
"2: 	c #EDD2C4",
"3: 	c #F2D3C0",
"4: 	c #F1D0BC",
"5: 	c #EECBB8",
"6: 	c #EDCAB7",
"7: 	c #F2CFBE",
"8: 	c #F5D1C3",
"9: 	c #F0CDC0",
"0: 	c #F1D1C4",
"a: 	c #F1D5C7",
"b: 	c #F1D6C8",
"c: 	c #F3D8CA",
"d: 	c #F1D6C9",
"e: 	c #F2DBCC",
"f: 	c #F1DDCC",
"g: 	c #EFD9C9",
"h: 	c #F1D9CA",
"i: 	c #F1D8C9",
"j: 	c #F2D6C8",
"k: 	c #EFD3C5",
"l: 	c #EDD0C0",
"m: 	c #EACDBD",
"n: 	c #ECCDBD",
"o: 	c #EDCBBC",
"p: 	c #EAC7B8",
"q: 	c #E9C6B6",
"r: 	c #E8C5B4",
"s: 	c #E9C6B5",
"t: 	c #EAC7B6",
"u: 	c #E6C6B4",
"v: 	c #E3C5B3",
"w: 	c #E3C4B3",
"x: 	c #E5C4B3",
"y: 	c #E5C3B3",
"z: 	c #E5C2B2",
"A: 	c #E6C2B1",
"B: 	c #E5C1B0",
"C: 	c #E4BFAF",
"D: 	c #E3BFAE",
"E: 	c #E1BDAA",
"F: 	c #DEB9A5",
"G: 	c #DBB6A2",
"H: 	c #DBB5A1",
"I: 	c #DAB3A0",
"J: 	c #D9B39D",
"K: 	c #D9B49B",
"L: 	c #DAB49D",
"M: 	c #D9B49E",
"N: 	c #DBB5A2",
"O: 	c #DCB6A3",
"P: 	c #DAB4A1",
"Q: 	c #D7B3A0",
"R: 	c #D8B4A0",
"S: 	c #D0AB95",
"T: 	c #D0AB93",
"U: 	c #D3AE95",
"V: 	c #CFAA91",
"W: 	c #CEA991",
"X: 	c #CBA28A",
"Y: 	c #CDA088",
"Z: 	c #C79981",
"`: 	c #C5987F",
" < 	c #BB8C74",
".< 	c #B7896F",
"+< 	c #B2836B",
"@< 	c #A77963",
"#< 	c #A27661",
"$< 	c #966E5A",
"%< 	c #916C59",
"&< 	c #886452",
"*< 	c #846659",
"=< 	c #6D554B",
"-< 	c #655048",
";< 	c #55443E",
">< 	c #493B38",
",< 	c #695E5D",
"'< 	c #5C514F",
")< 	c #413633",
"!< 	c #3E3232",
"~< 	c #463B3C",
"{< 	c #4C4143",
"]< 	c #4B4141",
"^< 	c #574D4D",
"/< 	c #423838",
"(< 	c #3E3434",
"_< 	c #3B3231",
":< 	c #382E2B",
"<< 	c #4C423E",
"[< 	c #4F4441",
"}< 	c #554A47",
"|< 	c #4A3F3D",
"1< 	c #5F5453",
"2< 	c #615654",
"3< 	c #473A39",
"4< 	c #4C3F3E",
"5< 	c #574848",
"6< 	c #59474A",
"7< 	c #564448",
"8< 	c #111619",
"9< 	c #111A1A",
"0< 	c #111B1A",
"a< 	c #121B1B",
"b< 	c #141A1D",
"c< 	c #131B1D",
"d< 	c #141B1D",
"e< 	c #473F44",
"f< 	c #918184",
"g< 	c #D5BFBB",
"h< 	c #E7CFC9",
"i< 	c #EDD3C8",
"j< 	c #F1D4C5",
"k< 	c #F3D5C2",
"l< 	c #F1D1BC",
"m< 	c #F0CFBB",
"n< 	c #F0CEBB",
"o< 	c #F1CEBE",
"p< 	c #F2D0C1",
"q< 	c #F5D2C5",
"r< 	c #F2D2C6",
"s< 	c #F3DBCC",
"t< 	c #F0D8C9",
"u< 	c #EFD4C6",
"v< 	c #F3D7C9",
"w< 	c #F2D4C7",
"x< 	c #EFD1C2",
"y< 	c #EBCEBC",
"z< 	c #EACDBB",
"A< 	c #EDCDBC",
"B< 	c #EBC8B7",
"C< 	c #EAC6B6",
"D< 	c #E9C6B4",
"E< 	c #E9C6B3",
"F< 	c #EBC8B5",
"G< 	c #ECC9B6",
"H< 	c #EAC7B4",
"I< 	c #E8C5B2",
"J< 	c #E7C6B2",
"K< 	c #E6C6B2",
"L< 	c #E5C4B0",
"M< 	c #E5C1AE",
"N< 	c #E6C1AE",
"O< 	c #E6BFAD",
"P< 	c #E4BDAB",
"Q< 	c #E2BDAA",
"R< 	c #E2BCAA",
"S< 	c #E3BDAB",
"T< 	c #E1BBA9",
"U< 	c #E0BAA7",
"V< 	c #E1B9A6",
"W< 	c #DFB7A4",
"X< 	c #DDB5A2",
"Y< 	c #DAB29E",
"Z< 	c #D9B29E",
"`< 	c #D4AC96",
" [ 	c #D4AD94",
".[ 	c #D7B198",
"+[ 	c #D6AF9A",
"@[ 	c #D6AE9B",
"#[ 	c #D9B29F",
"$[ 	c #D7B29E",
"%[ 	c #D8B29E",
"&[ 	c #D4AF9B",
"*[ 	c #D9B49F",
"=[ 	c #D6B099",
"-[ 	c #D5B096",
";[ 	c #D1AC92",
">[ 	c #CCA78D",
",[ 	c #CFAA90",
"'[ 	c #CBA188",
")[ 	c #CA9C84",
"![ 	c #CC9E86",
"~[ 	c #C5977F",
"{[ 	c #BF9179",
"][ 	c #B78972",
"^[ 	c #B58871",
"/[ 	c #AB7F69",
"([ 	c #A57C67",
"_[ 	c #9B7562",
":[ 	c #8A6B5D",
"<[ 	c #866E64",
"[[ 	c #755F58",
"}[ 	c #5F4C47",
"|[ 	c #584946",
"1[ 	c #695C5B",
"2[ 	c #4C423F",
"3[ 	c #4A3F3C",
"4[ 	c #423736",
"5[ 	c #372B2D",
"6[ 	c #3B3032",
"7[ 	c #433939",
"8[ 	c #403635",
"9[ 	c #4A4140",
"0[ 	c #4B4140",
"a[ 	c #483E3D",
"b[ 	c #3E3433",
"c[ 	c #3E3432",
"d[ 	c #4A403C",
"e[ 	c #554B47",
"f[ 	c #423834",
"g[ 	c #605652",
"h[ 	c #4F4541",
"i[ 	c #574C4A",
"j[ 	c #524745",
"k[ 	c #554948",
"l[ 	c #5D4E4E",
"m[ 	c #5C4A4A",
"n[ 	c #4F3E3E",
"o[ 	c #111618",
"p[ 	c #111A1B",
"q[ 	c #121C1B",
"r[ 	c #131D1C",
"s[ 	c #141E1E",
"t[ 	c #151D20",
"u[ 	c #161E20",
"v[ 	c #1E2122",
"w[ 	c #312C2B",
"x[ 	c #847575",
"y[ 	c #D7C0BD",
"z[ 	c #E8CBC1",
"A[ 	c #EED0C5",
"B[ 	c #F3D6C8",
"C[ 	c #F0D3C3",
"D[ 	c #F1D4C2",
"E[ 	c #F0D3BF",
"F[ 	c #F0D3BE",
"G[ 	c #F6D8C8",
"H[ 	c #F5D7C9",
"I[ 	c #F3D6C9",
"J[ 	c #F7DDD0",
"K[ 	c #F8DED1",
"L[ 	c #F4DACD",
"M[ 	c #EFD5C7",
"N[ 	c #F0D6C7",
"O[ 	c #F0D4C6",
"P[ 	c #EFD1C3",
"Q[ 	c #F2D1C4",
"R[ 	c #F0D1C2",
"S[ 	c #E7CAB8",
"T[ 	c #EACAB9",
"U[ 	c #EAC7B7",
"V[ 	c #E8C4B4",
"W[ 	c #EAC6B5",
"X[ 	c #E7C4B0",
"Y[ 	c #E5C2AB",
"Z[ 	c #E5C1AB",
"`[ 	c #E5BFA9",
" } 	c #E5BDA8",
".} 	c #E4BAA6",
"+} 	c #E3B9A5",
"@} 	c #E4BBA6",
"#} 	c #E3BAA5",
"$} 	c #E0B7A3",
"%} 	c #DEB5A0",
"&} 	c #DDB49F",
"*} 	c #DCB29C",
"=} 	c #DBAF98",
"-} 	c #D9AD96",
";} 	c #D6AA94",
">} 	c #D5A992",
",} 	c #D8AC95",
"'} 	c #D7AB94",
")} 	c #D4A891",
"!} 	c #D6AA96",
"~} 	c #D9AC9B",
"{} 	c #D9AC9C",
"]} 	c #D7AC98",
"^} 	c #D1A891",
"/} 	c #D5AC95",
"(} 	c #D8AF97",
"_} 	c #D7AF97",
":} 	c #D7AE96",
"<} 	c #D5AE95",
"[} 	c #D3AE94",
"}} 	c #D2AD93",
"|} 	c #D0A58D",
"1} 	c #CD9F87",
"2} 	c #C89A82",
"3} 	c #C0927A",
"4} 	c #BC8F78",
"5} 	c #AF836C",
"6} 	c #A37C69",
"7} 	c #9A7461",
"8} 	c #836456",
"9} 	c #836B61",
"0} 	c #7E6860",
"a} 	c #74625C",
"b} 	c #5E4F4C",
"c} 	c #5B4E4D",
"d} 	c #4C413F",
"e} 	c #413632",
"f} 	c #3D322F",
"g} 	c #463B3D",
"h} 	c #362B2C",
"i} 	c #372D2D",
"j} 	c #322827",
"k} 	c #332928",
"l} 	c #352B2A",
"m} 	c #3F3534",
"n} 	c #4E4443",
"o} 	c #514644",
"p} 	c #3C322E",
"q} 	c #403632",
"r} 	c #413733",
"s} 	c #443A36",
"t} 	c #473C37",
"u} 	c #4B403B",
"v} 	c #4D423D",
"w} 	c #564743",
"x} 	c #5D4B48",
"y} 	c #53423F",
"z} 	c #11191B",
"A} 	c #111B1C",
"B} 	c #111B1B",
"C} 	c #131D1D",
"D} 	c #182222",
"E} 	c #1D2626",
"F} 	c #1F2929",
"G} 	c #263133",
"H} 	c #2D3537",
"I} 	c #333435",
"J} 	c #7A6F6E",
"K} 	c #D6C1BD",
"L} 	c #E6C9C1",
"M} 	c #EFD0BF",
"N} 	c #F4D3C3",
"O} 	c #F3D1C2",
"P} 	c #EFCFBF",
"Q} 	c #F3D5C6",
"R} 	c #F1D5C3",
"S} 	c #EFD3BF",
"T} 	c #F3D8C4",
"U} 	c #F3D6C4",
"V} 	c #F3D7C6",
"W} 	c #F2D6C6",
"X} 	c #F4D9C9",
"Y} 	c #F2D7C7",
"Z} 	c #F0D6C6",
"`} 	c #F6DCCD",
" | 	c #EDD3C5",
".| 	c #F0D5C8",
"+| 	c #F2D3C6",
"@| 	c #F3D1C5",
"#| 	c #F1CEC2",
"$| 	c #EECBBD",
"%| 	c #E9C9B7",
"&| 	c #E7C6B4",
"*| 	c #E9C7B5",
"=| 	c #E8C3B3",
"-| 	c #E5C2B0",
";| 	c #E6C4B0",
">| 	c #E9C7B3",
",| 	c #E7C4B1",
"'| 	c #E6C2AF",
")| 	c #E6C1AC",
"!| 	c #E7BFA9",
"~| 	c #E2BAA4",
"{| 	c #E3BAA4",
"]| 	c #E5BAA5",
"^| 	c #E4B8A3",
"/| 	c #E3B6A1",
"(| 	c #E2B7A0",
"_| 	c #E1B59F",
":| 	c #DEB29C",
"<| 	c #DDB19B",
"[| 	c #DCB09A",
"}| 	c #DAAE97",
"|| 	c #D9AC95",
"1| 	c #D8AA93",
"2| 	c #D6A891",
"3| 	c #D7A992",
"4| 	c #D9AB94",
"5| 	c #D8AA94",
"6| 	c #D7A994",
"7| 	c #D8AA97",
"8| 	c #D7A997",
"9| 	c #D5A893",
"0| 	c #D5AA91",
"a| 	c #D6AB93",
"b| 	c #D2A78F",
"c| 	c #D2A68E",
"d| 	c #D3A78F",
"e| 	c #D2A990",
"f| 	c #D3AB92",
"g| 	c #D2AA91",
"h| 	c #D4AD93",
"i| 	c #D0A88E",
"j| 	c #CEA289",
"k| 	c #C99B83",
"l| 	c #C69880",
"m| 	c #BC9077",
"n| 	c #BF937B",
"o| 	c #AE836E",
"p| 	c #A8816C",
"q| 	c #A4806C",
"r| 	c #896A5B",
"s| 	c #7F665B",
"t| 	c #766057",
"u| 	c #705C57",
"v| 	c #776763",
"w| 	c #473C3A",
"x| 	c #413734",
"y| 	c #403533",
"z| 	c #3A2F2F",
"A| 	c #473C3E",
"B| 	c #3E3336",
"C| 	c #3C3233",
"D| 	c #392F2F",
"E| 	c #2F2525",
"F| 	c #2E2423",
"G| 	c #392F2C",
"H| 	c #463B38",
"I| 	c #4D423E",
"J| 	c #483D39",
"K| 	c #463B37",
"L| 	c #443A33",
"M| 	c #493F37",
"N| 	c #473C34",
"O| 	c #4E413A",
"P| 	c #5C4D46",
"Q| 	c #11181A",
"R| 	c #131D1E",
"S| 	c #141F1F",
"T| 	c #172321",
"U| 	c #1E2224",
"V| 	c #5F5759",
"W| 	c #C8B5B6",
"X| 	c #E7CCC6",
"Y| 	c #EDD0C2",
"Z| 	c #EFD3BD",
"`| 	c #F1D0BD",
" 1 	c #F4CFBF",
".1 	c #F6D2C4",
"+1 	c #F5D6C8",
"@1 	c #EFD4C1",
"#1 	c #F2D7C4",
"$1 	c #F3D8C5",
"%1 	c #F2D7C2",
"&1 	c #F0D5C0",
"*1 	c #EFD4BF",
"=1 	c #F1D6C5",
"-1 	c #F2D5C6",
";1 	c #F0D1C3",
">1 	c #EFCFC1",
",1 	c #EFCCBF",
"'1 	c #F1CDC0",
")1 	c #EEC8BA",
"!1 	c #EAC3B3",
"~1 	c #E7C0AF",
"{1 	c #E6BFAE",
"]1 	c #E8C1B0",
"^1 	c #E8C3B1",
"/1 	c #E6C5B1",
"(1 	c #E7C1AE",
"_1 	c #E6BEAC",
":1 	c #E5BAA7",
"<1 	c #E4B7A2",
"[1 	c #E5B8A3",
"}1 	c #E6B9A4",
"|1 	c #E2B5A0",
"11 	c #E3B6A0",
"21 	c #DEB099",
"31 	c #DAAC95",
"41 	c #DCAE97",
"51 	c #D5A790",
"61 	c #D4A68F",
"71 	c #D5A78F",
"81 	c #D3A58D",
"91 	c #D1A38B",
"01 	c #D4A78E",
"a1 	c #D5A990",
"b1 	c #D4A88F",
"c1 	c #D3A78E",
"d1 	c #D2A58C",
"e1 	c #CB9D85",
"f1 	c #C4967E",
"g1 	c #C3957D",
"h1 	c #C0967B",
"i1 	c #BA9076",
"j1 	c #B58870",
"k1 	c #B0836D",
"l1 	c #A77D68",
"m1 	c #A17E69",
"n1 	c #977A6A",
"o1 	c #846A5D",
"p1 	c #6F584E",
"q1 	c #746059",
"r1 	c #6C5B57",
"s1 	c #645653",
"t1 	c #4E4340",
"u1 	c #433938",
"v1 	c #483F3E",
"w1 	c #3F3535",
"x1 	c #3B3034",
"y1 	c #3F3438",
"z1 	c #413639",
"A1 	c #3F3536",
"B1 	c #382E2F",
"C1 	c #342A2B",
"D1 	c #33292A",
"E1 	c #332826",
"F1 	c #362B27",
"G1 	c #3B302D",
"H1 	c #433935",
"I1 	c #473C38",
"J1 	c #4D433E",
"K1 	c #423832",
"L1 	c #483D37",
"M1 	c #4E433D",
"N1 	c #594E48",
"O1 	c #121C1D",
"P1 	c #141D1F",
"Q1 	c #1F2325",
"R1 	c #5B5454",
"S1 	c #C1AEAC",
"T1 	c #E8CDC9",
"U1 	c #F0D4CD",
"V1 	c #EDD1C6",
"W1 	c #F0D2C2",
"X1 	c #F3D2C2",
"Y1 	c #F6D1C2",
"Z1 	c #F6D3C3",
"`1 	c #F5D6C5",
" 2 	c #F1D6C3",
".2 	c #F0D5C1",
"+2 	c #F0D5BF",
"@2 	c #F1D6C2",
"#2 	c #F2D7C5",
"$2 	c #F4D8C9",
"%2 	c #F0D0BF",
"&2 	c #EFCEBD",
"*2 	c #F1CDBD",
"=2 	c #F0CBBB",
"-2 	c #EDC7B8",
";2 	c #E9C2B1",
">2 	c #E4BDAC",
",2 	c #E7C1AF",
"'2 	c #E4C0AC",
")2 	c #E5BFAC",
"!2 	c #E7BFAD",
"~2 	c #E7BDAC",
"{2 	c #E7BBAA",
"]2 	c #E6B9A6",
"^2 	c #DFB29D",
"/2 	c #E0B39E",
"(2 	c #DFB29C",
"_2 	c #DDAF98",
":2 	c #DBAD96",
"<2 	c #D1A38C",
"[2 	c #CEA089",
"}2 	c #D0A28B",
"|2 	c #CFA18A",
"12 	c #D3A58E",
"22 	c #CFA189",
"32 	c #D4A68E",
"42 	c #D0A28A",
"52 	c #CFA38A",
"62 	c #CDA188",
"72 	c #D0A48B",
"82 	c #CDA087",
"92 	c #C1937B",
"02 	c #BF9279",
"a2 	c #BD9077",
"b2 	c #B98871",
"c2 	c #B1806C",
"d2 	c #A57964",
"e2 	c #A07A65",
"f2 	c #9B7D6D",
"g2 	c #8F7568",
"h2 	c #755E53",
"i2 	c #735F58",
"j2 	c #65544F",
"k2 	c #5D4E4C",
"l2 	c #4A403F",
"m2 	c #443A3A",
"n2 	c #3D3237",
"o2 	c #382E31",
"p2 	c #3E3435",
"q2 	c #413738",
"r2 	c #4B4142",
"s2 	c #4C4142",
"t2 	c #403434",
"u2 	c #3B2F2F",
"v2 	c #443939",
"w2 	c #4B403E",
"x2 	c #534845",
"y2 	c #5F5452",
"z2 	c #121D1E",
"A2 	c #161D1F",
"B2 	c #403C3F",
"C2 	c #B5A4A4",
"D2 	c #ECD0CB",
"E2 	c #F2D2CA",
"F2 	c #F0D4CB",
"G2 	c #EDD4CA",
"H2 	c #F1D4C7",
"I2 	c #F7D5C9",
"J2 	c #F5D0C2",
"K2 	c #EFCCBA",
"L2 	c #F5D7C2",
"M2 	c #EED3C0",
"N2 	c #F0D5C2",
"O2 	c #EED3BE",
"P2 	c #F0D5C4",
"Q2 	c #F0D4C5",
"R2 	c #ECCEBE",
"S2 	c #EDCBB7",
"T2 	c #EFCBB8",
"U2 	c #ECC7B5",
"V2 	c #E8BFAE",
"W2 	c #EAC0B0",
"X2 	c #E5BEAD",
"Y2 	c #EAC3B2",
"Z2 	c #E5BEAC",
"`2 	c #E4BDAA",
" 3 	c #E6BDAB",
".3 	c #E8BDAC",
"+3 	c #E8BBAA",
"@3 	c #E6B8A7",
"#3 	c #E5B8A5",
"$3 	c #DEB19B",
"%3 	c #D2A48D",
"&3 	c #CE9F89",
"*3 	c #CEA088",
"=3 	c #CB9F86",
"-3 	c #CCA087",
";3 	c #C99D84",
">3 	c #C59880",
",3 	c #C2947C",
"'3 	c #C09279",
")3 	c #BF8F78",
"!3 	c #BB8872",
"~3 	c #B5836F",
"{3 	c #AD7E6A",
"]3 	c #A67D69",
"^3 	c #9F7F6F",
"/3 	c #9A8073",
"(3 	c #725A50",
"_3 	c #76635B",
":3 	c #6D5C57",
"<3 	c #5D4F4C",
"[3 	c #493F3C",
"}3 	c #453B3A",
"|3 	c #4D4443",
"13 	c #544A4B",
"23 	c #51464A",
"33 	c #54494E",
"43 	c #3C3235",
"53 	c #2A2021",
"63 	c #2B2122",
"73 	c #403738",
"83 	c #403537",
"93 	c #44383A",
"03 	c #463A3C",
"a3 	c #4E4244",
"b3 	c #4F4446",
"c3 	c #4A3E40",
"d3 	c #4C4040",
"e3 	c #443938",
"f3 	c #4C4140",
"g3 	c #605555",
"h3 	c #5E5353",
"i3 	c #121B1D",
"j3 	c #151C1E",
"k3 	c #111E1E",
"l3 	c #151F20",
"m3 	c #171D1F",
"n3 	c #312E31",
"o3 	c #978A8C",
"p3 	c #E5D3D3",
"q3 	c #ECD7D4",
"r3 	c #F0D7D2",
"s3 	c #F4D9D2",
"t3 	c #F2D6CC",
"u3 	c #F0D2C1",
"v3 	c #EFD2BE",
"w3 	c #F0D4BE",
"x3 	c #F2D6BE",
"y3 	c #F2D7BF",
"z3 	c #F2D5C1",
"A3 	c #F0D2BE",
"B3 	c #F1D2BE",
"C3 	c #F2D3BE",
"D3 	c #F4D4BF",
"E3 	c #F5D4C0",
"F3 	c #F0CDBA",
"G3 	c #EDC9B6",
"H3 	c #EAC6B4",
"I3 	c #EAC2B1",
"J3 	c #E7BDAD",
"K3 	c #E6BCAC",
"L3 	c #E8BEAE",
"M3 	c #E2B9A6",
"N3 	c #E2B69F",
"O3 	c #E1B49E",
"P3 	c #E5B8A2",
"Q3 	c #E1B5A1",
"R3 	c #DFB5A4",
"S3 	c #DEB3A3",
"T3 	c #DBAF9D",
"U3 	c #DBAD9A",
"V3 	c #DCAC99",
"W3 	c #DCAC97",
"X3 	c #DAAA94",
"Y3 	c #D6A690",
"Z3 	c #D5A58F",
"`3 	c #D4A48E",
" 4 	c #D0A08A",
".4 	c #CFA089",
"+4 	c #D4A690",
"@4 	c #D0A18D",
"#4 	c #D2A390",
"$4 	c #D1A28D",
"%4 	c #CC9E87",
"&4 	c #CD9F88",
"*4 	c #CA9C83",
"=4 	c #CFA188",
"-4 	c #C89A83",
";4 	c #CC9F87",
">4 	c #CB9D86",
",4 	c #CA9C85",
"'4 	c #C89A81",
")4 	c #C79980",
"!4 	c #C4967D",
"~4 	c #C1937A",
"{4 	c #BE8F77",
"]4 	c #BA8B73",
"^4 	c #B5866E",
"/4 	c #AC7E65",
"(4 	c #AC7F67",
"_4 	c #A57D68",
":4 	c #A68272",
"<4 	c #826458",
"[4 	c #7F6760",
"}4 	c #7B6967",
"|4 	c #6B5D5E",
"14 	c #4F4547",
"24 	c #453A3E",
"34 	c #3E3437",
"44 	c #51474B",
"54 	c #62585C",
"64 	c #574C50",
"74 	c #53484C",
"84 	c #44393D",
"94 	c #372C30",
"04 	c #302529",
"a4 	c #302528",
"b4 	c #352B2C",
"c4 	c #413736",
"d4 	c #5B5150",
"e4 	c #504645",
"f4 	c #564C46",
"g4 	c #4E443F",
"h4 	c #504543",
"i4 	c #5D5252",
"j4 	c #121B1C",
"k4 	c #131C1E",
"l4 	c #121E1E",
"m4 	c #161C1F",
"n4 	c #222126",
"o4 	c #736A6F",
"p4 	c #DDCED0",
"q4 	c #ECDBDB",
"r4 	c #F0DBD9",
"s4 	c #F1D8D4",
"t4 	c #EFD5CE",
"u4 	c #EED1C7",
"v4 	c #EFD2C2",
"w4 	c #F2D6C1",
"x4 	c #F1D5BF",
"y4 	c #F1D5BD",
"z4 	c #F1D6BE",
"A4 	c #F0D6C1",
"B4 	c #EFD0BC",
"C4 	c #EECDBA",
"D4 	c #F0D0BC",
"E4 	c #F0D0BB",
"F4 	c #EECDB8",
"G4 	c #ECC8B4",
"H4 	c #EBC6B3",
"I4 	c #E5C0AE",
"J4 	c #E6BEAD",
"K4 	c #E4BAAA",
"L4 	c #E2B8A8",
"M4 	c #E2BBAA",
"N4 	c #E1BAA9",
"O4 	c #E1B49F",
"P4 	c #DCAF99",
"Q4 	c #DEB19C",
"R4 	c #DFB09C",
"S4 	c #DAA892",
"T4 	c #D7A48D",
"U4 	c #D49F88",
"V4 	c #D4A18A",
"W4 	c #D8A892",
"X4 	c #D2A38B",
"Y4 	c #D2A48E",
"Z4 	c #D1A28E",
"`4 	c #D2A391",
" 5 	c #CA9C88",
".5 	c #C99B84",
"+5 	c #C99A84",
"@5 	c #C2947D",
"#5 	c #C59780",
"$5 	c #CA9B85",
"%5 	c #C69882",
"&5 	c #C59682",
"*5 	c #C89A85",
"=5 	c #C99A86",
"-5 	c #C89985",
";5 	c #CA9B86",
">5 	c #C59781",
",5 	c #C4967F",
"'5 	c #C59680",
")5 	c #C1927C",
"!5 	c #C0917B",
"~5 	c #BE907A",
"{5 	c #BB8D77",
"]5 	c #B0826B",
"^5 	c #AB7D66",
"/5 	c #A37862",
"(5 	c #98725F",
"_5 	c #947364",
":5 	c #7B6058",
"<5 	c #6A5653",
"[5 	c #655656",
"}5 	c #4B3F42",
"|5 	c #3F3539",
"15 	c #43383C",
"25 	c #463B3F",
"35 	c #42373B",
"45 	c #493E42",
"55 	c #554A4E",
"65 	c #564B4F",
"75 	c #493F43",
"85 	c #3A3031",
"95 	c #312726",
"05 	c #332A29",
"a5 	c #443A39",
"b5 	c #463C37",
"c5 	c #493E38",
"d5 	c #524846",
"e5 	c #1E1F23",
"f5 	c #4A4148",
"g5 	c #BFB1B8",
"h5 	c #EDDEE0",
"i5 	c #F2E0E0",
"j5 	c #F3DFDC",
"k5 	c #F6DDD9",
"l5 	c #F3D8D2",
"m5 	c #F0D3C9",
"n5 	c #EFD2C0",
"o5 	c #EFD3BE",
"p5 	c #EED2BD",
"q5 	c #EFD3BB",
"r5 	c #F0D5BE",
"s5 	c #EED4BF",
"t5 	c #F1D4BF",
"u5 	c #EECFBB",
"v5 	c #EECFBA",
"w5 	c #EFCFBA",
"x5 	c #F0CFBA",
"y5 	c #E9C4B1",
"z5 	c #E8C3B0",
"A5 	c #E8C4B2",
"B5 	c #E7C2B0",
"C5 	c #E7BFAE",
"D5 	c #E1B7A7",
"E5 	c #E5BAAA",
"F5 	c #E6BBAB",
"G5 	c #E5B7A7",
"H5 	c #E4B6A6",
"I5 	c #E1B3A2",
"J5 	c #E1B3A3",
"K5 	c #E2B4A4",
"L5 	c #DEB1A0",
"M5 	c #DFB2A1",
"N5 	c #DFB19F",
"O5 	c #DDAD9A",
"P5 	c #D9A893",
"Q5 	c #D2A08A",
"R5 	c #D3A18B",
"S5 	c #D1A18B",
"T5 	c #D3A38D",
"U5 	c #D7A791",
"V5 	c #D1A28A",
"W5 	c #D3A58C",
"X5 	c #CE9F8A",
"Y5 	c #D5A694",
"Z5 	c #CFA08C",
"`5 	c #CC9D8A",
" 6 	c #CB9C89",
".6 	c #C69784",
"+6 	c #C49582",
"@6 	c #C39482",
"#6 	c #C39484",
"$6 	c #C69787",
"%6 	c #C99A89",
"&6 	c #C99A8A",
"*6 	c #C79886",
"=6 	c #C29380",
"-6 	c #C1927F",
";6 	c #C0917E",
">6 	c #BD8E7B",
",6 	c #B98A76",
"'6 	c #BE8F7C",
")6 	c #B48672",
"!6 	c #AA7B68",
"~6 	c #9F725C",
"{6 	c #966D58",
"]6 	c #957160",
"^6 	c #806257",
"/6 	c #6E5852",
"(6 	c #6B5A57",
"_6 	c #5C5051",
":6 	c #4A3F43",
"<6 	c #3D3337",
"[6 	c #33292D",
"}6 	c #34292D",
"|6 	c #32282B",
"16 	c #342A2D",
"26 	c #3E3337",
"36 	c #473D40",
"46 	c #514748",
"56 	c #5E5554",
"66 	c #4E4544",
"76 	c #403736",
"86 	c #332923",
"96 	c #3B302A",
"06 	c #3D322D",
"a6 	c #3E3431",
"b6 	c #473B3B",
"c6 	c #141C1E",
"d6 	c #121D1C",
"e6 	c #131E1D",
"f6 	c #161E1F",
"g6 	c #252427",
"h6 	c #8F8289",
"i6 	c #EAD7DF",
"j6 	c #EFDFE3",
"k6 	c #F3E3E5",
"l6 	c #F4E2E2",
"m6 	c #F6DEDB",
"n6 	c #F4D7CF",
"o6 	c #F2D2C5",
"p6 	c #F1D0BF",
"q6 	c #F0CFBD",
"r6 	c #EECEBA",
"s6 	c #EECEB9",
"t6 	c #EFD0BB",
"u6 	c #ECD0BA",
"v6 	c #EDD0BB",
"w6 	c #EFD1BC",
"x6 	c #EED0BB",
"y6 	c #EECCB8",
"z6 	c #ECC6B4",
"A6 	c #E7BEAD",
"B6 	c #E5BDAD",
"C6 	c #E5BCAB",
"D6 	c #E5BBAB",
"E6 	c #E3B8A8",
"F6 	c #E4B9A9",
"G6 	c #E0B5A5",
"H6 	c #DFB4A4",
"I6 	c #E0B2A2",
"J6 	c #E1B3A4",
"K6 	c #DEB0A0",
"L6 	c #DBAD9D",
"M6 	c #DCAFA0",
"N6 	c #DDB1A1",
"O6 	c #DCB0A0",
"P6 	c #D9AB9B",
"Q6 	c #D9AB9A",
"R6 	c #D8A998",
"S6 	c #D3A492",
"T6 	c #D3A390",
"U6 	c #D1A18F",
"V6 	c #D0A08E",
"W6 	c #CE9F8C",
"X6 	c #D1A18E",
"Y6 	c #D2A38E",
"Z6 	c #D2A38D",
"`6 	c #CD9E89",
" 7 	c #CFA08B",
".7 	c #D4A490",
"+7 	c #D2A28F",
"@7 	c #C79982",
"#7 	c #C79983",
"$7 	c #D1A38E",
"%7 	c #CB9D89",
"&7 	c #C99B89",
"*7 	c #CB9D8C",
"=7 	c #CA9B8A",
"-7 	c #C79988",
";7 	c #C69887",
">7 	c #C49685",
",7 	c #C49585",
"'7 	c #C59686",
")7 	c #C79888",
"!7 	c #C89989",
"~7 	c #C59685",
"{7 	c #C39483",
"]7 	c #C09180",
"^7 	c #C29382",
"/7 	c #C19281",
"(7 	c #BA8B7A",
"_7 	c #B58776",
":7 	c #B88979",
"<7 	c #B48574",
"[7 	c #AF8070",
"}7 	c #A07562",
"|7 	c #936B57",
"17 	c #8C6755",
"27 	c #8A695C",
"37 	c #795F57",
"47 	c #614E4B",
"57 	c #554849",
"67 	c #4E4447",
"77 	c #32272B",
"87 	c #2B2125",
"97 	c #32272D",
"07 	c #372D31",
"a7 	c #30272B",
"b7 	c #2E2429",
"c7 	c #382E32",
"d7 	c #3A3035",
"e7 	c #3F3639",
"f7 	c #3C3336",
"g7 	c #4B4343",
"h7 	c #433B3A",
"i7 	c #49413E",
"j7 	c #635B57",
"k7 	c #4E453E",
"l7 	c #413730",
"m7 	c #3A2F2A",
"n7 	c #3C312E",
"o7 	c #463A3A",
"p7 	c #141E1D",
"q7 	c #191E1F",
"r7 	c #4C474B",
"s7 	c #D0C2C9",
"t7 	c #F1DEE7",
"u7 	c #F2E1EA",
"v7 	c #F0E0EA",
"w7 	c #F1DFE8",
"x7 	c #F2D9DD",
"y7 	c #F1D1CF",
"z7 	c #F4CFC6",
"A7 	c #F1CEBB",
"B7 	c #F2CFBC",
"C7 	c #F2D0BC",
"D7 	c #EDCEB9",
"E7 	c #EACCB8",
"F7 	c #EDCCB9",
"G7 	c #EBC7B4",
"H7 	c #E9C0B0",
"I7 	c #E3B9A9",
"J7 	c #E5B7A8",
"K7 	c #E6B8A9",
"L7 	c #E4B6A7",
"M7 	c #E3B5A6",
"N7 	c #E0B2A3",
"O7 	c #DEB0A1",
"P7 	c #DFB1A2",
"Q7 	c #DBAD9E",
"R7 	c #DAAC9D",
"S7 	c #D9AA9A",
"T7 	c #D8A999",
"U7 	c #D6A797",
"V7 	c #D3A494",
"W7 	c #D2A393",
"X7 	c #D0A191",
"Y7 	c #CFA090",
"Z7 	c #CE9E8D",
"`7 	c #CE9E8A",
" 8 	c #CC9C88",
".8 	c #C99985",
"+8 	c #CB9B87",
"@8 	c #CD9D89",
"#8 	c #CB9B86",
"$8 	c #C99B85",
"%8 	c #C69782",
"&8 	c #C69785",
"*8 	c #CC9D8D",
"=8 	c #C79889",
"-8 	c #CB9D8D",
";8 	c #CA9C8C",
">8 	c #C99B8B",
",8 	c #C59787",
"'8 	c #C29484",
")8 	c #BF9080",
"!8 	c #BD8E7E",
"~8 	c #C19282",
"{8 	c #C29383",
"]8 	c #BA8C7C",
"^8 	c #B98B7B",
"/8 	c #B58777",
"(8 	c #B38575",
"_8 	c #AF8171",
":8 	c #A67C6B",
"<8 	c #926A59",
"[8 	c #896150",
"}8 	c #835E51",
"|8 	c #7E6159",
"18 	c #624C4B",
"28 	c #524545",
"38 	c #4F4544",
"48 	c #463C40",
"58 	c #2F252B",
"68 	c #30252D",
"78 	c #392F35",
"88 	c #332A2F",
"98 	c #322A2E",
"08 	c #362E32",
"a8 	c #32292E",
"b8 	c #31282D",
"c8 	c #2C2328",
"d8 	c #322A2D",
"e8 	c #494042",
"f8 	c #473F3F",
"g8 	c #3F3735",
"h8 	c #574F4D",
"i8 	c #4F4540",
"j8 	c #514741",
"k8 	c #5B504C",
"l8 	c #3F3435",
"m8 	c #16191C",
"n8 	c #171A1D",
"o8 	c #171C1E",
"p8 	c #141F1E",
"q8 	c #2B2F2F",
"r8 	c #2D282C",
"s8 	c #96898F",
"t8 	c #EBDBE3",
"u8 	c #F4E2EB",
"v8 	c #F7E6F1",
"w8 	c #F3E3EF",
"x8 	c #F2E0EA",
"y8 	c #F1D9DE",
"z8 	c #F1D1D0",
"A8 	c #ECC8C0",
"B8 	c #EBC8B6",
"C8 	c #EDCAB6",
"D8 	c #EECAB7",
"E8 	c #EDC7B5",
"F8 	c #E5BDAC",
"G8 	c #E1B6A6",
"H8 	c #DFB5A5",
"I8 	c #DDB3A3",
"J8 	c #E0B6A6",
"K8 	c #E2B4A5",
"L8 	c #D7A99A",
"M8 	c #D5A696",
"N8 	c #D7A898",
"O8 	c #D4A595",
"P8 	c #CB9C8C",
"Q8 	c #CD9E8E",
"R8 	c #CA9B8B",
"S8 	c #CA9A86",
"T8 	c #C79783",
"U8 	c #C89884",
"V8 	c #C79884",
"W8 	c #CB9B8C",
"X8 	c #C9998B",
"Y8 	c #C8988C",
"Z8 	c #CA9B8D",
"`8 	c #C89A8A",
" 9 	c #C39585",
".9 	c #C19383",
"+9 	c #BE8F7F",
"@9 	c #BA8B7B",
"#9 	c #BB8D7D",
"$9 	c #B68878",
"%9 	c #A97B6B",
"&9 	c #A47968",
"*9 	c #976B5C",
"=9 	c #916556",
"-9 	c #825A4E",
";9 	c #805F59",
">9 	c #705756",
",9 	c #4C3D3D",
"'9 	c #473D3D",
")9 	c #4C4244",
"!9 	c #43383E",
"~9 	c #3C3139",
"{9 	c #362C32",
"]9 	c #3C3338",
"^9 	c #484045",
"/9 	c #362D32",
"(9 	c #2F262A",
"_9 	c #342B2E",
":9 	c #2F2629",
"<9 	c #3E3639",
"[9 	c #443B40",
"}9 	c #2C2221",
"|9 	c #685C5D",
"19 	c #6E6365",
"29 	c #62565A",
"39 	c #16171B",
"49 	c #17181C",
"59 	c #15191C",
"69 	c #131E1C",
"79 	c #202223",
"89 	c #53484E",
"99 	c #D0C0C7",
"09 	c #F1E1E8",
"a9 	c #F1E0E6",
"b9 	c #EFDFE5",
"c9 	c #EEDCE0",
"d9 	c #EDD5D5",
"e9 	c #EFD0C9",
"f9 	c #F0CDBB",
"g9 	c #EECCB9",
"h9 	c #E5C0AD",
"i9 	c #E7C2AF",
"j9 	c #E8C1AF",
"k9 	c #E8BDAD",
"l9 	c #E2B7A7",
"m9 	c #E1B8A8",
"n9 	c #E2B6A6",
"o9 	c #DDAFA0",
"p9 	c #D8AA9B",
"q9 	c #D2A495",
"r9 	c #CF9F90",
"s9 	c #CF9E8F",
"t9 	c #D0A091",
"u9 	c #CF9F8F",
"v9 	c #CB9B8B",
"w9 	c #C99989",
"x9 	c #CC9C8C",
"y9 	c #C89889",
"z9 	c #CA9A88",
"A9 	c #C2927E",
"B9 	c #BE8E7A",
"C9 	c #BE8F7B",
"D9 	c #C59583",
"E9 	c #C8998A",
"F9 	c #C7978A",
"G9 	c #C7978C",
"H9 	c #C59588",
"I9 	c #BB8C7C",
"J9 	c #BA8B7C",
"K9 	c #B98A7A",
"L9 	c #BE8E7E",
"M9 	c #C09181",
"N9 	c #BF9180",
"O9 	c #BA8C7B",
"P9 	c #B48675",
"Q9 	c #AF8170",
"R9 	c #AA7C6C",
"S9 	c #A17263",
"T9 	c #9A6C5E",
"U9 	c #8B6155",
"V9 	c #795550",
"W9 	c #705352",
"X9 	c #534242",
"Y9 	c #403535",
"Z9 	c #453A41",
"`9 	c #41373F",
" 0 	c #3D343A",
".0 	c #3A3136",
"+0 	c #40383C",
"@0 	c #473E43",
"#0 	c #463D42",
"$0 	c #41383B",
"%0 	c #393032",
"&0 	c #221A1E",
"*0 	c #160C14",
"=0 	c #3C343C",
"-0 	c #443A44",
";0 	c #382D30",
">0 	c #362C2B",
",0 	c #463B3B",
"'0 	c #473C3D",
")0 	c #3C3134",
"!0 	c #62565B",
"~0 	c #15181B",
"{0 	c #171A1B",
"]0 	c #262124",
"^0 	c #897C82",
"/0 	c #EAD7E0",
"(0 	c #F4E0E9",
"_0 	c #F1DFE7",
":0 	c #F3DFE6",
"<0 	c #EFDDE5",
"[0 	c #F0DCE1",
"}0 	c #F2D8D9",
"|0 	c #EFCDC7",
"10 	c #EAC4B9",
"20 	c #E8C6B3",
"30 	c #E6C4B1",
"40 	c #EBCAB7",
"50 	c #E8CBB5",
"60 	c #E9CBB6",
"70 	c #EAC9B4",
"80 	c #ECC9B5",
"90 	c #EFCAB7",
"00 	c #ECC7B3",
"a0 	c #E8C2AD",
"b0 	c #E4BDAD",
"c0 	c #E0B8AC",
"d0 	c #DCB4A6",
"e0 	c #DEB4A4",
"f0 	c #DFB3A3",
"g0 	c #E0B1A2",
"h0 	c #E0B0A2",
"i0 	c #E1B1A2",
"j0 	c #DBAD9C",
"k0 	c #DBAD9B",
"l0 	c #DBAE9C",
"m0 	c #DCAF9D",
"n0 	c #DDAF9F",
"o0 	c #DCAEA1",
"p0 	c #DEB0A3",
"q0 	c #D9AB9E",
"r0 	c #D8AA9D",
"s0 	c #D4A699",
"t0 	c #D2A496",
"u0 	c #D1A393",
"v0 	c #CF9C8E",
"w0 	c #CD998B",
"x0 	c #C48F81",
"y0 	c #C59082",
"z0 	c #CC9789",
"A0 	c #CA9587",
"B0 	c #CC9988",
"C0 	c #CA9A87",
"D0 	c #C79784",
"E0 	c #BF8F7C",
"F0 	c #C08F7C",
"G0 	c #C2917E",
"H0 	c #C49483",
"I0 	c #C29284",
"J0 	c #C49486",
"K0 	c #C79789",
"L0 	c #C59587",
"M0 	c #C59486",
"N0 	c #C08F80",
"O0 	c #BE8D7E",
"P0 	c #BD8C7D",
"Q0 	c #BA897A",
"R0 	c #BB8A7B",
"S0 	c #BC8C7D",
"T0 	c #BC8B7C",
"U0 	c #B58475",
"V0 	c #BD8D7D",
"W0 	c #B48575",
"X0 	c #BC8D7D",
"Y0 	c #BD8E7C",
"Z0 	c #BA8B78",
"`0 	c #B68773",
" a 	c #B48572",
".a 	c #B58672",
"+a 	c #B2836F",
"@a 	c #AD7E6D",
"#a 	c #A17363",
"$a 	c #976C5E",
"%a 	c #8C645A",
"&a 	c #76524A",
"*a 	c #72504A",
"=a 	c #5F4643",
"-a 	c #514040",
";a 	c #4C3D3F",
">a 	c #403439",
",a 	c #3D333B",
"'a 	c #443E47",
")a 	c #453D44",
"!a 	c #3E353A",
"~a 	c #433A3F",
"{a 	c #4C4448",
"]a 	c #4E454A",
"^a 	c #4A4146",
"/a 	c #50474D",
"(a 	c #564D53",
"_a 	c #483F45",
":a 	c #3B3239",
"<a 	c #30272D",
"[a 	c #322A30",
"}a 	c #312D2F",
"|a 	c #2E2929",
"1a 	c #35302F",
"2a 	c #393232",
"3a 	c #443A3C",
"4a 	c #392E31",
"5a 	c #4A4548",
"6a 	c #B6A9AF",
"7a 	c #F3E0E9",
"8a 	c #F6E3EC",
"9a 	c #F4E2E9",
"0a 	c #F2DFE3",
"aa 	c #F0DFE3",
"ba 	c #EFDCDE",
"ca 	c #EFD5D3",
"da 	c #E9C7BF",
"ea 	c #E6C0B2",
"fa 	c #E6C1AF",
"ga 	c #E4C0AE",
"ha 	c #E6C3AC",
"ia 	c #E2BFA8",
"ja 	c #E4BEA8",
"ka 	c #E7BFAA",
"la 	c #E5BBA7",
"ma 	c #E7BEAA",
"na 	c #E5BBAA",
"oa 	c #DEB4A5",
"pa 	c #DDB2A6",
"qa 	c #DCB1A4",
"ra 	c #DDB2A2",
"sa 	c #DBAF9F",
"ta 	c #DBAC9E",
"ua 	c #DBAA9C",
"va 	c #DDAC9E",
"wa 	c #D9AB9C",
"xa 	c #DAAC9E",
"ya 	c #D7A99C",
"za 	c #D2A497",
"Aa 	c #CFA195",
"Ba 	c #CC9E90",
"Ca 	c #CE9F8F",
"Da 	c #CD9B8C",
"Ea 	c #D09C8E",
"Fa 	c #CB9688",
"Ga 	c #C99486",
"Ha 	c #C69183",
"Ia 	c #C49082",
"Ja 	c #C39281",
"Ka 	c #C69585",
"La 	c #C29181",
"Ma 	c #C49383",
"Na 	c #C59484",
"Oa 	c #C69586",
"Pa 	c #C19183",
"Qa 	c #C09082",
"Ra 	c #BE8E7F",
"Sa 	c #C29182",
"Ta 	c #C19081",
"Ua 	c #BB8C79",
"Va 	c #B0816D",
"Wa 	c #AA7B69",
"Xa 	c #9E7161",
"Ya 	c #996F60",
"Za 	c #8B6459",
"`a 	c #7D5850",
" b 	c #603E38",
".b 	c #654D48",
"+b 	c #443230",
"@b 	c #413333",
"#b 	c #493E40",
"$b 	c #433B40",
"%b 	c #3A343B",
"&b 	c #3B3339",
"*b 	c #42393E",
"=b 	c #383034",
"-b 	c #332B2F",
";b 	c #453C41",
">b 	c #42393D",
",b 	c #443B3F",
"'b 	c #4B4246",
")b 	c #4C4346",
"!b 	c #4A4144",
"~b 	c #342C2F",
"{b 	c #2A252B",
"]b 	c #3B353D",
"^b 	c #2E272F",
"/b 	c #281F28",
"(b 	c #51464F",
"_b 	c #493D47",
":b 	c #2B2D2E",
"<b 	c #625C60",
"[b 	c #D4C7CE",
"}b 	c #F0DEE6",
"|b 	c #F3DFE8",
"1b 	c #F0DFE5",
"2b 	c #F1DFE0",
"3b 	c #F0E0E0",
"4b 	c #EBD9D8",
"5b 	c #ECD2CD",
"6b 	c #EBCABF",
"7b 	c #EAC4B4",
"8b 	c #E6BDAD",
"9b 	c #E8BFAF",
"0b 	c #E4BCA9",
"ab 	c #E5BCA4",
"bb 	c #E2B9A0",
"cb 	c #E1B59D",
"db 	c #E3B59F",
"eb 	c #E5B69F",
"fb 	c #E5B6A1",
"gb 	c #DFB29F",
"hb 	c #D8AA9A",
"ib 	c #D6A899",
"jb 	c #D5A799",
"kb 	c #D5A79C",
"lb 	c #D7AA9E",
"mb 	c #D8AE9E",
"nb 	c #DAAF9F",
"ob 	c #D8AC9D",
"pb 	c #DCAD9E",
"qb 	c #DCAC9E",
"rb 	c #DAAA9D",
"sb 	c #DBADA1",
"tb 	c #D9AB9F",
"ub 	c #D7A99D",
"vb 	c #D8AA9E",
"wb 	c #D7A89D",
"xb 	c #D3A599",
"yb 	c #D1A396",
"zb 	c #CFA194",
"Ab 	c #CD9F92",
"Bb 	c #CB9D90",
"Cb 	c #C6988A",
"Db 	c #CD9D8D",
"Eb 	c #C99788",
"Fb 	c #CA9688",
"Gb 	c #C59183",
"Hb 	c #C79284",
"Ib 	c #C89486",
"Jb 	c #C29183",
"Kb 	c #C49385",
"Lb 	c #C19083",
"Mb 	c #C39284",
"Nb 	c #C39385",
"Ob 	c #BF8F81",
"Pb 	c #BD8D7F",
"Qb 	c #B68677",
"Rb 	c #B98879",
"Sb 	c #B78677",
"Tb 	c #B88778",
"Ub 	c #C19182",
"Vb 	c #B58576",
"Wb 	c #B68777",
"Xb 	c #B78878",
"Yb 	c #B98A77",
"Zb 	c #B78874",
"`b 	c #B48571",
" c 	c #AF806C",
".c 	c #A97A68",
"+c 	c #9A6F61",
"@c 	c #886156",
"#c 	c #805C54",
"$c 	c #65433D",
"%c 	c #5F4741",
"&c 	c #4B3A34",
"*c 	c #392A27",
"=c 	c #312625",
"-c 	c #3E383C",
";c 	c #3E363B",
">c 	c #3F363B",
",c 	c #3B3237",
"'c 	c #342C30",
")c 	c #372E33",
"!c 	c #3C3335",
"~c 	c #3F3736",
"{c 	c #3C3433",
"]c 	c #3D3534",
"^c 	c #4C4443",
"/c 	c #524A49",
"(c 	c #4C474D",
"_c 	c #514A51",
":c 	c #362F35",
"<c 	c #3B3139",
"[c 	c #4A3E46",
"}c 	c #18191D",
"|c 	c #343339",
"1c 	c #7D747C",
"2c 	c #E5D6DF",
"3c 	c #F0DDE6",
"4c 	c #EFDDE4",
"5c 	c #F0DFE2",
"6c 	c #F1DED8",
"7c 	c #EED9D3",
"8c 	c #EFD6D0",
"9c 	c #EBCDC7",
"0c 	c #ECCAC1",
"ac 	c #E7C2B7",
"bc 	c #E7C0AE",
"cc 	c #E5BDAA",
"dc 	c #E2B9A3",
"ec 	c #E0B59F",
"fc 	c #DFB39D",
"gc 	c #DEB09B",
"hc 	c #DBAB97",
"ic 	c #D5A290",
"jc 	c #CF9B8B",
"kc 	c #D09D8E",
"lc 	c #D4A194",
"mc 	c #D2A094",
"nc 	c #D6A59B",
"oc 	c #D7A89B",
"pc 	c #D9AA99",
"qc 	c #DAAB9B",
"rc 	c #DAAA9C",
"sc 	c #DBAB9E",
"tc 	c #DBAA9F",
"uc 	c #D7A69B",
"vc 	c #D1A196",
"wc 	c #CB9A8F",
"xc 	c #CA9A8F",
"yc 	c #D1A095",
"zc 	c #D2A296",
"Ac 	c #D09F93",
"Bc 	c #CE9C8F",
"Cc 	c #D19F92",
"Dc 	c #CA988B",
"Ec 	c #CD9B8E",
"Fc 	c #CB998B",
"Gc 	c #CB9889",
"Hc 	c #C99587",
"Ic 	c #C28D7F",
"Jc 	c #C18D7F",
"Kc 	c #C79385",
"Lc 	c #C38F81",
"Mc 	c #C49183",
"Nc 	c #C79688",
"Oc 	c #BF8E80",
"Pc 	c #BB8A7C",
"Qc 	c #B88879",
"Rc 	c #BA8A7B",
"Sc 	c #BE8D7F",
"Tc 	c #BF8E7F",
"Uc 	c #BC8B7B",
"Vc 	c #BA8977",
"Wc 	c #BB8A78",
"Xc 	c #B58572",
"Yc 	c #AE7D6B",
"Zc 	c #B88875",
"`c 	c #BB8B78",
" d 	c #BB8B79",
".d 	c #B98976",
"+d 	c #B78774",
"@d 	c #B78674",
"#d 	c #B48471",
"$d 	c #B0816E",
"%d 	c #B1826F",
"&d 	c #B88977",
"*d 	c #B58673",
"=d 	c #B38471",
"-d 	c #B28370",
";d 	c #B48671",
">d 	c #AB7D67",
",d 	c #A67761",
"'d 	c #AC7E68",
")d 	c #AE8069",
"!d 	c #AD7F69",
"~d 	c #AB7D69",
"{d 	c #A27664",
"]d 	c #996F5F",
"^d 	c #845E50",
"/d 	c #77554A",
"(d 	c #67473E",
"_d 	c #593F3A",
":d 	c #4D3735",
"<d 	c #3E2B2B",
"[d 	c #362629",
"}d 	c #31242A",
"|d 	c #362C33",
"1d 	c #3A3037",
"2d 	c #3E343B",
"3d 	c #453C43",
"4d 	c #433940",
"5d 	c #443B42",
"6d 	c #493F46",
"7d 	c #473D41",
"8d 	c #43393C",
"9d 	c #403639",
"0d 	c #42383B",
"ad 	c #443A3D",
"bd 	c #463E3F",
"cd 	c #4C4445",
"dd 	c #544D50",
"ed 	c #685F63",
"fd 	c #6F666C",
"gd 	c #645A62",
"hd 	c #1B1B20",
"id 	c #3D393F",
"jd 	c #9F949C",
"kd 	c #ECDAE2",
"ld 	c #F2DDE4",
"md 	c #F1DEE3",
"nd 	c #F0DDE1",
"od 	c #F1D7D9",
"pd 	c #EDD0CE",
"qd 	c #E7C6BF",
"rd 	c #E7C4BA",
"sd 	c #E8C4B5",
"td 	c #E3BDAA",
"ud 	c #E1BBA8",
"vd 	c #E1BAA6",
"wd 	c #E1B8A2",
"xd 	c #DDB39D",
"yd 	c #E2B7A2",
"zd 	c #E4B5A1",
"Ad 	c #E0B19D",
"Bd 	c #DEAE9B",
"Cd 	c #DEAF9D",
"Dd 	c #DDAF9E",
"Ed 	c #D9AD9D",
"Fd 	c #D4A99B",
"Gd 	c #D5ACA0",
"Hd 	c #D4AB9C",
"Id 	c #D1A895",
"Jd 	c #D2A896",
"Kd 	c #D2A898",
"Ld 	c #D2A899",
"Md 	c #D0A59A",
"Nd 	c #CBA093",
"Od 	c #C69C8E",
"Pd 	c #C99E91",
"Qd 	c #CDA295",
"Rd 	c #D2A89A",
"Sd 	c #CBA193",
"Td 	c #C89B8D",
"Ud 	c #C89789",
"Vd 	c #C69587",
"Wd 	c #BE897B",
"Xd 	c #BD887A",
"Yd 	c #BF8A7C",
"Zd 	c #BF887B",
"`d 	c #BD8377",
" e 	c #BE8478",
".e 	c #C2887C",
"+e 	c #C3897D",
"@e 	c #C18B7D",
"#e 	c #C49384",
"$e 	c #BD8C7B",
"%e 	c #BA8A76",
"&e 	c #B88874",
"*e 	c #B48470",
"=e 	c #B2826E",
"-e 	c #B58571",
";e 	c #B78773",
">e 	c #B68672",
",e 	c #B38470",
"'e 	c #B78872",
")e 	c #B3856E",
"!e 	c #B2846D",
"~e 	c #A77962",
"{e 	c #A2755F",
"]e 	c #986D5A",
"^e 	c #956D5C",
"/e 	c #866152",
"(e 	c #79574B",
"_e 	c #6B4C42",
":e 	c #593D38",
"<e 	c #4E3634",
"[e 	c #422E2E",
"}e 	c #3B292C",
"|e 	c #38292F",
"1e 	c #31252D",
"2e 	c #342B30",
"3e 	c #30272C",
"4e 	c #332A2E",
"5e 	c #483F43",
"6e 	c #453B3E",
"7e 	c #403638",
"8e 	c #382E30",
"9e 	c #473C3F",
"0e 	c #483E40",
"ae 	c #4D4545",
"be 	c #4C4442",
"ce 	c #4B4244",
"de 	c #584F54",
"ee 	c #675D65",
"fe 	c #191A1E",
"ge 	c #3D363A",
"he 	c #BDAFB4",
"ie 	c #EDD8DE",
"je 	c #EFD9DC",
"ke 	c #EDD7D9",
"le 	c #F3D7DA",
"me 	c #F3D6D6",
"ne 	c #EDCDC8",
"oe 	c #E8C4BB",
"pe 	c #E9C2B6",
"qe 	c #E5BEAE",
"re 	c #E4BEAB",
"se 	c #DFB9A6",
"te 	c #E2BBA7",
"ue 	c #DFB6A0",
"ve 	c #E0B6A0",
"we 	c #DEB39D",
"xe 	c #DCAD99",
"ye 	c #DBAC98",
"ze 	c #DBAF9C",
"Ae 	c #DBB09F",
"Be 	c #D7AE9D",
"Ce 	c #D6AF9F",
"De 	c #D5AFA1",
"Ee 	c #D5AE9F",
"Fe 	c #D6AD99",
"Ge 	c #D6AC9A",
"He 	c #D6AB9B",
"Ie 	c #D3A99A",
"Je 	c #D2A79B",
"Ke 	c #D5A99D",
"Le 	c #D0A597",
"Me 	c #D4AA9C",
"Ne 	c #D3A89A",
"Oe 	c #D4A799",
"Pe 	c #D5A798",
"Qe 	c #D4A697",
"Re 	c #D3A596",
"Se 	c #CFA192",
"Te 	c #CE9D8F",
"Ue 	c #D09B8D",
"Ve 	c #CD988A",
"We 	c #CC978A",
"Xe 	c #C58E81",
"Ye 	c #C1887C",
"Ze 	c #C48A7E",
"`e 	c #BF8579",
" f 	c #BB8577",
".f 	c #B78675",
"+f 	c #B3856F",
"@f 	c #B1836C",
"#f 	c #AD7F68",
"$f 	c #A4765F",
"%f 	c #A37660",
"&f 	c #966B58",
"*f 	c #8D6553",
"=f 	c #7F5A4B",
"-f 	c #775549",
";f 	c #6E4F44",
">f 	c #5E433C",
",f 	c #533C37",
"'f 	c #4C3835",
")f 	c #3A2928",
"!f 	c #302224",
"~f 	c #2B1F23",
"{f 	c #2E2528",
"]f 	c #32292A",
"^f 	c #2A2223",
"/f 	c #2A2123",
"(f 	c #31282A",
"_f 	c #372E2F",
":f 	c #403737",
"<f 	c #443B39",
"[f 	c #3E3634",
"}f 	c #413938",
"|f 	c #463E40",
"1f 	c #544B4E",
"2f 	c #62595F",
"3f 	c #736971",
"4f 	c #1F2024",
"5f 	c #2A292D",
"6f 	c #DECFD4",
"7f 	c #F0DCE0",
"8f 	c #F3DCDF",
"9f 	c #F2DBDC",
"0f 	c #F0D8D4",
"af 	c #ECCFC2",
"bf 	c #EECEC0",
"cf 	c #EFCBBC",
"df 	c #EBC6B6",
"ef 	c #E4BEAC",
"ff 	c #DDB7A4",
"gf 	c #DFB8A4",
"hf 	c #DCB39D",
"if 	c #D7AC96",
"jf 	c #D7AB96",
"kf 	c #DDAE9A",
"lf 	c #D8A895",
"mf 	c #D7A897",
"nf 	c #DAAD9C",
"of 	c #D9AC9D",
"pf 	c #D4A99A",
"qf 	c #D3A99B",
"rf 	c #D3A799",
"sf 	c #D3A493",
"tf 	c #D4A495",
"uf 	c #D3A395",
"vf 	c #D0A093",
"wf 	c #D3A397",
"xf 	c #D9A89C",
"yf 	c #D6A498",
"zf 	c #D19F93",
"Af 	c #D6A499",
"Bf 	c #D7A59A",
"Cf 	c #D7A499",
"Df 	c #D4A396",
"Ef 	c #D1A495",
"Ff 	c #D1A494",
"Gf 	c #CEA091",
"Hf 	c #CC9B8D",
"If 	c #C89384",
"Jf 	c #C48F7F",
"Kf 	c #C58F7F",
"Lf 	c #C28E7E",
"Mf 	c #BE8B7B",
"Nf 	c #C18E7E",
"Of 	c #C39081",
"Pf 	c #C49282",
"Qf 	c #C39181",
"Rf 	c #BE8C7D",
"Sf 	c #B68576",
"Tf 	c #B48374",
"Uf 	c #BA8879",
"Vf 	c #B98777",
"Wf 	c #B88676",
"Xf 	c #B78575",
"Yf 	c #B88575",
"Zf 	c #B68573",
"`f 	c #B68673",
" g 	c #B98975",
".g 	c #B3836F",
"+g 	c #B1826D",
"@g 	c #B48570",
"#g 	c #B2836E",
"$g 	c #B0816B",
"%g 	c #AF8069",
"&g 	c #A97B64",
"*g 	c #A57760",
"=g 	c #A4755F",
"-g 	c #A3745F",
";g 	c #9D705C",
">g 	c #946A57",
",g 	c #704C3D",
"'g 	c #6B493E",
")g 	c #775950",
"!g 	c #61463F",
"~g 	c #5A443D",
"{g 	c #56423E",
"]g 	c #42302D",
"^g 	c #352626",
"/g 	c #322526",
"(g 	c #221918",
"_g 	c #2C2422",
":g 	c #261E1C",
"<g 	c #211917",
"[g 	c #241C1A",
"}g 	c #2A211F",
"|g 	c #2C2220",
"1g 	c #352C2A",
"2g 	c #3E3533",
"3g 	c #4B4240",
"4g 	c #554C4A",
"5g 	c #58504F",
"6g 	c #5A5152",
"7g 	c #5F5658",
"8g 	c #524A4D",
"9g 	c #534A4F",
"0g 	c #60575E",
"ag 	c #353036",
"bg 	c #978C94",
"cg 	c #EADDE4",
"dg 	c #F0DCDD",
"eg 	c #F2DBDA",
"fg 	c #F1D7D4",
"gg 	c #ECCFC5",
"hg 	c #EDCEC2",
"ig 	c #EBCBBB",
"jg 	c #EBC9B6",
"kg 	c #EBC8B2",
"lg 	c #EBC8B1",
"mg 	c #F0CBB8",
"ng 	c #EDC8B5",
"og 	c #E3BEAA",
"pg 	c #E1BBA5",
"qg 	c #DEB7A2",
"rg 	c #DCB39E",
"sg 	c #DFB39F",
"tg 	c #DDB09D",
"ug 	c #DBB1A1",
"vg 	c #D4AA9A",
"wg 	c #D5A99A",
"xg 	c #D6A698",
"yg 	c #D3A193",
"zg 	c #D7A497",
"Ag 	c #DBA99B",
"Bg 	c #DAA89A",
"Cg 	c #D6A496",
"Dg 	c #D4A294",
"Eg 	c #D29F92",
"Fg 	c #D19F91",
"Gg 	c #CF9D8F",
"Hg 	c #CE9C8E",
"Ig 	c #CD9B8D",
"Jg 	c #C99889",
"Kg 	c #C89687",
"Lg 	c #C59180",
"Mg 	c #C58F7C",
"Ng 	c #C68F7B",
"Og 	c #C48D7A",
"Pg 	c #C08978",
"Qg 	c #BD8775",
"Rg 	c #BF8877",
"Sg 	c #C18B79",
"Tg 	c #C48D7C",
"Ug 	c #B38273",
"Vg 	c #B58271",
"Wg 	c #B47F6D",
"Xg 	c #AA7563",
"Yg 	c #A67260",
"Zg 	c #B78270",
"`g 	c #BB8674",
" h 	c #BC8976",
".h 	c #BB8B77",
"+h 	c #B0806C",
"@h 	c #AE7E6A",
"#h 	c #B2826D",
"$h 	c #B2826C",
"%h 	c #B0806A",
"&h 	c #B1816B",
"*h 	c #AD7D67",
"=h 	c #AF7F68",
"-h 	c #AC7D65",
";h 	c #A5755E",
">h 	c #A0705B",
",h 	c #A0705D",
"'h 	c #9D6C5B",
")h 	c #9B6D5C",
"!h 	c #926957",
"~h 	c #865F50",
"{h 	c #734F42",
"]h 	c #76554C",
"^h 	c #7A5D55",
"/h 	c #604740",
"(h 	c #513B35",
"_h 	c #4C3833",
":h 	c #392622",
"<h 	c #32211F",
"[h 	c #332323",
"}h 	c #2B201F",
"|h 	c #201816",
"1h 	c #19110F",
"2h 	c #170F0D",
"3h 	c #1B1311",
"4h 	c #28211F",
"5h 	c #302927",
"6h 	c #312927",
"7h 	c #332B29",
"8h 	c #433B3C",
"9h 	c #4D4447",
"0h 	c #5C5357",
"ah 	c #595056",
"bh 	c #544A52",
"ch 	c #18181D",
"dh 	c #1A191E",
"eh 	c #4D474D",
"fh 	c #C8BBC1",
"gh 	c #EDDDE2",
"hh 	c #F0DDDF",
"ih 	c #F2DCDB",
"jh 	c #F1D6D4",
"kh 	c #EED2CD",
"lh 	c #EDCDC3",
"mh 	c #ECCABF",
"nh 	c #E8C3AE",
"oh 	c #E8C3AD",
"ph 	c #E3BEAB",
"qh 	c #E3BFAC",
"rh 	c #DCB9A4",
"sh 	c #DCB8A4",
"th 	c #DDB8A4",
"uh 	c #D5AC9A",
"vh 	c #D7AC9B",
"wh 	c #DBAE9E",
"xh 	c #D8AB9B",
"yh 	c #D3A697",
"zh 	c #D7AA9A",
"Ah 	c #DCAE9F",
"Bh 	c #DAAB9D",
"Ch 	c #D8A89A",
"Dh 	c #DBAB9D",
"Eh 	c #D9AA9B",
"Fh 	c #DBAC9D",
"Gh 	c #D6A799",
"Hh 	c #D4A496",
"Ih 	c #D0A092",
"Jh 	c #CA998A",
"Kh 	c #C99888",
"Lh 	c #C38F7E",
"Mh 	c #BF8975",
"Nh 	c #C38C78",
"Oh 	c #C48B79",
"Ph 	c #C48A79",
"Qh 	c #C48979",
"Rh 	c #C38979",
"Sh 	c #BF8574",
"Th 	c #BE8473",
"Uh 	c #BD8574",
"Vh 	c #BC8876",
"Wh 	c #BB8775",
"Xh 	c #B98573",
"Yh 	c #BC8775",
"Zh 	c #BE8977",
"`h 	c #BF8A78",
" i 	c #BA8573",
".i 	c #B88371",
"+i 	c #B78572",
"@i 	c #B5856F",
"#i 	c #B4846E",
"$i 	c #AF7F69",
"%i 	c #AA7A63",
"&i 	c #A2725B",
"*i 	c #A4745F",
"=i 	c #9D6D59",
"-i 	c #9A6958",
";i 	c #8E6150",
">i 	c #845B49",
",i 	c #825B4B",
"'i 	c #7A564A",
")i 	c #7A5A51",
"!i 	c #694B43",
"~i 	c #624842",
"{i 	c #513A35",
"]i 	c #382522",
"^i 	c #301F1D",
"/i 	c #3A2A2A",
"(i 	c #281D1C",
"_i 	c #251D1B",
":i 	c #1F1715",
"<i 	c #221A19",
"[i 	c #251E1C",
"}i 	c #1A1210",
"|i 	c #150D0B",
"1i 	c #160E0C",
"2i 	c #211A18",
"3i 	c #28201F",
"4i 	c #352C2E",
"5i 	c #40373C",
"6i 	c #4E454E",
"7i 	c #625865",
"8i 	c #665B6A",
"9i 	c #19191D",
"0i 	c #827B7F",
"ai 	c #EADADE",
"bi 	c #F0DDE0",
"ci 	c #F3DDDE",
"di 	c #ECD3D1",
"ei 	c #F0D3CF",
"fi 	c #ECCDC7",
"gi 	c #EFCBC3",
"hi 	c #ECC7BD",
"ii 	c #EAC4B6",
"ji 	c #E6BEAB",
"ki 	c #E7C0AA",
"li 	c #E0BBA8",
"mi 	c #D9B0A1",
"ni 	c #DDB1A2",
"oi 	c #DBAD9F",
"pi 	c #D9AA9C",
"qi 	c #D5A597",
"ri 	c #DFAFA1",
"si 	c #DEB2A2",
"ti 	c #DAAE9E",
"ui 	c #D7AB9C",
"vi 	c #D6AA9B",
"wi 	c #D6AA9A",
"xi 	c #D2A696",
"yi 	c #D4A798",
"zi 	c #D3A495",
"Ai 	c #D1A090",
"Bi 	c #CC9B8B",
"Ci 	c #C69381",
"Di 	c #C38D79",
"Ei 	c #C6907C",
"Fi 	c #C28C79",
"Gi 	c #C48F7D",
"Hi 	c #C6917F",
"Ii 	c #C6907E",
"Ji 	c #C28D7B",
"Ki 	c #BE8875",
"Li 	c #BA8470",
"Mi 	c #B7816D",
"Ni 	c #B47D6A",
"Oi 	c #B67F6C",
"Pi 	c #BB8370",
"Qi 	c #BB8572",
"Ri 	c #BD8976",
"Si 	c #C08B79",
"Ti 	c #BD8A77",
"Ui 	c #BC8B77",
"Vi 	c #B68671",
"Wi 	c #B78672",
"Xi 	c #B98874",
"Yi 	c #AB7B65",
"Zi 	c #AF7E69",
"`i 	c #AE7E68",
" j 	c #9E6F57",
".j 	c #A4745E",
"+j 	c #A2725D",
"@j 	c #9C6C59",
"#j 	c #956453",
"$j 	c #885A49",
"%j 	c #825948",
"&j 	c #795243",
"*j 	c #785548",
"=j 	c #6D4C43",
"-j 	c #664941",
";j 	c #5D443D",
">j 	c #4E3A36",
",j 	c #3F2D29",
"'j 	c #1E1614",
")j 	c #1D1513",
"!j 	c #201916",
"~j 	c #221B19",
"{j 	c #281F21",
"]j 	c #3D353A",
"^j 	c #403642",
"/j 	c #544A5C",
"(j 	c #5C5165",
"_j 	c #252225",
":j 	c #64595D",
"<j 	c #D8C9CD",
"[j 	c #ECDFDD",
"}j 	c #EDDDDD",
"|j 	c #EED9DA",
"1j 	c #ECD1D1",
"2j 	c #EFCFCD",
"3j 	c #EBC8C4",
"4j 	c #EACAC3",
"5j 	c #E7C3BB",
"6j 	c #E7C0B5",
"7j 	c #E6BFB0",
"8j 	c #E8C6B0",
"9j 	c #E9C6AC",
"0j 	c #E8C5AB",
"aj 	c #E8C5AE",
"bj 	c #E6C2AD",
"cj 	c #E6C2AE",
"dj 	c #DBAFA0",
"ej 	c #DCB0A1",
"fj 	c #D7A99B",
"gj 	c #D2A295",
"hj 	c #D4A598",
"ij 	c #D5A89B",
"jj 	c #DCB1A3",
"kj 	c #DDB0A2",
"lj 	c #DCAF9F",
"mj 	c #DBAE9F",
"nj 	c #D8AB9C",
"oj 	c #DCAC9D",
"pj 	c #D8A99A",
"qj 	c #DAAA9B",
"rj 	c #D8A99B",
"sj 	c #D5A697",
"tj 	c #D6A595",
"uj 	c #D5A392",
"vj 	c #CF9B8A",
"wj 	c #CE9A88",
"xj 	c #CC9886",
"yj 	c #C99483",
"zj 	c #C99482",
"Aj 	c #C6927F",
"Bj 	c #C38F7C",
"Cj 	c #C08976",
"Dj 	c #C18876",
"Ej 	c #C38A77",
"Fj 	c #C58C79",
"Gj 	c #C68D7A",
"Hj 	c #C08C7B",
"Ij 	c #C19180",
"Jj 	c #BD8A7A",
"Kj 	c #BE8879",
"Lj 	c #BA8174",
"Mj 	c #B98473",
"Nj 	c #B88773",
"Oj 	c #BA8976",
"Pj 	c #BB8A76",
"Qj 	c #BB8974",
"Rj 	c #B6836D",
"Sj 	c #BD8974",
"Tj 	c #BC8872",
"Uj 	c #B4806B",
"Vj 	c #AF7D67",
"Wj 	c #B78771",
"Xj 	c #AF7F6A",
"Yj 	c #B17F69",
"Zj 	c #B4806A",
"`j 	c #B27E68",
" k 	c #B07D67",
".k 	c #B07D66",
"+k 	c #AA7862",
"@k 	c #A67661",
"#k 	c #A57462",
"$k 	c #A17061",
"%k 	c #976657",
"&k 	c #875848",
"*k 	c #794E3D",
"=k 	c #764E3F",
"-k 	c #6F4A3E",
";k 	c #67453D",
">k 	c #60413A",
",k 	c #624740",
"'k 	c #533A33",
")k 	c #4E3731",
"!k 	c #48332D",
"~k 	c #34211D",
"{k 	c #2F1D1A",
"]k 	c #291D17",
"^k 	c #221A13",
"/k 	c #1D1610",
"(k 	c #1C1612",
"_k 	c #1A1612",
":k 	c #1A1814",
"<k 	c #1A130E",
"[k 	c #1D1612",
"}k 	c #261D1E",
"|k 	c #292121",
"1k 	c #2D2521",
"2k 	c #29221E",
"3k 	c #2F2726",
"4k 	c #32292B",
"5k 	c #463D43",
"6k 	c #5D545C",
"7k 	c #565152",
"8k 	c #C7B8BB",
"9k 	c #ECDCDC",
"0k 	c #EFD9D7",
"ak 	c #ECD1CD",
"bk 	c #E6C7C3",
"ck 	c #E2C2BF",
"dk 	c #E4C4BF",
"ek 	c #E6C5BA",
"fk 	c #E3BCAF",
"gk 	c #E8BCAD",
"hk 	c #E2B6A0",
"ik 	c #E1B9A0",
"jk 	c #E0BBA1",
"kk 	c #E2BDA4",
"lk 	c #E2BCA5",
"mk 	c #E1BBA7",
"nk 	c #E6C0AD",
"ok 	c #E4BFAC",
"pk 	c #E0BCA9",
"qk 	c #DDB9A7",
"rk 	c #DCB8A5",
"sk 	c #DAB6A3",
"tk 	c #DEBAA7",
"uk 	c #DCB6A5",
"vk 	c #DAAFA1",
"wk 	c #D7AEA0",
"xk 	c #D9B2A3",
"yk 	c #DFBAAA",
"zk 	c #E2BDAD",
"Ak 	c #E2BEAD",
"Bk 	c #E0BAA8",
"Ck 	c #E1BAA8",
"Dk 	c #E3BCAB",
"Ek 	c #E3BAAB",
"Fk 	c #E2B9AA",
"Gk 	c #DFB5A7",
"Hk 	c #DAB1A2",
"Ik 	c #D8AC9F",
"Jk 	c #D7A89A",
"Kk 	c #D2A294",
"Lk 	c #CF9D8E",
"Mk 	c #C99685",
"Nk 	c #C69280",
"Ok 	c #C48E7D",
"Pk 	c #C1887A",
"Qk 	c #C1877A",
"Rk 	c #C3897B",
"Sk 	c #BF8577",
"Tk 	c #BC8375",
"Uk 	c #B98071",
"Vk 	c #B8806F",
"Wk 	c #BA8371",
"Xk 	c #BE8675",
"Yk 	c #C78F7E",
"Zk 	c #CA9280",
"`k 	c #C3907F",
" l 	c #BB8B7C",
".l 	c #BE8D7C",
"+l 	c #BD8D79",
"@l 	c #BC8C78",
"#l 	c #BE8A74",
"$l 	c #BD8973",
"%l 	c #B9856F",
"&l 	c #BB8771",
"*l 	c #BA8872",
"=l 	c #B3836D",
"-l 	c #B5836D",
";l 	c #B8846E",
">l 	c #B6826C",
",l 	c #B37F69",
"'l 	c #AA7A65",
")l 	c #A77764",
"!l 	c #9B6A5B",
"~l 	c #926152",
"{l 	c #855747",
"]l 	c #7D5241",
"^l 	c #714739",
"/l 	c #654034",
"(l 	c #634137",
"_l 	c #5B3B34",
":l 	c #61463E",
"<l 	c #583F39",
"[l 	c #4B342E",
"}l 	c #442F2A",
"|l 	c #402D29",
"1l 	c #34221E",
"2l 	c #291B15",
"3l 	c #2B201A",
"4l 	c #251C16",
"5l 	c #1F1613",
"6l 	c #191310",
"7l 	c #181310",
"8l 	c #1B1410",
"9l 	c #1D1611",
"0l 	c #1C1510",
"al 	c #1C1412",
"bl 	c #1F1617",
"cl 	c #22191A",
"dl 	c #271E1D",
"el 	c #352C2C",
"fl 	c #372F2F",
"gl 	c #362E2F",
"hl 	c #3E3537",
"il 	c #AFA7A5",
"jl 	c #E9D8D8",
"kl 	c #EAD6D7",
"ll 	c #EED3CE",
"ml 	c #E9C6BC",
"nl 	c #DBB7AD",
"ol 	c #E2C4BF",
"pl 	c #E8CFCA",
"ql 	c #DEC5B8",
"rl 	c #E2C1B4",
"sl 	c #E3B9AB",
"tl 	c #E7B9AA",
"ul 	c #E4B6A3",
"vl 	c #DDB29C",
"wl 	c #DDB49C",
"xl 	c #DCB49B",
"yl 	c #DDB3A1",
"zl 	c #DEB5A3",
"Al 	c #DAB2A0",
"Bl 	c #DAB4A3",
"Cl 	c #D9B3A2",
"Dl 	c #D8B2A0",
"El 	c #D8B2A1",
"Fl 	c #D9B0A0",
"Gl 	c #D9ADA0",
"Hl 	c #D9AC9F",
"Il 	c #D9AFA1",
"Jl 	c #DBB4A5",
"Kl 	c #DBB5A5",
"Ll 	c #DCB4A5",
"Ml 	c #DFB6A5",
"Nl 	c #DEB5A5",
"Ol 	c #DCB3A2",
"Pl 	c #D9ADA2",
"Ql 	c #D8ABA1",
"Rl 	c #D7ABA0",
"Sl 	c #D7AAA0",
"Tl 	c #D4A79D",
"Ul 	c #D1A498",
"Vl 	c #CC9D8F",
"Wl 	c #CE9E90",
"Xl 	c #CA9888",
"Yl 	c #CE9B8A",
"Zl 	c #CD9987",
"`l 	c #C69282",
" m 	c #C18E81",
".m 	c #C59284",
"+m 	c #C69385",
"@m 	c #C69284",
"#m 	c #C18C7D",
"$m 	c #BB8778",
"%m 	c #BC8779",
"&m 	c #C18F80",
"*m 	c #C49988",
"=m 	c #C49B89",
"-m 	c #C29683",
";m 	c #C0907C",
">m 	c #BF8F7B",
",m 	c #BC8A75",
"'m 	c #C08C76",
")m 	c #BF8B75",
"!m 	c #BC8A74",
"~m 	c #B98973",
"{m 	c #BC8C76",
"]m 	c #B88872",
"^m 	c #B68670",
"/m 	c #B6846E",
"(m 	c #BA8670",
"_m 	c #B7836D",
":m 	c #B17D67",
"<m 	c #AE7A64",
"[m 	c #B07E68",
"}m 	c #AC7C66",
"|m 	c #A97964",
"1m 	c #A67664",
"2m 	c #996859",
"3m 	c #8A5B4B",
"4m 	c #7F5443",
"5m 	c #734A3B",
"6m 	c #643F33",
"7m 	c #56362F",
"8m 	c #553A33",
"9m 	c #543B35",
"0m 	c #46312B",
"am 	c #44312D",
"bm 	c #402E2B",
"cm 	c #35241F",
"dm 	c #2C1E18",
"em 	c #30241F",
"fm 	c #2F2421",
"gm 	c #271D1B",
"hm 	c #211A16",
"im 	c #19120C",
"jm 	c #1F1713",
"km 	c #292021",
"lm 	c #302829",
"mm 	c #2C2426",
"nm 	c #271E21",
"om 	c #2B2324",
"pm 	c #2B2320",
"qm 	c #352D2A",
"rm 	c #E0D3D4",
"sm 	c #EDDBDB",
"tm 	c #E9D4D4",
"um 	c #EAD1D0",
"vm 	c #E3C5C0",
"wm 	c #D7B5AC",
"xm 	c #DFBEB6",
"ym 	c #EBCFC9",
"zm 	c #E2CAC6",
"Am 	c #DCC5BC",
"Bm 	c #DEC0B7",
"Cm 	c #DCB7AC",
"Dm 	c #DCB0A3",
"Em 	c #D6A895",
"Fm 	c #DBAF99",
"Gm 	c #DFB49E",
"Hm 	c #E0B6A1",
"Im 	c #E2B9A5",
"Jm 	c #E1BAA5",
"Km 	c #D7B09C",
"Lm 	c #D2AA98",
"Mm 	c #D3AA99",
"Nm 	c #D6AC9C",
"Om 	c #D7AB9D",
"Pm 	c #D6AA9C",
"Qm 	c #D6A89C",
"Rm 	c #D6A89D",
"Sm 	c #DDB1A5",
"Tm 	c #DFB4A8",
"Um 	c #DAAEA0",
"Vm 	c #D5A698",
"Wm 	c #D4A499",
"Xm 	c #D4A098",
"Ym 	c #D19D95",
"Zm 	c #D09C94",
"`m 	c #CD9990",
" n 	c #CC9890",
".n 	c #CA978D",
"+n 	c #C29285",
"@n 	c #CB9A8D",
"#n 	c #C49285",
"$n 	c #C29081",
"%n 	c #C18E7F",
"&n 	c #BB8E81",
"*n 	c #BF9083",
"=n 	c #C09084",
"-n 	c #C08F83",
";n 	c #C18F82",
">n 	c #C39083",
",n 	c #C49185",
"'n 	c #C59386",
")n 	c #C59285",
"!n 	c #C79487",
"~n 	c #C69486",
"{n 	c #C49485",
"]n 	c #C59786",
"^n 	c #CA9F8D",
"/n 	c #CCA590",
"(n 	c #CFAB94",
"_n 	c #D0A994",
":n 	c #D4A895",
"<n 	c #D2A592",
"[n 	c #CC9E8C",
"}n 	c #C69685",
"|n 	c #C1907E",
"1n 	c #BE8C78",
"2n 	c #BD8A75",
"3n 	c #C28E78",
"4n 	c #C08B76",
"5n 	c #C18B76",
"6n 	c #BC8974",
"7n 	c #B88871",
"8n 	c #B7826C",
"9n 	c #B37E68",
"0n 	c #B17C66",
"an 	c #AF7964",
"bn 	c #A87862",
"cn 	c #A67660",
"dn 	c #A2715D",
"en 	c #9C6B58",
"fn 	c #976754",
"gn 	c #91624F",
"hn 	c #875B48",
"in 	c #784F3E",
"jn 	c #664032",
"kn 	c #603E33",
"ln 	c #5B3B31",
"mn 	c #50352C",
"nn 	c #493129",
"on 	c #472F2B",
"pn 	c #412C29",
"qn 	c #46332F",
"rn 	c #412F2A",
"sn 	c #3D2E28",
"tn 	c #3B2D27",
"un 	c #362925",
"vn 	c #2F2320",
"wn 	c #302524",
"xn 	c #312626",
"yn 	c #2D2323",
"zn 	c #221919",
"An 	c #23191A",
"Bn 	c #231A1B",
"Cn 	c #231A1C",
"Dn 	c #291F22",
"En 	c #2E272A",
"Fn 	c #2B2528",
"Gn 	c #292425",
"Hn 	c #2D2828",
"In 	c #312B2A",
"Jn 	c #373130",
"Kn 	c #E5D1D2",
"Ln 	c #E7D2D1",
"Mn 	c #E0C9C5",
"Nn 	c #DEC1BA",
"On 	c #D3B6AE",
"Pn 	c #DDC0B8",
"Qn 	c #E4C7BF",
"Rn 	c #E5C8C0",
"Sn 	c #DEC1B9",
"Tn 	c #DCBDB3",
"Un 	c #D8B7AB",
"Vn 	c #D9B3A5",
"Wn 	c #D3A391",
"Xn 	c #CD9C89",
"Yn 	c #CFA28D",
"Zn 	c #D6A994",
"`n 	c #D5AB95",
" o 	c #D7AF99",
".o 	c #D8B19A",
"+o 	c #D4AF98",
"@o 	c #D3AD98",
"#o 	c #D4AC99",
"$o 	c #D2A998",
"%o 	c #D2A397",
"&o 	c #CD9E93",
"*o 	c #CC9E92",
"=o 	c #CDA093",
"-o 	c #D0A296",
";o 	c #D3A597",
">o 	c #D0A090",
",o 	c #D09F91",
"'o 	c #CD9D90",
")o 	c #CA998F",
"!o 	c #CA988E",
"~o 	c #CA958B",
"{o 	c #C69187",
"]o 	c #C28D83",
"^o 	c #C18D82",
"/o 	c #C18C82",
"(o 	c #BF8C81",
"_o 	c #BA8A7F",
":o 	c #C29287",
"<o 	c #C09085",
"[o 	c #BE8E83",
"}o 	c #BB8D81",
"|o 	c #BA8E81",
"1o 	c #BA8C80",
"2o 	c #B8897D",
"3o 	c #BB8A7F",
"4o 	c #BF8D82",
"5o 	c #C08E84",
"6o 	c #BD8E82",
"7o 	c #C39388",
"8o 	c #C39488",
"9o 	c #BF9185",
"0o 	c #C09386",
"ao 	c #BF9283",
"bo 	c #C49786",
"co 	c #CA9D8A",
"do 	c #D0A28E",
"eo 	c #D5A795",
"fo 	c #DAAC9C",
"go 	c #D6A999",
"ho 	c #D6AA99",
"io 	c #D3A897",
"jo 	c #CFA28E",
"ko 	c #C79781",
"lo 	c #BE8D78",
"mo 	c #BB8873",
"no 	c #BE8974",
"oo 	c #C28C77",
"po 	c #BE8A75",
"qo 	c #BA8A73",
"ro 	c #BD8D76",
"so 	c #B6866F",
"to 	c #B08069",
"uo 	c #B78770",
"vo 	c #B5826C",
"wo 	c #B27C67",
"xo 	c #B07A65",
"yo 	c #A9735E",
"zo 	c #A9725D",
"Ao 	c #B2806A",
"Bo 	c #AC7D67",
"Co 	c #A3735D",
"Do 	c #A0715B",
"Eo 	c #956752",
"Fo 	c #885C4A",
"Go 	c #774F3F",
"Ho 	c #694537",
"Io 	c #603E32",
"Jo 	c #503429",
"Ko 	c #4A3229",
"Lo 	c #442D2A",
"Mo 	c #4E3837",
"No 	c #4A3734",
"Oo 	c #44332C",
"Po 	c #3F322A",
"Qo 	c #362C25",
"Ro 	c #392E29",
"So 	c #2D2120",
"To 	c #302424",
"Uo 	c #32272A",
"Vo 	c #392E32",
"Wo 	c #31262A",
"Xo 	c #2C2125",
"Yo 	c #251E20",
"Zo 	c #241F21",
"`o 	c #272223",
" p 	c #2A2527",
".p 	c #312C2D",
"+p 	c #3C3638",
"@p 	c #C7AFA9",
"#p 	c #C8AEA5",
"$p 	c #BDA295",
"%p 	c #C6A79A",
"&p 	c #CBAC9F",
"*p 	c #CFB0A3",
"=p 	c #DABAAE",
"-p 	c #D7B8AB",
";p 	c #CBAB9E",
">p 	c #C6A493",
",p 	c #C39F8E",
"'p 	c #C59E8C",
")p 	c #CAA08F",
"!p 	c #C89B8A",
"~p 	c #C69986",
"{p 	c #CB9F8A",
"]p 	c #CEA18C",
"^p 	c #C69984",
"/p 	c #CDA08B",
"(p 	c #CB9D88",
"_p 	c #CC9E89",
":p 	c #CC9F8A",
"<p 	c #CC9E8A",
"[p 	c #CD9C8B",
"}p 	c #D09E8F",
"|p 	c #CD988C",
"1p 	c #C79286",
"2p 	c #C69285",
"3p 	c #C89587",
"4p 	c #C79486",
"5p 	c #C89588",
"6p 	c #CE9A8D",
"7p 	c #C69384",
"8p 	c #C28F80",
"9p 	c #BE8B7D",
"0p 	c #BC897D",
"ap 	c #BA867E",
"bp 	c #B8847B",
"cp 	c #B58378",
"dp 	c #B48377",
"ep 	c #BD8D83",
"fp 	c #BF9289",
"gp 	c #C4978F",
"hp 	c #C4978E",
"ip 	c #C3958D",
"jp 	c #C2958D",
"kp 	c #C1978E",
"lp 	c #BF998E",
"mp 	c #BE978D",
"np 	c #BF968C",
"op 	c #BD9289",
"pp 	c #BF928A",
"qp 	c #C3978F",
"rp 	c #C49B91",
"sp 	c #C49A91",
"tp 	c #C69D94",
"up 	c #C89F96",
"vp 	c #CDA49B",
"wp 	c #D2A9A1",
"xp 	c #D2A79E",
"yp 	c #C99C92",
"zp 	c #C19286",
"Ap 	c #C8968A",
"Bp 	c #CA978A",
"Cp 	c #D09F90",
"Dp 	c #D8AC9B",
"Ep 	c #D8AE9C",
"Fp 	c #D4AD9A",
"Gp 	c #D2A994",
"Hp 	c #D0A38C",
"Ip 	c #C4947E",
"Jp 	c #BD8B76",
"Kp 	c #B98771",
"Lp 	c #BC8D76",
"Mp 	c #C1917A",
"Np 	c #B2826B",
"Op 	c #B98972",
"Pp 	c #B7866F",
"Qp 	c #B18069",
"Rp 	c #AF7D66",
"Sp 	c #AB7962",
"Tp 	c #A7765F",
"Up 	c #B1806A",
"Vp 	c #A16F5A",
"Wp 	c #9E6D5A",
"Xp 	c #966756",
"Yp 	c #895E4F",
"Zp 	c #795145",
"`p 	c #694439",
" q 	c #593D32",
".q 	c #4C342C",
"+q 	c #513A37",
"@q 	c #4F3939",
"#q 	c #45322F",
"$q 	c #47352F",
"%q 	c #43362E",
"&q 	c #342923",
"*q 	c #352A27",
"=q 	c #322726",
"-q 	c #342828",
";q 	c #312628",
">q 	c #362B2F",
",q 	c #3A3134",
"'q 	c #393033",
")q 	c #3B3235",
"!q 	c #40373A",
"~q 	c #A88C82",
"{q 	c #9D7F6E",
"]q 	c #9D7F6C",
"^q 	c #AA8A79",
"/q 	c #AB8B7A",
"(q 	c #B0907F",
"_q 	c #A58575",
":q 	c #A1806D",
"<q 	c #A3806A",
"[q 	c #AC8873",
"}q 	c #AF8A76",
"|q 	c #AF8875",
"1q 	c #AE8574",
"2q 	c #B48A78",
"3q 	c #B98E78",
"4q 	c #BD907B",
"5q 	c #C1927E",
"6q 	c #C3917E",
"7q 	c #C5917F",
"8q 	c #C99581",
"9q 	c #C3917B",
"0q 	c #BA8773",
"aq 	c #BF8977",
"bq 	c #C18A7A",
"cq 	c #BF8678",
"dq 	c #BE8477",
"eq 	c #BE8677",
"fq 	c #BF8677",
"gq 	c #BF8779",
"hq 	c #BC8476",
"iq 	c #B88272",
"jq 	c #BA8476",
"kq 	c #B88276",
"lq 	c #B68075",
"mq 	c #B67F77",
"nq 	c #B7827A",
"oq 	c #B58579",
"pq 	c #B6877B",
"qq 	c #B48579",
"rq 	c #AF8074",
"sq 	c #AE8177",
"tq 	c #B38880",
"uq 	c #BB9089",
"vq 	c #BB9088",
"wq 	c #B98E87",
"xq 	c #BA8F88",
"yq 	c #BC958C",
"zq 	c #BC9A90",
"Aq 	c #C09D94",
"Bq 	c #BE9990",
"Cq 	c #C19A91",
"Dq 	c #C59E95",
"Eq 	c #C7A097",
"Fq 	c #CAA59C",
"Gq 	c #CBA69D",
"Hq 	c #C7A298",
"Iq 	c #C7A299",
"Jq 	c #C59E97",
"Kq 	c #C49A96",
"Lq 	c #C8A09A",
"Mq 	c #CAA39B",
"Nq 	c #CBA79C",
"Oq 	c #CDAA9E",
"Pq 	c #CFAA9B",
"Qq 	c #CAA18F",
"Rq 	c #C69B8A",
"Sq 	c #C19484",
"Tq 	c #C69788",
"Uq 	c #CE9D8D",
"Vq 	c #CB9E89",
"Wq 	c #C99F86",
"Xq 	c #C49780",
"Yq 	c #C3967E",
"Zq 	c #C1927B",
"`q 	c #BC8B75",
" r 	c #B5856E",
".r 	c #B1816A",
"+r 	c #BB8A73",
"@r 	c #BD8D75",
"#r 	c #AE7E67",
"$r 	c #A87861",
"%r 	c #B07F69",
"&r 	c #AB7A65",
"*r 	c #AD7A65",
"=r 	c #AB7865",
"-r 	c #9E6D5C",
";r 	c #8D6051",
">r 	c #7C5246",
",r 	c #694238",
"'r 	c #56392E",
")r 	c #50372F",
"!r 	c #563E3B",
"~r 	c #543E3C",
"{r 	c #422F2C",
"]r 	c #45332D",
"^r 	c #443830",
"/r 	c #3C312B",
"(r 	c #322624",
"_r 	c #312524",
":r 	c #302427",
"<r 	c #2E2326",
"[r 	c #2D2226",
"}r 	c #362C2F",
"|r 	c #382C2F",
"1r 	c #3B2E32",
"2r 	c #3F3235",
"3r 	c #45393C",
"4r 	c #94796F",
"5r 	c #947868",
"6r 	c #8C705D",
"7r 	c #866B59",
"8r 	c #7F6353",
"9r 	c #7D6254",
"0r 	c #795D51",
"ar 	c #6F5349",
"br 	c #674C41",
"cr 	c #654C3E",
"dr 	c #6B4F41",
"er 	c #6C4D41",
"fr 	c #734F44",
"gr 	c #7A5349",
"hr 	c #8A6054",
"ir 	c #926552",
"jr 	c #9D6F5D",
"kr 	c #AF7E6D",
"lr 	c #B68372",
"mr 	c #BF8A7A",
"nr 	c #BF8979",
"or 	c #BB8774",
"pr 	c #B17C6A",
"qr 	c #AE7967",
"rr 	c #AF7968",
"sr 	c #B37B6A",
"tr 	c #B37B6C",
"ur 	c #AD7468",
"vr 	c #AC7368",
"wr 	c #B3796E",
"xr 	c #B57A6C",
"yr 	c #B1786B",
"zr 	c #AB7267",
"Ar 	c #A87166",
"Br 	c #A87369",
"Cr 	c #A57168",
"Dr 	c #A37168",
"Er 	c #9E6D64",
"Fr 	c #996960",
"Gr 	c #95675D",
"Hr 	c #93675D",
"Ir 	c #916659",
"Jr 	c #8C6253",
"Kr 	c #8F6557",
"Lr 	c #966C60",
"Mr 	c #996F65",
"Nr 	c #9E736B",
"Or 	c #A0776F",
"Pr 	c #A17A70",
"Qr 	c #A47D73",
"Rr 	c #A67E75",
"Sr 	c #A78076",
"Tr 	c #A98278",
"Ur 	c #A88177",
"Vr 	c #A67F75",
"Wr 	c #A57E74",
"Xr 	c #9C7369",
"Yr 	c #94685E",
"Zr 	c #8F6359",
"`r 	c #A0756B",
" s 	c #AD8177",
".s 	c #AF8376",
"+s 	c #AF8173",
"@s 	c #B18272",
"#s 	c #B78776",
"$s 	c #B3816F",
"%s 	c #AB7864",
"&s 	c #AD7E66",
"*s 	c #B1866A",
"=s 	c #BA8D71",
"-s 	c #BC8D72",
";s 	c #B38268",
">s 	c #B58369",
",s 	c #B8856C",
"'s 	c #B9856D",
")s 	c #AD7961",
"!s 	c #BA866E",
"~s 	c #BB886F",
"{s 	c #B48068",
"]s 	c #AD7B64",
"^s 	c #B4846D",
"/s 	c #B07C66",
"(s 	c #AE7E69",
"_s 	c #A87963",
":s 	c #9B6C56",
"<s 	c #885A45",
"[s 	c #734C3C",
"}s 	c #68473B",
"|s 	c #5A3E36",
"1s 	c #4D342D",
"2s 	c #513A34",
"3s 	c #4F3A35",
"4s 	c #493632",
"5s 	c #45332F",
"6s 	c #443431",
"7s 	c #3D2E2B",
"8s 	c #322320",
"9s 	c #2D201F",
"0s 	c #2A1F1F",
"as 	c #241919",
"bs 	c #271B1B",
"cs 	c #291D1D",
"ds 	c #261A1A",
"es 	c #2A1E1C",
"fs 	c #332320",
"gs 	c #3D2B27",
"hs 	c #4D3632",
"is 	c #523935",
"js 	c #7A605A",
"ks 	c #7A5E54",
"ls 	c #785E50",
"ms 	c #74594A",
"ns 	c #715649",
"os 	c #64483D",
"ps 	c #53372D",
"qs 	c #4E3129",
"rs 	c #482D26",
"ss 	c #412C24",
"ts 	c #3B251E",
"us 	c #3B221D",
"vs 	c #3B1F1A",
"ws 	c #3A1D18",
"xs 	c #442521",
"ys 	c #4F312A",
"zs 	c #644339",
"As 	c #825A4D",
"Bs 	c #936452",
"Cs 	c #A7735E",
"Ds 	c #AD7762",
"Es 	c #AB7664",
"Fs 	c #A26D5B",
"Gs 	c #A26D5C",
"Hs 	c #A06B59",
"Is 	c #A16C5A",
"Js 	c #A97361",
"Ks 	c #AE7665",
"Ls 	c #AB7364",
"Ms 	c #A76F60",
"Ns 	c #A36B5F",
"Os 	c #9F665C",
"Ps 	c #A46B61",
"Qs 	c #A56C60",
"Rs 	c #9C6459",
"Ss 	c #955F54",
"Ts 	c #905C53",
"Us 	c #89564E",
"Vs 	c #815049",
"Ws 	c #7E5048",
"Xs 	c #7A4E46",
"Ys 	c #7C5249",
"Zs 	c #70483F",
"`s 	c #6F493F",
" t 	c #684338",
".t 	c #634134",
"+t 	c #68453A",
"@t 	c #6A473D",
"#t 	c #69463E",
"$t 	c #67433D",
"%t 	c #64413B",
"&t 	c #6C4A42",
"*t 	c #725048",
"=t 	c #715047",
"-t 	c #76544B",
";t 	c #7D5B52",
">t 	c #86645B",
",t 	c #85635A",
"'t 	c #826057",
")t 	c #7E5B52",
"!t 	c #7E5C53",
"~t 	c #76534A",
"{t 	c #755148",
"]t 	c #714A40",
"^t 	c #785147",
"/t 	c #876056",
"(t 	c #956E64",
"_t 	c #A27B70",
":t 	c #A67E71",
"<t 	c #A77E6F",
"[t 	c #AA7F6F",
"}t 	c #AB7D6D",
"|t 	c #AE816E",
"1t 	c #A0725D",
"2t 	c #95664E",
"3t 	c #A07058",
"4t 	c #A7755E",
"5t 	c #A8745D",
"6t 	c #A9735D",
"7t 	c #AB765F",
"8t 	c #A8745C",
"9t 	c #B17D65",
"0t 	c #B37F67",
"at 	c #AC7860",
"bt 	c #AB775F",
"ct 	c #B07F67",
"dt 	c #BE8B75",
"et 	c #B5816B",
"ft 	c #986852",
"gt 	c #865843",
"ht 	c #764F3E",
"it 	c #644438",
"jt 	c #60453D",
"kt 	c #4B332C",
"lt 	c #4D3630",
"mt 	c #442F29",
"nt 	c #43302B",
"ot 	c #3E2C29",
"pt 	c #42322F",
"qt 	c #443532",
"rt 	c #473835",
"st 	c #382A27",
"tt 	c #372825",
"ut 	c #3B2C29",
"vt 	c #3A2B2B",
"wt 	c #3A2C2C",
"xt 	c #372829",
"yt 	c #332525",
"zt 	c #302122",
"At 	c #322424",
"Bt 	c #372928",
"Ct 	c #362625",
"Dt 	c #3F2D2A",
"Et 	c #594240",
"Ft 	c #5F4542",
"Gt 	c #5B3F3B",
"Ht 	c #796260",
"It 	c #79615C",
"Jt 	c #6F5751",
"Kt 	c #593E33",
"Lt 	c #5A3E34",
"Mt 	c #593C34",
"Nt 	c #4D312A",
"Ot 	c #442723",
"Pt 	c #3F221E",
"Qt 	c #3E231D",
"Rt 	c #3B201A",
"St 	c #371C17",
"Tt 	c #311711",
"Ut 	c #301611",
"Vt 	c #331715",
"Wt 	c #3B1F19",
"Xt 	c #4C2C22",
"Yt 	c #623F30",
"Zt 	c #795340",
"`t 	c #956A57",
" u 	c #9F6A58",
".u 	c #9C6856",
"+u 	c #A77260",
"@u 	c #A46F5D",
"#u 	c #A6705E",
"$u 	c #AC7463",
"%u 	c #A87061",
"&u 	c #A56D5F",
"*u 	c #9F665A",
"=u 	c #935A50",
"-u 	c #945C52",
";u 	c #935D52",
">u 	c #905A51",
",u 	c #8C5850",
"'u 	c #82514A",
")u 	c #73433D",
"!u 	c #6A3C37",
"~u 	c #5D362F",
"{u 	c #5C362F",
"]u 	c #59352D",
"^u 	c #523028",
"/u 	c #4E2D24",
"(u 	c #4F3228",
"_u 	c #4C3329",
":u 	c #4C322A",
"<u 	c #452B25",
"[u 	c #402521",
"}u 	c #3C211F",
"|u 	c #3D221E",
"1u 	c #40241C",
"2u 	c #4B2E27",
"3u 	c #4F322B",
"4u 	c #51352D",
"5u 	c #5B3F38",
"6u 	c #5A3F38",
"7u 	c #5F443C",
"8u 	c #563A33",
"9u 	c #553932",
"0u 	c #5A3D36",
"au 	c #5E4037",
"bu 	c #634239",
"cu 	c #67453C",
"du 	c #66443C",
"eu 	c #6C4B43",
"fu 	c #7A5950",
"gu 	c #78574D",
"hu 	c #7A584B",
"iu 	c #7C594B",
"ju 	c #805B4B",
"ku 	c #855F4E",
"lu 	c #906857",
"mu 	c #926A56",
"nu 	c #855C45",
"ou 	c #845B43",
"pu 	c #8B604A",
"qu 	c #93654F",
"ru 	c #9C6D58",
"su 	c #A5735C",
"tu 	c #A7735B",
"uu 	c #A57159",
"vu 	c #A47058",
"wu 	c #AF7B63",
"xu 	c #B98770",
"yu 	c #AB7C67",
"zu 	c #A2745E",
"Au 	c #996953",
"Bu 	c #714939",
"Cu 	c #5E433B",
"Du 	c #573F38",
"Eu 	c #452E28",
"Fu 	c #3E2823",
"Gu 	c #3D2A26",
"Hu 	c #412F2C",
"Iu 	c #41312F",
"Ju 	c #453633",
"Ku 	c #382927",
"Lu 	c #31221F",
"Mu 	c #2E1F1C",
"Nu 	c #402E2F",
"Ou 	c #402D2F",
"Pu 	c #423032",
"Qu 	c #422F31",
"Ru 	c #433032",
"Su 	c #433131",
"Tu 	c #422F30",
"Uu 	c #493533",
"Vu 	c #4B3230",
"Wu 	c #543835",
"Xu 	c #5F403D",
"Yu 	c #5F514F",
"Zu 	c #755F5F",
"`u 	c #896E6C",
" v 	c #8B6B65",
".v 	c #7F5D58",
"+v 	c #75524D",
"@v 	c #684740",
"#v 	c #5C3F34",
"$v 	c #593D31",
"%v 	c #5F3E36",
"&v 	c #623D35",
"*v 	c #633931",
"=v 	c #653A30",
"-v 	c #63392D",
";v 	c #643A31",
">v 	c #613935",
",v 	c #53302A",
"'v 	c #412319",
")v 	c #43271A",
"!v 	c #543728",
"~v 	c #6E4B3B",
"{v 	c #926353",
"]v 	c #A27261",
"^v 	c #A2705F",
"/v 	c #9D6B58",
"(v 	c #9E6A57",
"_v 	c #A4705E",
":v 	c #A87161",
"<v 	c #A66D60",
"[v 	c #A96E63",
"}v 	c #A0665C",
"|v 	c #966057",
"1v 	c #83524B",
"2v 	c #83534D",
"3v 	c #7B4D47",
"4v 	c #724740",
"5v 	c #673E37",
"6v 	c #59322B",
"7v 	c #4E2B23",
"8v 	c #4F2D24",
"9v 	c #502E26",
"0v 	c #4D2B23",
"av 	c #4D2C23",
"bv 	c #42241B",
"cv 	c #3D231B",
"dv 	c #39211A",
"ev 	c #341D18",
"fv 	c #331D19",
"gv 	c #311C19",
"hv 	c #331D1A",
"iv 	c #311A17",
"jv 	c #37201D",
"kv 	c #3C2523",
"lv 	c #39221F",
"mv 	c #39201D",
"nv 	c #3E231F",
"ov 	c #3F241F",
"pv 	c #3A1F1A",
"qv 	c #3E231E",
"rv 	c #422823",
"sv 	c #442924",
"tv 	c #482D28",
"uv 	c #482D27",
"vv 	c #452A25",
"wv 	c #472C27",
"xv 	c #492E29",
"yv 	c #4C302A",
"zv 	c #52342E",
"Av 	c #53342D",
"Bv 	c #5C3C33",
"Cv 	c #624036",
"Dv 	c #6C493D",
"Ev 	c #714F40",
"Fv 	c #72513C",
"Gv 	c #7D5A45",
"Hv 	c #855F4A",
"Iv 	c #8A604C",
"Jv 	c #976B56",
"Kv 	c #9B6E57",
"Lv 	c #9B6E55",
"Mv 	c #A3745B",
"Nv 	c #A87860",
"Ov 	c #AB7A62",
"Pv 	c #AE7C64",
"Qv 	c #B3816A",
"Rv 	c #B5836C",
"Sv 	c #BA8771",
"Tv 	c #B9866F",
"Uv 	c #B8836E",
"Vv 	c #BB8571",
"Wv 	c #BE8873",
"Xv 	c #BC8671",
"Yv 	c #BB8570",
"Zv 	c #B6806B",
"`v 	c #B37F66",
" w 	c #AD7A5F",
".w 	c #97674E",
"+w 	c #8A5D47",
"@w 	c #714A38",
"#w 	c #603E30",
"$w 	c #5A3C33",
"%w 	c #50342D",
"&w 	c #4D332C",
"*w 	c #432C26",
"=w 	c #38241F",
"-w 	c #3C2B25",
";w 	c #392925",
">w 	c #352622",
",w 	c #41322E",
"'w 	c #3F312C",
")w 	c #362723",
"!w 	c #362823",
"~w 	c #43312F",
"{w 	c #412E2C",
"]w 	c #3C2927",
"^w 	c #3F2C29",
"/w 	c #422D2A",
"(w 	c #45302B",
"_w 	c #493130",
":w 	c #593C39",
"<w 	c #5D3B33",
"[w 	c #6E473D",
"}w 	c #8E6459",
"|w 	c #865C51",
"1w 	c #3F3938",
"2w 	c #594849",
"3w 	c #856D6D",
"4w 	c #947872",
"5w 	c #87665F",
"6w 	c #724C45",
"7w 	c #644037",
"8w 	c #5D3E34",
"9w 	c #563B30",
"0w 	c #553830",
"aw 	c #583530",
"bw 	c #53322D",
"cw 	c #4F332D",
"dw 	c #553833",
"ew 	c #633E3C",
"fw 	c #65443F",
"gw 	c #61423B",
"hw 	c #603E36",
"iw 	c #5E3730",
"jw 	c #63372D",
"kw 	c #805243",
"lw 	c #976756",
"mw 	c #9A6A57",
"nw 	c #9F6C58",
"ow 	c #A5715C",
"pw 	c #AE7A65",
"qw 	c #AF7C6B",
"rw 	c #B57D70",
"sw 	c #B2766C",
"tw 	c #AA6F66",
"uw 	c #A26A62",
"vw 	c #946059",
"ww 	c #865550",
"xw 	c #7B4C46",
"yw 	c #6C3F39",
"zw 	c #60352E",
"Aw 	c #572E26",
"Bw 	c #4D261E",
"Cw 	c #4A241D",
"Dw 	c #4A251D",
"Ew 	c #4D2820",
"Fw 	c #4F2A23",
"Gw 	c #502B24",
"Hw 	c #512D26",
"Iw 	c #522F2A",
"Jw 	c #52312C",
"Kw 	c #533431",
"Lw 	c #503230",
"Mw 	c #4C312D",
"Nw 	c #49312A",
"Ow 	c #462E27",
"Pw 	c #452E27",
"Qw 	c #432C25",
"Rw 	c #442D26",
"Sw 	c #402923",
"Tw 	c #442D28",
"Uw 	c #452D29",
"Vw 	c #3F2722",
"Ww 	c #3F2723",
"Xw 	c #402824",
"Yw 	c #412823",
"Zw 	c #442925",
"`w 	c #432723",
" x 	c #3E221F",
".x 	c #381D19",
"+x 	c #321713",
"@x 	c #321A14",
"#x 	c #351C15",
"$x 	c #3A1F16",
"%x 	c #45281E",
"&x 	c #53352A",
"*x 	c #634537",
"=x 	c #684835",
"-x 	c #724F3C",
";x 	c #815A46",
">x 	c #855B47",
",x 	c #946752",
"'x 	c #9A6E57",
")x 	c #9F755C",
"!x 	c #A57960",
"~x 	c #A87A62",
"{x 	c #A97962",
"]x 	c #AE7C65",
"^x 	c #B27F69",
"/x 	c #BA846E",
"(x 	c #BC866F",
"_x 	c #BF8872",
":x 	c #C18B74",
"<x 	c #C08973",
"[x 	c #B9836D",
"}x 	c #B37E62",
"|x 	c #A57153",
"1x 	c #936349",
"2x 	c #825640",
"3x 	c #704A37",
"4x 	c #654233",
"5x 	c #63443A",
"6x 	c #563931",
"7x 	c #4E332C",
"8x 	c #49332C",
"9x 	c #412D28",
"0x 	c #37261F",
"ax 	c #392924",
"bx 	c #3D2E29",
"cx 	c #3B2D28",
"dx 	c #372823",
"ex 	c #3C2D28",
"fx 	c #30201C",
"gx 	c #3F2B26",
"hx 	c #47312B",
"ix 	c #4E362F",
"jx 	c #51362E",
"kx 	c #563930",
"lx 	c #5C3E34",
"mx 	c #5E3E33",
"nx 	c #633D2E",
"ox 	c #774B38",
"px 	c #885942",
"qx 	c #A87A66",
"rx 	c #1F1D1E",
"sx 	c #4A4243",
"tx 	c #A89B99",
"ux 	c #C8B6AC",
"vx 	c #AC8F82",
"wx 	c #795043",
"xx 	c #53281F",
"yx 	c #50312F",
"zx 	c #674D4E",
"Ax 	c #513132",
"Bx 	c #4F2D2F",
"Cx 	c #4B292B",
"Dx 	c #3F2224",
"Ex 	c #231010",
"Fx 	c #1B0E0C",
"Gx 	c #231914",
"Hx 	c #180D07",
"Ix 	c #1D1009",
"Jx 	c #332019",
"Kx 	c #533029",
"Lx 	c #5D3427",
"Mx 	c #744A3D",
"Nx 	c #936759",
"Ox 	c #A37666",
"Px 	c #AE7F6F",
"Qx 	c #BA8C7A",
"Rx 	c #C19381",
"Sx 	c #BA8577",
"Tx 	c #B67A70",
"Ux 	c #AF7168",
"Vx 	c #A76B65",
"Wx 	c #9F6761",
"Xx 	c #935F5B",
"Yx 	c #8E5C58",
"Zx 	c #83524D",
"`x 	c #784B45",
" y 	c #6B413B",
".y 	c #643B35",
"+y 	c #623A34",
"@y 	c #69413B",
"#y 	c #704842",
"$y 	c #774F48",
"%y 	c #795049",
"&y 	c #7E534B",
"*y 	c #80564F",
"=y 	c #7D554F",
"-y 	c #79534E",
";y 	c #78524F",
">y 	c #754F4B",
",y 	c #754E48",
"'y 	c #764F49",
")y 	c #79524C",
"!y 	c #7C554F",
"~y 	c #78514B",
"{y 	c #724B46",
"]y 	c #6B4340",
"^y 	c #67403C",
"/y 	c #6A423F",
"(y 	c #69423F",
"_y 	c #663F3B",
":y 	c #5F3C37",
"<y 	c #583A33",
"[y 	c #53362F",
"}y 	c #4E302A",
"|y 	c #492C25",
"1y 	c #442821",
"2y 	c #462C23",
"3y 	c #54392F",
"4y 	c #5D4035",
"5y 	c #65463A",
"6y 	c #6D4D3F",
"7y 	c #705140",
"8y 	c #6E4D3B",
"9y 	c #6F4C39",
"0y 	c #7A533F",
"ay 	c #875C49",
"by 	c #976955",
"cy 	c #A0745D",
"dy 	c #A67C63",
"ey 	c #A1755C",
"fy 	c #9F7159",
"gy 	c #A3735B",
"hy 	c #AC7A63",
"iy 	c #B17E68",
"jy 	c #BD886F",
"ky 	c #C28C71",
"ly 	c #BF896F",
"my 	c #BE886E",
"ny 	c #B78167",
"oy 	c #B27C62",
"py 	c #A87356",
"qy 	c #A36F50",
"ry 	c #98684E",
"sy 	c #835841",
"ty 	c #6B4532",
"uy 	c #674435",
"vy 	c #56372D",
"wy 	c #4F3129",
"xy 	c #50352E",
"yy 	c #45322C",
"zy 	c #3C2C25",
"Ay 	c #3A2B25",
"By 	c #3A2B26",
"Cy 	c #352621",
"Dy 	c #31221D",
"Ey 	c #342520",
"Fy 	c #462F26",
"Gy 	c #5D4136",
"Hy 	c #65453A",
"Iy 	c #6C473C",
"Jy 	c #683F34",
"Ky 	c #6C3F34",
"Ly 	c #714433",
"My 	c #80513A",
"Ny 	c #845137",
"Oy 	c #865338",
"Py 	c #7A4931",
"Qy 	c #976852",
"Ry 	c #1D1F20",
"Sy 	c #585353",
"Ty 	c #D0C6C3",
"Uy 	c #DDCDC1",
"Vy 	c #CEB0A0",
"Wy 	c #AA8171",
"Xy 	c #9E7268",
"Yy 	c #BE9995",
"Zy 	c #B49295",
"`y 	c #A77E81",
" z 	c #9B7173",
".z 	c #805455",
"+z 	c #704745",
"@z 	c #69443F",
"#z 	c #5F3E39",
"$z 	c #5B393A",
"%z 	c #543435",
"&z 	c #503030",
"*z 	c #513030",
"=z 	c #4D2728",
"-z 	c #482121",
";z 	c #3D1B16",
">z 	c #644642",
",z 	c #66443F",
"'z 	c #AB8680",
")z 	c #C7A29B",
"!z 	c #C9A49A",
"~z 	c #CBA191",
"{z 	c #C29083",
"]z 	c #B98076",
"^z 	c #B4776F",
"/z 	c #B17470",
"(z 	c #AC736F",
"_z 	c #A7726D",
":z 	c #A36F6B",
"<z 	c #9C6A66",
"[z 	c #93635E",
"}z 	c #865952",
"|z 	c #6E443D",
"1z 	c #583029",
"2z 	c #623932",
"3z 	c #70443D",
"4z 	c #774B45",
"5z 	c #7D514B",
"6z 	c #7B514A",
"7z 	c #724B41",
"8z 	c #633F37",
"9z 	c #56352D",
"0z 	c #492A24",
"az 	c #412420",
"bz 	c #3C231F",
"cz 	c #37221D",
"dz 	c #33201B",
"ez 	c #321F1A",
"fz 	c #4B3F3E",
"gz 	c #382925",
"hz 	c #321C16",
"iz 	c #351F18",
"jz 	c #3B241E",
"kz 	c #3E261F",
"lz 	c #432A24",
"mz 	c #462A24",
"nz 	c #573831",
"oz 	c #5A3B34",
"pz 	c #593832",
"qz 	c #5A3832",
"rz 	c #59362F",
"sz 	c #6A463F",
"tz 	c #7E5A51",
"uz 	c #7C564C",
"vz 	c #70483D",
"wz 	c #734B3F",
"xz 	c #775244",
"yz 	c #6F4D3C",
"zz 	c #6F4B39",
"Az 	c #7F5846",
"Bz 	c #946956",
"Cz 	c #9F725E",
"Dz 	c #9D725B",
"Ez 	c #997057",
"Fz 	c #A2775E",
"Gz 	c #AA7D65",
"Hz 	c #AC7D66",
"Iz 	c #AE7D66",
"Jz 	c #B28069",
"Kz 	c #B3806A",
"Lz 	c #B8856E",
"Mz 	c #BB8670",
"Nz 	c #BD876E",
"Oz 	c #BB8569",
"Pz 	c #B98368",
"Qz 	c #BA8468",
"Rz 	c #B47E61",
"Sz 	c #A97558",
"Tz 	c #98674E",
"Uz 	c #855943",
"Vz 	c #6E4634",
"Wz 	c #6A4638",
"Xz 	c #66473B",
"Yz 	c #4D3026",
"Zz 	c #492F27",
"`z 	c #4D3731",
" A 	c #42302A",
".A 	c #41312A",
"+A 	c #3B2C26",
"@A 	c #3E302B",
"#A 	c #392B27",
"$A 	c #3C2C27",
"%A 	c #483832",
"&A 	c #573F33",
"*A 	c #5E4133",
"=A 	c #674437",
"-A 	c #693F32",
";A 	c #744336",
">A 	c #7D483B",
",A 	c #834C3A",
"'A 	c #8E5641",
")A 	c #965C46",
"!A 	c #663321",
"~A 	c #4D1907",
"{A 	c #5C2F1F",
"]A 	c #1F1E1F",
"^A 	c #9A918D",
"/A 	c #E7D7D0",
"(A 	c #E2CAC1",
"_A 	c #D2B5A9",
":A 	c #C9A799",
"<A 	c #C9A697",
"[A 	c #D2B1A4",
"}A 	c #C3A397",
"|A 	c #BA9487",
"1A 	c #B38A7D",
"2A 	c #A87C70",
"3A 	c #9B6C61",
"4A 	c #946158",
"5A 	c #8A5850",
"6A 	c #7F524B",
"7A 	c #764943",
"8A 	c #71443F",
"9A 	c #6F403E",
"0A 	c #693A39",
"aA 	c #6A3D3B",
"bA 	c #623830",
"cA 	c #5F352E",
"dA 	c #5A302B",
"eA 	c #916E6A",
"fA 	c #DCBDB7",
"gA 	c #D7B8B2",
"hA 	c #D2ABA3",
"iA 	c #CDA095",
"jA 	c #C69287",
"kA 	c #C18A81",
"lA 	c #BC8581",
"mA 	c #B27F7B",
"nA 	c #AF7E75",
"oA 	c #AD7972",
"pA 	c #A26F6A",
"qA 	c #865753",
"rA 	c #633C35",
"sA 	c #3F1E17",
"tA 	c #361710",
"uA 	c #563027",
"vA 	c #5F3329",
"wA 	c #61322B",
"xA 	c #5C2E2B",
"yA 	c #512825",
"zA 	c #401B14",
"AA 	c #35120D",
"BA 	c #311210",
"CA 	c #361A1B",
"DA 	c #4A3135",
"EA 	c #5B4245",
"FA 	c #422C2E",
"GA 	c #241314",
"HA 	c #1C1011",
"IA 	c #241F22",
"JA 	c #100E11",
"KA 	c #0F0E0D",
"LA 	c #14110D",
"MA 	c #1B0D0D",
"NA 	c #2C181A",
"OA 	c #2D1618",
"PA 	c #35201D",
"QA 	c #402C24",
"RA 	c #462F28",
"SA 	c #41211D",
"TA 	c #623E3B",
"UA 	c #704B47",
"VA 	c #754F49",
"WA 	c #7A534B",
"XA 	c #7F564E",
"YA 	c #865B52",
"ZA 	c #8C6157",
"`A 	c #875E52",
" B 	c #8E665A",
".B 	c #946D5D",
"+B 	c #966C5C",
"@B 	c #966959",
"#B 	c #9E715E",
"$B 	c #A98069",
"%B 	c #AC856C",
"&B 	c #AA8068",
"*B 	c #AC8069",
"=B 	c #AA7D66",
"-B 	c #B0816A",
";B 	c #AE8068",
">B 	c #B3836C",
",B 	c #B7856F",
"'B 	c #BA8770",
")B 	c #BA8570",
"!B 	c #BB846F",
"~B 	c #BA846B",
"{B 	c #B98369",
"]B 	c #B68066",
"^B 	c #B88267",
"/B 	c #B27C5F",
"(B 	c #A97658",
"_B 	c #99684F",
":B 	c #895B46",
"<B 	c #7C5141",
"[B 	c #663D30",
"}B 	c #684937",
"|B 	c #523829",
"1B 	c #4D352B",
"2B 	c #422D28",
"3B 	c #44332D",
"4B 	c #463830",
"5B 	c #392C25",
"6B 	c #3A302E",
"7B 	c #3B2E2A",
"8B 	c #44322A",
"9B 	c #4E372A",
"0B 	c #5D3F31",
"aB 	c #694738",
"bB 	c #70493B",
"cB 	c #805344",
"dB 	c #824F41",
"eB 	c #81493B",
"fB 	c #874B36",
"gB 	c #955942",
"hB 	c #8F5742",
"iB 	c #5B2716",
"jB 	c #4A1909",
"kB 	c #572B1E",
"lB 	c #2F2B2D",
"mB 	c #BAAEAB",
"nB 	c #E6D4D0",
"oB 	c #E1CAC9",
"pB 	c #E7CBC4",
"qB 	c #E3C2B5",
"rB 	c #D0AF9E",
"sB 	c #C4A694",
"tB 	c #CDB09D",
"uB 	c #C8A691",
"vB 	c #C19B87",
"wB 	c #B68978",
"xB 	c #B07A6C",
"yB 	c #AB7064",
"zB 	c #A1675B",
"AB 	c #905E52",
"BB 	c #8A584D",
"CB 	c #845148",
"DB 	c #86534C",
"EB 	c #804D48",
"FB 	c #7D4A43",
"GB 	c #78483A",
"HB 	c #815044",
"IB 	c #8E5F54",
"JB 	c #9B766A",
"KB 	c #E0C3B6",
"LB 	c #D9BEB0",
"MB 	c #D1AEA1",
"NB 	c #CDA495",
"OB 	c #CA9A8B",
"PB 	c #C39188",
"QB 	c #B6857D",
"RB 	c #B38278",
"SB 	c #AA776B",
"TB 	c #8C5A50",
"UB 	c #784A44",
"VB 	c #6D4444",
"WB 	c #593738",
"XB 	c #371715",
"YB 	c #441E18",
"ZB 	c #52251F",
"`B 	c #562825",
" C 	c #562829",
".C 	c #502426",
"+C 	c #4D2323",
"@C 	c #4A2122",
"#C 	c #573233",
"$C 	c #5D3739",
"%C 	c #765054",
"&C 	c #7B595D",
"*C 	c #6C4F53",
"=C 	c #43292B",
"-C 	c #311C1B",
";C 	c #261411",
">C 	c #281814",
",C 	c #2A1715",
"'C 	c #33191B",
")C 	c #3E2225",
"!C 	c #543338",
"~C 	c #674449",
"{C 	c #5A343B",
"]C 	c #502E2F",
"^C 	c #41231E",
"/C 	c #42231E",
"(C 	c #502F2A",
"_C 	c #5E3B37",
":C 	c #5D3A36",
"<C 	c #5F3934",
"[C 	c #643C34",
"}C 	c #71473F",
"|C 	c #764B42",
"1C 	c #8C5F53",
"2C 	c #97685B",
"3C 	c #976C60",
"4C 	c #916A5E",
"5C 	c #956D5E",
"6C 	c #9B7162",
"7C 	c #A77A67",
"8C 	c #A0745F",
"9C 	c #A2775F",
"0C 	c #A97C65",
"aC 	c #AA7C65",
"bC 	c #B3816C",
"cC 	c #B3816B",
"dC 	c #B6836C",
"eC 	c #B9826D",
"fC 	c #B8806B",
"gC 	c #B67D69",
"hC 	c #B78066",
"iC 	c #B88365",
"jC 	c #AE785B",
"kC 	c #AB7558",
"lC 	c #B58062",
"mC 	c #AF7A5A",
"nC 	c #A67353",
"oC 	c #9B6B4D",
"pC 	c #8B5E46",
"qC 	c #845946",
"rC 	c #754D3D",
"sC 	c #6B4B39",
"tC 	c #614536",
"uC 	c #634941",
"vC 	c #4C3530",
"wC 	c #46332D",
"xC 	c #3F2E27",
"yC 	c #352822",
"zC 	c #45332B",
"AC 	c #674D3F",
"BC 	c #765440",
"CC 	c #7E5341",
"DC 	c #8E5E4E",
"EC 	c #9A6756",
"FC 	c #9D6554",
"GC 	c #945A49",
"HC 	c #8F5240",
"IC 	c #8C523A",
"JC 	c #9B634A",
"KC 	c #955F48",
"LC 	c #824D3A",
"MC 	c #673425",
"NC 	c #4E1B0E",
"OC 	c #7F787A",
"PC 	c #E6D7D5",
"QC 	c #F0D9D3",
"RC 	c #EED1C3",
"SC 	c #CEA794",
"TC 	c #DBB29E",
"UC 	c #D6B09E",
"VC 	c #CEA797",
"WC 	c #B98D77",
"XC 	c #B68872",
"YC 	c #A87460",
"ZC 	c #9F6A56",
"`C 	c #9B6452",
" D 	c #A16959",
".D 	c #996253",
"+D 	c #8F574B",
"@D 	c #8B5348",
"#D 	c #895148",
"$D 	c #895048",
"%D 	c #834B42",
"&D 	c #885149",
"*D 	c #926059",
"=D 	c #AD877E",
"-D 	c #EACDC2",
";D 	c #E1C7BA",
">D 	c #E1C1B0",
",D 	c #E2BBA8",
"'D 	c #DFB29E",
")D 	c #C8998C",
"!D 	c #BD8D84",
"~D 	c #B38277",
"{D 	c #A57262",
"]D 	c #8D5B4A",
"^D 	c #7B5156",
"/D 	c #6A464F",
"(D 	c #5B3A3A",
"_D 	c #663F3D",
":D 	c #734643",
"<D 	c #80504F",
"[D 	c #7B4B4E",
"}D 	c #6B3B41",
"|D 	c #703F44",
"1D 	c #7B4A4E",
"2D 	c #835156",
"3D 	c #875559",
"4D 	c #825054",
"5D 	c #825252",
"6D 	c #835753",
"7D 	c #7A4F4C",
"8D 	c #704747",
"9D 	c #6F464A",
"0D 	c #7A5256",
"aD 	c #7F5456",
"bD 	c #7E504E",
"cD 	c #7F514F",
"dD 	c #835352",
"eD 	c #895757",
"fD 	c #875454",
"gD 	c #885752",
"hD 	c #7E4F44",
"iD 	c #75463A",
"jD 	c #784A3F",
"kD 	c #825548",
"lD 	c #6F4236",
"mD 	c #754A40",
"nD 	c #81564C",
"oD 	c #865A4F",
"pD 	c #916357",
"qD 	c #956658",
"rD 	c #936354",
"sD 	c #976A5D",
"tD 	c #9C7467",
"uD 	c #9F7768",
"vD 	c #A27767",
"wD 	c #A47766",
"xD 	c #A97C6A",
"yD 	c #A97B66",
"zD 	c #AE7F69",
"AD 	c #B17F6A",
"BD 	c #B17D68",
"CD 	c #AF7A66",
"DD 	c #A7725D",
"ED 	c #AF7963",
"FD 	c #B37B66",
"GD 	c #B37A66",
"HD 	c #B47A66",
"ID 	c #B77A67",
"JD 	c #B67E62",
"KD 	c #B47F5E",
"LD 	c #AE7958",
"MD 	c #AE7959",
"ND 	c #B37E5E",
"OD 	c #AB7754",
"PD 	c #9E6C49",
"QD 	c #9A6A4A",
"RD 	c #8B5E43",
"SD 	c #875D46",
"TD 	c #7F5744",
"UD 	c #64422F",
"VD 	c #6B4B3D",
"WD 	c #795C55",
"XD 	c #6A4F4B",
"YD 	c #543D39",
"ZD 	c #493530",
"`D 	c #382720",
" E 	c #483831",
".E 	c #46342C",
"+E 	c #5C4437",
"@E 	c #785642",
"#E 	c #956B50",
"$E 	c #97664F",
"%E 	c #A97560",
"&E 	c #AA7660",
"*E 	c #AC765F",
"=E 	c #A87259",
"-E 	c #90593F",
";E 	c #8F5A3E",
">E 	c #9E6A50",
",E 	c #915B45",
"'E 	c #8A5341",
")E 	c #844C3D",
"!E 	c #6B3428",
"~E 	c #C3B2AF",
"{E 	c #F1D8D5",
"]E 	c #EFD3CA",
"^E 	c #EED2BC",
"/E 	c #E7CAB2",
"(E 	c #E1BFA5",
"_E 	c #D8AE94",
":E 	c #C18F77",
"<E 	c #9D6650",
"[E 	c #975E49",
"}E 	c #98644F",
"|E 	c #996852",
"1E 	c #986652",
"2E 	c #935C4C",
"3E 	c #8E5243",
"4E 	c #894C3F",
"5E 	c #82463A",
"6E 	c #7A4035",
"7E 	c #7B423A",
"8E 	c #7B443D",
"9E 	c #7B4740",
"0E 	c #7B4A3C",
"aE 	c #7D4B3A",
"bE 	c #84524B",
"cE 	c #B99091",
"dE 	c #E4C9B7",
"eE 	c #E3C1AE",
"fE 	c #E2BDAB",
"gE 	c #D6A898",
"hE 	c #CD9C8E",
"iE 	c #BC8B81",
"jE 	c #AF7C74",
"kE 	c #A46F64",
"lE 	c #935E51",
"mE 	c #86544C",
"nE 	c #835553",
"oE 	c #7B5457",
"pE 	c #6F4D52",
"qE 	c #6E484B",
"rE 	c #6F4545",
"sE 	c #744643",
"tE 	c #7C4B48",
"uE 	c #835150",
"vE 	c #855357",
"wE 	c #835155",
"xE 	c #865657",
"yE 	c #855655",
"zE 	c #885957",
"AE 	c #85554F",
"BE 	c #835248",
"CE 	c #835249",
"DE 	c #875650",
"EE 	c #8F5D5A",
"FE 	c #915F5E",
"GE 	c #936061",
"HE 	c #976364",
"IE 	c #956260",
"JE 	c #9E6B65",
"KE 	c #A47267",
"LE 	c #9D6B5E",
"ME 	c #8F5E4E",
"NE 	c #996956",
"OE 	c #A87865",
"PE 	c #9F6E5B",
"QE 	c #92614F",
"RE 	c #8A5B48",
"SE 	c #6D4132",
"TE 	c #683E32",
"UE 	c #72463A",
"VE 	c #805244",
"WE 	c #885848",
"XE 	c #915F4C",
"YE 	c #986956",
"ZE 	c #9E705F",
"`E 	c #A67867",
" F 	c #A87A69",
".F 	c #AC7E6B",
"+F 	c #AD806A",
"@F 	c #B0836B",
"#F 	c #B27D67",
"$F 	c #B27B66",
"%F 	c #B17964",
"&F 	c #B17763",
"*F 	c #B47965",
"=F 	c #B27562",
"-F 	c #B17860",
";F 	c #B27C61",
">F 	c #B47E63",
",F 	c #B57F64",
"'F 	c #AE795D",
")F 	c #A97355",
"!F 	c #A36D4F",
"~F 	c #A16D52",
"{F 	c #92624A",
"]F 	c #90634E",
"^F 	c #7F5441",
"/F 	c #7B5540",
"(F 	c #6C4938",
"_F 	c #73544B",
":F 	c #6C524F",
"<F 	c #5C4846",
"[F 	c #483834",
"}F 	c #503E36",
"|F 	c #473126",
"1F 	c #5D4437",
"2F 	c #7F5F4E",
"3F 	c #8E6550",
"4F 	c #9E6F56",
"5F 	c #AD7A5E",
"6F 	c #AB7659",
"7F 	c #B17C5E",
"8F 	c #B68163",
"9F 	c #8B573A",
"0F 	c #8F5841",
"aF 	c #915A47",
"bF 	c #8C5342",
"cF 	c #8E5547",
"dF 	c #8A5044",
"eF 	c #7E4439",
"fF 	c #E4D1CE",
"gF 	c #F1D6D2",
"hF 	c #EFD1C9",
"iF 	c #EACEBB",
"jF 	c #E3C7B1",
"kF 	c #DEBFA7",
"lF 	c #DAB49A",
"mF 	c #D0A087",
"nF 	c #BF8971",
"oF 	c #AA745E",
"pF 	c #9C6853",
"qF 	c #95624E",
"rF 	c #966352",
"sF 	c #8E5949",
"tF 	c #864F41",
"uF 	c #7F493B",
"vF 	c #784436",
"wF 	c #723D2F",
"xF 	c #723E31",
"yF 	c #79473A",
"zF 	c #7A483C",
"AF 	c #7B4C3C",
"BF 	c #7D503C",
"CF 	c #9A7269",
"DF 	c #E1BCBD",
"EF 	c #ECCEC7",
"FF 	c #E6C9B6",
"GF 	c #E6C3B0",
"HF 	c #E3BEAC",
"IF 	c #DCB2A2",
"JF 	c #C9988A",
"KF 	c #BC8A7E",
"LF 	c #B07B72",
"MF 	c #A0695E",
"NF 	c #9A6055",
"OF 	c #845958",
"PF 	c #7C5657",
"QF 	c #744D4D",
"RF 	c #653B39",
"SF 	c #673A36",
"TF 	c #673A34",
"UF 	c #784543",
"VF 	c #864D50",
"WF 	c #955C5D",
"XF 	c #9C6262",
"YF 	c #A06563",
"ZF 	c #A96D6A",
"`F 	c #B17871",
" G 	c #AF796D",
".G 	c #AF796F",
"+G 	c #AC756D",
"@G 	c #A66F69",
"#G 	c #A56E6A",
"$G 	c #A6716E",
"%G 	c #A3706C",
"&G 	c #A06E67",
"*G 	c #A06E65",
"=G 	c #946356",
"-G 	c #976758",
";G 	c #AB7969",
">G 	c #AD7B68",
",G 	c #936451",
"'G 	c #8E5D4A",
")G 	c #A77562",
"!G 	c #A57666",
"~G 	c #9B6C5C",
"{G 	c #9F705F",
"]G 	c #A97968",
"^G 	c #AB7A68",
"/G 	c #AC7C68",
"(G 	c #A97B67",
"_G 	c #A77964",
":G 	c #A67863",
"<G 	c #AB7D68",
"[G 	c #B2856E",
"}G 	c #B3856D",
"|G 	c #B5876F",
"1G 	c #B98670",
"2G 	c #B8856F",
"3G 	c #B9816C",
"4G 	c #BB826E",
"5G 	c #B97F6B",
"6G 	c #B98169",
"7G 	c #B47E64",
"8G 	c #B57F65",
"9G 	c #B88268",
"0G 	c #AC765A",
"aG 	c #A97458",
"bG 	c #A47158",
"cG 	c #986953",
"dG 	c #8C604D",
"eG 	c #875D4C",
"fG 	c #805D4A",
"gG 	c #7E5E4E",
"hG 	c #70524A",
"iG 	c #7B615D",
"jG 	c #66514D",
"kG 	c #473530",
"lG 	c #5B4A40",
"mG 	c #584134",
"nG 	c #674837",
"oG 	c #9B735D",
"pG 	c #AB7E66",
"qG 	c #B08169",
"rG 	c #B17E63",
"sG 	c #AC795B",
"tG 	c #B07C5E",
"uG 	c #AE7B5D",
"vG 	c #B98568",
"wG 	c #B58164",
"xG 	c #935D47",
"yG 	c #864D39",
"zG 	c #8C5340",
"AG 	c #8E5545",
"BG 	c #8E5446",
"CG 	c #874D40",
"DG 	c #EAD7D4",
"EG 	c #F0D5D1",
"FG 	c #F0D2CB",
"GG 	c #EECEBF",
"HG 	c #E6C9B3",
"IG 	c #E1BFA6",
"JG 	c #D7AE95",
"KG 	c #C99C82",
"LG 	c #BB8D74",
"MG 	c #AD7864",
"NG 	c #AE7A67",
"OG 	c #A97866",
"PG 	c #A47866",
"QG 	c #9C7261",
"RG 	c #9B705F",
"SG 	c #966A57",
"TG 	c #996C58",
"UG 	c #9F715C",
"VG 	c #AA7967",
"WG 	c #AE7E6E",
"XG 	c #BC957F",
"YG 	c #CFAEA1",
"ZG 	c #EECFCD",
"`G 	c #ECD0C8",
" H 	c #E6C8B5",
".H 	c #E5C3B0",
"+H 	c #E1BCAA",
"@H 	c #D9AF9F",
"#H 	c #D6A89A",
"$H 	c #B1796E",
"%H 	c #A06658",
"&H 	c #975C4E",
"*H 	c #935A4F",
"=H 	c #885B55",
"-H 	c #835A54",
";H 	c #885E59",
">H 	c #7C534D",
",H 	c #683E38",
"'H 	c #5C332D",
")H 	c #643530",
"!H 	c #753D3A",
"~H 	c #874D49",
"{H 	c #965954",
"]H 	c #A3615B",
"^H 	c #AC6861",
"/H 	c #B37369",
"(H 	c #B17569",
"_H 	c #AF7368",
":H 	c #A86C63",
"<H 	c #AA6E66",
"[H 	c #A76A65",
"}H 	c #A87068",
"|H 	c #A17064",
"1H 	c #9B6A5D",
"2H 	c #956457",
"3H 	c #956456",
"4H 	c #9F6E60",
"5H 	c #946254",
"6H 	c #7C4839",
"7H 	c #8B5646",
"8H 	c #A97261",
"9H 	c #B67F6E",
"0H 	c #AF7867",
"aH 	c #AC7662",
"bH 	c #AE7963",
"cH 	c #B7836F",
"dH 	c #B68571",
"eH 	c #BA8978",
"fH 	c #BD8E79",
"gH 	c #C0927B",
"hH 	c #BB8D76",
"iH 	c #B98B74",
"jH 	c #BB8D75",
"kH 	c #BB8E76",
"lH 	c #BA8C74",
"mH 	c #B88770",
"nH 	c #BA8971",
"oH 	c #BB8B74",
"pH 	c #C08E77",
"qH 	c #BF8974",
"rH 	c #BE8772",
"sH 	c #BD866E",
"tH 	c #AA765C",
"uH 	c #A16F56",
"vH 	c #9C6D56",
"wH 	c #9C6F5B",
"xH 	c #9B7362",
"yH 	c #855F50",
"zH 	c #7D5D4E",
"AH 	c #806357",
"BH 	c #856963",
"CH 	c #876D69",
"DH 	c #775F5A",
"EH 	c #6B564D",
"FH 	c #48362C",
"GH 	c #6C5345",
"HH 	c #7E5841",
"IH 	c #A7785C",
"JH 	c #B07F65",
"KH 	c #AC7E66",
"LH 	c #AC7C64",
"MH 	c #B08066",
"NH 	c #B28268",
"OH 	c #B38369",
"PH 	c #B7866C",
"QH 	c #B88269",
"RH 	c #935C45",
"SH 	c #8A513C",
"TH 	c #915845",
"UH 	c #935A48",
"VH 	c #975E4E",
"WH 	c #ECD7D5",
"XH 	c #EBD3D0",
"YH 	c #EBD2CC",
"ZH 	c #EACDBC",
"`H 	c #EBCDB7",
" I 	c #DEB9A4",
".I 	c #D6AE98",
"+I 	c #CDA289",
"@I 	c #C2937C",
"#I 	c #B88571",
"$I 	c #BA8A75",
"%I 	c #BF9380",
"&I 	c #C59F8C",
"*I 	c #CAA28D",
"=I 	c #CDA38B",
"-I 	c #CBA086",
";I 	c #C69B82",
">I 	c #CB9F89",
",I 	c #D2A492",
"'I 	c #E1C5B9",
")I 	c #EBD2CE",
"!I 	c #E9CFC9",
"~I 	c #E6C8BA",
"{I 	c #E8C2B0",
"]I 	c #DFB9A7",
"^I 	c #DAAB9C",
"/I 	c #D19E90",
"(I 	c #BB8477",
"_I 	c #A76C5E",
":I 	c #A36757",
"<I 	c #A06253",
"[I 	c #965B4E",
"}I 	c #90574E",
"|I 	c #88534A",
"1I 	c #89594E",
"2I 	c #91665E",
"3I 	c #784E49",
"4I 	c #633A36",
"5I 	c #60322B",
"6I 	c #633229",
"7I 	c #6D362D",
"8I 	c #773B33",
"9I 	c #83433A",
"0I 	c #8C4D42",
"aI 	c #925447",
"bI 	c #905146",
"cI 	c #8B4C42",
"dI 	c #884940",
"eI 	c #7D443A",
"fI 	c #6F3F32",
"gI 	c #66362A",
"hI 	c #5F2F24",
"iI 	c #592A20",
"jI 	c #65342D",
"kI 	c #895548",
"lI 	c #AA705E",
"mI 	c #B47A67",
"nI 	c #B67C6A",
"oI 	c #B47A68",
"pI 	c #B17765",
"qI 	c #AC735E",
"rI 	c #B07862",
"sI 	c #B27A65",
"tI 	c #B07B66",
"uI 	c #B17E6A",
"vI 	c #B58270",
"wI 	c #B68570",
"xI 	c #B88970",
"yI 	c #BB8D73",
"zI 	c #BE9075",
"AI 	c #C09377",
"BI 	c #C39779",
"CI 	c #C3957B",
"DI 	c #C3947C",
"EI 	c #C3947D",
"FI 	c #C08F78",
"GI 	c #BE8C76",
"HI 	c #BD8B74",
"II 	c #BD8B75",
"JI 	c #C08D77",
"KI 	c #BE8973",
"LI 	c #BB866A",
"MI 	c #B98367",
"NI 	c #B88266",
"OI 	c #A7755B",
"PI 	c #A3745D",
"QI 	c #986B56",
"RI 	c #885E4C",
"SI 	c #8C6657",
"TI 	c #936F61",
"UI 	c #7E6254",
"VI 	c #826960",
"WI 	c #89706A",
"XI 	c #876E6B",
"YI 	c #6A524C",
"ZI 	c #6E574D",
"`I 	c #614D45",
" J 	c #6D5349",
".J 	c #99745F",
"+J 	c #AC7F62",
"@J 	c #B28366",
"#J 	c #AF8368",
"$J 	c #AD7F67",
"%J 	c #B08168",
"&J 	c #B3846B",
"*J 	c #B5866B",
"=J 	c #B98A6F",
"-J 	c #BA8B6F",
";J 	c #BB876A",
">J 	c #9D674C",
",J 	c #874E38",
"'J 	c #925643",
")J 	c #9E604E",
"!J 	c #9F614F",
"~J 	c #ECD1CF",
"{J 	c #EED6D4",
"]J 	c #EED9D5",
"^J 	c #EAD4C8",
"/J 	c #E6CABA",
"(J 	c #E8C2AF",
"_J 	c #D9B4A2",
":J 	c #D5AB94",
"<J 	c #D1A58E",
"[J 	c #CEA18A",
"}J 	c #D4A48F",
"|J 	c #D9A892",
"1J 	c #DAAB95",
"2J 	c #D3AA93",
"3J 	c #D8AC91",
"4J 	c #D9AA8D",
"5J 	c #D7A98D",
"6J 	c #D6AB92",
"7J 	c #D7AE98",
"8J 	c #DFB7A6",
"9J 	c #E7C6BA",
"0J 	c #EED2CB",
"aJ 	c #EDD3CF",
"bJ 	c #ECD1CB",
"cJ 	c #E5C5BB",
"dJ 	c #DDB2A1",
"eJ 	c #E4BAA8",
"fJ 	c #DCB1A0",
"gJ 	c #C68F81",
"hJ 	c #B5796C",
"iJ 	c #A66957",
"jJ 	c #A36654",
"kJ 	c #A46657",
"lJ 	c #9F6155",
"mJ 	c #9E6055",
"nJ 	c #995D51",
"oJ 	c #986254",
"pJ 	c #976356",
"qJ 	c #9C6B62",
"rJ 	c #9E716A",
"sJ 	c #956A66",
"tJ 	c #805652",
"uJ 	c #794F4B",
"vJ 	c #7C504B",
"wJ 	c #774742",
"xJ 	c #74423B",
"yJ 	c #733D37",
"zJ 	c #6F3831",
"AJ 	c #6A342E",
"BJ 	c #663029",
"CJ 	c #632D26",
"DJ 	c #622C25",
"EJ 	c #5C261F",
"FJ 	c #55241D",
"GJ 	c #532720",
"HJ 	c #56271F",
"IJ 	c #673329",
"JJ 	c #864E43",
"KJ 	c #A66A5E",
"LJ 	c #B67A6A",
"MJ 	c #BA7F6C",
"NJ 	c #BC816D",
"OJ 	c #B97E6A",
"PJ 	c #B17965",
"QJ 	c #B57E6A",
"RJ 	c #BD8673",
"SJ 	c #BF8875",
"TJ 	c #BC8571",
"UJ 	c #B8816E",
"VJ 	c #B5846C",
"WJ 	c #B98469",
"XJ 	c #BD8A70",
"YJ 	c #C2927B",
"ZJ 	c #C18D77",
"`J 	c #C08974",
" K 	c #BF8973",
".K 	c #BE8872",
"+K 	c #BD8670",
"@K 	c #B88364",
"#K 	c #B58061",
"$K 	c #AE795A",
"%K 	c #AC7758",
"&K 	c #A5755C",
"*K 	c #986B55",
"=K 	c #8C614F",
"-K 	c #8E6857",
";K 	c #7B584A",
">K 	c #7E5D52",
",K 	c #7A6054",
"'K 	c #6E5850",
")K 	c #7F6864",
"!K 	c #8B7370",
"~K 	c #6F5853",
"{K 	c #725C52",
"]K 	c #69524A",
"^K 	c #674B42",
"/K 	c #9C7968",
"(K 	c #B0866D",
"_K 	c #B5896D",
":K 	c #B18568",
"<K 	c #AB7C64",
"[K 	c #AA7962",
"}K 	c #B08068",
"|K 	c #B08165",
"1K 	c #B08164",
"2K 	c #B38466",
"3K 	c #BB886A",
"4K 	c #AA745A",
"5K 	c #935846",
"6K 	c #9A5A4D",
"7K 	c #9F5B4E",
"8K 	c #9E594A",
"9K 	c #EBCBC8",
"0K 	c #EACAC8",
"aK 	c #E7CBC9",
"bK 	c #E6CECA",
"cK 	c #E6C9BF",
"dK 	c #E4C1B1",
"eK 	c #DDB6A1",
"fK 	c #DEB5A1",
"gK 	c #DFB4A1",
"hK 	c #E3B5A3",
"iK 	c #E4B5A3",
"jK 	c #E3B5A1",
"kK 	c #DFB79E",
"lK 	c #E1B59B",
"mK 	c #DAAA91",
"nK 	c #DCAD96",
"oK 	c #DCB19F",
"pK 	c #E0B9AE",
"qK 	c #F2D2CC",
"rK 	c #EDD0CB",
"sK 	c #EFD3D0",
"tK 	c #EFD2CD",
"uK 	c #EAC8C0",
"vK 	c #E1B9AC",
"wK 	c #DDAE9E",
"xK 	c #E5B8A8",
"yK 	c #CE9B8D",
"zK 	c #C88D81",
"AK 	c #B6786B",
"BK 	c #A56856",
"CK 	c #A26554",
"DK 	c #A46658",
"EK 	c #A36559",
"FK 	c #A5675C",
"GK 	c #A66A5F",
"HK 	c #A0675C",
"IK 	c #9D6559",
"JK 	c #9F685E",
"KK 	c #A26D63",
"LK 	c #A36E66",
"MK 	c #A06C66",
"NK 	c #9D6A65",
"OK 	c #9C6A63",
"PK 	c #97635C",
"QK 	c #946056",
"RK 	c #915B50",
"SK 	c #956055",
"TK 	c #925E55",
"UK 	c #905D54",
"VK 	c #88554B",
"WK 	c #814D44",
"XK 	c #825043",
"YK 	c #81513F",
"ZK 	c #8F5C4A",
"`K 	c #B07966",
" L 	c #C38874",
".L 	c #C98B77",
"+L 	c #C98D7A",
"@L 	c #BA8170",
"#L 	c #B9806F",
"$L 	c #BB8271",
"%L 	c #BB8574",
"&L 	c #BF8C7B",
"*L 	c #BC8978",
"=L 	c #B88470",
"-L 	c #B77F6B",
";L 	c #B47863",
">L 	c #B87964",
",L 	c #B78069",
"'L 	c #BC8C75",
")L 	c #C4947D",
"!L 	c #BF8B73",
"~L 	c #C18B71",
"{L 	c #C18B72",
"]L 	c #BE886F",
"^L 	c #B37E61",
"/L 	c #B37E5F",
"(L 	c #AA7556",
"_L 	c #A67152",
":L 	c #A26D4E",
"<L 	c #92624B",
"[L 	c #865C49",
"}L 	c #815949",
"|L 	c #795547",
"1L 	c #7F5E53",
"2L 	c #6E5046",
"3L 	c #735B4F",
"4L 	c #705951",
"5L 	c #6B534F",
"6L 	c #836C69",
"7L 	c #77605B",
"8L 	c #755F55",
"9L 	c #745C50",
"0L 	c #876959",
"aL 	c #A57F6A",
"bL 	c #B6896F",
"cL 	c #B7886C",
"dL 	c #B08268",
"eL 	c #AB7862",
"fL 	c #A5715B",
"gL 	c #A47059",
"hL 	c #A47056",
"iL 	c #A77459",
"jL 	c #AE7A5D",
"kL 	c #B9836A",
"lL 	c #A8715C",
"mL 	c #965A4A",
"nL 	c #955648",
"oL 	c #945141",
"pL 	c #904C38",
"qL 	c #DEBBB5",
"rL 	c #DBB6B3",
"sL 	c #DABABA",
"tL 	c #E6CECF",
"uL 	c #E8CAC5",
"vL 	c #E2BEB2",
"wL 	c #E1BAAA",
"xL 	c #E1BCA8",
"yL 	c #E5BEAB",
"zL 	c #E4BBA9",
"AL 	c #E0B5A4",
"BL 	c #DEB2A1",
"CL 	c #E4BAA9",
"DL 	c #E2C1AD",
"EL 	c #E1B9A8",
"FL 	c #E1BAAE",
"GL 	c #E7C3BF",
"HL 	c #EDCECE",
"IL 	c #F4DADB",
"JL 	c #EDD4D6",
"KL 	c #EFD5D5",
"LL 	c #ECCBC7",
"ML 	c #E7BEB3",
"NL 	c #E4B4A5",
"OL 	c #E2B3A3",
"PL 	c #D6A596",
"QL 	c #CB9587",
"RL 	c #C3867B",
"SL 	c #AE6F63",
"TL 	c #A26553",
"UL 	c #A16452",
"VL 	c #A36557",
"WL 	c #A4665A",
"XL 	c #A96B60",
"YL 	c #AE7267",
"ZL 	c #AE7469",
"`L 	c #AD7368",
" M 	c #AC7066",
".M 	c #AC7065",
"+M 	c #AA6E62",
"@M 	c #AB6D62",
"#M 	c #AB6B60",
"$M 	c #AD6E61",
"%M 	c #A56758",
"&M 	c #A16554",
"*M 	c #A16552",
"=M 	c #A56753",
"-M 	c #A96953",
";M 	c #AB6B55",
">M 	c #A86852",
",M 	c #AC6C55",
"'M 	c #AF7156",
")M 	c #B77B5B",
"!M 	c #C78D70",
"~M 	c #CF967C",
"{M 	c #CE9782",
"]M 	c #CF9986",
"^M 	c #C79280",
"/M 	c #C08A7A",
"(M 	c #BE8979",
"_M 	c #BC8777",
":M 	c #B98474",
"<M 	c #B78271",
"[M 	c #B68273",
"}M 	c #B58374",
"|M 	c #BA887A",
"1M 	c #BC8A7B",
"2M 	c #BE8C7C",
"3M 	c #BD8C7A",
"4M 	c #B98873",
"5M 	c #B78671",
"6M 	c #BA8972",
"7M 	c #B88870",
"8M 	c #BE8E77",
"9M 	c #BC8B74",
"0M 	c #B8856B",
"aM 	c #BC866A",
"bM 	c #B78165",
"cM 	c #B57F63",
"dM 	c #B17C5D",
"eM 	c #AF7A5B",
"fM 	c #AB7657",
"gM 	c #A67153",
"hM 	c #956750",
"iM 	c #7D5544",
"jM 	c #714C3E",
"kM 	c #684A41",
"lM 	c #64473F",
"mM 	c #634A40",
"nM 	c #6B544F",
"oM 	c #775F5D",
"pM 	c #604944",
"qM 	c #5E483E",
"rM 	c #5C4130",
"sM 	c #997963",
"tM 	c #A88067",
"uM 	c #B6886C",
"vM 	c #B07F64",
"wM 	c #A26E59",
"xM 	c #9E6752",
"yM 	c #97604A",
"zM 	c #986349",
"AM 	c #A16B51",
"BM 	c #AD775C",
"CM 	c #8F593F",
"DM 	c #874D35",
"EM 	c #8C4E36",
"FM 	c #9B5A3E",
"GM 	c #A36341",
"HM 	c #DCB6A9",
"IM 	c #D6B1AB",
"JM 	c #DEC5C9",
"KM 	c #ECD4D5",
"LM 	c #E4C4C0",
"MM 	c #DFB1A0",
"NM 	c #E1B29F",
"OM 	c #E2B3A0",
"PM 	c #DCAF9B",
"QM 	c #E3B4A4",
"RM 	c #E4B9A5",
"SM 	c #E3B8A5",
"TM 	c #ECCCC3",
"UM 	c #EFD7D7",
"VM 	c #EBD7DB",
"WM 	c #F0DADD",
"XM 	c #EDD7D8",
"YM 	c #EDD3D1",
"ZM 	c #EBC9C0",
"`M 	c #E9BEAE",
" N 	c #E8BBA7",
".N 	c #E3BAA6",
"+N 	c #E3B2A1",
"@N 	c #D89E91",
"#N 	c #CE9083",
"$N 	c #BE7E72",
"%N 	c #AB6C5F",
"&N 	c #A66859",
"*N 	c #A26455",
"=N 	c #A16354",
"-N 	c #AA6C5D",
";N 	c #B17768",
">N 	c #B27C6D",
",N 	c #B88073",
"'N 	c #B87F74",
")N 	c #B87D74",
"!N 	c #B37670",
"~N 	c #B67770",
"{N 	c #BA786F",
"]N 	c #B7766C",
"^N 	c #B77669",
"/N 	c #B67667",
"(N 	c #B37363",
"_N 	c #B17361",
":N 	c #B1745F",
"<N 	c #B67965",
"[N 	c #BC7F6B",
"}N 	c #BF826E",
"|N 	c #C0836F",
"1N 	c #C48A74",
"2N 	c #C9917A",
"3N 	c #D59D88",
"4N 	c #D69E8A",
"5N 	c #D29A88",
"6N 	c #D09888",
"7N 	c #CB9383",
"8N 	c #C58E7D",
"9N 	c #B67E6D",
"0N 	c #AC7464",
"aN 	c #A97161",
"bN 	c #AC7566",
"cN 	c #AD7568",
"dN 	c #AF786B",
"eN 	c #B27B6E",
"fN 	c #B47D70",
"gN 	c #B78073",
"hN 	c #B78373",
"iN 	c #B98875",
"jN 	c #BE8F7A",
"kN 	c #C08E78",
"lN 	c #BF8C76",
"mN 	c #BE8B74",
"nN 	c #B4816B",
"oN 	c #B57E60",
"pN 	c #B88163",
"qN 	c #B98264",
"rN 	c #B77F60",
"sN 	c #B27A5C",
"tN 	c #AE7859",
"uN 	c #AA7558",
"vN 	c #A77457",
"wN 	c #A16F53",
"xN 	c #96684F",
"yN 	c #805845",
"zN 	c #644334",
"AN 	c #674B41",
"BN 	c #5B4037",
"CN 	c #63463B",
"DN 	c #51342A",
"EN 	c #5B423A",
"FN 	c #604B46",
"GN 	c #6B5854",
"HN 	c #6B5651",
"IN 	c #563E36",
"JN 	c #85604A",
"KN 	c #A07457",
"LN 	c #B48767",
"MN 	c #B68668",
"NN 	c #B5836A",
"ON 	c #AD7865",
"PN 	c #A4705B",
"QN 	c #A06C56",
"RN 	c #A26E58",
"SN 	c #AA765F",
"TN 	c #804A33",
"UN 	c #753920",
"VN 	c #7F4026",
"WN 	c #905236",
"XN 	c #A06547",
"YN 	c #B6815F",
"ZN 	c #D6B2A6",
"`N 	c #D9B7B4",
" O 	c #ECD4DA",
".O 	c #EBCECF",
"+O 	c #E1BDB7",
"@O 	c #DBADA0",
"#O 	c #DDAA98",
"$O 	c #DBA591",
"%O 	c #DBA793",
"&O 	c #D3A08A",
"*O 	c #CF967F",
"=O 	c #D3967D",
"-O 	c #D5947B",
";O 	c #C9866D",
">O 	c #C8826C",
",O 	c #C6826F",
"'O 	c #C98F80",
")O 	c #CA9C94",
"!O 	c #E1BFC1",
"~O 	c #F3D9DE",
"{O 	c #F0DADC",
"]O 	c #F0DADB",
"^O 	c #F0D6D4",
"/O 	c #F0CEC6",
"(O 	c #E9BEAD",
"_O 	c #E8BAA6",
":O 	c #E0B4A4",
"<O 	c #DBA89B",
"[O 	c #D0958B",
"}O 	c #C88980",
"|O 	c #C1837A",
"1O 	c #B6796D",
"2O 	c #AC6E60",
"3O 	c #A86A5B",
"4O 	c #A7695A",
"5O 	c #AD6F60",
"6O 	c #B37768",
"7O 	c #B67D6F",
"8O 	c #BA8074",
"9O 	c #BF8479",
"0O 	c #C0827A",
"aO 	c #BE7E7A",
"bO 	c #BC7D79",
"cO 	c #B87C78",
"dO 	c #BD817A",
"eO 	c #BF847B",
"fO 	c #C0857B",
"gO 	c #C08579",
"hO 	c #BC8071",
"iO 	c #BD806E",
"jO 	c #BD806F",
"kO 	c #BF8271",
"lO 	c #C58776",
"mO 	c #C58877",
"nO 	c #C68A77",
"oO 	c #C98E7B",
"pO 	c #CF9482",
"qO 	c #D09585",
"rO 	c #CE9284",
"sO 	c #CE9286",
"tO 	c #C98F82",
"uO 	c #C89081",
"vO 	c #C38B7D",
"wO 	c #B98173",
"xO 	c #AA7264",
"yO 	c #A76F61",
"zO 	c #A66E61",
"AO 	c #A76F62",
"BO 	c #AB7366",
"CO 	c #AC7467",
"DO 	c #AE7669",
"EO 	c #B17C6C",
"FO 	c #B07D6A",
"GO 	c #B5826F",
"HO 	c #BB8875",
"IO 	c #B17A5C",
"JO 	c #B27B5D",
"KO 	c #B17B5B",
"LO 	c #B07B5B",
"MO 	c #A67355",
"NO 	c #A17053",
"OO 	c #98684D",
"PO 	c #92654C",
"QO 	c #7B5340",
"RO 	c #6A493A",
"SO 	c #4D3228",
"TO 	c #634940",
"UO 	c #5C3F35",
"VO 	c #4E3228",
"WO 	c #5A413A",
"XO 	c #57413C",
"YO 	c #58443F",
"ZO 	c #5F463E",
"`O 	c #634539",
" P 	c #956D56",
".P 	c #AB7F61",
"+P 	c #B68969",
"@P 	c #B78768",
"#P 	c #B17F66",
"$P 	c #B17C69",
"%P 	c #A97561",
"&P 	c #A16D57",
"*P 	c #804C37",
"=P 	c #743522",
"-P 	c #7D3A26",
";P 	c #8B4632",
">P 	c #9B5942",
",P 	c #A86E52",
"'P 	c #B37F60",
")P 	c #C7A59C",
"!P 	c #E2C3C2",
"~P 	c #EAD2D9",
"{P 	c #E4C2C2",
"]P 	c #DCB1AB",
"^P 	c #D6A293",
"/P 	c #D59B88",
"(P 	c #D29682",
"_P 	c #CE907C",
":P 	c #CA8572",
"<P 	c #C27B68",
"[P 	c #BE7462",
"}P 	c #B66A58",
"|P 	c #A65847",
"1P 	c #9C4F40",
"2P 	c #91493E",
"3P 	c #864136",
"4P 	c #824339",
"5P 	c #8B5752",
"6P 	c #C39B9A",
"7P 	c #F6D7D9",
"8P 	c #EED8DA",
"9P 	c #EFD9DA",
"0P 	c #EECCC4",
"aP 	c #EABEAE",
"bP 	c #E3B4A1",
"cP 	c #DFADA2",
"dP 	c #DCA49B",
"eP 	c #CD918A",
"fP 	c #CA8D86",
"gP 	c #C48A82",
"hP 	c #BC8277",
"iP 	c #B67869",
"jP 	c #B07263",
"kP 	c #AB6D5E",
"lP 	c #AF7162",
"mP 	c #AC6E5F",
"nP 	c #AB6F60",
"oP 	c #AA7062",
"pP 	c #AC6F64",
"qP 	c #AF7067",
"rP 	c #A86760",
"sP 	c #A4615D",
"tP 	c #A2605C",
"uP 	c #A4655E",
"vP 	c #AC6D64",
"wP 	c #B07167",
"xP 	c #B37569",
"yP 	c #B87A6C",
"zP 	c #BB7D6E",
"AP 	c #C28476",
"BP 	c #C38577",
"CP 	c #C48678",
"DP 	c #C7897B",
"EP 	c #C48677",
"FP 	c #C08273",
"GP 	c #BE8072",
"HP 	c #C08276",
"IP 	c #C6877D",
"JP 	c #CB8C84",
"KP 	c #C98D83",
"LP 	c #C78E83",
"MP 	c #C38A7F",
"NP 	c #C2897E",
"OP 	c #BD8579",
"PP 	c #BA8275",
"QP 	c #B67E71",
"RP 	c #B47C6F",
"SP 	c #B37B6E",
"TP 	c #AF776A",
"UP 	c #B07869",
"VP 	c #B27B6A",
"WP 	c #B98170",
"XP 	c #BC8473",
"YP 	c #AF785A",
"ZP 	c #AD7658",
"`P 	c #AA7355",
" Q 	c #A77252",
".Q 	c #A57251",
"+Q 	c #A77655",
"@Q 	c #A07051",
"#Q 	c #9C6E50",
"$Q 	c #996C50",
"%Q 	c #92664D",
"&Q 	c #764E3B",
"*Q 	c #735243",
"=Q 	c #563B31",
"-Q 	c #533930",
";Q 	c #563A30",
">Q 	c #4A2F26",
",Q 	c #523A34",
"'Q 	c #543E38",
")Q 	c #4D352E",
"!Q 	c #543529",
"~Q 	c #7E5947",
"{Q 	c #9C7259",
"]Q 	c #B4876A",
"^Q 	c #B78969",
"/Q 	c #B58566",
"(Q 	c #B07D65",
"_Q 	c #B4806D",
":Q 	c #A7735F",
"<Q 	c #9D6953",
"[Q 	c #A87560",
"}Q 	c #9E6E58",
"|Q 	c #A4715B",
"1Q 	c #A9705A",
"2Q 	c #AB6E58",
"3Q 	c #A46950",
"4Q 	c #AB7258",
"5Q 	c #A38C8A",
"6Q 	c #E7CDCC",
"7Q 	c #E4C7C9",
"8Q 	c #DDB5B4",
"9Q 	c #D5A59E",
"0Q 	c #D09688",
"aQ 	c #C88775",
"bQ 	c #C17E6B",
"cQ 	c #BD7665",
"dQ 	c #B76859",
"eQ 	c #AD5F52",
"fQ 	c #A1554A",
"gQ 	c #934A40",
"hQ 	c #863F37",
"iQ 	c #74322C",
"jQ 	c #642A26",
"kQ 	c #5F2621",
"lQ 	c #602B25",
"mQ 	c #744948",
"nQ 	c #D3B0B4",
"oQ 	c #F1D5DB",
"pQ 	c #EDD7DB",
"qQ 	c #EFD6D8",
"rQ 	c #EFD2CF",
"sQ 	c #EDC8C0",
"tQ 	c #E6BAAC",
"uQ 	c #E2B1A4",
"vQ 	c #DEAAA4",
"wQ 	c #DEA59E",
"xQ 	c #D1938C",
"yQ 	c #CC8E88",
"zQ 	c #C68B87",
"AQ 	c #BE837D",
"BQ 	c #BD7F73",
"CQ 	c #B4766A",
"DQ 	c #B07265",
"EQ 	c #B27467",
"FQ 	c #AF7165",
"GQ 	c #AB6E62",
"HQ 	c #A1655A",
"IQ 	c #9B5E55",
"JQ 	c #9B5B55",
"KQ 	c #94514E",
"LQ 	c #924D4E",
"MQ 	c #8B4948",
"NQ 	c #874843",
"OQ 	c #7D3F38",
"PQ 	c #7F4138",
"QQ 	c #85463C",
"RQ 	c #8D4C41",
"SQ 	c #904F42",
"TQ 	c #9F6050",
"UQ 	c #AD6F5F",
"VQ 	c #B7796B",
"WQ 	c #BC7F71",
"XQ 	c #BE8175",
"YQ 	c #BE7F72",
"ZQ 	c #BF7E70",
"`Q 	c #B57467",
" R 	c #B47367",
".R 	c #BA796D",
"+R 	c #C38176",
"@R 	c #C4857C",
"#R 	c #C58981",
"$R 	c #C98C84",
"%R 	c #C98E86",
"&R 	c #C98F86",
"*R 	c #CA9187",
"=R 	c #C69084",
"-R 	c #C28E80",
";R 	c #BC8679",
">R 	c #B67F72",
",R 	c #B47B6E",
"'R 	c #B2786C",
")R 	c #B47A6C",
"!R 	c #B17969",
"~R 	c #B17968",
"{R 	c #B57E6D",
"]R 	c #B57F6C",
"^R 	c #B5806A",
"/R 	c #B8836D",
"(R 	c #B9846C",
"_R 	c #BB866D",
":R 	c #B9846A",
"<R 	c #B07B5D",
"[R 	c #B17D5E",
"}R 	c #A06B4D",
"|R 	c #A06C4D",
"1R 	c #A36F4F",
"2R 	c #A26F4F",
"3R 	c #A06E4E",
"4R 	c #9B6B4E",
"5R 	c #95674B",
"6R 	c #97694E",
"7R 	c #956A50",
"8R 	c #835D45",
"9R 	c #835F4D",
"0R 	c #7D5C50",
"aR 	c #7C5C54",
"bR 	c #684841",
"cR 	c #5C3F38",
"dR 	c #593D35",
"eR 	c #593D33",
"fR 	c #72513D",
"gR 	c #8F6B53",
"hR 	c #A57C61",
"iR 	c #B5886B",
"jR 	c #B6886B",
"kR 	c #B48467",
"lR 	c #B17F65",
"mR 	c #A57058",
"nR 	c #A67157",
"oR 	c #A26C54",
"pR 	c #A67159",
"qR 	c #B7816C",
"rR 	c #BD8873",
"sR 	c #B58A72",
"tR 	c #B2876F",
"uR 	c #AB745F",
"vR 	c #A06551",
"wR 	c #A96C58",
"xR 	c #625658",
"yR 	c #E2C8C9",
"zR 	c #DDBAB8",
"AR 	c #D6A9A5",
"BR 	c #C69289",
"CR 	c #BB7D6F",
"DR 	c #B16D5D",
"ER 	c #AB6555",
"FR 	c #A96254",
"GR 	c #A0574C",
"HR 	c #91493F",
"IR 	c #833F36",
"JR 	c #793930",
"KR 	c #6B2E26",
"LR 	c #5E231C",
"MR 	c #551E17",
"NR 	c #59231D",
"OR 	c #663531",
"PR 	c #977276",
"QR 	c #EBCBD6",
"RR 	c #EED4E1",
"SR 	c #E7D1D7",
"TR 	c #EFD3D7",
"UR 	c #F0CECD",
"VR 	c #E3BBB3",
"WR 	c #E0B3A7",
"XR 	c #DCABA0",
"YR 	c #DCA7A3",
"ZR 	c #DBA19A",
"`R 	c #D19289",
" S 	c #CA8B84",
".S 	c #C48783",
"+S 	c #C28683",
"@S 	c #B97D74",
"#S 	c #B87C73",
"$S 	c #B57970",
"%S 	c #AE7269",
"&S 	c #AC7067",
"*S 	c #A86C64",
"=S 	c #A3665F",
"-S 	c #945751",
";S 	c #985955",
">S 	c #965353",
",S 	c #955152",
"'S 	c #94504F",
")S 	c #904C4A",
"!S 	c #8C4A47",
"~S 	c #773935",
"{S 	c #642925",
"]S 	c #5E2722",
"^S 	c #5C2721",
"/S 	c #774036",
"(S 	c #90554A",
"_S 	c #A26457",
":S 	c #AD6C5D",
"<S 	c #B97768",
"[S 	c #BC7A6C",
"}S 	c #B97769",
"|S 	c #B47264",
"1S 	c #B67466",
"2S 	c #C07E73",
"3S 	c #BE7D74",
"4S 	c #BE7F76",
"5S 	c #C1847A",
"6S 	c #C68B81",
"7S 	c #CB9085",
"8S 	c #C89184",
"9S 	c #BC8578",
"0S 	c #B1786C",
"aS 	c #A86E62",
"bS 	c #A76E60",
"cS 	c #A66E5D",
"dS 	c #AD7564",
"eS 	c #B07867",
"fS 	c #AF7865",
"gS 	c #B07964",
"hS 	c #B37C66",
"iS 	c #B37D64",
"jS 	c #AF7C5D",
"kS 	c #B07D5E",
"lS 	c #AE7B5C",
"mS 	c #A77455",
"nS 	c #9E6B4C",
"oS 	c #9B6748",
"pS 	c #9B6647",
"qS 	c #9C684A",
"rS 	c #9F6C51",
"sS 	c #98694F",
"tS 	c #9A6C52",
"uS 	c #9A6F54",
"vS 	c #946D52",
"wS 	c #956F58",
"xS 	c #96715F",
"yS 	c #8C685B",
"zS 	c #876359",
"AS 	c #7E5A50",
"BS 	c #815C50",
"CS 	c #8F685A",
"DS 	c #966E5D",
"ES 	c #A37A66",
"FS 	c #AB816B",
"GS 	c #AC8166",
"HS 	c #B88C6F",
"IS 	c #B98B6E",
"JS 	c #B58469",
"KS 	c #B68469",
"LS 	c #B48166",
"MS 	c #AA7559",
"NS 	c #A77155",
"OS 	c #A77157",
"PS 	c #9C664E",
"QS 	c #A26B56",
"RS 	c #A16B56",
"SS 	c #A06F59",
"TS 	c #A2715B",
"US 	c #A26F5A",
"VS 	c #A76F5B",
"WS 	c #A76B59",
"XS 	c #AA6C5B",
"YS 	c #D5BABA",
"ZS 	c #D8AFAE",
"`S 	c #C7968F",
" T 	c #BA8378",
".T 	c #B47667",
"+T 	c #AF6D5D",
"@T 	c #A86658",
"#T 	c #9B594E",
"$T 	c #8F4B42",
"%T 	c #834239",
"&T 	c #783B32",
"*T 	c #6C3129",
"=T 	c #5F2720",
"-T 	c #511C16",
";T 	c #501D19",
">T 	c #6B3A36",
",T 	c #7A4C4B",
"'T 	c #D4AFB4",
")T 	c #F0D3DF",
"!T 	c #E7CEDC",
"~T 	c #E9CED6",
"{T 	c #EACBD0",
"]T 	c #E5C0C0",
"^T 	c #DFB3AD",
"/T 	c #E1B0A6",
"(T 	c #E1ADA4",
"_T 	c #DAA5A1",
":T 	c #D19790",
"<T 	c #C88981",
"[T 	c #C1817B",
"}T 	c #BE817E",
"|T 	c #BC807F",
"1T 	c #B87E7B",
"2T 	c #BA807D",
"3T 	c #B87D7B",
"4T 	c #AE7471",
"5T 	c #AC7270",
"6T 	c #A66A68",
"7T 	c #AC6F6D",
"8T 	c #A36664",
"9T 	c #9F5F5C",
"0T 	c #A05D59",
"aT 	c #A15E5A",
"bT 	c #A15D58",
"cT 	c #A25C55",
"dT 	c #99504C",
"eT 	c #874140",
"fT 	c #682C2B",
"gT 	c #4F201C",
"hT 	c #4B2122",
"iT 	c #52272E",
"jT 	c #5F3033",
"kT 	c #693330",
"lT 	c #7B3F37",
"mT 	c #965449",
"nT 	c #A46255",
"oT 	c #AB695B",
"pT 	c #B06E60",
"qT 	c #B16F61",
"rT 	c #B37163",
"sT 	c #B47164",
"tT 	c #B77468",
"uT 	c #BA786C",
"vT 	c #B9796D",
"wT 	c #B97B6E",
"xT 	c #BE8274",
"yT 	c #C2877A",
"zT 	c #C0877B",
"AT 	c #BF887A",
"BT 	c #AF7A6C",
"CT 	c #A67060",
"DT 	c #9C6453",
"ET 	c #A06857",
"FT 	c #A16958",
"GT 	c #A46C5B",
"HT 	c #A76F5C",
"IT 	c #A7705C",
"JT 	c #AE785F",
"KT 	c #B07B60",
"LT 	c #B07A5E",
"MT 	c #B17D5F",
"NT 	c #B17E5F",
"OT 	c #AD7A5B",
"PT 	c #AC795A",
"QT 	c #AB7859",
"RT 	c #A16E4F",
"ST 	c #9F6B4C",
"TT 	c #9D6849",
"UT 	c #986345",
"VT 	c #966348",
"WT 	c #95664C",
"XT 	c #9B6C52",
"YT 	c #9A6D52",
"ZT 	c #9A7054",
"`T 	c #9D745B",
" U 	c #A67F67",
".U 	c #A47E68",
"+U 	c #9F7A65",
"@U 	c #A7816D",
"#U 	c #A8806D",
"$U 	c #AB806E",
"%U 	c #AA7E6B",
"&U 	c #AB7D6B",
"*U 	c #B2856B",
"=U 	c #AC8063",
"-U 	c #B98B6F",
";U 	c #B7866B",
">U 	c #B68368",
",U 	c #B17C60",
"'U 	c #AC765B",
")U 	c #B07A60",
"!U 	c #A16B53",
"~U 	c #99624D",
"{U 	c #98614C",
"]U 	c #99614D",
"^U 	c #9C6350",
"/U 	c #A46B58",
"(U 	c #AB705E",
"_U 	c #AC705E",
":U 	c #2A2525",
"<U 	c #BEA3A3",
"[U 	c #CEA2A1",
"}U 	c #C69389",
"|U 	c #AE7061",
"1U 	c #A96758",
"2U 	c #9F5F54",
"3U 	c #905149",
"4U 	c #82433A",
"5U 	c #763A31",
"6U 	c #6C322B",
"7U 	c #5D2721",
"8U 	c #4D1B16",
"9U 	c #471512",
"0U 	c #602D29",
"aU 	c #73423D",
"bU 	c #986F71",
"cU 	c #EDC9D2",
"dU 	c #E9CEDC",
"eU 	c #DEC6D5",
"fU 	c #E0C5CF",
"gU 	c #E8C8CE",
"hU 	c #EAC4C4",
"iU 	c #E0B3AD",
"jU 	c #DFACA3",
"kU 	c #DCA69D",
"lU 	c #CF9892",
"mU 	c #C88D86",
"nU 	c #BF7F77",
"oU 	c #B4736C",
"pU 	c #B57672",
"qU 	c #AC706E",
"rU 	c #AD7474",
"sU 	c #AE7475",
"tU 	c #AF7676",
"uU 	c #AA7071",
"vU 	c #A86F70",
"wU 	c #AA6F70",
"xU 	c #A66869",
"yU 	c #A96B6A",
"zU 	c #AB6A68",
"AU 	c #AC6B66",
"BU 	c #A96761",
"CU 	c #A6675E",
"DU 	c #A3655A",
"EU 	c #98524A",
"FU 	c #8B413E",
"GU 	c #773535",
"HU 	c #4B191A",
"IU 	c #451A1F",
"JU 	c #693B42",
"KU 	c #714145",
"LU 	c #713D40",
"MU 	c #6F3939",
"NU 	c #773D3B",
"OU 	c #874B42",
"PU 	c #955547",
"QU 	c #9D5C4E",
"RU 	c #AE6B5D",
"SU 	c #B16E60",
"TU 	c #B16D60",
"UU 	c #B36E62",
"VU 	c #B26F62",
"WU 	c #AF6C5F",
"XU 	c #A9695C",
"YU 	c #B37466",
"ZU 	c #B5776A",
"`U 	c #B87B6F",
" V 	c #BD8276",
".V 	c #BB8677",
"+V 	c #B27D6C",
"@V 	c #A8705F",
"#V 	c #A26A58",
"$V 	c #A06856",
"%V 	c #9A6351",
"&V 	c #9E6753",
"*V 	c #9F6953",
"=V 	c #A06A54",
"-V 	c #A36E55",
";V 	c #AB765C",
">V 	c #AC785B",
",V 	c #A97758",
"'V 	c #AA7859",
")V 	c #AC7A5A",
"!V 	c #AB7959",
"~V 	c #A77555",
"{V 	c #A87555",
"]V 	c #A47051",
"^V 	c #9F6C4D",
"/V 	c #9E6D51",
"(V 	c #9E6F55",
"_V 	c #9C6D53",
":V 	c #9A6E51",
"<V 	c #996E52",
"[V 	c #A47A5E",
"}V 	c #A87F63",
"|V 	c #AD866A",
"1V 	c #AB876C",
"2V 	c #AB876E",
"3V 	c #AF8A72",
"4V 	c #AB846D",
"5V 	c #AC836F",
"6V 	c #AF8571",
"7V 	c #AB7F65",
"8V 	c #AF8165",
"9V 	c #BA896E",
"0V 	c #B38066",
"aV 	c #AE7B61",
"bV 	c #B68065",
"cV 	c #B37D61",
"dV 	c #AF7961",
"eV 	c #AA735F",
"fV 	c #A96F5D",
"gV 	c #AB6F5E",
"hV 	c #B27565",
"iV 	c #B27767",
"jV 	c #B37867",
"kV 	c #B37765",
"lV 	c #141B19",
"mV 	c #8A7675",
"nV 	c #CCA3A1",
"oV 	c #BF9287",
"pV 	c #B17E70",
"qV 	c #A66B5C",
"rV 	c #9B5D50",
"sV 	c #90534A",
"tV 	c #854942",
"uV 	c #7A4034",
"vV 	c #6F372C",
"wV 	c #602A22",
"xV 	c #4E1D17",
"yV 	c #3F110D",
"zV 	c #5B2928",
"AV 	c #763C3A",
"BV 	c #734138",
"CV 	c #A57F83",
"DV 	c #EECCDC",
"EV 	c #E5CAD9",
"FV 	c #E2CBD5",
"GV 	c #E4CBDA",
"HV 	c #E7CAD1",
"IV 	c #E0BCBA",
"JV 	c #DBADA8",
"KV 	c #DBA6A1",
"LV 	c #D89C97",
"MV 	c #CA8A81",
"NV 	c #BB7A71",
"OV 	c #B47169",
"PV 	c #AB6860",
"QV 	c #A8655D",
"RV 	c #A5645D",
"SV 	c #A56863",
"TV 	c #AC6F6C",
"UV 	c #A96C6A",
"VV 	c #AC6E6E",
"WV 	c #B07273",
"XV 	c #AE6F71",
"YV 	c #A96969",
"ZV 	c #AA6A6B",
"`V 	c #A86869",
" W 	c #AD6D6E",
".W 	c #AB6A6B",
"+W 	c #A86968",
"@W 	c #A66661",
"#W 	c #9B564C",
"$W 	c #8B463B",
"%W 	c #763932",
"&W 	c #542526",
"*W 	c #522629",
"=W 	c #683639",
"-W 	c #6F3C3E",
";W 	c #743F41",
">W 	c #784141",
",W 	c #763E3C",
"'W 	c #7A413B",
")W 	c #83493F",
"!W 	c #93574C",
"~W 	c #9B5C50",
"{W 	c #A76458",
"]W 	c #AA6457",
"^W 	c #AD675C",
"/W 	c #A7645B",
"(W 	c #AA675E",
"_W 	c #A9665D",
":W 	c #AB685F",
"<W 	c #AE6B62",
"[W 	c #AF6E62",
"}W 	c #AD6E5F",
"|W 	c #B27465",
"1W 	c #B97C6D",
"2W 	c #B77D6C",
"3W 	c #B37A69",
"4W 	c #B27B67",
"5W 	c #AC7561",
"6W 	c #A26B57",
"7W 	c #9A634F",
"8W 	c #98614D",
"9W 	c #97624C",
"0W 	c #925F48",
"aW 	c #94614A",
"bW 	c #9C6952",
"cW 	c #A36F59",
"dW 	c #A36F58",
"eW 	c #A06F55",
"fW 	c #A07054",
"gW 	c #A27355",
"hW 	c #A57757",
"iW 	c #A67856",
"jW 	c #A77956",
"kW 	c #A87958",
"lW 	c #A67857",
"mW 	c #A17353",
"nW 	c #A47558",
"oW 	c #9D6E54",
"pW 	c #A07157",
"qW 	c #9D6F53",
"rW 	c #9E7154",
"sW 	c #9D7053",
"tW 	c #A27558",
"uW 	c #A77B5E",
"vW 	c #AC7F63",
"wW 	c #AA8168",
"xW 	c #AA846C",
"yW 	c #AC866E",
"zW 	c #AB856D",
"AW 	c #A9836B",
"BW 	c #AB8167",
"CW 	c #AF8268",
"DW 	c #BA8B71",
"EW 	c #BA896F",
"FW 	c #BB856B",
"GW 	c #BD876F",
"HW 	c #BC8570",
"IW 	c #B47D68",
"JW 	c #AF7A68",
"KW 	c #B68072",
"LW 	c #B98075",
"MW 	c #BB8175",
"NW 	c #B87D6D",
"OW 	c #BA7D68",
"PW 	c #12191B",
"QW 	c #3D3133",
"RW 	c #B9999A",
"SW 	c #BB9188",
"TW 	c #AF7E72",
"UW 	c #9C6558",
"VW 	c #8D5348",
"WW 	c #80453E",
"XW 	c #78403A",
"YW 	c #713C30",
"ZW 	c #663329",
"`W 	c #50211A",
" X 	c #3E120D",
".X 	c #421A18",
"+X 	c #613637",
"@X 	c #6B3939",
"#X 	c #754539",
"$X 	c #9A6F6C",
"%X 	c #E3BDC7",
"&X 	c #E7CBD5",
"*X 	c #EAD3D8",
"=X 	c #EFD3D9",
"-X 	c #E8C7C6",
";X 	c #DBB1AB",
">X 	c #DDAAA2",
",X 	c #DA9F9A",
"'X 	c #CD8C89",
")X 	c #BB7672",
"!X 	c #AB6762",
"~X 	c #A86560",
"{X 	c #A5645F",
"]X 	c #995954",
"^X 	c #985A54",
"/X 	c #975A55",
"(X 	c #9D605D",
"_X 	c #A26563",
":X 	c #A36666",
"<X 	c #A56769",
"[X 	c #AA6B6E",
"}X 	c #AB6A6D",
"|X 	c #AA6A6D",
"1X 	c #A8676B",
"2X 	c #AA696D",
"3X 	c #A56667",
"4X 	c #9D605B",
"5X 	c #92544C",
"6X 	c #81463F",
"7X 	c #693631",
"8X 	c #5C3132",
"9X 	c #5E3336",
"0X 	c #653638",
"aX 	c #673737",
"bX 	c #74413E",
"cX 	c #703B38",
"dX 	c #74403B",
"eX 	c #7A453F",
"fX 	c #824A44",
"gX 	c #91564E",
"hX 	c #985951",
"iX 	c #9A5950",
"jX 	c #9D5C53",
"kX 	c #9E5F55",
"lX 	c #9F5F55",
"mX 	c #A16257",
"nX 	c #A3645A",
"oX 	c #A5665C",
"pX 	c #A56559",
"qX 	c #A56657",
"rX 	c #AA6E5E",
"sX 	c #AD7463",
"tX 	c #AE7564",
"uX 	c #B27B68",
"vX 	c #B17A66",
"wX 	c #AF7864",
"xX 	c #A9725E",
"yX 	c #93604B",
"zX 	c #905F4A",
"AX 	c #8B5945",
"BX 	c #8C5B46",
"CX 	c #92614C",
"DX 	c #966550",
"EX 	c #95654D",
"FX 	c #996A50",
"GX 	c #A17256",
"HX 	c #A5775A",
"IX 	c #A17253",
"JX 	c #A17352",
"KX 	c #A07155",
"LX 	c #A3745A",
"MX 	c #A5765C",
"NX 	c #A07357",
"OX 	c #A07356",
"PX 	c #A17458",
"QX 	c #A37659",
"RX 	c #A17457",
"SX 	c #A1775C",
"TX 	c #A47B62",
"UX 	c #AA8167",
"VX 	c #A88066",
"WX 	c #AD846A",
"XX 	c #A98066",
"YX 	c #AD8267",
"ZX 	c #A87B61",
"`X 	c #B4856B",
" Y 	c #BB8970",
".Y 	c #B58065",
"+Y 	c #BF8873",
"@Y 	c #B17C67",
"#Y 	c #B47E6D",
"$Y 	c #BE8578",
"%Y 	c #BE8577",
"&Y 	c #BE8270",
"*Y 	c #BD8068",
"=Y 	c #11171E",
"-Y 	c #1A171D",
";Y 	c #7C6667",
">Y 	c #BB948D",
",Y 	c #A87970",
"'Y 	c #895047",
")Y 	c #7B423E",
"!Y 	c #6E3A36",
"~Y 	c #623329",
"{Y 	c #55281F",
"]Y 	c #421812",
"^Y 	c #350F0B",
"/Y 	c #411F1E",
"(Y 	c #563234",
"_Y 	c #64383B",
":Y 	c #784A3C",
"<Y 	c #906055",
"[Y 	c #BC9395",
"}Y 	c #E5C8CD",
"|Y 	c #EFD7D6",
"1Y 	c #EFCECB",
"2Y 	c #E4BEB6",
"3Y 	c #DAABA0",
"4Y 	c #D89F95",
"5Y 	c #D3928C",
"6Y 	c #C47D7C",
"7Y 	c #BE7373",
"8Y 	c #B66E6E",
"9Y 	c #A4605F",
"0Y 	c #945854",
"aY 	c #995E59",
"bY 	c #9C5F5A",
"cY 	c #A16461",
"dY 	c #A46765",
"eY 	c #A26464",
"fY 	c #A06264",
"gY 	c #A06162",
"hY 	c #9F5F5B",
"iY 	c #9D5E59",
"jY 	c #9D5D59",
"kY 	c #9C5D58",
"lY 	c #9A5B57",
"mY 	c #955752",
"nY 	c #884D46",
"oY 	c #7E4843",
"pY 	c #6A3A36",
"qY 	c #562B2A",
"rY 	c #583030",
"sY 	c #5B3334",
"tY 	c #633839",
"uY 	c #6D403F",
"vY 	c #6F403F",
"wY 	c #6E3E3B",
"xY 	c #693733",
"yY 	c #673733",
"zY 	c #693A37",
"AY 	c #6C3A38",
"BY 	c #76403D",
"CY 	c #804743",
"DY 	c #894D49",
"EY 	c #91544D",
"FY 	c #975B50",
"GY 	c #9B5F54",
"HY 	c #9C6055",
"IY 	c #9C5E51",
"JY 	c #9F6051",
"KY 	c #A26657",
"LY 	c #A86F5E",
"MY 	c #A56D5C",
"NY 	c #A16957",
"OY 	c #A66F5B",
"PY 	c #A46D59",
"QY 	c #A56E5A",
"RY 	c #A36C58",
"SY 	c #8E5C49",
"TY 	c #885A47",
"UY 	c #875946",
"VY 	c #825441",
"WY 	c #825340",
"XY 	c #855744",
"YY 	c #8A5B46",
"ZY 	c #976751",
"`Y 	c #9B6B53",
" Z 	c #A37558",
".Z 	c #A37457",
"+Z 	c #A47656",
"@Z 	c #A47655",
"#Z 	c #9D6F4F",
"$Z 	c #9F7054",
"%Z 	c #A17257",
"&Z 	c #9E7054",
"*Z 	c #9C6F52",
"=Z 	c #9B6E51",
"-Z 	c #A5785B",
";Z 	c #A3765A",
">Z 	c #A67A5E",
",Z 	c #AA7E62",
"'Z 	c #A97D60",
")Z 	c #A77B5F",
"!Z 	c #AC8064",
"~Z 	c #A77B60",
"{Z 	c #AD7F65",
"]Z 	c #B08167",
"^Z 	c #B7856C",
"/Z 	c #B9876E",
"(Z 	c #B68064",
"_Z 	c #B37D63",
":Z 	c #B9836B",
"<Z 	c #B8816C",
"[Z 	c #BD8671",
"}Z 	c #BD8872",
"|Z 	c #B6816C",
"1Z 	c #B77E6E",
"2Z 	c #BA806F",
"3Z 	c #BA7F69",
"4Z 	c #B4795E",
"5Z 	c #12161B",
"6Z 	c #14161A",
"7Z 	c #271E20",
"8Z 	c #967B78",
"9Z 	c #AA857D",
"0Z 	c #8D5E52",
"aZ 	c #7F4B40",
"bZ 	c #73423B",
"cZ 	c #683834",
"dZ 	c #5D2D27",
"eZ 	c #4A2019",
"fZ 	c #38130F",
"gZ 	c #381716",
"hZ 	c #522F32",
"iZ 	c #583539",
"jZ 	c #5F3A3A",
"kZ 	c #82554C",
"lZ 	c #A06E61",
"mZ 	c #AF817A",
"nZ 	c #DFBDBD",
"oZ 	c #EBCCCC",
"pZ 	c #DEB5AD",
"qZ 	c #D9A59B",
"rZ 	c #D5978B",
"sZ 	c #CF8A80",
"tZ 	c #C8847C",
"uZ 	c #BC7974",
"vZ 	c #B26E6A",
"wZ 	c #AF6B69",
"xZ 	c #A96765",
"yZ 	c #9F5D5D",
"zZ 	c #9A5A5A",
"AZ 	c #9E5E5D",
"BZ 	c #9D5D5B",
"CZ 	c #9C5D5A",
"DZ 	c #965955",
"EZ 	c #925651",
"FZ 	c #8B514C",
"GZ 	c #824B44",
"HZ 	c #7F4841",
"IZ 	c #844D46",
"JZ 	c #834C45",
"KZ 	c #7C453E",
"LZ 	c #74413C",
"MZ 	c #683C39",
"NZ 	c #603633",
"OZ 	c #5A3230",
"PZ 	c #593130",
"QZ 	c #5C3432",
"RZ 	c #623A3A",
"SZ 	c #6D4546",
"TZ 	c #704748",
"UZ 	c #6E4244",
"VZ 	c #643739",
"WZ 	c #613234",
"XZ 	c #5E3031",
"YZ 	c #5A2C2C",
"ZZ 	c #5D2F2E",
"`Z 	c #613231",
" ` 	c #663635",
".` 	c #70403F",
"+` 	c #794541",
"@` 	c #844D44",
"#` 	c #8A5248",
"$` 	c #8E554B",
"%` 	c #905549",
"&` 	c #92574B",
"*` 	c #955B4E",
"=` 	c #965B4F",
"-` 	c #93594D",
";` 	c #965D50",
">` 	c #996254",
",` 	c #9B6656",
"'` 	c #9C6756",
")` 	c #9D6855",
"!` 	c #9E6A54",
"~` 	c #91614C",
"{` 	c #855843",
"]` 	c #7C4F3C",
"^` 	c #7E5140",
"/` 	c #7D5040",
"(` 	c #815342",
"_` 	c #875A46",
":` 	c #90624D",
"<` 	c #986B54",
"[` 	c #9D7157",
"}` 	c #9E7157",
"|` 	c #9E7053",
"1` 	c #A47659",
"2` 	c #A8795D",
"3` 	c #A4755A",
"4` 	c #A17357",
"5` 	c #A4775A",
"6` 	c #9F7255",
"7` 	c #A07458",
"8` 	c #A3775C",
"9` 	c #A2765A",
"0` 	c #A1755A",
"a` 	c #A97D61",
"b` 	c #A2785C",
"c` 	c #A57B5F",
"d` 	c #AF8267",
"e` 	c #B2846A",
"f` 	c #B6866D",
"g` 	c #B38464",
"h` 	c #B18262",
"i` 	c #B07F61",
"j` 	c #BD8572",
"k` 	c #B78470",
"l` 	c #AF7A63",
"m` 	c #B07359",
"n` 	c #A96A53",
"o` 	c #AB715F",
"p` 	c #9A675C",
"q` 	c #16171A",
"r` 	c #3A2D2D",
"s` 	c #9C807A",
"t` 	c #986F64",
"u` 	c #7E4D41",
"v` 	c #704038",
"w` 	c #693935",
"x` 	c #5C2B26",
"y` 	c #481D17",
"z` 	c #391511",
"A` 	c #492828",
"B` 	c #623F42",
"C` 	c #664041",
"D` 	c #6F453F",
"E` 	c #8C5E54",
"F` 	c #A27266",
"G` 	c #B88C84",
"H` 	c #D1ADAA",
"I` 	c #CFA8A8",
"J` 	c #CE928C",
"K` 	c #C07B71",
"L` 	c #B96D60",
"M` 	c #B5695C",
"N` 	c #B16C60",
"O` 	c #AB6C61",
"P` 	c #A5665E",
"Q` 	c #A76861",
"R` 	c #A86964",
"S` 	c #A66764",
"T` 	c #A0605F",
"U` 	c #9D5C5B",
"V` 	c #9C5C59",
"W` 	c #90514E",
"X` 	c #824542",
"Y` 	c #7D4440",
"Z` 	c #7A433F",
"`` 	c #673532",
"  .	c #58302D",
". .	c #542C29",
"+ .	c #572E2C",
"@ .	c #572F2D",
"# .	c #582F2D",
"$ .	c #5B3331",
"% .	c #5D3533",
"& .	c #603836",
"* .	c #6C4544",
"= .	c #7B5354",
"- .	c #7A5253",
"; .	c #774C4E",
"> .	c #6A3D40",
", .	c #633538",
"' .	c #5D3033",
") .	c #5A2E2F",
"! .	c #532728",
"~ .	c #522728",
"{ .	c #592E2F",
"] .	c #5C3031",
"^ .	c #613331",
"/ .	c #6D3D37",
"( .	c #72413A",
"_ .	c #77453D",
": .	c #804C42",
"< .	c #854F44",
"[ .	c #865246",
"} .	c #844F44",
"| .	c #824D42",
"1 .	c #895449",
"2 .	c #8D584C",
"3 .	c #905C4E",
"4 .	c #915D4D",
"5 .	c #925F4D",
"6 .	c #96634F",
"7 .	c #93644F",
"8 .	c #865944",
"9 .	c #7E513E",
"0 .	c #774A38",
"a .	c #7C4F3F",
"b .	c #835547",
"c .	c #7B4E3E",
"d .	c #825642",
"e .	c #8B5E49",
"f .	c #8B5E48",
"g .	c #93674F",
"h .	c #9F7359",
"i .	c #A4765B",
"j .	c #A97A5E",
"k .	c #A5765A",
"l .	c #A3765B",
"m .	c #A97D62",
"n .	c #A5795E",
"o .	c #A2765B",
"p .	c #A97F64",
"q .	c #AD8468",
"r .	c #AA7D63",
"s .	c #A97B61",
"t .	c #B18268",
"u .	c #B58165",
"v .	c #B27D60",
"w .	c #B47D61",
"x .	c #B27B60",
"y .	c #B1795F",
"z .	c #AD745B",
"A .	c #A36F5C",
"B .	c #9A6755",
"C .	c #92604C",
"D .	c #815746",
"E .	c #66483E",
"F .	c #301D1A",
"G .	c #13171B",
"H .	c #16181C",
"I .	c #A38278",
"J .	c #8E6055",
"K .	c #7A4840",
"L .	c #6D3B37",
"M .	c #5E2D29",
"N .	c #4D231C",
"O .	c #411D1A",
"P .	c #533131",
"Q .	c #714A4B",
"R .	c #835851",
"S .	c #916862",
"T .	c #B28D8A",
"U .	c #CAAAAC",
"V .	c #D7BCC1",
"W .	c #CCADB0",
"X .	c #B88580",
"Y .	c #AB6E65",
"Z .	c #A15C51",
"` .	c #975247",
" ..	c #925549",
"...	c #945A4F",
"+..	c #9A5F53",
"@..	c #9E6358",
"#..	c #9D6258",
"$..	c #9A5F57",
"%..	c #945953",
"&..	c #8E544E",
"*..	c #834C44",
"=..	c #75413A",
"-..	c #5A2F2C",
";..	c #4C2623",
">..	c #462321",
",..	c #462623",
"'..	c #4B2B28",
")..	c #4E2E2B",
"!..	c #50302D",
"~..	c #533330",
"{..	c #5A3734",
"]..	c #653D3B",
"^..	c #6B4341",
"/..	c #6E4644",
"(..	c #734B49",
"_..	c #7B5351",
":..	c #785150",
"<..	c #7D5556",
"[..	c #805758",
"}..	c #7A4F52",
"|..	c #75484B",
"1..	c #6E4043",
"2..	c #5C3033",
"3..	c #572D30",
"4..	c #572E31",
"5..	c #53292D",
"6..	c #51272B",
"7..	c #52292C",
"8..	c #502829",
"9..	c #522B29",
"0..	c #562E2B",
"a..	c #613934",
"b..	c #6A3F39",
"c..	c #6E423B",
"d..	c #72443C",
"e..	c #76473D",
"f..	c #794A40",
"g..	c #7B4D43",
"h..	c #7D4E44",
"i..	c #815248",
"j..	c #805046",
"k..	c #804F44",
"l..	c #7F4E42",
"m..	c #7F4F40",
"n..	c #7E4E3E",
"o..	c #875745",
"p..	c #8B5D49",
"q..	c #895C48",
"r..	c #8A5D4A",
"s..	c #7E503F",
"t..	c #7B4D3E",
"u..	c #815344",
"v..	c #835545",
"w..	c #835642",
"x..	c #895C47",
"y..	c #8D604A",
"z..	c #91654C",
"A..	c #9A6F55",
"B..	c #A47559",
"C..	c #AB7C60",
"D..	c #A7795C",
"E..	c #A27559",
"F..	c #9A6D50",
"G..	c #A17459",
"H..	c #A67A5F",
"I..	c #A3795D",
"J..	c #A77D61",
"K..	c #A3765C",
"L..	c #A4765C",
"M..	c #B68166",
"N..	c #B07B61",
"O..	c #AE7A62",
"P..	c #A97763",
"Q..	c #AE7D6E",
"R..	c #AD7B6F",
"S..	c #BD9693",
"T..	c #C19FA0",
"U..	c #64494A",
"V..	c #3A2527",
"W..	c #261F23",
"X..	c #11171B",
"Y..	c #10191F",
"Z..	c #1C1617",
"`..	c #796059",
" +.	c #A57D74",
".+.	c #89574D",
"++.	c #79433A",
"@+.	c #6B3833",
"#+.	c #5C2F2A",
"$+.	c #4B2421",
"%+.	c #4C2929",
"&+.	c #623E41",
"*+.	c #6B4847",
"=+.	c #7C5751",
"-+.	c #8D6C6C",
";+.	c #BA9EA6",
">+.	c #D5BFCB",
",+.	c #D7C3CF",
"'+.	c #D5C0C8",
")+.	c #C8ACAB",
"!+.	c #A37E7C",
"~+.	c #865652",
"{+.	c #7C4643",
"]+.	c #77423F",
"^+.	c #76423D",
"/+.	c #7A483D",
"(+.	c #824E44",
"_+.	c #844E46",
":+.	c #7C463E",
"<+.	c #733D36",
"[+.	c #6A3932",
"}+.	c #5D352D",
"|+.	c #4F2922",
"1+.	c #3F1E18",
"2+.	c #391B18",
"3+.	c #371D1A",
"4+.	c #3D231E",
"5+.	c #462822",
"6+.	c #4C2E27",
"7+.	c #50312B",
"8+.	c #563630",
"9+.	c #68433F",
"0+.	c #7A4F4D",
"a+.	c #815755",
"b+.	c #815756",
"c+.	c #815857",
"d+.	c #865D5D",
"e+.	c #805858",
"f+.	c #7B5353",
"g+.	c #7C5355",
"h+.	c #7F5557",
"i+.	c #784C50",
"j+.	c #75494E",
"k+.	c #6D4248",
"l+.	c #6A4246",
"m+.	c #694045",
"n+.	c #5D3439",
"o+.	c #562E32",
"p+.	c #562D32",
"q+.	c #522D2F",
"r+.	c #4C2C2C",
"s+.	c #4E2C2C",
"t+.	c #4F2D2B",
"u+.	c #573431",
"v+.	c #5F3A37",
"w+.	c #643C38",
"x+.	c #694039",
"y+.	c #6C423B",
"z+.	c #6D433B",
"A+.	c #70453D",
"B+.	c #754941",
"C+.	c #74473F",
"D+.	c #72453B",
"E+.	c #75473C",
"F+.	c #734639",
"G+.	c #714535",
"H+.	c #734636",
"I+.	c #7C4F3D",
"J+.	c #7E523F",
"K+.	c #8B5F4D",
"L+.	c #8A5D4C",
"M+.	c #815445",
"N+.	c #7F5243",
"O+.	c #7F5342",
"P+.	c #845845",
"Q+.	c #855945",
"R+.	c #8E6149",
"S+.	c #9B6E56",
"T+.	c #A87A5D",
"U+.	c #A47759",
"V+.	c #9D7054",
"W+.	c #A6785D",
"X+.	c #A4775C",
"Y+.	c #A2755B",
"Z+.	c #A4775E",
"`+.	c #A97D63",
" @.	c #A5785E",
".@.	c #A4795D",
"+@.	c #9E7357",
"@@.	c #A07358",
"#@.	c #AA7B60",
"$@.	c #AD7D62",
"%@.	c #B28066",
"&@.	c #B58365",
"*@.	c #AF7F64",
"=@.	c #AE8070",
"-@.	c #C59A92",
";@.	c #BE9391",
">@.	c #B08788",
",@.	c #C6A9B4",
"'@.	c #CCB5C5",
")@.	c #917E8D",
"!@.	c #4F3D4A",
"~@.	c #443139",
"{@.	c #3D2B2F",
"]@.	c #12171B",
"^@.	c #11191E",
"/@.	c #15161B",
"(@.	c #2B1F20",
"_@.	c #9E817B",
":@.	c #A27569",
"<@.	c #905A4B",
"[@.	c #7F4942",
"}@.	c #6F3C37",
"|@.	c #5C2D2A",
"1@.	c #49201F",
"2@.	c #522E2F",
"3@.	c #63413F",
"4@.	c #694841",
"5@.	c #775858",
"6@.	c #AB8E96",
"7@.	c #D7BDC9",
"8@.	c #DDC6D1",
"9@.	c #DDC7CE",
"0@.	c #D6BDC0",
"a@.	c #D5B9BB",
"b@.	c #BD9D9C",
"c@.	c #A98582",
"d@.	c #98706B",
"e@.	c #855E59",
"f@.	c #73514C",
"g@.	c #714945",
"h@.	c #6F423E",
"i@.	c #6D3F3A",
"j@.	c #563128",
"k@.	c #45271E",
"l@.	c #43251C",
"m@.	c #43251A",
"n@.	c #43251B",
"o@.	c #43251D",
"p@.	c #4A2D27",
"q@.	c #4E312B",
"r@.	c #583934",
"s@.	c #6B4945",
"t@.	c #7E5B57",
"u@.	c #865E5B",
"v@.	c #8B5C59",
"w@.	c #8A5B59",
"x@.	c #875A5A",
"y@.	c #865B5D",
"z@.	c #815759",
"A@.	c #81585A",
"B@.	c #7D5458",
"C@.	c #795055",
"D@.	c #795058",
"E@.	c #7A5157",
"F@.	c #7E5559",
"G@.	c #795154",
"H@.	c #70474B",
"I@.	c #663D41",
"J@.	c #5C3437",
"K@.	c #512C2F",
"L@.	c #4C2C2D",
"M@.	c #503031",
"N@.	c #523233",
"O@.	c #553433",
"P@.	c #583432",
"Q@.	c #5F3936",
"R@.	c #68413D",
"S@.	c #6D443E",
"T@.	c #6F443D",
"U@.	c #70453C",
"V@.	c #744A3E",
"W@.	c #764C3F",
"X@.	c #734939",
"Y@.	c #6B4131",
"Z@.	c #6C4232",
"`@.	c #6C4131",
" #.	c #7B5141",
".#.	c #835949",
"+#.	c #815647",
"@#.	c #7B5140",
"##.	c #865C4A",
"$#.	c #825746",
"%#.	c #8A5D46",
"&#.	c #94664F",
"*#.	c #996A51",
"=#.	c #A6775B",
"-#.	c #AA7B5F",
";#.	c #A57759",
">#.	c #A87B5D",
",#.	c #AA7E61",
"'#.	c #AB7D62",
")#.	c #A97B63",
"!#.	c #A5775F",
"~#.	c #A4765E",
"{#.	c #A3755D",
"]#.	c #A5775E",
"^#.	c #A1745A",
"/#.	c #A3755A",
"(#.	c #A5775C",
"_#.	c #A37258",
":#.	c #A8755C",
"<#.	c #AE7A61",
"[#.	c #B37F61",
"}#.	c #AD7C65",
"|#.	c #B78C82",
"1#.	c #CEA7A6",
"2#.	c #B48D8D",
"3#.	c #BE9693",
"4#.	c #CDAFB5",
"5#.	c #D1B8C4",
"6#.	c #C0A9B8",
"7#.	c #7D6878",
"8#.	c #432F3D",
"9#.	c #3D2D35",
"0#.	c #13191C",
"a#.	c #191919",
"b#.	c #6E5C57",
"c#.	c #B48F86",
"d#.	c #AB776C",
"e#.	c #955C54",
"f#.	c #7D4840",
"g#.	c #673631",
"h#.	c #562B27",
"i#.	c #593231",
"j#.	c #5F3B3A",
"k#.	c #694342",
"l#.	c #694545",
"m#.	c #795B5D",
"n#.	c #C5AAAD",
"o#.	c #DAC0C6",
"p#.	c #D8C1C6",
"q#.	c #D5BFBE",
"r#.	c #D8C1BE",
"s#.	c #CDB0A7",
"t#.	c #C5A69B",
"u#.	c #B49488",
"v#.	c #A8877C",
"w#.	c #AB8579",
"x#.	c #A67B70",
"y#.	c #8D6154",
"z#.	c #785041",
"A#.	c #6E4A37",
"B#.	c #674730",
"C#.	c #63432D",
"D#.	c #5F3F2C",
"E#.	c #583827",
"F#.	c #553526",
"G#.	c #57362C",
"H#.	c #613E3A",
"I#.	c #6F4C48",
"J#.	c #7D5754",
"K#.	c #855D5B",
"L#.	c #8D6362",
"M#.	c #936765",
"N#.	c #976765",
"O#.	c #946462",
"P#.	c #895B5C",
"Q#.	c #865C5D",
"R#.	c #906668",
"S#.	c #8E6566",
"T#.	c #8B6363",
"U#.	c #865E5F",
"V#.	c #7F565A",
"W#.	c #774E53",
"X#.	c #744B53",
"Y#.	c #70494E",
"Z#.	c #724D4F",
"`#.	c #734E50",
" $.	c #704B4D",
".$.	c #694447",
"+$.	c #633E40",
"@$.	c #482829",
"#$.	c #4D2D2E",
"$$.	c #4F2F2F",
"%$.	c #543130",
"&$.	c #69433F",
"*$.	c #6E4642",
"=$.	c #734942",
"-$.	c #774C43",
";$.	c #764C40",
">$.	c #794F42",
",$.	c #7D5343",
"'$.	c #724838",
")$.	c #663D2D",
"!$.	c #643C2F",
"~$.	c #6A4235",
"{$.	c #764D41",
"]$.	c #754D40",
"^$.	c #71493C",
"/$.	c #7B5242",
"($.	c #825947",
"_$.	c #805543",
":$.	c #895D49",
"<$.	c #90634C",
"[$.	c #91624B",
"}$.	c #9E6F53",
"|$.	c #A27357",
"1$.	c #A17456",
"2$.	c #A37758",
"3$.	c #A97C5F",
"4$.	c #A97B60",
"5$.	c #A67860",
"6$.	c #A1735B",
"7$.	c #A0725A",
"8$.	c #A2755D",
"9$.	c #A77861",
"0$.	c #A2705A",
"a$.	c #B58368",
"b$.	c #BD958C",
"c$.	c #CAA5A5",
"d$.	c #A98486",
"e$.	c #C6A1A0",
"f$.	c #CCAFB2",
"g$.	c #CFB6BD",
"h$.	c #CEB7C4",
"i$.	c #BEA7B9",
"j$.	c #837080",
"k$.	c #766672",
"l$.	c #101A1C",
"m$.	c #261F1C",
"n$.	c #A38580",
"o$.	c #B7877F",
"p$.	c #A86D63",
"q$.	c #90584E",
"r$.	c #845049",
"s$.	c #70423D",
"t$.	c #693F3C",
"u$.	c #663E3F",
"v$.	c #6D4449",
"w$.	c #734D4C",
"x$.	c #76544F",
"y$.	c #997C79",
"z$.	c #CCB0B1",
"A$.	c #D7BBBE",
"B$.	c #D8BAB8",
"C$.	c #D9BBB7",
"D$.	c #D6B8B1",
"E$.	c #D1B2A8",
"F$.	c #CEAEA0",
"G$.	c #CBA99A",
"H$.	c #C9A092",
"I$.	c #C59688",
"J$.	c #BD897B",
"K$.	c #B58071",
"L$.	c #AE7D6C",
"M$.	c #9E745D",
"N$.	c #9B6F5C",
"O$.	c #91645B",
"P$.	c #90635D",
"Q$.	c #8E635F",
"R$.	c #8B6360",
"S$.	c #8E6462",
"T$.	c #916564",
"U$.	c #966867",
"V$.	c #986968",
"W$.	c #976867",
"X$.	c #996968",
"Y$.	c #996A68",
"Z$.	c #926565",
"`$.	c #8E6365",
" %.	c #8C6464",
".%.	c #875F60",
"+%.	c #7C5356",
"@%.	c #71484E",
"#%.	c #6F464D",
"$%.	c #704A4F",
"%%.	c #674546",
"&%.	c #684647",
"*%.	c #6B494A",
"=%.	c #603D3E",
"-%.	c #5E3C3D",
";%.	c #5D3C3E",
">%.	c #573738",
",%.	c #533334",
"'%.	c #4D2E30",
")%.	c #4C2D2F",
"!%.	c #5C3A3A",
"~%.	c #694543",
"{%.	c #6B4643",
"]%.	c #714943",
"^%.	c #73483F",
"/%.	c #774D41",
"(%.	c #784E42",
"_%.	c #7B5142",
":%.	c #7E5444",
"<%.	c #6C4637",
"[%.	c #613C30",
"}%.	c #633E32",
"|%.	c #6F493E",
"1%.	c #734D41",
"2%.	c #714B3F",
"3%.	c #7F5544",
"4%.	c #835846",
"5%.	c #8B5E4B",
"6%.	c #91644D",
"7%.	c #93654E",
"8%.	c #A37458",
"9%.	c #A17356",
"0%.	c #AA7D5F",
"a%.	c #AB7E61",
"b%.	c #A3755B",
"c%.	c #A2745C",
"d%.	c #A3755F",
"e%.	c #A2745F",
"f%.	c #A77864",
"g%.	c #A67460",
"h%.	c #AC7865",
"i%.	c #B08067",
"j%.	c #B58A77",
"k%.	c #C9A39E",
"l%.	c #C9A7A9",
"m%.	c #B89599",
"n%.	c #C9A7A7",
"o%.	c #CEB1BB",
"p%.	c #CFB5C5",
"q%.	c #C8B0C2",
"r%.	c #D1BACA",
"s%.	c #B29FAA",
"t%.	c #8F8085",
"u%.	c #141619",
"v%.	c #151616",
"w%.	c #11171C",
"x%.	c #10171E",
"y%.	c #18171A",
"z%.	c #5C4C47",
"A%.	c #AE8E82",
"B%.	c #AF7D6D",
"C%.	c #90584A",
"D%.	c #87524A",
"E%.	c #7B4A49",
"F%.	c #704346",
"G%.	c #72484A",
"H%.	c #784D4D",
"I%.	c #845754",
"J%.	c #92635D",
"K%.	c #966760",
"L%.	c #A67871",
"M%.	c #B68A82",
"N%.	c #B8928A",
"O%.	c #C09B92",
"P%.	c #C29C8F",
"Q%.	c #C39885",
"R%.	c #C49682",
"S%.	c #CC9F8F",
"T%.	c #C79788",
"U%.	c #BD8B7C",
"V%.	c #BD8A7B",
"W%.	c #B68676",
"X%.	c #B48378",
"Y%.	c #AD7B75",
"Z%.	c #A77572",
"`%.	c #A16F6D",
" &.	c #9D6B68",
".&.	c #9A6864",
"+&.	c #986663",
"@&.	c #966563",
"#&.	c #936364",
"$&.	c #936465",
"%&.	c #946465",
"&&.	c #99696A",
"*&.	c #976869",
"=&.	c #946565",
"-&.	c #8A5F5C",
";&.	c #855B59",
">&.	c #815858",
",&.	c #774F50",
"'&.	c #724C4D",
")&.	c #714D4C",
"!&.	c #694745",
"~&.	c #664443",
"{&.	c #623F40",
"]&.	c #5E3A3D",
"^&.	c #5F383D",
"/&.	c #583839",
"(&.	c #4D322F",
"_&.	c #523331",
":&.	c #522E2E",
"<&.	c #553231",
"[&.	c #523231",
"}&.	c #553636",
"|&.	c #5C3B3E",
"1&.	c #613E40",
"2&.	c #5F3B3B",
"3&.	c #6A4443",
"4&.	c #724A44",
"5&.	c #714941",
"6&.	c #744C43",
"7&.	c #734B40",
"8&.	c #744D3E",
"9&.	c #775041",
"0&.	c #704A3A",
"a&.	c #664133",
"b&.	c #603A30",
"c&.	c #714740",
"d&.	c #7A5047",
"e&.	c #7F5347",
"f&.	c #7D5344",
"g&.	c #815747",
"h&.	c #845949",
"i&.	c #865A48",
"j&.	c #8D5E4B",
"k&.	c #986954",
"l&.	c #9C6D55",
"m&.	c #9C6E54",
"n&.	c #A2745A",
"o&.	c #A07258",
"p&.	c #A4785C",
"q&.	c #A0745B",
"r&.	c #A3765F",
"s&.	c #A47762",
"t&.	c #9F725B",
"u&.	c #9E7059",
"v&.	c #986A53",
"w&.	c #A0725B",
"x&.	c #A67861",
"y&.	c #A3755E",
"z&.	c #A2745D",
"A&.	c #A1735C",
"B&.	c #A1725C",
"C&.	c #AC7D64",
"D&.	c #B58D82",
"E&.	c #C9A6AB",
"F&.	c #C29BA1",
"G&.	c #BB9294",
"H&.	c #CAADAE",
"I&.	c #CBB6C2",
"J&.	c #CEB7C9",
"K&.	c #CCB3C2",
"L&.	c #D9C1CE",
"M&.	c #A7949C",
"N&.	c #ABA0A4",
"O&.	c #11171D",
"P&.	c #17161B",
"Q&.	c #231A19",
"R&.	c #937B74",
"S&.	c #B5877C",
"T&.	c #B58175",
"U&.	c #A3695D",
"V&.	c #9B5F55",
"W&.	c #985D58",
"X&.	c #854E4D",
"Y&.	c #79494A",
"Z&.	c #7D4D4C",
"`&.	c #8D5D59",
" *.	c #9D6C64",
".*.	c #A07065",
"+*.	c #9B6A5E",
"@*.	c #A6726A",
"#*.	c #95635F",
"$*.	c #805150",
"%*.	c #B48483",
"&*.	c #9B6A65",
"**.	c #9B6B60",
"=*.	c #AA7969",
"-*.	c #AD7A6B",
";*.	c #B47F70",
">*.	c #B88072",
",*.	c #B57E71",
"'*.	c #AE7972",
")*.	c #AB7672",
"!*.	c #A6706F",
"~*.	c #A0696A",
"{*.	c #976062",
"]*.	c #965F60",
"^*.	c #955E5F",
"/*.	c #945D5E",
"(*.	c #955E5E",
"_*.	c #915C5A",
":*.	c #8C5956",
"<*.	c #94615D",
"[*.	c #94615E",
"}*.	c #8E5D57",
"|*.	c #895A51",
"1*.	c #82554E",
"2*.	c #794E48",
"3*.	c #734A44",
"4*.	c #6D4542",
"5*.	c #66423C",
"6*.	c #5E3E37",
"7*.	c #5E3D38",
"8*.	c #573735",
"9*.	c #533432",
"0*.	c #503332",
"a*.	c #513634",
"b*.	c #573B38",
"c*.	c #694746",
"d*.	c #6B4546",
"e*.	c #694243",
"f*.	c #6A4646",
"g*.	c #684646",
"h*.	c #664242",
"i*.	c #674242",
"j*.	c #6A4342",
"k*.	c #724A48",
"l*.	c #784E4A",
"m*.	c #764C47",
"n*.	c #714A41",
"o*.	c #744C44",
"p*.	c #754E3F",
"q*.	c #734E3D",
"r*.	c #5F382F",
"s*.	c #734943",
"t*.	c #7F534B",
"u*.	c #7E5346",
"v*.	c #7C5243",
"w*.	c #7C5242",
"x*.	c #835848",
"y*.	c #855947",
"z*.	c #8E5F4D",
"A*.	c #946551",
"B*.	c #9A6B54",
"C*.	c #97694F",
"D*.	c #9B6D53",
"E*.	c #9E7056",
"F*.	c #A4775B",
"G*.	c #A5795C",
"H*.	c #A0745A",
"I*.	c #9C7057",
"J*.	c #9D7059",
"K*.	c #9E715C",
"L*.	c #996B55",
"M*.	c #9C6E57",
"N*.	c #9B6D56",
"O*.	c #976952",
"P*.	c #A0735C",
"Q*.	c #AA7C67",
"R*.	c #B38D85",
"S*.	c #CBABAF",
"T*.	c #C49EA2",
"U*.	c #C39C9D",
"V*.	c #C5AAAF",
"W*.	c #CDB9C3",
"X*.	c #CAB4C1",
"Y*.	c #D2BBC8",
"Z*.	c #C5AFBB",
"`*.	c #ADA0A9",
" =.	c #DDD6DD",
".=.	c #12171A",
"+=.	c #14161B",
"@=.	c #15151A",
"#=.	c #17151A",
"$=.	c #544747",
"%=.	c #B59690",
"&=.	c #B88F85",
"*=.	c #AB796B",
"==.	c #A46B5D",
"-=.	c #9A5F52",
";=.	c #925750",
">=.	c #864E4E",
",=.	c #824C4A",
"'=.	c #905D56",
")=.	c #98685C",
"!=.	c #966759",
"~=.	c #A57763",
"{=.	c #B3836E",
"]=.	c #B58174",
"^=.	c #BD8E8D",
"/=.	c #AD8583",
"(=.	c #9D7973",
"_=.	c #936961",
":=.	c #83564D",
"<=.	c #7F5148",
"[=.	c #7E4D45",
"}=.	c #7F4C45",
"|=.	c #794743",
"1=.	c #754545",
"2=.	c #774748",
"3=.	c #724243",
"4=.	c #6E3E3E",
"5=.	c #6C3B3D",
"6=.	c #6D3D3E",
"7=.	c #6C3C3D",
"8=.	c #6C3B3C",
"9=.	c #6B3A3C",
"0=.	c #683839",
"a=.	c #643534",
"b=.	c #623532",
"c=.	c #633633",
"d=.	c #633632",
"e=.	c #613431",
"f=.	c #572B26",
"g=.	c #522B23",
"h=.	c #4F2821",
"i=.	c #4F2A25",
"j=.	c #492622",
"k=.	c #3A1815",
"l=.	c #391D1A",
"m=.	c #35201C",
"n=.	c #281512",
"o=.	c #180704",
"p=.	c #120503",
"q=.	c #0F0403",
"r=.	c #170503",
"s=.	c #3A1E1D",
"t=.	c #583434",
"u=.	c #603638",
"v=.	c #683E40",
"w=.	c #623C3B",
"x=.	c #68403E",
"y=.	c #704643",
"z=.	c #7A4F4A",
"A=.	c #7C4F4A",
"B=.	c #7B5049",
"C=.	c #785048",
"D=.	c #754D45",
"E=.	c #744C41",
"F=.	c #785143",
"G=.	c #764F40",
"H=.	c #6F4A39",
"I=.	c #653F31",
"J=.	c #653E35",
"K=.	c #724842",
"L=.	c #83574B",
"M=.	c #7E5345",
"N=.	c #7A5041",
"O=.	c #855A4A",
"P=.	c #8C5D4B",
"Q=.	c #855642",
"R=.	c #96684E",
"S=.	c #A17559",
"T=.	c #A67A5D",
"U=.	c #9F735A",
"V=.	c #9B6E59",
"W=.	c #9A6C56",
"X=.	c #9F715A",
"Y=.	c #996B54",
"Z=.	c #90624B",
"`=.	c #B28475",
" -.	c #BB9895",
".-.	c #C8ABAE",
"+-.	c #C3A1A1",
"@-.	c #C4A1A2",
"#-.	c #C0A8B3",
"$-.	c #C4AFBA",
"%-.	c #CBB6BF",
"&-.	c #CDB7C2",
"*-.	c #BFAEB9",
"=-.	c #E0D8E2",
"--.	c #E5E5EE",
";-.	c #13181A",
">-.	c #15171B",
",-.	c #14171C",
"'-.	c #1A191C",
")-.	c #80706C",
"!-.	c #B2968D",
"~-.	c #B18478",
"{-.	c #A46E5E",
"]-.	c #9B6255",
"^-.	c #8C504D",
"/-.	c #86514A",
"(-.	c #916155",
"_-.	c #B68B6D",
":-.	c #C39786",
"<-.	c #AF8480",
"[-.	c #B7908E",
"}-.	c #B5958C",
"|-.	c #BC9E90",
"1-.	c #B8988C",
"2-.	c #9A7B72",
"3-.	c #AD8F8B",
"4-.	c #A4837F",
"5-.	c #89645F",
"6-.	c #6F4641",
"7-.	c #5D3230",
"8-.	c #5A302F",
"9-.	c #603938",
"0-.	c #654141",
"a-.	c #633F41",
"b-.	c #5B3738",
"c-.	c #4E2425",
"d-.	c #4E2525",
"e-.	c #522B2B",
"f-.	c #5B3736",
"g-.	c #573634",
"h-.	c #442220",
"i-.	c #3C1A16",
"j-.	c #4F3331",
"k-.	c #664B49",
"l-.	c #6B4C48",
"m-.	c #6D4A43",
"n-.	c #5E3D35",
"o-.	c #492D28",
"p-.	c #5A3B39",
"q-.	c #614143",
"r-.	c #583A3E",
"s-.	c #43282E",
"t-.	c #473339",
"u-.	c #3C3036",
"v-.	c #302428",
"w-.	c #150407",
"x-.	c #260E11",
"y-.	c #4B2D31",
"z-.	c #744D4E",
"A-.	c #885A59",
"B-.	c #926262",
"C-.	c #875555",
"D-.	c #845253",
"E-.	c #774646",
"F-.	c #6C3E3E",
"G-.	c #633937",
"H-.	c #6B403D",
"I-.	c #794C47",
"J-.	c #855651",
"K-.	c #875750",
"L-.	c #81534C",
"M-.	c #784E46",
"N-.	c #794F46",
"O-.	c #764C42",
"P-.	c #734A3F",
"Q-.	c #734A3E",
"R-.	c #623D31",
"S-.	c #6A4439",
"T-.	c #754B43",
"U-.	c #80554D",
"V-.	c #84584D",
"W-.	c #825649",
"X-.	c #825646",
"Y-.	c #875A4A",
"Z-.	c #885C49",
"`-.	c #8C5E4B",
" ;.	c #92644E",
".;.	c #94664E",
"+;.	c #93654C",
"@;.	c #996B53",
"#;.	c #996B52",
"$;.	c #9A6C53",
"%;.	c #9F7158",
"&;.	c #A5785D",
"*;.	c #A3765D",
"=;.	c #9F735B",
"-;.	c #9C6F59",
";;.	c #9B6D59",
">;.	c #A1735D",
",;.	c #A47660",
"';.	c #A0715C",
");.	c #9C6E58",
"!;.	c #9D6E59",
"~;.	c #996B56",
"{;.	c #966752",
"];.	c #B58F80",
"^;.	c #C0A09A",
"/;.	c #BB9B9A",
"(;.	c #C6A3A4",
"_;.	c #C4A3A7",
":;.	c #C1A6B1",
"<;.	c #C1A9B4",
"[;.	c #C6B1BB",
"};.	c #C2B4BD",
"|;.	c #E1DAE3",
"1;.	c #E6E5EF",
"2;.	c #E7EAF4",
"3;.	c #121E1D",
"4;.	c #2F2926",
"5;.	c #A18C85",
"6;.	c #B58F84",
"7;.	c #AE7C6F",
"8;.	c #A77365",
"9;.	c #A26C60",
"0;.	c #925952",
"a;.	c #89554B",
"b;.	c #936455",
"c;.	c #9D6F60",
"d;.	c #A77867",
"e;.	c #C19786",
"f;.	c #DAB3AF",
"g;.	c #CDA6AB",
"h;.	c #C69C9E",
"i;.	c #B4887F",
"j;.	c #C09685",
"k;.	c #C4A596",
"l;.	c #B79C91",
"m;.	c #C9B1A9",
"n;.	c #BFA79F",
"o;.	c #B3978E",
"p;.	c #A6867C",
"q;.	c #8F6E64",
"r;.	c #7F6058",
"s;.	c #9C7F7A",
"t;.	c #9F8582",
"u;.	c #9B8483",
"v;.	c #9B8281",
"w;.	c #7C5F5E",
"x;.	c #604341",
"y;.	c #8B6E6C",
"z;.	c #977B78",
"A;.	c #947976",
"B;.	c #816762",
"C;.	c #705750",
"D;.	c #8A726D",
"E;.	c #8F7671",
"F;.	c #8A6E66",
"G;.	c #836357",
"H;.	c #68473D",
"I;.	c #5E3E3B",
"J;.	c #664544",
"K;.	c #634647",
"L;.	c #432E31",
"M;.	c #201618",
"N;.	c #38262B",
"O;.	c #4C2D33",
"P;.	c #59343A",
"Q;.	c #693E42",
"R;.	c #835154",
"S;.	c #976063",
"T;.	c #9D6566",
"U;.	c #9C6463",
"V;.	c #9B6362",
"W;.	c #996160",
"X;.	c #965E5D",
"Y;.	c #905857",
"Z;.	c #814F4E",
"`;.	c #704342",
" >.	c #7D4F4A",
".>.	c #875752",
"+>.	c #8B5A53",
"@>.	c #86574F",
"#>.	c #7B5047",
"$>.	c #7C5148",
"%>.	c #6F453C",
"&>.	c #72473E",
"*>.	c #674035",
"=>.	c #643E33",
"->.	c #734C42",
";>.	c #7B5148",
">>.	c #7F544B",
",>.	c #855950",
"'>.	c #83554A",
")>.	c #7F5143",
"!>.	c #845647",
"~>.	c #865848",
"{>.	c #8A5D49",
"]>.	c #8F614A",
"^>.	c #976951",
"/>.	c #9B6D55",
"(>.	c #9B6F57",
"_>.	c #966953",
":>.	c #996C59",
"<>.	c #9C6E5A",
"[>.	c #9E705C",
"}>.	c #A57662",
"|>.	c #A1725E",
"1>.	c #9F705C",
"2>.	c #9C6D59",
"3>.	c #9D6E5A",
"4>.	c #976854",
"5>.	c #A47561",
"6>.	c #AB7C69",
"7>.	c #B49081",
"8>.	c #C3A297",
"9>.	c #B7928D",
"0>.	c #C49FA0",
"a>.	c #C6A6AB",
"b>.	c #C4A9AF",
"c>.	c #C8B1BC",
"d>.	c #D1C1CB",
"e>.	c #E3DCE4",
"f>.	c #E5E5ED",
"g>.	c #E5E8F1",
"h>.	c #E8E9F3",
"i>.	c #10201D",
"j>.	c #544945",
"k>.	c #AD968C",
"l>.	c #B28F83",
"m>.	c #AE8176",
"n>.	c #A7756C",
"o>.	c #9C665F",
"p>.	c #955F56",
"q>.	c #986356",
"r>.	c #9B695B",
"s>.	c #B88D7D",
"t>.	c #C19B94",
"u>.	c #D8B8BB",
"v>.	c #D9B9C6",
"w>.	c #CDA5B0",
"x>.	c #C08B8D",
"y>.	c #AD827B",
"z>.	c #AE8B81",
"A>.	c #CDB0A4",
"B>.	c #C7AEA2",
"C>.	c #BDA49C",
"D>.	c #B39890",
"E>.	c #A78C7F",
"F>.	c #9F877C",
"G>.	c #B39E96",
"H>.	c #B19F99",
"I>.	c #AD9F9B",
"J>.	c #AB9B98",
"K>.	c #A08C89",
"L>.	c #937F7D",
"M>.	c #9E8887",
"N>.	c #A38C8B",
"O>.	c #9E8785",
"P>.	c #917A78",
"Q>.	c #7C6661",
"R>.	c #92756F",
"S>.	c #97746D",
"T>.	c #916B63",
"U>.	c #7B554E",
"V>.	c #3B2923",
"W>.	c #523533",
"X>.	c #61383A",
"Y>.	c #613036",
"Z>.	c #703D44",
"`>.	c #7A444B",
" ,.	c #81494C",
".,.	c #8A5153",
"+,.	c #93595A",
"@,.	c #9D6162",
"#,.	c #A26566",
"$,.	c #A36868",
"%,.	c #9F6766",
"&,.	c #98605F",
"*,.	c #935C5B",
"=,.	c #8F5756",
"-,.	c #7E4C4B",
";,.	c #6E4241",
">,.	c #7A4D49",
",,.	c #835450",
"',.	c #8A5954",
"),.	c #8A5952",
"!,.	c #84554D",
"~,.	c #71463D",
"{,.	c #754A41",
"],.	c #6A4338",
"^,.	c #694338",
"/,.	c #775146",
"(,.	c #80574D",
"_,.	c #81564D",
":,.	c #865A51",
"<,.	c #85574E",
"[,.	c #7F5145",
"},.	c #87594B",
"|,.	c #87594A",
"1,.	c #865948",
"2,.	c #875944",
"3,.	c #90624A",
"4,.	c #92644C",
"5,.	c #966850",
"6,.	c #9A6C54",
"7,.	c #9A6D53",
"8,.	c #94694F",
"9,.	c #966951",
"0,.	c #91644F",
"a,.	c #966954",
"b,.	c #9C6F5C",
"c,.	c #A1725F",
"d,.	c #9E6F5B",
"e,.	c #9B6C58",
"f,.	c #A2735F",
"g,.	c #BA9080",
"h,.	c #BA9287",
"i,.	c #B68D86",
"j,.	c #C39C9A",
"k,.	c #C1A2A3",
"l,.	c #C5ADB0",
"m,.	c #D1C2C9",
"n,.	c #E5DDE5",
"o,.	c #E5E4EA",
"p,.	c #E2E5EC",
"q,.	c #E4E6EF",
"r,.	c #E7E6F1",
"s,.	c #121A1B",
"t,.	c #16181E",
"u,.	c #1C1A19",
"v,.	c #6E625B",
"w,.	c #B1988F",
"x,.	c #B79088",
"y,.	c #B0817A",
"z,.	c #A6756C",
"A,.	c #A06B61",
"B,.	c #9D6459",
"C,.	c #A47062",
"D,.	c #B38675",
"E,.	c #C19888",
"F,.	c #CBA69F",
"G,.	c #D8BCC1",
"H,.	c #DFC9D8",
"I,.	c #D7BCCC",
"J,.	c #D4ABB5",
"K,.	c #D6A2A7",
"L,.	c #D09798",
"M,.	c #B27F78",
"N,.	c #BE9488",
"O,.	c #C5A196",
"P,.	c #BD9993",
"Q,.	c #B6928D",
"R,.	c #AA8A7D",
"S,.	c #9B7E74",
"T,.	c #B09790",
"U,.	c #AF9A95",
"V,.	c #AC9A96",
"W,.	c #AB9996",
"X,.	c #A38E8D",
"Y,.	c #947E7E",
"Z,.	c #987E7F",
"`,.	c #9B7E81",
" '.	c #8F7174",
".'.	c #765A5D",
"+'.	c #4E2F2E",
"@'.	c #69403B",
"#'.	c #7D4B47",
"$'.	c #7E4644",
"%'.	c #6F3739",
"&'.	c #70353D",
"*'.	c #80404B",
"='.	c #874550",
"-'.	c #8D4B54",
";'.	c #894B51",
">'.	c #8B5255",
",'.	c #8E5658",
"''.	c #975C5E",
")'.	c #9B6163",
"!'.	c #9B6365",
"~'.	c #9C6769",
"{'.	c #9C6666",
"]'.	c #8E5756",
"^'.	c #88504F",
"/'.	c #82504F",
"('.	c #744747",
"_'.	c #7C4E4C",
":'.	c #82534F",
"<'.	c #8A5955",
"['.	c #86554F",
"}'.	c #7D4F48",
"|'.	c #754C43",
"1'.	c #72493F",
"2'.	c #6F463C",
"3'.	c #6D433A",
"4'.	c #6B443A",
"5'.	c #754F44",
"6'.	c #7E574D",
"7'.	c #80564D",
"8'.	c #82574E",
"9'.	c #83584E",
"0'.	c #82554D",
"a'.	c #7F5147",
"b'.	c #895B4F",
"c'.	c #845749",
"d'.	c #855848",
"e'.	c #8A5C44",
"f'.	c #8D5F47",
"g'.	c #93654D",
"h'.	c #95674F",
"i'.	c #94674E",
"j'.	c #8E6249",
"k'.	c #91644C",
"l'.	c #926550",
"m'.	c #9F715F",
"n'.	c #A47662",
"o'.	c #996A56",
"p'.	c #966753",
"q'.	c #9A6B57",
"r'.	c #A37460",
"s'.	c #AB7C68",
"t'.	c #BA8D7C",
"u'.	c #B08275",
"v'.	c #B88B83",
"w'.	c #C49D99",
"x'.	c #C2A4A3",
"y'.	c #C8B4B4",
"z'.	c #E4DCE1",
"A'.	c #E5E3E9",
"B'.	c #E4E5EB",
"C'.	c #E1E5EC",
"D'.	c #E4E5EF",
"E'.	c #E7E5F1",
"F'.	c #13181C",
"G'.	c #1D1C1D",
"H'.	c #877873",
"I'.	c #B6978E",
"J'.	c #B2897E",
"K'.	c #AC8479",
"L'.	c #AC7F71",
"M'.	c #A47364",
"N'.	c #A87668",
"O'.	c #B8887E",
"P'.	c #CCA298",
"Q'.	c #CDADA4",
"R'.	c #D5B7BE",
"S'.	c #E4C8DA",
"T'.	c #E7C9DA",
"U'.	c #DEBEC4",
"V'.	c #D3B0AB",
"W'.	c #D3ACA1",
"X'.	c #D8AEA2",
"Y'.	c #DFB1A5",
"Z'.	c #D3A094",
"`'.	c #BE867B",
" ).	c #9D645B",
".).	c #8C5654",
"+).	c #916162",
"@).	c #8E6364",
"#).	c #896262",
"$).	c #8C6461",
"%).	c #8A5A56",
"&).	c #804948",
"*).	c #854748",
"=).	c #8D494B",
"-).	c #8F4549",
";).	c #8C4143",
">).	c #8E4746",
",).	c #944D4D",
"').	c #914B4F",
")).	c #8D4750",
"!).	c #884550",
"~).	c #884654",
"{).	c #8D4E5D",
"]).	c #8C4E59",
"^).	c #8F5258",
"/).	c #94585A",
"().	c #955958",
"_).	c #965B59",
":).	c #905956",
"<).	c #97605D",
"[).	c #9C6562",
"}).	c #9D6663",
"|).	c #9E6764",
"1).	c #99615F",
"2).	c #995F5E",
"3).	c #965C5B",
"4).	c #925B59",
"5).	c #885451",
"6).	c #84514E",
"7).	c #825050",
"8).	c #764749",
"9).	c #774848",
"0).	c #7E4E4D",
"a).	c #885854",
"b).	c #83534F",
"c).	c #754B44",
"d).	c #704B42",
"e).	c #6E4940",
"f).	c #674239",
"g).	c #68433A",
"h).	c #654037",
"i).	c #704940",
"j).	c #764E44",
"k).	c #7A5248",
"l).	c #785046",
"m).	c #7E564C",
"n).	c #80584E",
"o).	c #82594E",
"p).	c #83594D",
"q).	c #83594B",
"r).	c #815846",
"s).	c #7D5440",
"t).	c #80553F",
"u).	c #83563F",
"v).	c #865942",
"w).	c #8E624B",
"x).	c #966952",
"y).	c #92654E",
"z).	c #92634E",
"A).	c #9A6B59",
"B).	c #A37464",
"C).	c #A57665",
"D).	c #A37462",
"E).	c #A0715D",
"F).	c #956652",
"G).	c #A67763",
"H).	c #A87965",
"I).	c #AA7B67",
"J).	c #B38574",
"K).	c #BC9186",
"L).	c #BE9B97",
"M).	c #B9A4A4",
"N).	c #D7CDCF",
"O).	c #E4E3EA",
"P).	c #E3E3ED",
"Q).	c #111E1D",
"R).	c #10191B",
"S).	c #12181C",
"T).	c #28221F",
"U).	c #917D77",
"V).	c #B0928A",
"W).	c #B28D84",
"X).	c #B58C7F",
"Y).	c #AF8073",
"Z).	c #AD7D71",
"`).	c #B88A82",
" !.	c #CDA59B",
".!.	c #CCAEA1",
"+!.	c #D7BAB9",
"@!.	c #E1C5D1",
"#!.	c #E3C5D6",
"$!.	c #E1C0CF",
"%!.	c #D0B0B5",
"&!.	c #D3B7AD",
"*!.	c #D6B7AD",
"=!.	c #DAB7AD",
"-!.	c #DDB6AB",
";!.	c #DCB3A7",
">!.	c #D4A59B",
",!.	c #D5A09A",
"'!.	c #C99292",
")!.	c #C99096",
"!!.	c #C68B92",
"~!.	c #C1868A",
"{!.	c #BF8182",
"]!.	c #BB7977",
"^!.	c #B67271",
"/!.	c #B2696A",
"(!.	c #AE6163",
"_!.	c #A8575A",
":!.	c #A85C60",
"<!.	c #9B595E",
"[!.	c #915157",
"}!.	c #905259",
"|!.	c #8C4F57",
"1!.	c #90545E",
"2!.	c #935861",
"3!.	c #955B61",
"4!.	c #995F63",
"5!.	c #996062",
"6!.	c #9D6464",
"7!.	c #9B6261",
"8!.	c #99625F",
"9!.	c #9A6360",
"0!.	c #98615E",
"a!.	c #99605E",
"b!.	c #975D5C",
"c!.	c #985E5D",
"d!.	c #8B5754",
"e!.	c #895653",
"f!.	c #814E4F",
"g!.	c #7D4B4E",
"h!.	c #784748",
"i!.	c #815251",
"j!.	c #835652",
"k!.	c #825650",
"l!.	c #775048",
"m!.	c #724D44",
"n!.	c #6A453C",
"o!.	c #643F36",
"p!.	c #623D34",
"q!.	c #775046",
"r!.	c #795147",
"s!.	c #774F45",
"t!.	c #7C544A",
"u!.	c #7B5349",
"v!.	c #81584D",
"w!.	c #7B5145",
"x!.	c #7A5042",
"y!.	c #744A38",
"z!.	c #784F3B",
"A!.	c #825741",
"B!.	c #885B44",
"C!.	c #8C5F48",
"D!.	c #8E614A",
"E!.	c #966851",
"F!.	c #8D5F48",
"G!.	c #946650",
"H!.	c #9B6D5A",
"I!.	c #A27363",
"J!.	c #A47565",
"K!.	c #A47563",
"L!.	c #A0725E",
"M!.	c #A97A66",
"N!.	c #AB7B66",
"O!.	c #B28373",
"P!.	c #BD9389",
"Q!.	c #B99A97",
"R!.	c #C2B2B6",
"S!.	c #E2DEE5",
"T!.	c #E1E1EA",
"U!.	c #E2E2EC",
"V!.	c #E1E1EB",
"W!.	c #11211E",
"X!.	c #101D1C",
"Y!.	c #10191A",
"Z!.	c #15161A",
"`!.	c #17161A",
" ~.	c #111A1C",
".~.	c #161A19",
"+~.	c #322A27",
"@~.	c #8C7973",
"#~.	c #B19088",
"$~.	c #B58E85",
"%~.	c #B08478",
"&~.	c #B5877D",
"*~.	c #BE938D",
"=~.	c #CEA7A3",
"-~.	c #D0B0AE",
";~.	c #D4B6B9",
">~.	c #DCC1C8",
",~.	c #DEC2CB",
"'~.	c #D7B7C1",
")~.	c #CFABB1",
"!~.	c #CDA4A5",
"~~.	c #D0A7A7",
"{~.	c #D0A5A3",
"]~.	c #CCA09D",
"^~.	c #D1A49F",
"/~.	c #CE9F9B",
"(~.	c #C79796",
"_~.	c #C49396",
":~.	c #C59399",
"<~.	c #C9979B",
"[~.	c #C29291",
"}~.	c #C28E8D",
"|~.	c #BE8588",
"1~.	c #BA7F83",
"2~.	c #A6696D",
"3~.	c #985A5E",
"4~.	c #935358",
"5~.	c #935157",
"6~.	c #904E52",
"7~.	c #925155",
"8~.	c #945658",
"9~.	c #9A5D5F",
"0~.	c #A06466",
"a~.	c #A06666",
"b~.	c #9A6461",
"c~.	c #9C6664",
"d~.	c #9B6463",
"e~.	c #9A6361",
"f~.	c #996260",
"g~.	c #965F5C",
"h~.	c #9B6461",
"i~.	c #945C5A",
"j~.	c #955B5A",
"k~.	c #905957",
"l~.	c #8C5855",
"m~.	c #8D5A57",
"n~.	c #8C5657",
"o~.	c #8B5359",
"p~.	c #835051",
"q~.	c #825352",
"r~.	c #7B504A",
"s~.	c #6F4A41",
"t~.	c #69443B",
"u~.	c #714C43",
"v~.	c #7C554B",
"w~.	c #7D554B",
"x~.	c #7F574D",
"y~.	c #7F564A",
"z~.	c #7E5448",
"A~.	c #815748",
"B~.	c #7B5240",
"C~.	c #815844",
"D~.	c #845842",
"E~.	c #82553E",
"F~.	c #8B5E47",
"G~.	c #8D6049",
"H~.	c #94654F",
"I~.	c #986957",
"J~.	c #9C6D5D",
"K~.	c #996A58",
"L~.	c #936450",
"M~.	c #986955",
"N~.	c #AF7E68",
"O~.	c #B68D84",
"P~.	c #B39999",
"Q~.	c #E0D6DE",
"R~.	c #E0E2EE",
"S~.	c #DFE1EC",
"T~.	c #E0E0EA",
"U~.	c #DFDFE9",
"V~.	c #DDDDE7",
"W~.	c #11201F",
"X~.	c #111D1D",
"Y~.	c #16161A",
"Z~.	c #16181B",
"`~.	c #18181A",
" {.	c #8B7572",
".{.	c #B4918A",
"+{.	c #B6877A",
"@{.	c #B8867C",
"#{.	c #C19791",
"${.	c #CFAEAB",
"%{.	c #D1B3B1",
"&{.	c #D6B8B8",
"*{.	c #DBBEBF",
"={.	c #DCBFC1",
"-{.	c #D7B8BD",
";{.	c #D3B0B3",
">{.	c #D1A3A1",
",{.	c #D19E98",
"'{.	c #CB938B",
"){.	c #C78C83",
"!{.	c #C68B84",
"~{.	c #C18782",
"{{.	c #BD8784",
"]{.	c #C38D8B",
"^{.	c #C48F8D",
"/{.	c #BB8683",
"({.	c #B4807C",
"_{.	c #B87F7D",
":{.	c #B27073",
"<{.	c #AD6A6E",
"[{.	c #9F5C60",
"}{.	c #9C595D",
"|{.	c #9A575A",
"1{.	c #9E5D5D",
"2{.	c #9D5E5B",
"3{.	c #9F6260",
"4{.	c #9E6362",
"5{.	c #9F6665",
"6{.	c #A06969",
"7{.	c #9A6462",
"8{.	c #9C6662",
"9{.	c #97615E",
"0{.	c #98605E",
"a{.	c #975E5B",
"b{.	c #9A615F",
"c{.	c #9B6260",
"d{.	c #985F5D",
"e{.	c #965D5B",
"f{.	c #945D5A",
"g{.	c #925A58",
"h{.	c #8C5653",
"i{.	c #8E5855",
"j{.	c #915B58",
"k{.	c #8D5554",
"l{.	c #8B5352",
"m{.	c #895452",
"n{.	c #82514D",
"o{.	c #7C504A",
"p{.	c #734A43",
"q{.	c #6B463F",
"r{.	c #64423C",
"s{.	c #623F38",
"t{.	c #623E36",
"u{.	c #6B463D",
"v{.	c #785247",
"w{.	c #7B5448",
"x{.	c #7F584A",
"y{.	c #81594C",
"z{.	c #7D5648",
"A{.	c #7F574A",
"B{.	c #855D50",
"C{.	c #855C4E",
"D{.	c #7F5547",
"E{.	c #845947",
"F{.	c #845745",
"G{.	c #855743",
"H{.	c #835640",
"I{.	c #865943",
"J{.	c #875A45",
"K{.	c #91644E",
"L{.	c #946651",
"M{.	c #956651",
"N{.	c #92634F",
"O{.	c #966754",
"P{.	c #9A6B58",
"Q{.	c #906250",
"R{.	c #8D5E4D",
"S{.	c #906150",
"T{.	c #9D6E5D",
"U{.	c #A37463",
"V{.	c #A17261",
"W{.	c #A27360",
"X{.	c #AA785E",
"Y{.	c #A57963",
"Z{.	c #A78B83",
"`{.	c #D8CBD0",
" ].	c #E3DFE9",
".].	c #E0E1ED",
"+].	c #E2E2EE",
"@].	c #E1E1ED",
"#].	c #DFDFEA",
"$].	c #DCDCE7",
"%].	c #D7D7E2",
"&].	c #C3C3CF",
"*].	c #121D1D",
"=].	c #13181B",
"-].	c #17181B",
";].	c #2C2323",
">].	c #8E7671",
",].	c #B79087",
"'].	c #B6887F",
")].	c #C29891",
"!].	c #D1AEA9",
"~].	c #D2B5B1",
"{].	c #D5B7B5",
"]].	c #D5B7B7",
"^].	c #DABCBD",
"/].	c #CFB0B4",
"(].	c #C6A4A5",
"_].	c #C19690",
":].	c #B9887E",
"<].	c #B57E72",
"[].	c #AC7367",
"}].	c #A87169",
"|].	c #A66D67",
"1].	c #A66964",
"2].	c #AA6C68",
"3].	c #A96B67",
"4].	c #A76964",
"5].	c #A56762",
"6].	c #A36865",
"7].	c #996463",
"8].	c #966161",
"9].	c #935E5D",
"0].	c #925C5C",
"a].	c #915C5B",
"b].	c #925C5A",
"c].	c #955E5B",
"d].	c #97615F",
"e].	c #976161",
"f].	c #956160",
"g].	c #966363",
"h].	c #925E5D",
"i].	c #935C59",
"j].	c #925B58",
"k].	c #98605D",
"l].	c #975D5B",
"m].	c #945A58",
"n].	c #965C5A",
"o].	c #975E5C",
"p].	c #915A57",
"q].	c #8C5552",
"r].	c #8F5855",
"s].	c #935A58",
"t].	c #8E5654",
"u].	c #8F5A56",
"v].	c #895853",
"w].	c #865852",
"x].	c #7A4F48",
"y].	c #6C4740",
"z].	c #62413C",
"A].	c #634039",
"B].	c #69453D",
"C].	c #6E483F",
"D].	c #764F45",
"E].	c #7C5546",
"F].	c #80594A",
"G].	c #835C4D",
"H].	c #815A4B",
"I].	c #805749",
"J].	c #815543",
"K].	c #865745",
"L].	c #8A5B47",
"M].	c #8C5F4B",
"N].	c #956753",
"O].	c #916251",
"P].	c #936454",
"Q].	c #9F7060",
"R].	c #9E6F5F",
"S].	c #A17660",
"T].	c #9B7A6D",
"U].	c #D1C0C0",
"V].	c #E0DCE5",
"W].	c #DEDEEA",
"X].	c #E0DFEA",
"Y].	c #E0E0EC",
"Z].	c #DDDDE9",
"`].	c #D6D6E2",
" ^.	c #B9B9C5",
".^.	c #70707B",
"+^.	c #10181A",
"@^.	c #111917",
"#^.	c #8D7470",
"$^.	c #B49088",
"%^.	c #BD938A",
"&^.	c #CBA59C",
"*^.	c #D7BAB5",
"=^.	c #DBBDBB",
"-^.	c #DCBEBF",
";^.	c #CCADB2",
">^.	c #BB999A",
",^.	c #B28981",
"'^.	c #A97B71",
")^.	c #A07064",
"!^.	c #905F57",
"~^.	c #895C58",
"{^.	c #805552",
"]^.	c #7E5550",
"^^.	c #79514B",
"/^.	c #744B46",
"(^.	c #764D48",
"_^.	c #754D4A",
":^.	c #784E51",
"<^.	c #774D50",
"[^.	c #7A5154",
"}^.	c #7A5053",
"|^.	c #7B5154",
"1^.	c #805658",
"2^.	c #85585A",
"3^.	c #885C5C",
"4^.	c #885A5A",
"5^.	c #875654",
"6^.	c #8E5B58",
"7^.	c #965E5B",
"8^.	c #905654",
"9^.	c #955B59",
"0^.	c #985E5C",
"a^.	c #945B59",
"b^.	c #8E5653",
"c^.	c #8C5854",
"d^.	c #875651",
"e^.	c #845650",
"f^.	c #744A42",
"g^.	c #65403A",
"h^.	c #61403B",
"i^.	c #67443C",
"j^.	c #7B544A",
"k^.	c #7D5549",
"l^.	c #7E5748",
"m^.	c #7D5647",
"n^.	c #845D4E",
"o^.	c #8A6354",
"p^.	c #855E4F",
"q^.	c #7D5546",
"r^.	c #825644",
"s^.	c #825341",
"t^.	c #865743",
"u^.	c #8A5C47",
"v^.	c #8A5D48",
"w^.	c #8C5F4A",
"x^.	c #936651",
"y^.	c #8F614C",
"z^.	c #90614E",
"A^.	c #8E5F4B",
"B^.	c #956654",
"C^.	c #986959",
"D^.	c #956653",
"E^.	c #966854",
"F^.	c #8F7065",
"G^.	c #C7B7B7",
"H^.	c #DED8E0",
"I^.	c #D8DBE9",
"J^.	c #D9DCEB",
"K^.	c #DDDCE8",
"L^.	c #DDDDE8",
"M^.	c #DADAE6",
"N^.	c #D7D7E3",
"O^.	c #B8B8C4",
"P^.	c #64646E",
"Q^.	c #14141F",
"R^.	c #111719",
"S^.	c #131619",
"T^.	c #0F1A18",
"U^.	c #826863",
"V^.	c #B78F86",
"W^.	c #C0978B",
"X^.	c #D3B5B0",
"Y^.	c #DABEBB",
"Z^.	c #D5B9B8",
"`^.	c #D4B5BB",
" /.	c #C2A0A3",
"./.	c #AE8880",
"+/.	c #9F756B",
"@/.	c #94675C",
"#/.	c #79524F",
"$/.	c #744C4E",
"%/.	c #785053",
"&/.	c #795054",
"*/.	c #754C50",
"=/.	c #774F54",
"-/.	c #764E53",
";/.	c #72494D",
">/.	c #6F474B",
",/.	c #744C50",
"'/.	c #734B4F",
")/.	c #734A4F",
"!/.	c #774E52",
"~/.	c #7F5254",
"{/.	c #7E4F4F",
"]/.	c #865553",
"^/.	c #905856",
"//.	c #8F5755",
"(/.	c #915956",
"_/.	c #935B59",
":/.	c #945B58",
"</.	c #985F5C",
"[/.	c #9B6360",
"}/.	c #9A625F",
"|/.	c #9C6560",
"1/.	c #975F5A",
"2/.	c #955D58",
"3/.	c #925C56",
"4/.	c #8D5953",
"5/.	c #81514B",
"6/.	c #764A43",
"7/.	c #6F453E",
"8/.	c #67423B",
"9/.	c #644139",
"0/.	c #6E4A41",
"a/.	c #754F46",
"b/.	c #7C544B",
"c/.	c #80584C",
"d/.	c #815A4D",
"e/.	c #815A4C",
"f/.	c #8A6153",
"g/.	c #8C6354",
"h/.	c #8A6152",
"i/.	c #825849",
"j/.	c #825747",
"k/.	c #875B4B",
"l/.	c #835443",
"m/.	c #815440",
"n/.	c #845742",
"o/.	c #895D48",
"p/.	c #8E614C",
"q/.	c #91634F",
"r/.	c #8C5D4A",
"s/.	c #875845",
"t/.	c #926351",
"u/.	c #986958",
"v/.	c #9A6B5A",
"w/.	c #A27361",
"x/.	c #986A58",
"y/.	c #956655",
"z/.	c #936656",
"A/.	c #9D6A55",
"B/.	c #9A6852",
"C/.	c #926451",
"D/.	c #8D685A",
"E/.	c #BFB0B2",
"F/.	c #DAD4DE",
"G/.	c #D5D6E5",
"H/.	c #D1D6E8",
"I/.	c #D3D6E6",
"J/.	c #D7D6E4",
"K/.	c #D6D5E2",
"L/.	c #D2D1DE",
"M/.	c #B3B3BF",
"N/.	c #565660",
"O/.	c #0E0E1A",
"P/.	c #0E0E19",
"Q/.	c #14161D",
"R/.	c #23191B",
"S/.	c #7D635D",
"T/.	c #B49086",
"U/.	c #CBA49E",
"V/.	c #DDBDB7",
"W/.	c #D6BAB7",
"X/.	c #D1B6B7",
"Y/.	c #D5B6BB",
"Z/.	c #D1AEB2",
"`/.	c #BF9995",
" (.	c #B48983",
".(.	c #9C6D65",
"+(.	c #906059",
"@(.	c #855754",
"#(.	c #7C5151",
"$(.	c #805655",
"%(.	c #805555",
"&(.	c #7B5052",
"*(.	c #805559",
"=(.	c #80545A",
"-(.	c #794E52",
";(.	c #7D5154",
">(.	c #7D5255",
",(.	c #7A4E51",
"'(.	c #7E4E52",
")(.	c #805053",
"!(.	c #814F51",
"~(.	c #875455",
"{(.	c #895454",
"](.	c #8D5654",
"^(.	c #915755",
"/(.	c #925856",
"((.	c #8F5553",
"_(.	c #935957",
":(.	c #955C5A",
"<(.	c #9F6865",
"[(.	c #A16A67",
"}(.	c #9A605E",
"|(.	c #9C625F",
"1(.	c #9E645F",
"2(.	c #9E655D",
"3(.	c #986056",
"4(.	c #986057",
"5(.	c #925D53",
"6(.	c #7D4E45",
"7(.	c #6E463E",
"8(.	c #633E35",
"9(.	c #613F35",
"0(.	c #7B544B",
"a(.	c #825750",
"b(.	c #845B52",
"c(.	c #81594E",
"d(.	c #875F53",
"e(.	c #885D50",
"f(.	c #895C4D",
"g(.	c #885B4B",
"h(.	c #8A5C4C",
"i(.	c #8D5F4F",
"j(.	c #895B4B",
"k(.	c #825444",
"l(.	c #885A4A",
"m(.	c #845646",
"n(.	c #8A5C4B",
"o(.	c #8E614F",
"p(.	c #895C4A",
"q(.	c #895B48",
"r(.	c #895A46",
"s(.	c #895A48",
"t(.	c #946555",
"u(.	c #9D6D5F",
"v(.	c #A07062",
"w(.	c #A17160",
"x(.	c #8B5E51",
"y(.	c #946354",
"z(.	c #9B654E",
"A(.	c #93624C",
"B(.	c #886960",
"C(.	c #B8ABAE",
"D(.	c #D3D0DE",
"E(.	c #D2D1E3",
"F(.	c #D0CFE1",
"G(.	c #CFCEDF",
"H(.	c #C8C7D5",
"I(.	c #9D9CA9",
"J(.	c #3E3D47",
"K(.	c #0C0C18",
"L(.	c #10101C",
"M(.	c #0F191B",
"N(.	c #161717",
"O(.	c #201915",
"P(.	c #725D57",
"Q(.	c #B6918A",
"R(.	c #E3BFB9",
"S(.	c #DFBDB9",
"T(.	c #D5B6B2",
"U(.	c #D4B7B4",
"V(.	c #CEA8A8",
"W(.	c #C09490",
"X(.	c #B28079",
"Y(.	c #AA746E",
"Z(.	c #9C6763",
"`(.	c #966360",
" _.	c #8C5C57",
"._.	c #8B5B57",
"+_.	c #855452",
"@_.	c #895858",
"#_.	c #8D5C5E",
"$_.	c #8C5B5C",
"%_.	c #89595A",
"&_.	c #865556",
"*_.	c #855455",
"=_.	c #835354",
"-_.	c #815051",
";_.	c #825153",
">_.	c #855355",
",_.	c #865455",
"'_.	c #885454",
")_.	c #8C5655",
"!_.	c #8B5452",
"~_.	c #905755",
"{_.	c #9C6461",
"]_.	c #9B615F",
"^_.	c #A16764",
"/_.	c #A06761",
"(_.	c #9D645C",
"__.	c #935A51",
":_.	c #935C52",
"<_.	c #8A564B",
"[_.	c #825045",
"}_.	c #73453C",
"|_.	c #71463E",
"1_.	c #69423A",
"2_.	c #603B32",
"3_.	c #5F3D33",
"4_.	c #6C463D",
"5_.	c #785249",
"6_.	c #825A52",
"7_.	c #81584F",
"8_.	c #8A6258",
"9_.	c #8F665A",
"0_.	c #8E6357",
"a_.	c #906354",
"b_.	c #906253",
"c_.	c #8A5D4D",
"d_.	c #7D4F3F",
"e_.	c #7C4E3E",
"f_.	c #875949",
"g_.	c #7F5242",
"h_.	c #8C5E50",
"i_.	c #916354",
"j_.	c #996B5C",
"k_.	c #956758",
"l_.	c #8B5D4E",
"m_.	c #805240",
"n_.	c #7C4D3A",
"o_.	c #976856",
"p_.	c #9B6B5E",
"q_.	c #9B6C5B",
"r_.	c #8F604C",
"s_.	c #8B5C48",
"t_.	c #8C5D49",
"u_.	c #91604B",
"v_.	c #8F604B",
"w_.	c #835B4D",
"x_.	c #866D6C",
"y_.	c #C6BAC3",
"z_.	c #CFCCDD",
"A_.	c #CDCCDF",
"B_.	c #CECDDF",
"C_.	c #CDCCDE",
"D_.	c #CAC9DB",
"E_.	c #C8C7D9",
"F_.	c #BCBBCD",
"G_.	c #84838F",
"H_.	c #28282F",
"I_.	c #0B0B17",
"J_.	c #0C0C19",
"K_.	c #0E0D1D",
"L_.	c #100F1F",
"M_.	c #13161C",
"N_.	c #1B1817",
"O_.	c #60514D",
"P_.	c #C2ADAA",
"Q_.	c #DEC0BF",
"R_.	c #D2B3B2",
"S_.	c #D4B7B5",
"T_.	c #D9BEBD",
"U_.	c #D7BABB",
"V_.	c #D0ACA8",
"W_.	c #C3968E",
"X_.	c #C59489",
"Y_.	c #B7867D",
"Z_.	c #A8756D",
"`_.	c #A26E64",
" :.	c #9F6A64",
".:.	c #9B6662",
"+:.	c #9A6563",
"@:.	c #935D5D",
"#:.	c #945E5E",
"$:.	c #955F5F",
"%:.	c #925C5D",
"&:.	c #915B5B",
"*:.	c #935E5F",
"=:.	c #935F5F",
"-:.	c #935C5A",
";:.	c #945A56",
">:.	c #975C59",
",:.	c #995F5D",
"':.	c #A26B68",
"):.	c #A06966",
"!:.	c #9F6664",
"~:.	c #A66C6A",
"{:.	c #A56B69",
"]:.	c #A26964",
"^:.	c #9D655C",
"/:.	c #945B52",
"(:.	c #8D554C",
"_:.	c #885349",
"::.	c #76483F",
"<:.	c #6E433C",
"[:.	c #653E36",
"}:.	c #6F4C42",
"|:.	c #7E5950",
"1:.	c #815B52",
"2:.	c #845C54",
"3:.	c #865B54",
"4:.	c #8A6057",
"5:.	c #91695F",
"6:.	c #8B6256",
"7:.	c #8C6054",
"8:.	c #8B5E4F",
"9:.	c #895B4C",
"0:.	c #825545",
"a:.	c #7D4F40",
"b:.	c #8C5E51",
"c:.	c #97695E",
"d:.	c #9D6E63",
"e:.	c #916258",
"f:.	c #87584D",
"g:.	c #9C6C5E",
"h:.	c #976759",
"i:.	c #926352",
"j:.	c #8A5A47",
"k:.	c #8B5B48",
"l:.	c #895A47",
"m:.	c #875B45",
"n:.	c #815C4D",
"o:.	c #978585",
"p:.	c #C7BECA",
"q:.	c #CECBDD",
"r:.	c #CDCADF",
"s:.	c #CBC9DC",
"t:.	c #C4C3D5",
"u:.	c #AEADBF",
"v:.	c #6E6D7C",
"w:.	c #1D1D25",
"x:.	c #0B0C11",
"y:.	c #0B0B15",
"z:.	c #0E0D1B",
"A:.	c #100F20",
"B:.	c #11131C",
"C:.	c #121519",
"D:.	c #18181C",
"E:.	c #726662",
"F:.	c #D5BBB3",
"G:.	c #D4B7B0",
"H:.	c #D8BEBC",
"I:.	c #D8C2C1",
"J:.	c #D4BEB9",
"K:.	c #D5BAB3",
"L:.	c #CEADA5",
"M:.	c #CFA99E",
"N:.	c #C79C91",
"O:.	c #C49689",
"P:.	c #C49287",
"Q:.	c #B8867D",
"R:.	c #B9867F",
"S:.	c #AE7B76",
"T:.	c #AD7A76",
"U:.	c #AD7A77",
"V:.	c #A87471",
"W:.	c #A5716E",
"X:.	c #A6706E",
"Y:.	c #9D6563",
"Z:.	c #A56968",
"`:.	c #A56867",
" <.	c #A56666",
".<.	c #A46867",
"+<.	c #A06664",
"@<.	c #9D6361",
"#<.	c #9C6260",
"$<.	c #A06662",
"%<.	c #A46A66",
"&<.	c #9F6561",
"*<.	c #A26965",
"=<.	c #A36965",
"-<.	c #A26963",
";<.	c #A0675F",
"><.	c #9C675D",
",<.	c #9C695E",
"'<.	c #8D5B50",
")<.	c #8B544B",
"!<.	c #884F46",
"~<.	c #7B4A3E",
"{<.	c #73493E",
"]<.	c #6C443C",
"^<.	c #653D35",
"/<.	c #73473F",
"(<.	c #7D4F47",
"_<.	c #885B52",
":<.	c #8C5E56",
"<<.	c #8D5F57",
"[<.	c #92645C",
"}<.	c #926559",
"|<.	c #8E6152",
"1<.	c #885A4B",
"2<.	c #825445",
"3<.	c #825442",
"4<.	c #885B46",
"5<.	c #825447",
"6<.	c #91625A",
"7<.	c #9D6D68",
"8<.	c #996B5F",
"9<.	c #986B59",
"0<.	c #8F6252",
"a<.	c #825446",
"b<.	c #76483C",
"c<.	c #7E4F45",
"d<.	c #8F5F52",
"e<.	c #9B6A5C",
"f<.	c #9D6C5E",
"g<.	c #966658",
"h<.	c #8D5D4F",
"i<.	c #845741",
"j<.	c #855840",
"k<.	c #885643",
"l<.	c #7F4E3E",
"m<.	c #784C3B",
"n<.	c #74503D",
"o<.	c #817070",
"p<.	c #BAAFB7",
"q<.	c #CFC6D2",
"r<.	c #CDC8D8",
"s<.	c #CBC8DD",
"t<.	c #C9C7DD",
"u<.	c #C7C5DB",
"v<.	c #C4C3D7",
"w<.	c #C1C0D0",
"x<.	c #A0A0AC",
"y<.	c #5A5A63",
"z<.	c #13141A",
"A<.	c #090912",
"B<.	c #0D0D19",
"C<.	c #1D1D33",
"D<.	c #181A26",
"E<.	c #111517",
"F<.	c #2D2523",
"G<.	c #B5A39D",
"H<.	c #DCC1BD",
"I<.	c #DABEBD",
"J<.	c #D5BABC",
"K<.	c #E1C7C9",
"L<.	c #DFC1C1",
"M<.	c #D7B4B3",
"N<.	c #CCA39F",
"O<.	c #CB9F99",
"P<.	c #CB9B93",
"Q<.	c #C69589",
"R<.	c #C39187",
"S<.	c #BD8B83",
"T<.	c #B7857F",
"U<.	c #B4817E",
"V<.	c #AE7B78",
"W<.	c #A67370",
"X<.	c #A46D6B",
"Y<.	c #A76E6D",
"Z<.	c #A76D6C",
"`<.	c #A76E6C",
" [.	c #AA7370",
".[.	c #AA716F",
"+[.	c #AC706F",
"@[.	c #AD7170",
"#[.	c #B17171",
"$[.	c #AD706F",
"%[.	c #A36967",
"&[.	c #A26866",
"*[.	c #9F6563",
"=[.	c #A16765",
"-[.	c #A66C69",
";[.	c #9E6460",
">[.	c #A26864",
",[.	c #A16761",
"'[.	c #9E655C",
")[.	c #9B6259",
"![.	c #966156",
"~[.	c #946257",
"{[.	c #8F5D52",
"][.	c #875348",
"^[.	c #7D4A3F",
"/[.	c #75483C",
"([.	c #6C4439",
"_[.	c #623B32",
":[.	c #724841",
"<[.	c #855750",
"[[.	c #906159",
"}[.	c #8F6159",
"|[.	c #8E5F57",
"1[.	c #8C5D55",
"2[.	c #8D5F53",
"3[.	c #8A5C4D",
"4[.	c #865849",
"5[.	c #855748",
"6[.	c #835546",
"7[.	c #845645",
"8[.	c #8B5D4F",
"9[.	c #95665B",
"0[.	c #986961",
"a[.	c #9D6E67",
"b[.	c #956659",
"c[.	c #8C5F4D",
"d[.	c #6C3E2F",
"e[.	c #7C4E42",
"f[.	c #94655B",
"g[.	c #97695C",
"h[.	c #996A5C",
"i[.	c #926455",
"j[.	c #86584A",
"k[.	c #825343",
"l[.	c #784F39",
"m[.	c #6A4935",
"n[.	c #796462",
"o[.	c #AF9FAD",
"p[.	c #CCC3D2",
"q[.	c #CBC6D4",
"r[.	c #CAC6D6",
"s[.	c #C9C6D8",
"t[.	c #C6C3D8",
"u[.	c #C6C2D9",
"v[.	c #C3C1D5",
"w[.	c #B9B8C9",
"x[.	c #8F8E9D",
"y[.	c #45454F",
"z[.	c #0C0C15",
"A[.	c #0A0B12",
"B[.	c #0B0B16",
"C[.	c #0E0E1C",
"D[.	c #20213A",
"E[.	c #36365A",
"F[.	c #404069",
"G[.	c #272943",
"H[.	c #101719",
"I[.	c #19181B",
"J[.	c #665B5C",
"K[.	c #D1BBBC",
"L[.	c #D4B5B7",
"M[.	c #D9B8B9",
"N[.	c #E4C7C7",
"O[.	c #DFBEBD",
"P[.	c #DAB3B0",
"Q[.	c #D3A7A2",
"R[.	c #D1A19B",
"S[.	c #C9988E",
"T[.	c #C39282",
"U[.	c #BC8B7D",
"V[.	c #C08E83",
"W[.	c #BD8B81",
"X[.	c #B7847E",
"Y[.	c #AF7C79",
"Z[.	c #AF7876",
"`[.	c #B37A79",
" }.	c #B37978",
".}.	c #AF7675",
"+}.	c #AB7471",
"@}.	c #AB716F",
"#}.	c #A96D6C",
"$}.	c #AA6D6C",
"%}.	c #AC6C6C",
"&}.	c #AC6F6E",
"*}.	c #AA706E",
"=}.	c #A96F6D",
"-}.	c #A86E6C",
";}.	c #A76D6A",
">}.	c #A16763",
",}.	c #985F59",
"'}.	c #945F55",
")}.	c #8E5B50",
"!}.	c #89574C",
"~}.	c #835348",
"{}.	c #74493B",
"]}.	c #6B4436",
"^}.	c #5E3A2D",
"/}.	c #623C32",
"(}.	c #80554E",
"_}.	c #90615A",
":}.	c #8F6058",
"<}.	c #8B5D51",
"[}.	c #8E6051",
"}}.	c #906254",
"|}.	c #926458",
"1}.	c #936559",
"2}.	c #95675A",
"3}.	c #8F6154",
"4}.	c #7B4F3C",
"5}.	c #6D4030",
"6}.	c #7D4F41",
"7}.	c #926457",
"8}.	c #95665C",
"9}.	c #906457",
"0}.	c #8F6454",
"a}.	c #875D4D",
"b}.	c #7D5243",
"c}.	c #744939",
"d}.	c #714637",
"e}.	c #6F4439",
"f}.	c #68443E",
"g}.	c #796367",
"h}.	c #A69AA5",
"i}.	c #C7C0CD",
"j}.	c #CBC6D8",
"k}.	c #C7C7DA",
"l}.	c #C5C8DB",
"m}.	c #C6C6DA",
"n}.	c #C6C4D8",
"o}.	c #C4C1D6",
"p}.	c #C3BFD5",
"q}.	c #B1B0BF",
"r}.	c #7B7B87",
"s}.	c #34343E",
"t}.	c #0A0A16",
"u}.	c #0F101F",
"v}.	c #24273F",
"w}.	c #1D213A",
"x}.	c #252947",
"y}.	c #33375E",
"z}.	c #414568",
"A}.	c #0F181B",
"B}.	c #201A1F",
"C}.	c #9E8C8E",
"D}.	c #D3B4B4",
"E}.	c #DBB7B6",
"F}.	c #E5C3C2",
"G}.	c #D8B3B0",
"H}.	c #CCA29D",
"I}.	c #C99991",
"J}.	c #C9958A",
"K}.	c #BF8D7E",
"L}.	c #B38274",
"M}.	c #AF7E71",
"N}.	c #B6857B",
"O}.	c #BC8B85",
"P}.	c #B4827D",
"Q}.	c #B37E7B",
"R}.	c #AC7573",
"S}.	c #B17877",
"T}.	c #AE7575",
"U}.	c #A9716F",
"V}.	c #A96F6E",
"W}.	c #A66969",
"X}.	c #A86969",
"Y}.	c #A96B6B",
"Z}.	c #A76C6A",
"`}.	c #A56A69",
" |.	c #A66B6A",
".|.	c #9C6160",
"+|.	c #A06760",
"@|.	c #A36A63",
"#|.	c #9F665F",
"$|.	c #9D635A",
"%|.	c #955B4F",
"&|.	c #94594E",
"*|.	c #8D594D",
"=|.	c #825145",
"-|.	c #764B3F",
";|.	c #674236",
">|.	c #5D392C",
",|.	c #59352A",
"'|.	c #6D463D",
")|.	c #8C5F58",
"!|.	c #8B5E56",
"~|.	c #8D6158",
"{|.	c #895C50",
"]|.	c #885A4C",
"^|.	c #8A5C4E",
"/|.	c #8E6052",
"(|.	c #926456",
"_|.	c #98695E",
":|.	c #946559",
"<|.	c #86584B",
"[|.	c #815345",
"}|.	c #784A38",
"||.	c #6E3F2C",
"1|.	c #794D3F",
"2|.	c #82584D",
"3|.	c #8C6358",
"4|.	c #835A4E",
"5|.	c #7E5344",
"6|.	c #734B39",
"7|.	c #6B4635",
"8|.	c #694639",
"9|.	c #6A4942",
"0|.	c #7F6F73",
"a|.	c #ABA2AC",
"b|.	c #C6BDCF",
"c|.	c #C5C1D9",
"d|.	c #C7C4D9",
"e|.	c #C8C6D3",
"f|.	c #C7C7D9",
"g|.	c #C4C6DB",
"h|.	c #C3C4D8",
"i|.	c #C2C1D3",
"j|.	c #BEBCCE",
"k|.	c #A9A6B8",
"l|.	c #6B6A76",
"m|.	c #25252E",
"n|.	c #0C0C1B",
"o|.	c #131424",
"p|.	c #1A2031",
"q|.	c #0F1429",
"r|.	c #171C2F",
"s|.	c #21273D",
"t|.	c #282D48",
"u|.	c #303458",
"v|.	c #12171D",
"w|.	c #18161C",
"x|.	c #423637",
"y|.	c #B8A19D",
"z|.	c #D6B9B6",
"A|.	c #DDBEBE",
"B|.	c #D8B7B4",
"C|.	c #D1ABA5",
"D|.	c #C69A91",
"E|.	c #CA9A8D",
"F|.	c #BD8C7E",
"G|.	c #B28173",
"H|.	c #B9887A",
"I|.	c #BB8B7E",
"J|.	c #B6867C",
"K|.	c #B18079",
"L|.	c #B8857F",
"M|.	c #B07A78",
"N|.	c #B07877",
"O|.	c #AE7676",
"P|.	c #AA7271",
"Q|.	c #A96D6D",
"R|.	c #AB6C6D",
"S|.	c #AA6C6C",
"T|.	c #A66A69",
"U|.	c #A46968",
"V|.	c #A36766",
"W|.	c #A16564",
"X|.	c #9D6160",
"Y|.	c #9B615C",
"Z|.	c #9C635A",
"`|.	c #965D54",
" 1.	c #985F56",
".1.	c #965E52",
"+1.	c #91594B",
"@1.	c #865248",
"#1.	c #7B4F44",
"$1.	c #664036",
"%1.	c #59372D",
"&1.	c #5F3930",
"*1.	c #764F46",
"=1.	c #885D56",
"-1.	c #8B6058",
";1.	c #8C6158",
">1.	c #8E635A",
",1.	c #875C53",
"'1.	c #895C51",
")1.	c #8B5D50",
"!1.	c #916356",
"~1.	c #936558",
"{1.	c #895B4E",
"]1.	c #815447",
"^1.	c #7B4D40",
"/1.	c #724437",
"(1.	c #6D402E",
"_1.	c #794D3B",
":1.	c #875A4C",
"<1.	c #83594C",
"[1.	c #7E5545",
"}1.	c #744D40",
"|1.	c #6A453B",
"11.	c #63453D",
"21.	c #796664",
"31.	c #9C9096",
"41.	c #B9AEBB",
"51.	c #C2BDCE",
"61.	c #C6C5D7",
"71.	c #C7C6D8",
"81.	c #C6C4D9",
"91.	c #C4C2D7",
"01.	c #C2C0D4",
"a1.	c #BCBBCC",
"b1.	c #9C9BAA",
"c1.	c #595865",
"d1.	c #1A1A24",
"e1.	c #0A0916",
"f1.	c #0D0C1A",
"g1.	c #0D0D1E",
"h1.	c #131427",
"i1.	c #171A2C",
"j1.	c #151A2A",
"k1.	c #0E1424",
"l1.	c #151B2A",
"m1.	c #171C30",
"n1.	c #242842",
"o1.	c #2D3051",
"p1.	c #131E1E",
"q1.	c #131E1F",
"r1.	c #111C1C",
"s1.	c #101C1C",
"t1.	c #101B1B",
"u1.	c #12151A",
"v1.	c #13161E",
"w1.	c #18171B",
"x1.	c #B9A8A6",
"y1.	c #D3BBB9",
"z1.	c #D7BAB6",
"A1.	c #D3B2AA",
"B1.	c #D1ABA0",
"C1.	c #CCA293",
"D1.	c #CC9D8E",
"E1.	c #BB8B7D",
"F1.	c #B28379",
"G1.	c #B5847C",
"H1.	c #B98680",
"I1.	c #B6807E",
"J1.	c #B37B7A",
"K1.	c #AD7575",
"L1.	c #AB7372",
"M1.	c #AD7171",
"N1.	c #A46768",
"O1.	c #A26665",
"P1.	c #A06463",
"Q1.	c #9E6261",
"R1.	c #9C605F",
"S1.	c #9E635F",
"T1.	c #996057",
"U1.	c #955C53",
"V1.	c #925950",
"W1.	c #8C574C",
"X1.	c #895649",
"Y1.	c #8C584D",
"Z1.	c #87544B",
"`1.	c #7C4E45",
" 2.	c #674137",
".2.	c #563429",
"+2.	c #57352B",
"@2.	c #58332A",
"#2.	c #653F36",
"$2.	c #815951",
"%2.	c #8A6058",
"&2.	c #8D625A",
"*2.	c #8F645B",
"=2.	c #8B6057",
"-2.	c #80554C",
";2.	c #8C5F54",
">2.	c #8D5F52",
",2.	c #8E6053",
"'2.	c #885D4F",
")2.	c #82584A",
"!2.	c #7B5244",
"~2.	c #774D3F",
"{2.	c #6C4335",
"]2.	c #6B4234",
"^2.	c #724B3C",
"/2.	c #805949",
"(2.	c #835748",
"_2.	c #7C4E41",
":2.	c #754D41",
"<2.	c #69493E",
"[2.	c #644C4B",
"}2.	c #897880",
"|2.	c #B0A3B0",
"12.	c #C1B9CB",
"22.	c #C0BED4",
"32.	c #BDC0D7",
"42.	c #C0C1D5",
"52.	c #C3C2D4",
"62.	c #C5C4D6",
"72.	c #C3C1D6",
"82.	c #C1BFD4",
"92.	c #BAB9CC",
"02.	c #9493A3",
"a2.	c #4A4957",
"b2.	c #13121F",
"c2.	c #0D0C1C",
"d2.	c #0F0F20",
"e2.	c #131428",
"f2.	c #15162A",
"g2.	c #181A2D",
"h2.	c #0C1222",
"i2.	c #101626",
"j2.	c #1A2030",
"k2.	c #1D2235",
"l2.	c #1C2135",
"m2.	c #22273D",
"n2.	c #111F1F",
"o2.	c #101E1E",
"p2.	c #101D1D",
"q2.	c #101B1C",
"r2.	c #111519",
"s2.	c #534848",
"t2.	c #C3A8A9",
"u2.	c #CFAFAD",
"v2.	c #D0ABA5",
"w2.	c #CDA299",
"x2.	c #C6978A",
"y2.	c #BA897B",
"z2.	c #B48376",
"A2.	c #B8877A",
"B2.	c #B7867A",
"C2.	c #B28278",
"D2.	c #B3807A",
"E2.	c #B07A77",
"F2.	c #AE7675",
"G2.	c #AA7171",
"H2.	c #AD7574",
"I2.	c #AC7271",
"J2.	c #A76B6B",
"K2.	c #A06364",
"L2.	c #A8696A",
"M2.	c #A26565",
"N2.	c #985D5C",
"O2.	c #945958",
"P2.	c #9A5F5D",
"Q2.	c #9A5E5D",
"R2.	c #995D5C",
"S2.	c #945B56",
"T2.	c #955D53",
"U2.	c #90584F",
"V2.	c #8F574E",
"W2.	c #8E564D",
"X2.	c #835046",
"Y2.	c #7C4F44",
"Z2.	c #55342A",
"`2.	c #54342A",
" 3.	c #5B392F",
".3.	c #885F57",
"+3.	c #8F635C",
"@3.	c #8C6159",
"#3.	c #855A51",
"$3.	c #875C54",
"%3.	c #82584F",
"&3.	c #875A4F",
"*3.	c #8A5C50",
"=3.	c #8C5F52",
"-3.	c #8A5D51",
";3.	c #896052",
">3.	c #775142",
",3.	c #663F30",
"'3.	c #664031",
")3.	c #6A4334",
"!3.	c #704B3C",
"~3.	c #744E3F",
"{3.	c #744B41",
"]3.	c #6F4E4B",
"^3.	c #806F75",
"/3.	c #9D97A2",
"(3.	c #B7B4C1",
"_3.	c #C1BCCE",
":3.	c #C3BED6",
"<3.	c #C2BDD8",
"[3.	c #C3BFD6",
"}3.	c #C3C1D4",
"|3.	c #C4C2D5",
"13.	c #C4C3D6",
"23.	c #C1BFD2",
"33.	c #BEBCD1",
"43.	c #B4B3C7",
"53.	c #828193",
"63.	c #363544",
"73.	c #0D0C1D",
"83.	c #100F21",
"93.	c #111125",
"03.	c #141529",
"a3.	c #090F1F",
"b3.	c #131929",
"c3.	c #191F30",
"d3.	c #1C2234",
"e3.	c #1B2132",
"f3.	c #1B2130",
"g3.	c #131F1F",
"h3.	c #0F1B1B",
"i3.	c #B49C9D",
"j3.	c #C8A2A0",
"k3.	c #BF8F89",
"l3.	c #B07F73",
"m3.	c #AE7D70",
"n3.	c #A6766A",
"o3.	c #AA796E",
"p3.	c #AE7D72",
"q3.	c #A9786D",
"r3.	c #AC796F",
"s3.	c #A9746D",
"t3.	c #AA736E",
"u3.	c #A56A6A",
"v3.	c #A26868",
"w3.	c #A06867",
"x3.	c #A16967",
"y3.	c #9D6564",
"z3.	c #8C5753",
"A3.	c #905B57",
"B3.	c #945F5B",
"C3.	c #905C55",
"D3.	c #855348",
"E3.	c #855448",
"F3.	c #88564B",
"G3.	c #865449",
"H3.	c #835146",
"I3.	c #7F5149",
"J3.	c #754C46",
"K3.	c #663F38",
"L3.	c #57332B",
"M3.	c #54332A",
"N3.	c #54352B",
"O3.	c #5F3E34",
"P3.	c #765248",
"Q3.	c #8A625A",
"R3.	c #92655E",
"S3.	c #92615C",
"T3.	c #895C56",
"U3.	c #835B53",
"V3.	c #875F57",
"W3.	c #886058",
"X3.	c #865E56",
"Y3.	c #865A53",
"Z3.	c #7F554E",
"`3.	c #7D564D",
" 4.	c #775047",
".4.	c #714E40",
"+4.	c #6B4A3A",
"@4.	c #5F3C2D",
"#4.	c #593427",
"$4.	c #613C2F",
"%4.	c #6B4438",
"&4.	c #6C453A",
"*4.	c #765B5A",
"=4.	c #988B95",
"-4.	c #AFACBF",
";4.	c #BABBD0",
">4.	c #C0BED1",
",4.	c #BFBCD0",
"'4.	c #C2BFD4",
")4.	c #C3C0D5",
"!4.	c #C2C0D6",
"~4.	c #C2C0D5",
"{4.	c #C1BFD5",
"]4.	c #BDBBD1",
"^4.	c #AFAEC2",
"/4.	c #757484",
"(4.	c #2C2B3B",
"_4.	c #0E0D1F",
":4.	c #0D0C1E",
"<4.	c #0F0E20",
"[4.	c #121123",
"}4.	c #151729",
"|4.	c #0B111E",
"14.	c #131928",
"24.	c #1A1F30",
"34.	c #1C2232",
"44.	c #101619",
"54.	c #141519",
"64.	c #131519",
"74.	c #161819",
"84.	c #4C4444",
"94.	c #A99290",
"04.	c #B48F8A",
"a4.	c #AD7C76",
"b4.	c #A5726A",
"c4.	c #9C6E64",
"d4.	c #97695F",
"e4.	c #9E7065",
"f4.	c #A07268",
"g4.	c #A2746B",
"h4.	c #9D6F66",
"i4.	c #9A6A64",
"j4.	c #9B6965",
"k4.	c #9A6665",
"l4.	c #996364",
"m4.	c #9A6565",
"n4.	c #905E5A",
"o4.	c #8A5855",
"p4.	c #905D5A",
"q4.	c #8D5B57",
"r4.	c #895753",
"s4.	c #875550",
"t4.	c #84554E",
"u4.	c #81554B",
"v4.	c #82564C",
"w4.	c #82564B",
"x4.	c #7B4F45",
"y4.	c #6B4239",
"z4.	c #5A362E",
"A4.	c #5A362D",
"B4.	c #5B372F",
"C4.	c #5A372F",
"D4.	c #67433A",
"E4.	c #734E45",
"F4.	c #815A52",
"G4.	c #8C625B",
"H4.	c #8C6059",
"I4.	c #8C5F59",
"J4.	c #805850",
"K4.	c #7D534C",
"L4.	c #7C534B",
"M4.	c #775148",
"N4.	c #6F4B42",
"O4.	c #684437",
"P4.	c #5E3A2B",
"Q4.	c #5D3B30",
"R4.	c #60403A",
"S4.	c #644745",
"T4.	c #846D6F",
"U4.	c #A799A3",
"V4.	c #B9B4C4",
"W4.	c #BDBCD0",
"X4.	c #BBBDD3",
"Y4.	c #BFC0D5",
"Z4.	c #C2BFD2",
"`4.	c #C3C0D3",
" 5.	c #C2BFD5",
".5.	c #BFBDD3",
"+5.	c #BCBAD0",
"@5.	c #AFADC2",
"#5.	c #6F6D80",
"$5.	c #20202F",
"%5.	c #141324",
"&5.	c #141427",
"*5.	c #121327",
"=5.	c #121326",
"-5.	c #0C121F",
";5.	c #131828",
">5.	c #1A1F31",
",5.	c #121A1C",
"'5.	c #11171A",
")5.	c #121418",
"!5.	c #36302F",
"~5.	c #826F6B",
"{5.	c #A5847F",
"]5.	c #9D726D",
"^5.	c #926760",
"/5.	c #90645E",
"(5.	c #8D615A",
"_5.	c #8A5E58",
":5.	c #885E57",
"<5.	c #89615A",
"[5.	c #8B615C",
"}5.	c #895E5B",
"|5.	c #895B5B",
"15.	c #8B5C5E",
"25.	c #8B5C5C",
"35.	c #885C57",
"45.	c #885C56",
"55.	c #845852",
"65.	c #825651",
"75.	c #865953",
"85.	c #875953",
"95.	c #865752",
"05.	c #82544E",
"a5.	c #825851",
"b5.	c #7F5950",
"c5.	c #7B554C",
"d5.	c #643E36",
"e5.	c #5C362D",
"f5.	c #5B382F",
"g5.	c #5E3E35",
"h5.	c #603F36",
"i5.	c #5C3930",
"j5.	c #5C362E",
"k5.	c #805750",
"l5.	c #8F665E",
"m5.	c #8B635B",
"n5.	c #896058",
"o5.	c #795249",
"p5.	c #714A42",
"q5.	c #704C43",
"r5.	c #704E44",
"s5.	c #68483E",
"t5.	c #5B3B32",
"u5.	c #5F423C",
"v5.	c #6E5859",
"w5.	c #91828C",
"x5.	c #B0A7B7",
"y5.	c #BEB9CE",
"z5.	c #BEBCD2",
"A5.	c #C0C0D5",
"B5.	c #C2C2D6",
"C5.	c #C3C2D6",
"D5.	c #C4C2D6",
"E5.	c #C5C2D7",
"F5.	c #B0AEC4",
"G5.	c #716F84",
"H5.	c #252335",
"I5.	c #0E0F21",
"J5.	c #111022",
"K5.	c #141325",
"L5.	c #141428",
"M5.	c #16172B",
"N5.	c #111224",
"O5.	c #0D131F",
"P5.	c #141A29",
"Q5.	c #191E31",
"R5.	c #1E2434",
"S5.	c #131F1D",
"T5.	c #76615B",
"U5.	c #88675F",
"V5.	c #89665E",
"W5.	c #7E554F",
"X5.	c #835752",
"Y5.	c #7D5451",
"Z5.	c #785552",
"`5.	c #76534F",
" 6.	c #76514D",
".6.	c #795450",
"+6.	c #7E5854",
"@6.	c #825A55",
"#6.	c #815853",
"$6.	c #835954",
"%6.	c #825853",
"&6.	c #835953",
"*6.	c #835952",
"=6.	c #835852",
"-6.	c #815650",
";6.	c #704841",
">6.	c #644038",
",6.	c #5C372F",
"'6.	c #5D3830",
")6.	c #613C34",
"!6.	c #643F37",
"~6.	c #623E35",
"{6.	c #684039",
"]6.	c #865B55",
"^6.	c #8A6159",
"/6.	c #8B625A",
"(6.	c #855D55",
"_6.	c #845D54",
":6.	c #805950",
"<6.	c #7D554E",
"[6.	c #7E564F",
"}6.	c #79544B",
"|6.	c #745047",
"16.	c #735048",
"26.	c #6E4C43",
"36.	c #755246",
"46.	c #684840",
"56.	c #5D4441",
"66.	c #746770",
"76.	c #9B94A3",
"86.	c #B7B0C0",
"96.	c #BFBACD",
"06.	c #C3C0D6",
"a6.	c #C5C4DC",
"b6.	c #C8C6DB",
"c6.	c #CAC7DC",
"d6.	c #CAC7DA",
"e6.	c #CAC6DA",
"f6.	c #C9C6DA",
"g6.	c #C6C3D9",
"h6.	c #C5C2D8",
"i6.	c #C4C2D8",
"j6.	c #C3C0D8",
"k6.	c #C2BFD8",
"l6.	c #C0BED5",
"m6.	c #A8A6BA",
"n6.	c #605F70",
"o6.	c #1D1D2E",
"p6.	c #0D0D20",
"q6.	c #0F0F23",
"r6.	c #101124",
"s6.	c #141527",
"t6.	c #16172A",
"u6.	c #0D101D",
"v6.	c #141A2A",
"w6.	c #171D2E",
"x6.	c #181F2F",
"y6.	c #1B2232",
"z6.	c #1D2434",
"A6.	c #121E1C",
"B6.	c #101518",
"C6.	c #2E2726",
"D6.	c #514240",
"E6.	c #65514F",
"F6.	c #745A58",
"G6.	c #785855",
"H6.	c #74514D",
"I6.	c #724E4A",
"J6.	c #6D4A47",
"K6.	c #714F4C",
"L6.	c #73514F",
"M6.	c #704F4E",
"N6.	c #785654",
"O6.	c #7F5D59",
"P6.	c #7E5C58",
"Q6.	c #815F59",
"R6.	c #7E5C54",
"S6.	c #75534B",
"T6.	c #6B4A42",
"U6.	c #5C3B32",
"V6.	c #57352C",
"W6.	c #59362D",
"X6.	c #5D3931",
"Y6.	c #654038",
"Z6.	c #69443C",
"`6.	c #6B463E",
" 7.	c #774E46",
".7.	c #81564F",
"+7.	c #865F57",
"@7.	c #896159",
"#7.	c #7F5751",
"$7.	c #77514A",
"%7.	c #714E45",
"&7.	c #704E45",
"*7.	c #6E4D44",
"=7.	c #725147",
"-7.	c #735149",
";7.	c #71514B",
">7.	c #674D4B",
",7.	c #82737A",
"'7.	c #A69DA8",
")7.	c #BAB5C7",
"!7.	c #CFCCE1",
"~7.	c #D0CDE2",
"{7.	c #D1CEE3",
"]7.	c #CECBE0",
"^7.	c #C9C6DB",
"/7.	c #C8C5DA",
"(7.	c #C6C4DA",
"_7.	c #BDBAD2",
":7.	c #9C99B0",
"<7.	c #676575",
"[7.	c #1F1E2F",
"}7.	c #0D0E20",
"|7.	c #0E0E20",
"17.	c #0F0E21",
"27.	c #0E0F23",
"37.	c #101125",
"47.	c #191A2C",
"57.	c #090D19",
"67.	c #171D2D",
"77.	c #171E2E",
"87.	c #1A2131",
"97.	c #1C2333",
"07.	c #211D1E",
"a7.	c #382E2C",
"b7.	c #483A36",
"c7.	c #4F3C38",
"d7.	c #57413E",
"e7.	c #6E5653",
"f7.	c #7E6360",
"g7.	c #7A5A58",
"h7.	c #7C5D58",
"i7.	c #7D5F57",
"j7.	c #7B5E55",
"k7.	c #795D54",
"l7.	c #70544C",
"m7.	c #6B4F47",
"n7.	c #62453C",
"o7.	c #583B31",
"p7.	c #56392F",
"q7.	c #583C31",
"r7.	c #593C32",
"s7.	c #5A3A31",
"t7.	c #5E3931",
"u7.	c #633E36",
"v7.	c #664139",
"w7.	c #68433B",
"x7.	c #7D574E",
"y7.	c #855C54",
"z7.	c #895E57",
"A7.	c #875A54",
"B7.	c #7E554E",
"C7.	c #79524B",
"D7.	c #714F46",
"E7.	c #725148",
"F7.	c #745651",
"G7.	c #6C5356",
"H7.	c #8B7C86",
"I7.	c #B1A8B7",
"J7.	c #C5C1D3",
"K7.	c #D4D1E7",
"L7.	c #D5D2E7",
"M7.	c #D3D0E5",
"N7.	c #D2CFE4",
"O7.	c #CCC9DE",
"P7.	c #C5C3D9",
"Q7.	c #A7A5B8",
"R7.	c #7B7989",
"S7.	c #373642",
"T7.	c #0D0B20",
"U7.	c #0F0D22",
"V7.	c #100E23",
"W7.	c #0D0D1F",
"X7.	c #131526",
"Y7.	c #17182B",
"Z7.	c #0A0D1A",
"`7.	c #121727",
" 8.	c #151B2B",
".8.	c #191F2F",
"+8.	c #3C3532",
"@8.	c #AEA09B",
"#8.	c #AC968F",
"$8.	c #987C70",
"%8.	c #8D6D5D",
"&8.	c #805F4F",
"*8.	c #6F4D3D",
"=8.	c #603E2E",
"-8.	c #5B3A2A",
";8.	c #5D3C2E",
">8.	c #5B392D",
",8.	c #58352A",
"'8.	c #5D3A30",
")8.	c #644137",
"!8.	c #654138",
"~8.	c #6F4941",
"{8.	c #7C564D",
"]8.	c #866057",
"^8.	c #855B54",
"/8.	c #885A54",
"(8.	c #83574F",
"_8.	c #7F554D",
":8.	c #7F574F",
"<8.	c #805951",
"[8.	c #7B544D",
"}8.	c #7C554E",
"|8.	c #7B554F",
"18.	c #76504A",
"28.	c #7E554C",
"38.	c #7C554C",
"48.	c #795852",
"58.	c #786063",
"68.	c #9E909C",
"78.	c #C3B9CA",
"88.	c #D1CDE1",
"98.	c #D5D4EC",
"08.	c #D8D6ED",
"a8.	c #D8D3E9",
"b8.	c #D8D4E9",
"c8.	c #D6D3E8",
"d8.	c #BEBCD0",
"e8.	c #A2A1B4",
"f8.	c #797887",
"g8.	c #3F3E4B",
"h8.	c #111121",
"i8.	c #0B0A1B",
"j8.	c #0C0B1D",
"k8.	c #0F0D21",
"l8.	c #100E22",
"m8.	c #0F0F21",
"n8.	c #0F0F22",
"o8.	c #101024",
"p8.	c #121227",
"q8.	c #151429",
"r8.	c #16162A",
"s8.	c #0C0E1E",
"t8.	c #0E111E",
"u8.	c #161C2C",
"v8.	c #111F1C",
"w8.	c #121F1D",
"x8.	c #111D1B",
"y8.	c #131C1D",
"z8.	c #242628",
"A8.	c #848485",
"B8.	c #ACAAAA",
"C8.	c #A29793",
"D8.	c #A38C81",
"E8.	c #A18176",
"F8.	c #946E62",
"G8.	c #724E3B",
"H8.	c #6B4834",
"I8.	c #684330",
"J8.	c #674231",
"K8.	c #674233",
"L8.	c #684235",
"M8.	c #6B463C",
"N8.	c #6D4B41",
"O8.	c #8B5F59",
"P8.	c #875852",
"Q8.	c #895A54",
"R8.	c #885A52",
"S8.	c #84594F",
"T8.	c #7F554B",
"U8.	c #80554B",
"V8.	c #80574F",
"W8.	c #7D564F",
"X8.	c #7B544E",
"Y8.	c #86696D",
"Z8.	c #B4A3B0",
"`8.	c #D1C9E0",
" 9.	c #D6D2EA",
".9.	c #D8D5EA",
"+9.	c #DAD7EC",
"@9.	c #D9D6EB",
"#9.	c #D7D4E9",
"$9.	c #D4D1E6",
"%9.	c #C8C5D9",
"&9.	c #B4B1C5",
"*9.	c #9693A4",
"=9.	c #6C6A78",
"-9.	c #302F3C",
";9.	c #0C0A1F",
">9.	c #0D0B1F",
",9.	c #0B0A19",
"'9.	c #0B0A1A",
")9.	c #121023",
"!9.	c #0F0C20",
"~9.	c #0A0815",
"{9.	c #050812",
"]9.	c #111524",
"^9.	c #181E2E",
"/9.	c #1B2131",
"(9.	c #1D2333",
"_9.	c #212737",
":9.	c #1B1D1F",
"<9.	c #3A3434",
"[9.	c #8D6A5F",
"}9.	c #916B59",
"|9.	c #8D6754",
"19.	c #845F4D",
"29.	c #7F5A49",
"39.	c #815B4D",
"49.	c #815C4F",
"59.	c #7C564B",
"69.	c #815D51",
"79.	c #826053",
"89.	c #856154",
"99.	c #835D51",
"09.	c #835C50",
"a9.	c #845A4F",
"b9.	c #896156",
"c9.	c #896155",
"d9.	c #8B6055",
"e9.	c #8B5D54",
"f9.	c #895D55",
"g9.	c #855648",
"h9.	c #845140",
"i9.	c #814F3F",
"j9.	c #784A3D",
"k9.	c #6E4338",
"l9.	c #7F6363",
"m9.	c #B6A8B4",
"n9.	c #D2CDE4",
"o9.	c #D6D3ED",
"p9.	c #DDD3EA",
"q9.	c #DDD5EA",
"r9.	c #CAC7DD",
"s9.	c #C7C4DB",
"t9.	c #ACAAC1",
"u9.	c #4E4C5C",
"v9.	c #181728",
"w9.	c #0A0918",
"x9.	c #100E21",
"y9.	c #050508",
"z9.	c #050509",
"A9.	c #0F111E",
"B9.	c #131728",
"C9.	c #1F2535",
"D9.	c #222838",
"E9.	c #141A1A",
"F9.	c #141B1B",
"G9.	c #111E1C",
"H9.	c #242021",
"I9.	c #564137",
"J9.	c #6A4F42",
"K9.	c #715347",
"L9.	c #7D5A4F",
"M9.	c #805C51",
"N9.	c #856453",
"O9.	c #856150",
"P9.	c #866151",
"Q9.	c #8C6456",
"R9.	c #8D6657",
"S9.	c #8D6556",
"T9.	c #8C6153",
"U9.	c #895C4F",
"V9.	c #8A5C4F",
"W9.	c #825448",
"X9.	c #835040",
"Y9.	c #7F4D3D",
"Z9.	c #714841",
"`9.	c #846D71",
" 0.	c #B5AAB8",
".0.	c #D2CCDF",
"+0.	c #D9D4E9",
"@0.	c #D8D2E9",
"#0.	c #DAD4EB",
"$0.	c #DDD5ED",
"%0.	c #DBD5EC",
"&0.	c #D7D4E8",
"*0.	c #D5D3E7",
"=0.	c #C1BFD7",
"-0.	c #B4B2CA",
";0.	c #5D5B70",
">0.	c #0F0D23",
",0.	c #0D0C1B",
"'0.	c #0E0C20",
")0.	c #070714",
"!0.	c #020207",
"~0.	c #050409",
"{0.	c #0F0D1D",
"]0.	c #131528",
"^0.	c #161A28",
"/0.	c #141919",
"(0.	c #161A1C",
"_0.	c #2A2526",
":0.	c #BCB9BB",
"<0.	c #DCD8DA",
"[0.	c #C8BABB",
"}0.	c #B9A3A2",
"|0.	c #AB8D85",
"10.	c #A98A85",
"20.	c #A3837B",
"30.	c #987366",
"40.	c #966F61",
"50.	c #986E5F",
"60.	c #926656",
"70.	c #90614F",
"80.	c #92604D",
"90.	c #8D5C4A",
"00.	c #815950",
"a0.	c #947C7F",
"b0.	c #BFB0BB",
"c0.	c #D9CFDE",
"d0.	c #DDD8EB",
"e0.	c #DEDCEE",
"f0.	c #E1DEEF",
"g0.	c #E3E0EF",
"h0.	c #E4E1F0",
"i0.	c #E4E2F1",
"j0.	c #E3E1F0",
"k0.	c #DFDDED",
"l0.	c #D9D6E9",
"m0.	c #D0CEE3",
"n0.	c #CECCE1",
"o0.	c #CBC9DE",
"p0.	c #C7C3DA",
"q0.	c #8C8A9F",
"r0.	c #1F1D31",
"s0.	c #0E0C21",
"t0.	c #0D0C1F",
"u0.	c #0C0B1C",
"v0.	c #0C0B1A",
"w0.	c #0E0C1E",
"x0.	c #07050D",
"y0.	c #030207",
"z0.	c #060509",
"A0.	c #0C0F1B",
"B0.	c #0F1425",
"C0.	c #131829",
"D0.	c #202636",
"E0.	c #232939",
"F0.	c #242A3A",
"G0.	c #151718",
"H0.	c #131919",
"I0.	c #101A1B",
"J0.	c #171B1E",
"K0.	c #858488",
"L0.	c #F2F0F4",
"M0.	c #E8E6E8",
"N0.	c #D8CDCF",
"O0.	c #D1BEC0",
"P0.	c #CDB5B3",
"Q0.	c #D4C1C1",
"R0.	c #D1BBBA",
"S0.	c #CDB1A8",
"T0.	c #A78274",
"U0.	c #9D7462",
"V0.	c #986F5D",
"W0.	c #976E5C",
"X0.	c #956D5B",
"Y0.	c #956C5C",
"Z0.	c #996D5C",
"`0.	c #8E604F",
" a.	c #A98F8F",
".a.	c #D7CAD7",
"+a.	c #DAD7ED",
"@a.	c #DBD8ED",
"#a.	c #CCCADF",
"$a.	c #CAC8DD",
"%a.	c #C8C5DB",
"&a.	c #C5C1D8",
"*a.	c #C2BED5",
"=a.	c #ACAAC0",
"-a.	c #484659",
";a.	c #0D0B21",
">a.	c #0F0E23",
",a.	c #0F0E1F",
"'a.	c #0A0A14",
")a.	c #030407",
"!a.	c #020404",
"~a.	c #07070F",
"{a.	c #0F0F1E",
"]a.	c #101324",
"^a.	c #121828",
"/a.	c #262C3C",
"(a.	c #0F1C1C",
"_a.	c #0E1C1C",
":a.	c #0E1D1C",
"<a.	c #121317",
"[a.	c #E0E1E4",
"}a.	c #EEECF1",
"|a.	c #D9D4D4",
"1a.	c #D6C9C9",
"2a.	c #C8B2B2",
"3a.	c #D8C4C5",
"4a.	c #D2C3C2",
"5a.	c #CFBBB8",
"6a.	c #D0B3B0",
"7a.	c #CAAEA6",
"8a.	c #B7968A",
"9a.	c #AA8473",
"0a.	c #A27663",
"aa.	c #9F735F",
"ba.	c #9B6F5B",
"ca.	c #9E715F",
"da.	c #A2725E",
"ea.	c #9B7467",
"fa.	c #BBABB1",
"ga.	c #DBD4E2",
"ha.	c #DAD8EE",
"ia.	c #DBD6EB",
"ja.	c #CDCBE0",
"ka.	c #C7C4DA",
"la.	c #BDB9D0",
"ma.	c #78768A",
"na.	c #131126",
"oa.	c #0C0B1E",
"pa.	c #0D0E1E",
"qa.	c #080812",
"ra.	c #020307",
"sa.	c #020405",
"ta.	c #0C0F1C",
"ua.	c #111324",
"va.	c #121628",
"wa.	c #252B3A",
"xa.	c #272D3D",
"   .  +  @  @  #  $  $  $  $  $  %  &  @  *  *  *  *  *  *  *  *  *  *  *  *  *  *  *  &  %  %  %  %  %  %  %  %  %  %  *  *  *  *  *  =  -  ;  *  *  %  %  %  >  ,  ,  '  )  !  ~  ,  {  ~  %  %  %  ]  ^  /  (  _  :  :  :  <  [  }  |  1  2  3  4  5  6  7  8  9  0  a  b  c  d  b  e  f  $  $  $  $  $  $  g  h  i  i  i  i  i  i  i  i  i  i  i  i  i  j  j  k  k  k  l  m  m  m  n  n  n  ",
".  o  p  @  @  @  %  %  %  %  %  %  &  *  *  *  *  *  *  *  *  *  *  *  *  *  *  *  *  &  %  %  %  %  %  %  %  %  %  %  *  *  *  *  *  =  q  r  =  s  t  u  v  w  x  x  )  y  z  A  B  A  C  D  ]  E  %  F  g  h  ,  ,  {  G  H  I  J  K  L  M  N  O  P  Q  R  S  T  T  U  V  W  X  Y  Z  {  $  $  $  $  $  $  g  h  h  h  h  h  h  i  i  i  i  i  i  i  i  i  i  j  k  k  k  k  k  k  n  n  n  ",
".  .  `  *  *  &  &  &  &  &  &  &  *  *  *  *  *  *  *  *  *  *  *  *  *  *  *  *  *  *  &  &  &  %  %  %  &  &  &  &  *  *  =  =  ;   . .. +. @. #. $. %. &. *. =. -. ;. >. ,. '. -. ). !. ~. =. {. ]. ^. /. (. _. :. <. [. }. |. 1. 2. 3. 4. 5. 6. 7. 8. 9. 0. a. b. c. d. e. f. g. h. i. j. *  k. l. l. l. g  h  h  h  h  h  h  h  h  h  i  i  i  i  i  i  i  j  j  j  j  k  k  k  m. m. m. ",
"*  *  *  *  *  *  *  *  *  *  *  *  *  *  *  *  *  *  *  *  *  *  *  *  *  *  *  *  *  *  *  *  *  %  %  %  &  *  *  *  =  n. o. p. q. r. ]. s. t. u. v. G  w. x. y. z. A. B. x. <  C. D. H  E. F. F. G. H. I. J. K. L. M. N. O. P. Q. R. S. T. U. V. W. X. Y. Z. `.  + .+ ++ @+ #+ $+ %+ &+ *+ =+ -+ ;+ 8  $  g  h  h  h  h  h  h  h  h  h  h  i  i  i  i  i  i  i  i  i  i  k  k  k  k  k  k  ",
"*  *  *  *  *  *  *  *  *  *  *  *  *  *  *  *  *  *  *  =  =  *  *  *  *  *  *  *  *  *  =  =  =  E  E  E  *  =  >+ ,+ '+ )+ !+ ~+ {+ ]+ ^+ /+ (+ _+ :+ <+ [+ }+ |+ 1+ 2+ 3+ 4+ 5+ 6+ 7+ 8+ 9+ 0+ a+ b+ c+ d+ e+ f+ g+ h+ i+ j+ k+ l+ m+ n+ o+ p+ q+ r+ s+ t+ u+ v+ w+ x+ y+ z+ A+ B+ B+ C+ D+ E+ F+ G+ H+ I+ J+ K+ h  h  h  h  h  h  h  h  h  h  i  i  i  i  i  i  i  i  i  i  i  i  k  k  k  ",
"*  *  *  *  *  *  *  *  *  *  *  *  *  *  *  *  *  *  *  =  =  *  *  *  *  *  *  *  *  =  =  =  =  E  L+ M+ N+ O+ P+ Q+ R+ S+ T+ U+ V+ W+ X+ Y+ Z+ `+  @ .@ +@ @@ #@ #@ $@ %@ &@ %@ *@ =@ -@ ;@ >@ ,@ '@ )@ !@ ~@ {@ ]@ ^@ /@ (@ _@ :@ <@ [@ }@ |@ 1@ 2@ 3@ 4@ 5@ 6@ 7@ 8@ 9@ 0@ a@ b@ c@ d@ e@ f@ g@ h@ i@ i@ j@ k@ l@ m@ n@ h  h  h  h  h  h  h  o@ i  i  i  i  i  i  i  i  i  i  i  j  k  k  ",
"*  *  *  *  *  *  *  *  *  *  *  *  *  *  *  *  *  *  *  *  *  *  *  =  =  =  =  =  =  =  =  =  p@ q@ r@ s@ t@ u@ v@ w@ x@ y@ x@ z@ A@ B@ C@ D@ E@ F@ G@ H@ I@ J@ K@ L@ M@ N@ O@ P@ Q@ R@ S@ T@ U@ V@ W@ X@ Y@ Z@ `@  # .# +# @# (@ ## $# %# &# *# =# -# ;# ># ,# '# )# !# ~# {# ]# ^# /# f@ (# f@ f@ _# :# <# [# }# |# 1# 2# 3# 4# h  h  h  g  $  $  $  h  h  i  i  i  i  i  i  i  i  i  i  k  ",
"*  *  *  *  *  *  *  *  *  *  *  *  *  *  *  *  *  *  *  *  *  *  =  =  =  =  =  =  =  5# 6# 7# 8# 9# 0# a# b# c# d# e# f# g# h# i# j# k# l# m# n# o# p# q# r# s# t# u# v# w# x# y# z# A# B# C# D# E# F# G# H# I# J# K# L# I# M# N# O# P# Q# R# D+ S# T# ,# U# V# W# X# Y# Z# `#  $ .$ +$ @$ #$ $$ %$ &$ *$ |# =$ =$ -$ <# ;$ >$ ,$ '$ )$ d  g  $  $  $  h  h  i  i  i  i  i  i  i  i  i  i  k  ",
"*  *  =  =  =  =  =  =  =  =  =  *  *  =  *  *  =  =  =  =  =  =  =  =  =  =  =  !$ ~$ {$ ]$ ^$ /$ ($ _$ :$ <$ [$ }$ |$ |$ 1$ 2$ 3$ 4$ 5$ Y@ 6$ 7$ 8$ 9$ 0$ a$ b$ c$ d$ e$ f$ e$ c$ c$ g$ h$ i$ j$ k$ l$ m$ n$ o$ p$ q$ r$ s$ t$ u$ v$ w$ x$ y$ z$ A$ U# B$ C$ D$ E$ F$ F$ F$ G$ H$ I$ J$ K$ L$ M$ J$ N$ O$ P$ Q$ R$ |# S$ T$ U$ V$ W$ X$ Y$ Z$ `$ $  $  h  h  h  h  h  i  i  i  i  i  i  i  k  ",
"*  =  =  =  =  =  =  =  =  =  =  =  =  =  =  =  =  =  =  =  =  =  =  =  =   % .% +% @% #% $% %% &% *% =% -% ;% >% ,% '% )% !% ~% !% {% ]% ^% /% (% _% :% <% [% }% |% 1% 2% 3% 4% 5% 6% 7% 8% e$ 9% 0% a% b% c% d% e% f% g% h% i% j% k% l% _# &$ m% n% o% p% q% o% r% s% t% u% v% w% x% y% z% A% B% C% D% E% F% G% E% H% I% J% K% L% M% N% O% P% Q% R% S% h  h  h  h  h  h  h  h  i  i  i  i  i  ",
"*  =  =  =  =  =  =  =  =  =  =  =  =  =  =  =  =  =  =  =  =  =  =  T% y. U% V% W% X% Y% Z% `%  & .& +& @& #& $& %& && *& =& -& ;& >& ,& '& )& !& ~& {& ]& ^& /& (& _& :& <& [& }& |& 1& 2& 3& 4& 5& n$ 6& 7& 8& 9& 0& a& b& c& d& e& f& g& h& i& j& k& l& m& m& n& o& p& q& r& s& p& @$ t& u& u& O$ v& w& x& x& y& z& A& B& C& D& E& F& G& H& I& J& K& L& M& h  h  h  h  h  h  i  i  i  i  i  ",
"*  =  *  *  =  =  =  =  =  =  =  =  =  =  =  =  =  =  =  =  =  =  N& O& P& Q& R& S& T& U& V& W& X& Y& Z& `&  * .* +* @* #* H# $* %* &* ** =* -* ;* >* ,* '* )* !* ~* {* ]* ^* /* (* _* :* <* [* }* |* 1* 2* 3* 4* 5* 6* 7* 8* 9* 0* a* b* c* d* e* f* g* h* p% q% i* j* k* l* m* n* o* p* q* r* s* t* u* v* w* x* E% E% y* z* z* A* B* C* F& D* E* F* G* H* I* J* d  h  h  h  h  h  h  i  i  i  ",
"=  =  =  *  =  =  =  =  =  =  =  =  =  =  =  =  =  =  =  =  ;. K* L* M* N* O* P* Q* R* S* T* U* V* W* X* Y* Z* `*  = .= += @= #= $= %= s$ &= *= == -= ;= >= ,= '= )= != ~= {= ]= ^= /= (= _= := <= [= }= |= 1= 2= 3= 4= 5= 6= 7= 8= 9= 0= a= b= c= d= e= f= g= h= i= j= k= l= m= n= o= p= q= r= s= t= u= v= w= x= y= z= A= B= C= D= E= F= G= H= I= J= K= L= M= N= O= P= h  h  h  h  h  i  i  i  ",
"=  =  =  =  =  =  =  =  =  =  =  =  =  =  =  =  =  =  =  Q= R= S= T= U= V= W= X= Y= Z= `=  - .- +- @- #- $- %- &- *- =- -- ;- >- ,- '- )- !- ~- {- ]- ^- /- (- _- :- <- [- }- |- 1- 2- 3- 4- 5- 6- 7- 8- 9- 0- a- b- c- d- e- f- g- h- i- j- k- l- m- n- o- p- q- r- s- t- u- v- v- w- x- y- z- A- B- C- D- E- F- G- H- I- J- K- L- M- N- O- P- Q- R- S- T- U- V- W- X- Y- Z- h  h  h  i  i  i  ",
"=  =  =  =  =  =  =  =  =  =  =  =  =  =  =  =  =  `-  ; .; +; @; #; $; %; &; *; =; -; ;; >; >; ,; '; ); !; ~; {; ]; ^; /; (; _; :; <; [; }; |; 1; 2; 3; 4; 5; 6; 7; 8; 9; 0; a; b; c; d; e; f; g; h; i; j; k; l; m; n; o; p; q; r; s; t; u; v; w; x; y; z; A; B; C; D; E; F; G; H; I; J; K; 5@ L; M; N; x* E% z= O; P; Q; R; S; S; T; U; V; W; X; Y; Z; `;  > .> +> @> #> $> %> &> h  h  h  h  ",
"=  =  =  =  =  =  =  =  =  =  =  =  =  =  =  =  *> => -> ;> >> ,> '> )> !> ~> {> ]> ]> ;; ^> /> (> _> :> <> [> }> |> 1> 2> 3> 4> 5> 6> 7> 8> 9> 0> a> b> c> d> e> f> g> h> i> j> k> l> m> n> o> p> q> r> s> t> u> v> w> x> y> z> A> B> B> C> D> E> F> G> H> I> J> K> L> M> N> O> P> Q> R> S> T> U> V> W> X> Y> Z> `>  , ., +, @, #, $, %, &, *, =, -, ;, >, ,, ', ), !, ~, {, ], ^, /, h  h  h  ",
"=  =  =  =  =  =  =  =  =  (, (, =  =  =  =  _, ,. :, <, [, }, |, 1, 2, 3, 4, 5, 6, 7, 8, 9, 0, a, b, c, d, e, f, g, h, i, j, k, l, m, n, o, p, q, r, s, t, u, v, w, x, y, z, A, B, C, D, E, F, G, H, I, J, K, L, M, N, O, P, Q, R, S, T, U, V, W, X, Y, Z, `,  ' .' +' @' #' $' %' &' *' =' -' ;' >' ,' '' )' !' ~' G% {' ]' ^' /' (' _' :' <' [' }' |' 1' 2' 3' 4' 5' 6' 7' 8' 9' 0' a' h  h  ",
"=  =  =  =  =  =  =  =  =  (, (, =  =  b' c' +. d' e' f' g' h' i' j' k' l' m' n' o' p' q' r' s' t' u' v' w' x' y' z' A' B' C' D' E' F' G' E, H' I' J' K' L' M' N' O' P' Q' R' S' T' U' V' W' X' Y' Z' `'  ) .) M, +) @) #) @) $) %) &) *) g; =) -) ;) >) ,) ') )) !) ~) {) ]) ^) /) () _) :) <) M$ [) }) |) v= 1) F- 2) 3) 4) 5) 6) 7) 8) 9) 0) a) b) c) d) e) f) g) h) i) j) k) l) m) n) o) /, ",
"=  =  =  =  =  =  =  (, (, (, (, =  p) q) r) s) t) u) v) w) x) y) z) A) ;& B) C) D) E) F) G) H) I) J) K) L) M) N) O) P) Q) R) S) T) U) V) W) X) Y) Z) `)  ! .! +! @! #! @! $! %! &! *! =! -! ;! >! ,! '! )! !! ~! ~! {! !! o, ]! ^! /! (! _! :! <! [! }! |! 1! 2! 3! 4! 5! 6! 7! 8! 9! 0! a! b! c! d! e! '' f! P; G- g! h! i! j! k! l! m! n! o! p! q! r! s! t! u! v! w! x! y! z! A! B! C! D! E! ",
"(, (, (, (, (, (, (, (, (, (, (, F! G! H! I! J! K! L! M! N! O! P! Q! R! S! T! U! V! W! X! Y! Z! `!  ~ .~ +~ d> @~ #~ $~ %~ &~ *~ =~ -~ ;~ >~ ,~ '~ )~ !~ ~~ {~ ]~ ^~ /~ (~ _~ :~ <~ [~ }~ |~ 1~ 2~ 3~ 4~ 5~ 6~ 7~ 8~ 9~ 0~ a~ b~ c~ d~ e~ f~ g~ h~ i~ j~ k~ l~ m~ n~ o~ p~ q~ r~ s~ t~ u~ v~ w~ x~ y~ z~ A~ B~ C~ D~ E~ F~ G~ H~ I~ J~ K~ l! L~ M~ N~ O~ P~ Q~ R~ S~ T~ U~ V~ W~ X~ Y~ K% Z~ `~ ",
"(, (, (, (, (, (, (, (, (, T%  { .{ q) .{ '. +{ @{ #{ ${ %{ &{ *{ ={ -{ ;{ >{ ,{ '{ ){ !{ ~{ {{ ]{ ^{ /{ ({ _{ :{ <{ [{ }{ |{ 1{ 2{ 3{ 4{ 5{ 6{ 7{ 6{ 8{ 9{ 0{ a{ b{ c{ d{ e{ f{ g{ h{ g{ i{ j{ k{ l{ m{ n{ o{ 7~ p{ q{ q{ r{ s{ b~ t{ u{ v{ w{ x{ y{ z{ A{ B{ C{ D{ E{ F{ G{ H{ I{ J{ K{ d- L{ M{ N{ O{ P{ Q{ R{ S{ T{ U{ V{ W{ X{ Y{ Z{ `{  ] .] +] @] #] $] %] &] H$ *] =] -] ;] >] ,] '] )] ",
"(, r  (, (, (, (, (, (, p) q) .{ .{ .{ .{ !] ~] {] ]] ^] /] (] _] :] <] [] }] |] 1] 2] #! 3] 4] 5] 6] 7] 8] 9] 0] a] b] c] d] e] f] g] h] 6{ i] 7{ 6{ j] k] l] m{ m] n] o] p] q] g{ g{ g{ r] s] ^~ b{ t] u] v] w] x] p{ q{ w] y] z] A] B] C] D] E] F] G] H] I] J] K] L] M] N] O] P] Q] R] S] T] U] V] r& W] X] Y] Z] `]  ^ .^ +^ @^ #^ $^ k! %^ &^ *^ =^ -^ ;^ >^ ,^ '^ )^ !^ ~^ {^ ]^ ^^ /^ (^ ",
"b' r  (, (, (, (, (, ;  /. q) _^ G  _^ q) :^ <^ [^ }^ |^ 1^ 2^ 3^ 4^ 5^ 6^ 7^ 8^ 9^ 0^ a^ a^ b^ c^ d^ e^ 8^ f^ g^ h^ i^ j^ k^ l^ m^ n^ i] o^ p^ q^ i] r^ s^ t^ e{ u^ v^ w^ 2] x^ y^ +! y^ h{ z^ A^ B^ C^ D^ E^ F^ G^ H^ p{ w] I^ J^ K^ L^ M^ N^ O^ P^ t{ E] Q^ R^ S^ T^ U^ V^ W^ X^ Y^ Z^ `^  / ./ +/ @/ #/ $/ %/ &/ */ =/ -/ ;/ W{ >/ ,/ '/ )/ !/ ~/ {/ ]/ ^/ // (/ _/ v= :/ </ '$ W# [/ }/ |/ ",
"(, (, (, (, (, (, ;  ]  1/ q) q) q) q) 2/ 3/ 4/ 5/ 6/ 7/ 8/ 9/ 0/ a/ b/ c/ d/ e/ f/ g/ h/ i/ j/ k/ h] l/ m/ h] n/ o/ l^ l^ p/ q/ r/ s/ t/ u/ v/ w/ x/ x/ 1] b{ m] b{ b{ y/ z/ A/ B/ B/ z/ C/ D/ E/ F/ G/ H/ I/ J/ K/ J/ B] B] L/ M/ N/ f~ f~ Q^ N/ O/ M/ Q^ P/ Q/ R/ S/ T/ U/ V/ W/ X/ Y/ Z/ `/  ( .( +( @( #( $( %( &( *( =( -(  ] ;( >( ,( '( ,( )( !( ~( {( ]( ^( (' /( (( _( :( <( [( }( |( ",
"(, (, (, (, (, ;  1( ]  @. q) q) q) q) 2/ 2( 3( 4( 5( 6( 7( 8( 9( 0( a( b( c( d( e( f( g( h( i( j( k( l( l( m( 7{ n( o( p( q( r( s( 9( t( u( v( w( x( y( z( b{ A^ 4] 4] A( B( C( D( E( D( F( G( H( I( J( K( L( M( N( K/ O( B] O( M( L/ f~ M/ L/ Q^ f~ P( f~ Q^ Q( R( S( T( U( V( W( X( Y( Z( `(  _ ._ +_ @_ #_ $_ %_ &_ *_ =_ -_ ;_ >_ ,_ '_ )_ !_ ~_ {_ ]_ ^_ /_ %^ 0) G~ (_ __ :_ <_ [_ }_ |_ ",
"(, (, (, r  r  1( 1( 1( 1( q) q) q) .{ G  1_ 2_ 3_ 4_ 5_ 6_ 7_ 8_ 9_ 0_ a_ b_ c_ d_ e_ f_ g_ h_ i_ n/ j_ l( m( n( k_ l_ m_ n_ o_ p_ q_ r_ s_ s_ t_ u_ x( m] 4] m] m] m] v_ w_ w_ x_ y_ z_ A_ :{ B_ C_ D_ E_ F_ L^ B] N( O( M( B] M( B] u{ P( L/ P/ N/ f~ f~ M/ Q^ G_ H_ I_ J_ K_ L_ M_ N_ O_ P_ Q_ R_ S_ T_ U_ V_ W_ X_ Y_ Z_ `_  : .: +: @: !_ #: $: %: &: *: j! =: -: ;: >: ,: ': ): !: ~: {: ",
"(, (, (, ]: ^: ^: ^: ^: /:  . (: _: :: <: [: }: |: 1: 2: 3: 4: 5: 6: 7: 8: 9: 0: a: b: c: d: n/ e: f: g: h: i: j: k: l: m: n: o: p: q: r: s: t: t: t: u: v: w: x: y: z: A: A: A: B: C: D: E: F: G: F_ H: I: J: K: L: M: N: O: P: V' Q: R: L^ Q: S: T: U: V: W: V: X: Y: Z: `:  < .< +< @< #< $< %< &< *< =< -< ;< >< ,< '< #] )< !< ~< {< ]< ^< /< /< (< _< :< << [< }< |< 1< 2< 3< 4< 5< 6< 7< ",
"(, (, 8< 9< 0< 0< 0< 0< a< b< c< d< !  e< f< g< h< i< j< k< l< m< n< o< p< q< r< n( n/ l( l( j_ s< g: t< u< v< w< x< y< z< A< B< C< D< E< F< G< H< I< J< K< L< M< N< O< P< Q< R< S< T< U< U< V< W< X< Y< Z< `<  [ .[ +[ @[ #[ P: $[ %[ &[ *[ %[ =[ -[ ;[ >[ ,[ >[ '[ )[ ![ ~[ {[ {[ ][ ^[ /[ ([ _[ P_ :[ <[ [[ }[ |[ 1[ 2[ k! 3[ 4[ 5[ 6[ 7[ 8[ 9[ 0[ a[ b[ c[ d[ e[ f[ g[ h[ i[ j[ k[ l[ m[ n[ ",
"(, o[ p[ q[ 0< 0< q[ r[ s[ t[ u[ v[ w[ x[ y[ z[ A[ B[ C[ D[ E[ F[ F[ f_ G[ H[ I[ m( j_ J[ K[ L[ M[ N[ j: O[ P[ Q[ R[ z< S[ T[ U[ V[ W[ H< F< H< H< E< X[ Y[ Z[ `[  } .} +} @} #} $} %} &} *} =} -} ;} >} ,} '} )} >} !} ~} {} ]} ^} /} (} _} :} <} [} [} [} }} ,[ |} ![ 1} 2} Z: 3} ][ 4} 5} ([ 6} 7} 8} 9} 0} a} b} c} d} e} f} 4[ g} h} i} j} k} l} m} n} o} #] p} q} r} s} t} u} v} w} x} y} ",
"(, z} A} 0< B} C} D} E} F} G} H} I} J} K} L} M} N} O} P} Q} R} S} T} U} V} W} X} Y} Z} `} c:  | .| v< B[ +| @| #| $| %| &| *| W[ =| -| ;| >| ,| '| M< )| !| ~| {| ]| ^| /| (| _| :| <| [| }| || 1| 2| 3| 4| 4| || 5| 6| 7| 8| 9| 0| a| b| c| d| e| f| g| g| h| i| j| 1} k| l| )[ l| m| n| ^[ o| p| q| r| s| t| u| v| W; w| x| y| z| A| B| C| b[ D| E| F| i} G| H| I| J| K| q} L| M| N| O| P| M$ ",
"Q| A} A} A} A} A} A} R| S| T| U| V| W| X| Y| Z| `|  1 .1 +1 g^ @1 #1 $1 #1 #1 %1 &1 *1 #1 =1 a: v< -1 ;1 >1 ,1 '1 )1 !1 ~1 {1 ~1 ]1 ^1 /1 X[ N< (1 _1 :1 <1 [1 }1 |1 |1 11 21 1| 3| 31 41 31 3| 1| 51 2| 3| 1| 1| 3| 3| 61 61 51 71 71 71 81 91 01 a1 b1 c1 a1 b1 d1 )[ e1 k| f1 g1 h1 i1 j1 k1 l1 m1 n1 o1 p1 q1 r1 s1 t1 u1 v1 w1 x1 y1 z1 A1 %: B1 C1 D1 E1 F1 G1 H1 I1 d[ J1 t} K1 L1 M1 N1 ",
"A} A} A} O1 O1 O1 A} R| P1 Q1 R1 S1 T1 U1 V1 W1 X1 Y1 Z1 `1 R} @1  2 $1 $1  2 .2 +2 @2 #2 =1 $2 j< %2 &2 *2 =2 -2 !1 ;2 {1 >2 {1 ;2 ,2 '2 )2 !2 ~2 {2 ]2 <1 <1 /| ^2 /2 (2 _2 :2 3| 31 4| 1| 51 2| 3| 2| 51 61 <2 [2 }2 |2 12 12 81 22 91 32 42 Y: 52 62 52 72 52 82 ![ 2} Z: g1 92 02 a2 b2 c2 d2 e2 f2 g2 h2 i2 j2 k2 =_ '/ l2 m2 +] n2 o2 p2 p2 q2 q2 r2 s2 8) t2 t2 u2 v2 w2 x2 '< y2 x2 2[ ",
"A} A} O1 R| R| z2 A} R| A2 B2 C2 D2 E2 F2 G2 H2 I2 J2 K2 L2 +2 M2 N2 $1  2 @1 O2 *1 &1  2 P2 Q2 R2 S2 T2 U2 ;2 V2 W2 {1 X2 ]1 Y2 ;2 Z2 `2  3 .3 +3 @3 #3 <1 <1 |1 /2 /2 $3 31 4| 1| 51 <2 %3 2| 2| 12 %3 &3 61 [2 <2 [2 }2 61 42 42 91 *3 )[ )[ 82 52 =3 -3 62 ;3 >3 )[ k| 92 {[ ,3 '3 )3 !3 ~3 {3 ]3 ^3 /3 (3 _3 :3 <3 [3 }3 |3 13 23 33 43 53 63 B1 73 q2 83 93 03 a3 b3 c3 d3 e3 f3 ;/ g3 h3 ",
"A} A} i3 j3 R| k3 l3 m3 n3 o3 p3 q3 r3 s3 t3 j< u3 v3 w3 x3 y3 *1 &1 z3 A3 j/ B3 C3 D3 E3 F3 G3 U2 H3 ^1 I3 J3 K3 L3 ~1 {1 {1 {1 >2 M3 N3 O3 P3 P3 O3 Q3 R3 S3 T3 U3 V3 W3 X3 Y3 Z3 `3  4 .4 42 61 +4 @4 #4 $4 }2 }2 %4 &4 <2 e1 )[ 1} 1} *4 =4 )[ -4 ;4 >4 >4 ,4 Z: '4 )4 g1 '3 !4 ~4 {4 ]4 ^4 /4 (4 _4 :4 <4 [4 }4 |4 14 24 y1 34 44 54 64 74 84 94 04 a4 b4 b[ b[ c4 d4 e4 f4 y~ g4 h4 9) i4 ",
"j4 O1 i3 k4 l4 z2 m4 n4 o4 p4 q4 r4 s4 t4 u4 v4 D[ w4 x4 y4 z4 A4 &1 E[ B4 C4 D4 C3 E4 F4 G4 H4 ^1 ^1 I4 J4 L3 K4 L4 M4 X2 {1 M4 N4 M3 /| O4 P4 Q4 Q4 Q4 R4 W3 S4 T4 U4 V4 W4 Z3 Y3 Z3 Z3 X4 1} 42 Y4 Z4 `4  5 ,4 >4 >4 %4 [2 .5 +5 @5 #5 $5 .5 %5 &5 *5 =5 -5 =5 ;5 >5 ,5 '5 )5 )5 !5 ~5 {5 ][ ]5 ^5 /5 (5 _5 :5 <5 [5 }5 |5 15 25 24 35 15 45 55 64 65 75 85 j} 95 j} 05 a5 b5 c5 j! |< d5  ^ ",
"R| R| R| i3 z2 u[ e5 f5 g5 h5 i5 j5 k5 l5 m5 v4 n5 o5 p5 q5 r5 s5 O2 t5 u5 C4 C4 v5 w5 x5 G3 y5 z5 A5 B5 C5 D5 E5 F5 {1 {1 X2 X2 M4 D5 G5 H5 I5 J5 K5 L5 M5 N5 O5 P5 Q5 R5 S5 T5 `3 T5 U5 V5 W5 22 X5 Z4 Y5 Z5 %4 &4 ,4 [2 ,4 *5 `5  6 .6 +6 +6 @6 #6 $6 %6 &6 %6 *6 =6 =6 -6 ;6 -6 =6 >6 ,6 '6 )6 !6 ~6 {6 ]6 ^6 /6 (6 _6 :6 <6 [6 }6 |6 16 94 26 35 36 {( 46 ^_ 56 66 76 }3 86 96 06 a6 H~ b6 ",
"c6 c6 k4 d6 e6 f6 g6 h6 i6 j6 k6 l6 m6 n6 o6 p6 q6 r6 r6 s6 t6 u6 v6 w6 u5 B4 x6 p5 w6 y6 z6 V2 A6 O< B6 C6 D6 E6 K4 E5 D6 F6 E6 G6 H6 I6 J6 I6 K6 L6 M6 N6 O6 P6 Q6 R6 S6 T6 U6 V6 W6 X6 Y6 Z6 `6  7 .7 +7 X5 .5 @7 #7 $7 %7 &7 *7 =7 -7 ;7 >7 ,7 '7 ,7 ,7 )7 !7 ~7 ~7 {7 ]7 ^7 /7 ^7 (7 _7 :7 <7 [7 }7 |7 17 27 37 47 57 14 67 77 87 97 07 a7 a7 b7 c7 d7 e7 f7 g7 h7 i7 j7 k7 l7 m7 n7 l! o7 ",
"j3 j3 c6 r[ p7 q7 r7 s7 t7 u7 v7 w7 x7 y7 z7 A7 F3 B7 F3 F3 C7 w5 v5 w5 D7 D7 D7 E7 F7 G7 H7 F5 E5 K4 I7 I7 K4 K3 E5 J7 K7 L7 M7 J6 N7 O7 N7 P7 O7 Q7 R7 S7 T7 T7 U7 V7 V7 W7 X7 Y7 Y7 Y7 Z7 `7  8 .8 +8 @8 #8 $8 %8 &8 *8 =8 -8 -8 ;8 >8 ,8 '8 ,7 $6 ,7 ,7 )8 !8 ~8 #6 ,7 {8 )8 )8 )8 ]8 ^8 /8 (8 _8 :8 <8 [8 }8 |8 18 28 38 {( 48 58 68 78 88 98 08 a8 b8 c8 d8 e8 f8 g8 h8 i8 j8 k8 h4 I~ l8 ",
"m8 n8 o8 p8 q8 r8 s8 t8 u8 v8 w8 x8 y8 z8 A8 B8 G< 6: H< G< 6: C8 C8 T2 D8 T2 D8 E8 I3 F8 I7 G8 H8 I8 K4 I7 J8 D5 G8 N7 K8 M7 J6 O7 P7 P7 P7 P7 Q7 R7 L8 V7 M8 N8 O8 P8 *8 X7 Y7 Q8 R8 -7 &8 S8 +8 .8 T8 U8 V8 *6 =7 W8 X8 Y8 Z8 >8 `8 ,8 '8  9 .9 !8 +9 +9 !8 !8 +9 #6 ,7 ~8 )8 +9 @9 #9 ]8 $9 _8 %9 &9 *9 =9 -9 ;9 >9 ,9 '9 )9 15 !9 ~9 {9 a8 ]9 88 ^9 /9 (9 _9 :9 <9 [9 88 }9 a6 /_ |9 19 29 ",
"39 49 59 69 79 89 99 w7 09 a9 b9 c9 d9 e9 '1 f9 g9 5: F< G< I< h9 i9 y5 i9 i9 j9 k9 l9 l9 I7 m9 I8 H8 L4 D5 H8 H6 n9 L7 K8 P7 J5 K5 K8 J6 P7 o9 R7 p9 q9 X7 X7 Y7 r9 s9 t9 u9 v9 w9 x9 y9 z9 U8 A9 B9 C9 U8 D9 )7 E9 F9 Y8 G9 H9 .9 '8  9 ~8 I9 J9 @9 K9 !8 L9 )8 ~8 {8 #6 {8 +9 M9 N9 N9 O9 _7 P9 Q9 R9 S9 T9 U9 V9 W9 X9 Y9 83 84 Z9 `9  0 .0 +0 @0 @0 #0 $0 %0 &0 *0 =0 -0 ;0 >0 ,0 '0 )0 !0 ",
"49 49 ~0 {0 ]0 ^0 /0 (0 _0 :0 <0 [0 }0 |0 10 20 8] 30 20 40 40 50 60 70 80 90 00 a0 )2 F8 b0 c0 d0 e0 H8 f0 g0 h0 i0 j0 k0 l0 l0 m0 n0 o0 p0 q0 r0 s0 t0 u0 Q8 v0 w0 x0 y0 z0 w0 A0 A0 A0 B0 C0 D0 E0 F0 G0 H0 I0 J0 K0 L0 J0 M0 N0 O0 N0 P0 Q0 R0 S0 Q0 T0 U0 T0 V0 :7 W0 X0 I9 I9 Y0 Z0 `0  a .a +a @a #a $a %a &a *a =a -a ;a >a ,a 'a )a !a ~a {a ]a ^a /a (a _a :a <a [a }a |a 1a 2a 3a 4a ",
"49 49 n8 79 5a 6a 7a 8a 9a 0a aa ba ca da ea fa B5 I4 ga fa z5 ha ia ja ka la la ma na J8 oa pa qa I8 ra sa ta ua va Q7 Q7 wa wa R7 xa r0 ya s0 za Aa Ba Ca u9 Da Ea Fa Ga Fa A0 Fa Ga Ha Ia Ja Ka La Ma Na Oa J0 I0 Pa Pa Qa Ra O0 Sa Sa P0 T0 P0 Ta Ta O0 P0 O0 L9 !8 @9 I9 X0 X0 Ua .a .a +a Va +a Wa Xa Ya Za `a  b .b +b @b #b $b %b &b *b =b -b ]9 ;b >b ,b 'b )b !b ~b {b ]b ^b /b (b _b ",
"49 49 n8 :b <b [b }b |b 1b 2b 3b 4b 5b 6b 7b C5 8b 9b F8 F8 0b ab bb cb db eb fb gb hb ib jb kb lb mb nb ob pb qb rb sb tb ub vb wb xb za yb zb Ab Bb Cb R8 Db Eb Fb Fb Gb x0 y0 x0 x0 Hb Ib Jb Kb Lb Lb Mb Mb Nb Pa Ob I0 Pb Qb U0 N0 Rb Sb Tb T0 Ub O0 Q0 Q0 Tb Vb Wb :7 :7 Xb K9 Yb Zb .a .a `b  c .c #a +c @c #c $c %c &c *c =c %0 -c ;c >c >c ,c 'c )c !c ~c {c ]c ^c /c <, (c _c :c <c [c ",
"49 49 }c |c 1c 2c 3c 4c 5c 6c 7c 8c 9c 0c ac O< bc j9 Z2 P< cc dc ec fc gc hc ic jc kc lc mc nc oc pc qc rc sc tc uc vc wc xc yc zc Ac Bc Cc Bc Dc Ec Fc Gc Fb Hc Ib x0 Ic Jc Ia Kc Lc Jc Mc M0 Nc Mb Mb Oc Pc Qc Rc Sc Oc Tc Uc Vc Wc Xc Yc Zc `c  d .d +d @d #d $d %d &d *d =d -d ;d >d ,d 'd )d !d ~d {d ]d ^d /d (d _d :d <d [d }d |d 1d 2d 3d 4d 5d 6d 7d 35 8d 9d 0d ad bd cd dd ed fd gd ",
"49 49 hd id jd kd ld md nd y8 od pd qd rd sd )2 td )2 )2 ud vd wd xd yd zd Ad Bd Cd Dd Ed Fd Gd Hd Id Jd Kd Ld Md Nd Od Pd Qd Rd Sd Td Ud Vd M0 Mb Vd Mc Hb Wd Xd Yd Yd Zd `d  e .e +e .e @e Tc O0 Ta #e Tc Q0 R0 Tb U0 U0 Rb $e %e %e &e *e =e -e ;e &e >e >e &e ;e +a `b ,e `b +a 'e )e !e )d ^5 ~e {e ]e ^e /e (e _e :e <e [e }e |e 1e 2e 3e 4e ,c ,b 5e 6e 7e 8e ad 9e 0e ae be ce )b de ee ",
"49 fe H. ge he ie y8 je ke le me ne oe pe qe )2 re )2 ud se te ue ve we gc xe ye ze Ae Be Ce De Ee Fe Ge He Ie Je Ke Fd Le Fd Me Ne Oe Pe Qe Re Re Se Te Ue Ve We z0 Ve Xe Ye Ze .e `e `d  f R0 O0 Tc N0 O0 R0 R0 P0 Rb Q0 Sb .f -e >e >e ;e >e >e >e Zb *e >e %e >e +a ,e ,e .a `b +f )e @f #f ~e $f %f &f *f =f -f ;f >f ,f 'f )f !f ~f {f ]f ^f /f (f _f :f a5 }3 }3 <f u1 [f }f |f 1f 2f 3f ",
"39 4f 5f o4 6f 7f 8f 9f 0f V1 af bf cf df ;2 ef U< re ff N( gf hf if jf kf ye lf mf nf of pf qf rf sf tf uf vf wf xf yf zf Af Bf Cf Df q9 Ef q9 Ff Gf Hf w0 Fb If Jf Kf Lf Mf Nf Of Pf Qf Rf Rb Sf Tf Sb R0 Uf Vf Wf Xf Yf Vf Zf >e `f *e *e ;e *e >e  g  g >e .g +g @g @g #g +a .g $g %g &g *g =g -g ;g >g [8 ,g 'g )g !g ~g {g ]g ^g /g (g _g :g :g <g [g }g |g 1g 2g 3g 4g 5g 6g 7g 8g 9g 0g ",
"49 n4 ag bg cg aa dg eg fg gg hg ig jg kg lg H4 mg ng H4 z5 og pg qg rg sg tg m0 ra ug He vg vg wg ib Pe Qe Qe Qe xg yg zg Ag Bg Cg lc Dg Eg Fg Gg Hg Ig Jg Kg Lg Mg Ng Og Pg Qg Rg Sg Tg Lf O0 O0 R0 Sf Ug Vg Wg Xg Yg Zg `g  h ;e .h &e  g &e >e =e .g .g +h @h #h $h %h &h *h *h =h -h ;h >h ,h 'h )h !h ~h {h ]h ^h /h (h _h :h <h [h }h :g [g |h 1h 2h 3h <g 4h 5h 6h 7h 8h 9h 0h ah gd bh ",
"ch dh eh fh gh hh ih jh kh lh mh U[ A5 nh oh i9 N< N< ph h9 qh rh sh th I: uh vh wh xh yh Pe zh R7 wa wa p9 Ah Ah Bh Ch Dh rc Eh rc Fh Eh xg Gh Hh Ih Te Jh Kh Lh Mh Nh Oh Ph Qh Rh Sh Th Uh `g `g Vh Wh Xh Yh Zh `h  i Wg .i +i &e  g ;e %e %e %e ;e >e >e %e >e #h @i #i $h &h $i %i &i ;h *i =i -i ;i >i ,i 'i )i !i ~i {i _h ]i ^i /i (i _i |h :i <i [i }i |i 2h 1h 1i 2i 3i 4i 5i 6i 7i 8i ",
"9i F. 0i ai bi ci di ei fi gi hi ii ~1 ji ki i9 i9 z5 h9 li K( mi ug ni oi pi sc rc qi uf qi qb ri P7 N7 P7 o9 Q7 o9 si si ti ti Ed ob ui vi wi xi yi zi Ai Bi Ci Di Ei Fi Gi Hi Ii Hi Ji Ki Li Mi Ni Oi Pi Qi  i Ri Si Zh Si Ti Ui  g Vi Wi Xi %e %e -e *e >e *e #h @i %h Yi Zi `i ;h  j .j +j @j #j $j %j &j *j =j -j ;j ,f >j ,j <h /i (i :i <g 'j )j !j ~j 2i 2i 'j }i 2h }i {j ]j ^j /j (j ",
"_j :j <j [j }j |j 1j 2j 3j 4j 5j 6j 7j ,| 8j 9j 0j aj bj cj R< E6 G8 S3 dj ej fj wf gj hj ij jj kj lj mj nj nj Ah O7 oj pj Eh qj pj rj fj sj tj uj vj wj xj yj zj Aj Bj Cj Dj Ej Fj Gj Fj Hj M9 Ij Jj Kj Lj Mj Nj Xi Oj Pj B9 Qj Rj Sj Tj Rj Uj Vj &h Wj #i %h Xj Yj Zj `j  k `j .k +k .j @k #k $k %k &k *k =k -k ;k >k ,k 'k )k !k ~k {k ]k ^k /k (k _k :k (k <k [k <g }k |k 1k 2k 3k 4k 5k 6k ",
"7k 8k ba 9k 0k ak bk ck dk ek fk gk @3 hk ik jk kk lk mk nk ok pk qk rk sk tk uk vk wk xk yk zk Ak R< >2 M4 Bk Ck Dk Ek Ek Fk Gk Hk Ik Jk Kk Lk Mk Nk Ok Pk Qk Rk Sk Tk Uk Vk Wk Xk Yk Zk `k +9 X0  l O0 Rf .l B9 +l @l .h @l Qj Tj #l $l %l &l *l Wj Wj @i @i =l -l ;l >l Zj >l ,l Vj `i 'l )l !l ~l {l ]l ^l /l (l _l :l <l [l }l |l 1l 2l 3l 4l 5l 6l 7l 8l 9l 0l al bl cl dl _g el fl gl hl ",
"il jl ke kl ll ml nl ol pl ql rl sl tl ul vl wl xl hf yl zl Al Bl Cl L( Dl El Fl Gl Hl Il Jl Kl Ll Ml Nl I8 Ol Ml jj Pl Ql Rl Sl Tl Ul Vl Wl Xl Yl Zl `l  m  m Mc .m +m @m y0 #m Xd $m %m &m ,7 !7 `8 *m =m -m ;m >m +l >m B9 ,m 'm #l #l )m $l !m ~m {m ]m ^m ]m /m (m ;l _m :m <m [m }m |m 1m 2m ~l 3m 4m 5m 6m (l 7m 8m 9m )k 0m am bm cm dm em fm gm _i hm im jm [g km lm mm nm om 3i pm qm ",
"rm sm tm um vm wm xm ym zm Am Bm Cm Dm qc Em Fm Gm Hm Im Jm Km Lm Mm Nm Om Pm Qm Qm Rm lb Sm Tm Um n0 pb pi Vm hj Wm Xm Ym Zm `m  n .n +n @n #n $n %n Sc &n *n =n -n -n ;n >n ,n 'n )n !n ~n {n ]n ^n /n (n _n :n <n [n }n |n 1n 2n 3n #l 4n 5n 6n ~m ^m ^m @i 7n Rj 8n 9n 0n an 0n Yj bn cn dn en fn gn hn in jn kn ln mn nn on pn qn rn sn tn un vn wn xn yn zn An Bn Cn Dn En Fn Gn Hn In Jn ",
"Kn Ln Mn Nn On Pn Qn Rn Sn Tn Un Vn wi Wn Xn Yn Zn `n  o .o +o @o #o $o Oe %o &o *o =o -o Qm Qm ;o Wn >o ,o 'o )o !o ~o {o ]o ^o /o (o _o =n :o <o [o }o |o 1o 2o 3o 4o 5o 6o 6o <o 7o 8o 9o 0o ao bo co do eo fo {} go ho io jo ko lo mo no oo po qo ro so to uo vo wo xo xo yo zo Ao &h *h Bo cn Co Do Eo Fo Go Ho Io Jo Ko Lo Mo No Oo Po Qo Ro E1 So To Uo Vo 94 Wo Xo Xo Yo Zo `o  p .p +p ",
"@p #p $p %p &p *p =p -p ;p >p ,p 'p )p !p ~p {p ]p ^p /p (p _p :p <p [p }p |p 1p 2p 3p 4p 5p 6p 7p `k 8p 9p 0p ap bp cp dp dp 4o 4o ep fp gp hp ip jp kp lp mp np op pp qp rp sp tp up up vp wp xp yp zp Ap Bp Cp T7 Dp Ep Fp Gp Hp .5 Ip Jp 6n Kp Lp Mp uo Np Op Pp Qp Rp Sp Tp Vj Up *h %h %h `i Yi Vp Wp Xp Yp Zp `p  q .q +q @q #q $q %q &q 06 *q =q -q ;q 77 >q x1 x1 x1 <6 f7 ,q 'q )q !q ",
"~q {q ]q ^q /q (q ^q _q :q <q [q }q |q 1q 2q 3q 4q 5q 6q 7q 8q 9q 0q aq bq cq dq eq eq fq Tk gq hq iq jq kq lq mq nq oq pq qq qq rq sq tq uq vq wq xq yq zq Aq Bq Cq Dq Eq Fq Fq Gq Hq Iq Jq Kq Lq Mq Nq Oq Pq Qq Rq Sq Tq Uq Vq Wq Xq Yq Zq `q `q qo  r .r +r @r  r #r #r $r =h to `i $i &h &h %r &r *r =r -r ;r >r ,r 'r )r !r ~r {r ]r ^r /r (/ (r _r -q :r 77 Xo <r [r 04 }r )0 |r 1r 2r 3r ",
"4r 5r 6r 7r 8r 9r 0r ar br cr dr er fr gr hr ir jr kr lr mr nr or pr pr qr Xg rr sr tr tr ur vr wr xr yr zr Ar Br Cr Dr Er Fr Gr Hr Ir Jr Kr Lr Mr Nr Or Pr Qr Rr Sr Tr Ur Vr Wr Wr Wr Qr Xr Yr Zr Yr `r  s .s +s @s #s $s %s &s *s =s -s ;s >s ,s 's )s !s ~s {s ]s .r Np  r ^s ^s /m %l ;l >l ,l /s (s _s :s <s [s }s |s 1s 2s 3s 4s 5s 6s T; $, $, 7s 8s 9s 0s as bs cs ds (i es fs gs hs is ",
"js ks ls ms ns os ps qs rs ss ts us vs ws xs ys zs As Bs Cs Ds Es Fs Gs Hs Is Js Ks Ls Ms Ns Os Ps Qs Rs Ss Ts Us Vs Ws Xs Ys Zs `s  t .t +t @t #t $t %t &t *t =t -t ;t >t ,t 't )t !t ~t {t ]t ]t ^t /t (t _t :t <t [t }t |t 1t 2t 3t 4t 5t 6t 7t 8t 9t 0t at bt ct .r Np .r so  r dt $l %l et ,l :m @k Do ft gt ht it jt kt lt mt nt ot pt qt rt st tt ut vt wt xt yt zt At Bt Ct Dt Et Ft Gt ",
"Ht It Jt Kt Lt Mt Nt Ot Pt Qt Rt St Tt Tt Ut Vt Wt Xt Yt Zt `t  u .u +u @u Fs #u $u %u &u *u =u -u ;u >u ,u 'u )u !u ~u {u ]u ^u /u (u _u :u <u [u }u |u 1u 2u 3u 4u 5u 6u 5u 7u 8u 9u 0u au bu cu du eu fu gu hu iu ju ku lu mu nu ou pu qu ru su tu uu vu 8t wu ct to Np 7n Op so xu >l %l %l et  k yu zu Au <s Bu 8! Cu Du Eu Fu Gu Hu Iu S; Ju Ku Lu Mu Nu Ou Pu Qu Ru Ru Su Tu Uu Vu Wu Xu ",
"Yu Zu `u  v .v +v @v #v $v %v &v *v =v -v ;v >v ,v 'v )v !v ~v {v ]v ^v /v (v _v :v <v [v }v |v Us 1v 2v 3v 4v 5v 6v 7v 8v 9v 0v av bv cv dv ev fv gv hv iv jv kv jv lv mv nv ov pv qv rv sv tv uv vv wv xv yv zv Av Bv Cv Dv Ev Fv Gv Hv Iv Jv Kv Lv Mv Nv Ov Pv Qv Rv vo Sv Sv Tv Uv Vv Wv Xv Yv Zv `v  w .w +w @w #w $w %w &w *w =w -w ;w >w ,w 'w )w !w ~w {w ]w ^w /w (w _w :w <w [w }w |w ",
"1w 2w 3w 4w 5w 6w 7w 8w 9w 0w 7m aw bw cw dw ew fw gw hw iw jw kw lw mw nw ow pw qw rw sw tw uw vw ww xw yw zw Aw Bw Cw Dw Dw Ew Fw Gw Hw Iw Jw Kw Lw Mw Nw Ow Pw Qw Rw Sw Tw Uw Vw Ww Xw Yw Zw `w  x .x +x Ut @x #x $x %x &x *x =x -x ;x >x ,x 'x )x !x ~x {x ]x ^x Zj ;l _m _m %l /x (x _x :x <x [x }x |x 1x 2x 3x 4x 5x 6x 7x 8x 9x 0x ax bx cx dx ex fx gx hx ix jx kx lx mx nx ox px ,d qx ",
"rx sx tx ux vx wx xx yx zx Ax Bx Cx Dx Ex Fx Gx Hx Ix Jx wv Kx Lx Mx Nx Ox Px Qx Rx Sx Tx Ux Vx Wx Xx Yx Zx 3v `x  y .y +y @y #y $y %y &y *y =y -y ;y >y ,y 'y )y !y ~y {y ]y ^y /y (y _y :y <y [y }y ys |y 1y 2y 3y 4y 5y 6y 7y 8y 9y 0y ay by cy dy ey fy gy hy iy :m Zj %l %l %l jy ky ly my ny oy py qy ry sy ty uy vy wy xy 2s yy zy Ay By Cy Dy Ey Ey Fy Gy Hy Iy Jy Ky Ly My Ny Oy Py Qy ",
"Ry Sy Ty Uy Vy Wy Xy Yy Zy `y  z .z +z @z #z $z %z &z *z =z -z ;z >z ,z 'z )z !z ~z {z ]z ^z /z (z _z :z <z [z }z |z 1z 2z 3z 4z 5z 6z 7z 8z 9z 0z az bz cz dz ez fz gz ez hz iz jz kz lz mz ys nz oz pz qz rz sz tz uz vz wz xz yz zz Az Bz Cz Dz Ez Fz Gz Hz Iz Jz ^x Kz Lz (m Mz Nz Oz Oz Pz Qz Oz Rz Sz Tz Uz Vz Wz Xz Yz Zz `z  A .A +A @A @, #A $A %A &A *A =A -A ;A >A ,A 'A )A !A ~A {A ",
"]A ^A /A (A _A :A <A [A }A |A 1A 2A 3A 4A 5A 6A 7A 8A 9A 0A aA bA cA dA eA fA gA hA iA jA kA lA mA nA oA pA qA rA sA tA uA vA wA xA yA zA AA BA CA DA EA FA GA HA IA JA KA LA 2h MA NA OA PA QA RA `w SA TA UA VA WA XA YA ZA `A  B .B +B @B #B $B %B &B *B =B -B ;B >B ,B 'B )B !B ~B {B Pz Pz ]B ^B /B (B _B :B <B [B }B |B 1B 2B 3B 4B 5B F1 6B 7B 8B 9B 0B aB bB cB dB eB fB gB hB iB jB kB ",
"lB mB nB oB pB qB rB sB tB uB vB wB xB yB zB AB BB CB DB EB FB GB HB IB JB KB LB MB NB OB 5p PB QB RB SB TB UB VB WB XB YB ZB `B  C .C +C @C #C $C %C &C *C =C -C ;C >C ,C 'C )C !C ~C {C ]C ^C /C (C _C :C <C [C }C |C 1C 2C 3C 4C 5C 6C Ox 7C 8C 9C 0C aC Zi bC cC dC %l eC fC gC hC iC jC kC /B lC mC nC oC pC qC rC sC tC uC vC wC xC +A cx yC zC AC BC CC DC EC FC GC HC IC JC KC LC MC NC ",
"OC PC QC RC z: SC TC UC VC WC XC (s YC ZC `C  D .D +D @D #D $D %D &D *D =D -D ;D >D ,D 'D Y5 )D !D ~D {D ]D Ws ^D /D (D _D :D <D [D }D |D 1D 2D 3D 4D 5D 6D 7D 8D 9D 0D aD bD cD dD eD fD gD hD iD jD kD lD mD nD oD pD qD rD sD tD uD vD wD xD yD ^5 zD AD BD CD DD ED FD GD HD ID JD KD LD MD ND ND OD PD QD RD SD TD UD VD WD XD YD ZD `D  E .E +E @E #E $E %E &E *E =E -E ;E >E ,E 'E )E !E ",
"~E {E ]E ^E /E (E _E :E <E [E }E |E 1E 2E 3E 4E 5E 6E 7E 8E 9E 0E aE bE cE e9 dE eE fE G6 gE hE iE jE kE lE mE nE oE pE qE rE sE tE uE vE wE xE yE zE AE BE CE DE EE FE GE HE IE JE KE LE ME NE OE PE QE RE SE TE UE VE WE XE YE ZE `E  F @a .F +F @F -B Iz ]x /s #F $F %F &F *F =F -F ;F >F ,F >F 'F )F !F ~F {F ]F ^F /F (F _F :F <F [F }F |F 1F 2F 3F 4F 5F 6F 7F lC 8F 9F 0F aF bF cF dF eF ",
"fF gF hF iF jF kF lF mF nF oF pF qF rF sF tF uF vF wF xF yF zF AF BF CF DF EF FF GF HF IF ib JF KF LF MF NF >u gD OF PF QF RF SF TF UF VF WF XF YF ZF `F  G .G +G @G #G $G %G &G *G =G -G ;G >G ,G 'G )G /v ]v !G ~G {G ]G ^G /G (G _G :G <G  c [G }G |G b2 1G 2G Tv Sv Mz 3G 4G 5G 6G 7G 8G 9G ny oy 0G aG bG cG dG eG fG gG hG iG jG kG lG mG nG oG pG qG rG sG tG uG vG wG xG yG zG AG BG CG ",
"DG EG FG GG z< HG IG JG KG LG Qv MG NG OG PG QG RG SG TG UG VG WG XG YG ZG `G  H .H +H @H #H ,o >n $H %H &H *H 5A =H -H ;H >H ,H 'H )H !H ~H {H ]H ^H /H (H _H :H <H [H }H |H 1H 2H 3H 4H 5H 6H 7H 8H 9H 0H aH bH Uj cH dH eH fH 3} gH hH iH jH kH kH lH mH !3 Tj nH oH pH $l qH rH sH ny 8G 9G 9G 7G tH uH vH wH xH yH zH AH BH CH DH EH FH GH HH IH JH KH LH MH NH NH OH PH QH RH SH TH UH VH ",
"WH XH YH t/ ZH `H 8j  I .I +I @I 2n #I $I %I &I *I =I -I ;I >I ,I $[ 'I )I !I ~I {I ]I Ml ^I /I (I _I :I <I [I }I |I 1I Gr 2I 3I ^y 4I 5I 6I 7I 8I 9I 0I aI bI 0I cI dI eI fI gI hI iI jI kI lI mI nI oI pI qI rI sI tI uI vI wI xI yI zI AI BI CI DI EI Mp FI GI HI II JI 'm KI Xv Nz LI MI NI }x 'F OI PI QI RI SI TI UI VI WI XI YI ZI `I  J .J +J @J #J $J %J &J *J =J -J ;J >J ,J 'J )J !J ",
"~J {J ]J ^J /J H< (J +H _J :J <J [J }J |J 1J 2J 3J 4J 5J 6J 7J 8J 9J 0J aJ bJ cJ dJ eJ fJ r9 gJ hJ iJ jJ kJ lJ mJ nJ oJ pJ qJ rJ sJ tJ uJ vJ wJ xJ yJ zJ AJ BJ CJ DJ EJ FJ GJ HJ IJ JJ KJ LJ MJ MJ NJ MJ OJ PJ QJ RJ SJ TJ UJ Ao -B VJ ,s WJ NI XJ )3 Mp YJ Mp )3 ZJ `J  K `J .K +K Pz @K @K #K $K %K &K *K =K -K ;K >K ,K 'K )K !K ~K {K ]K ^K /K (K _K :K <K [K }K |K 1K 2K 3K 4K 5K 6K 7K 8K ",
"9K 0K aK bK cK dK ef S< J( eK fK gK hK iK jK kK lK mK nK oK pK qK rK sK tK uK vK wK xK fo yK zK AK BK CK DK EK FK GK HK IK JK KK LK MK NK OK PK QK RK SK TK UK VK CB WK XK YK ZK `K  L .L +L Dj @L @L #L $L %L Yf Jj &L Mf *L  d %e =L -L ;L >L ,L 'L qo ro )L YJ !L ~L {L ]L 9G 8G ^L #K /L (L _L :L <L [L }L |L 1L 2L 3L 4L 5L 6L 7L 8L 9L 0L aL bL cL dL eL fL gL hL iL jL kL lL mL nL oL pL ",
"qL rL sL tL uL vL wL Bk pk xL yL zL AL BL CL DL og EL FL GL HL IL JL KL LL ML J7 NL OL PL QL RL SL TL UL VL WL XL YL ZL `L  M .M +M @M #M $M %M &M *M =M -M ;M >M ,M ;M 'M )M !M ~M {M ]M ^M /M (M _M :M <M [M }M Uf |M 1M T0 T0 2M 3M 4M 5M 6M 7M b2 qo qo 8M 9M 0M Qz aM Oz bM cM 7F dM eM %K fM gM hM iM jM }s kM lM mM ]K nM oM pM qM rM sM tM uM vM Ov wM xM yM zM AM BM 0G CM DM EM FM GM ",
"HM IM JM KM LM vK MM NM OM P3 hk PM 8| QM G5 RM SM ]1 TM UM VM WM XM YM ZM `M  N .N +N @N #N $N %N &N *N =N %M -N ;N >N ,N 'N )N !N ~N {N ]N ^N /N (N _N :N <N [N }N |N 1N 2N 3N 4N 5N 6N 7N 8N Uh 9N 0N aN bN cN dN eN fN gN hN iN @l B9 jN B9 kN 'm lN mN %l nN 8G oN pN qN qN qN rN sN tN uN vN wN xN yN zN AN BN CN DN EN FN GN HN IN JN KN LN MN NN ON PN QN pF RN SN gL TN UN VN WN XN YN ",
"ZN `N  O .O +O @O #O $O %O P5 &O *O =O -O ;O >O ,O 'O )O !O ~O {O ]O ^O /O (O _O :O <O [O }O |O 1O 2O 3O 4O -N 5O 6O 7O 8O 9O 0O aO bO cO dO eO fO gO hO iO jO kO lO mO nO oO pO qO rO sO tO uO vO wO xO &u yO zO AO BO CO DO EO FO GO HO  h  h 6n $l $l #l $l _m 9G IO IO IO IO JO KO LO fM MO NO OO PO QO RO SO TO UO VO WO XO YO ZO `O  P .P +P @P #P $P %P QN &P <m <m *P =P -P ;P >P ,P 'P ",
")P !P ~P {P ]P ^P /P (P _P :P <P [P }P |P 1P 2P 3P 4P 5P 6P 7P 8P 9P YM 0P aP bP cP dP eP fP gP hP iP jP kP lP mP nP oP pP qP rP sP tP uP vP wP xP yP zP AP BP CP CP DP EP FP GP HP IP JP KP LP LP LP MP NP OP PP QP RP SP TP UP VP 9H WP XP Uh )B %l (m $l #l $l {B JO YP ZP ZP `P  Q .Q +Q @Q #Q $Q %Q &Q *Q =Q -Q ;Q >Q ,Q 'Q )Q !Q ~Q {Q ]Q ^Q /Q (Q _Q :Q RN <Q &E ;l [Q }Q |Q 1Q 2Q 3Q 4Q ",
"5Q 6Q 7Q 8Q 9Q 0Q aQ bQ cQ dQ eQ fQ gQ hQ iQ jQ kQ lQ mQ nQ oQ pQ qQ rQ sQ tQ uQ vQ wQ xQ yQ zQ AQ BQ CQ DQ EQ FQ GQ HQ IQ JQ KQ LQ MQ NQ OQ PQ QQ RQ SQ TQ UQ VQ WQ XQ YQ ZQ `Q  R .R +R @R #R $R %R &R *R =R -R ;R >R ,R 'R )R !R sr ~R {R WP ]R ^R /R (R _R :R ^L <R [R gM }R |R 1R 2R 3R 4R 5R 6R 7R 8R 9R 0R aR bR cR dR eR *A fR gR hR iR jR kR lR (Q mR nR oR pR qR rR sR tR Qp uR vR wR ",
"xR yR zR AR BR CR DR ER FR GR HR IR JR KR LR MR NR OR PR QR RR SR TR UR VR WR XR YR ZR `R  S .S +S @S #S $S %S &S *S =S -S ;S >S ,S 'S )S !S ~S {S ]S ^S BJ /S (S _S :S <S [S }S |S 1S [S 2S 3S 4S 5S 6S 7S 8S @m Ic 9S 0S aS bS cS cS dS dS eS fS gS hS iS 7G cM tG jS kS lS mS nS oS pS qS rS sS tS uS vS wS xS yS zS AS BS CS DS ES FS GS HS IS JS KS LS MS NS OS PS QS RS SS TS US VS WS XS ",
"&: YS ZS `S  T .T +T @T #T $T %T &T *T =T -T ;T >T ,T 'T )T !T ~T {T ]T ^T /T (T _T :T <T [T }T |T 1T 2T 3T 4T 5T 6T 7T 8T 9T 0T aT bT cT dT eT fT gT hT iT jT kT lT mT nT oT pT pT qT rT sT tT uT vT wT xT yT Ye zT AT jq BT CT DT FC ET FT GT HT IT uR JT KT LT MT NT OT PT QT RT ST TT UT VT WT XT YT ZT `T  U .U +U @U #U $U %U &U $d *U =U -U ;U >U >U ,U 'U )U !U ~U {U ]U ^U /U lI (U _U ",
":U <U [U }U PP |U 1U 2U 3U 4U 5U 6U 7U 8U 9U 0U aU bU cU dU eU fU gU hU iU jU kU lU mU nU oU pU qU rU sU tU uU vU wU xU yU zU AU BU CU DU EU FU GU HU IU JU KU LU MU NU OU PU QU nT RU SU TU UU VU WU XU YU ZU `U  V gq .V [M +V @V #V $V DT %V &V *V =V -V ;V 'U >V ,V 'V )V !V ~V {V ]V ^V /V (V _V 5R :V <V [V }V |V 1V 2V 3V 4V 5V 6V 7V 8V -U 9V 0V aV bV cV 9G dV oF eV fV gV hV iV jV kV ",
"lV mV nV oV pV qV rV sV tV uV vV wV xV yV zV AV BV CV DV EV FV GV HV IV JV KV LV MV NV OV PV QV RV SV TV UV VV WV XV YV ZV `V  W .W +W @W #W $W %W &W *W =W -W ;W >W ,W 'W )W !W ~W {W ]W ^W /W (W _W :W <W [W }W |W 1W 2W 3W Oi 4W 5W 6W 7W 8W 9W 0W aW bW cW dW eW fW gW hW iW jW kW lW mW nW oW pW qW rW sW tW uW vW wW xW yW zW zW AW BW CW DW EW NN {s >F bV FW GW HW IW JW KW LW MW NW OW ",
"PW QW RW SW TW UW VW WW XW YW ZW `W  X .X +X @X #X $X %X &X *X =X -X ;X >X ,X 'X )X !X ~X {X ]X ^X /X (X _X :X <X [X }X |X 1X 2X 2X 3X 4X 5X 6X 7X 8X 9X 0X aX @X bX cX dX eX fX gX hX iX jX kX lX mX nX oX pX qX &N rX sX tX uX vX wX xX 6W &V yX zX AX BX CX DX EX FX GX HX IX JX lW JX mW KX LX MX NX OX PX QX tW RX SX TX UX VX WX XX YX ZX `X  Y  Y 's .Y ^B FW GW rH +Y @Y #Y $Y %Y &Y *Y ",
"=Y -Y ;Y >Y ,Y SK 'Y )Y !Y ~Y {Y ]Y ^Y /Y (Y _Y :Y <Y [Y }Y |Y 1Y 2Y 3Y 4Y 5Y 6Y 7Y 8Y 9Y 9T 0Y aY bY cY dY eY fY gY hY iY jY kY lY mY nY oY pY qY rY sY tY uY vY wY xY yY zY AY BY CY DY EY FY GY GY HY HY IY JY =N KY LY MY NY OY PY QY OY RY SY TY UY VY WY XY YY ZY `Y LX  Z .Z +Z @Z #Z $Z %Z pW &Z *Z =Z tW QX -Z ;Z >Z ,Z 'Z )Z !Z ~Z {Z ]Z ^Z /Z !s 8G (Z _Z :Z <Z [Z }Z |Z 1Z 2Z 3Z 4Z ",
"5Z 6Z 7Z 8Z 9Z 0Z aZ bZ cZ dZ eZ fZ gZ hZ iZ jZ kZ lZ mZ nZ oZ pZ qZ rZ sZ tZ uZ vZ wZ xZ yZ zZ AZ BZ CZ lY DZ EZ FZ GZ HZ IZ JZ KZ LZ MZ NZ OZ PZ QZ RZ SZ TZ UZ VZ WZ XZ YZ ZZ `Z  ` .` +` @` #` $` (S %` &` *` =` -` ;` ;` >` ,` '` )` ZC !` ~` {` ]` ^` /` kw (` _` :` <` [` }` |` 1` 2` 2` 3` %Z 4` tW RX QX 5` 6` 7` 8` >Z 9` 0` a` b` c` d` e` f` ^Z g` h` i` `v eC j` k` l` m` n` o` p` ",
"r  5# q` r` s` t` u` v` w` x` y` z` A` B` C` D` E` F` G` H` I` J` K` L` M` N` O` P` Q` R` S` T` U` V` W` X` Y` Z` ``   .. .+ .@ .# .$ .% .QZ QZ $ .& .* .= .- .; .> ., .' .) .! .~ .{ .] .^ ./ .( ._ .: .< .< .[ .} .| .| .1 .2 .3 .3 .4 .5 .6 .7 .8 .9 .0 .a .b .c .d .e .f .g .h .i .j .j .2` k .k .RX RX RX 5` OX OX l .m .n .o .o .~Z p .q .r .s .t .>s u .v .w .x .y .z .A .B .C .D .E .F .",
"5# 5# G .H .G% I .J .K .L .M .N .O .P .B` Q .R .S .T .U .V .W .X .Y .Z .` . .....+..@..#..$..%..&..*..=..w` -..;..>..,..'..)..!..~..{..]..^../..(.._..:..<..[..}..|..1..2..3..4..5..6..7..8..9..0..a..b..c..d..e..f..g..h..i..j..k..l..m..n..o..p..q..r..s..t..u..v..w..x..y..z..A..qW B..j .C..2` IH D..E..-Z OX F..sW G..n .n .m .n .H..I..J..K..L..NH NN M..N..O..P..Q..R..S..T..U..V..a4 W..",
"5# 5# X..Y..Z..`.. +..+.++.@+.#+.$+.%+.&+.*+.=+.-+.;+.>+.,+.'+.)+.!+.~+.{+.]+.^+./+.(+._+.:+.<+.[+.}+.|+.1+.2+.3+.4+.5+.6+.7+.8+.#z 9+.0+.a+.b+.c+.d+.e+.f+.g+.h+.i+.j+.k+.l+.m+.n+.o+.p+.q+.r+.s+.t+.u+.v+.w+.x+.y+.z+.A+.B+.C+.D+.E+.F+.G+.H+.I+.J+.K+.L+.M+.N+.O+.P+.Q+.2x R+.S+.(V GX k .j .C..C..T+.U+.6` V+.W+.X+.Y+.Z+.`+.ZX Y+. @..@.+@.@@.#@.$@.%@.&@.*@.=@.-@.;@.>@.,@.'@.)@.!@.~@.{@.",
"5# 5# ]@.^@./@.(@._@.:@.<@.[@.}@.|@.1@.2@.3@.4@.5@.6@.7@.8@.9@.0@.a@.b@.c@.d@.e@.f@.g@.h@.i@.*v j@.k@.l@.l@.m@.n@.o@.p@.q@.r@.s@.t@.u@.v@.w@.x@.y@.z@.A@.f+.<..B@.C@.D@.E@.F@.G@.H@.I@.J@.K@.L@.L@.Ax M@.N@.O@.P@.Q@.R@.S@.D` T@.U@.V@.W@.X@.Y@.Z@.`@. #..#.+#. #.@#.##.$#.d .%#.&#.*#.=#.2` 2` -#.k .;#.>#.,#.'#.)#.*g !#.~#.!#.{#.{#.]#.^#./#.(#._#.:#.<#.[#.}#.|#.1#.2#.3#.4#.5#.6#.7#.8#.9#.",
"5# 5# 5# X..0#.a#.b#.c#.d#.e#.f#.g#.h#.i#.j#.k#.l#.m#.n#.o#.p#.q#.r#.W! s#.t#.u#.v#.w#.x#.y#.z#.A#.B#.C#.D#.E#.F#.G#.H#.I#.J#.K#.L#.M#.N#.O#.P#.Q#.R#.S#.T#.U#.V#.W#.X#.Y#.Z#.`#. $..$.+$.WB %z Ax @$.#$.Ax $$.s+.%$.ew &$.*$.=$.-$.;$.>$.,$.'$.)$.!$.~$.{$.]$.^$./$.($._$.:$.<$.[$.4F }$.|$.|$.B..|$.1$.2$.3$.4$.~x ~#.~#.5$.!#.~#.6$.7$.8$.~#.9$.0$.4t <m a$.;d b$.c$.d$.e$.f$.g$.h$.i$.j$.k$.",
"5# 5#  % 6Z l$.a< m$.n$.o$.p$.q$.r$.s$.t$.u$.v$.w$.x$.y$.z$.A$.B$.C$.D$.E$.F$.G$.H$.I$.J$.K$.L$.:G M$.N$.*9 O$.P$.Q$.R$.S$.T$.U$.V$.W$.X$.Y$.Z$.`$.R#.S#. %..%.+%.@%.#%.$%.%%.&%.*%.=%.-%.;%.>%.,%.#$.M@.Ax '%.)%.,%.!%.~%.{%.]%.^%./%.(%._%.:%.<%.[%.}%.|%.1%.2%.=k 3%.4%.5%.6%.7%._V }$.B..|$.8%.KX 9%.0%.a%.b%.~#.~e 7$.7$.7$.6$.c%.c%.d%.e%.f%.g%.h%.h%.i%.j%.k%.l%.m%.n%.o%.p%.q%.r%.s%.t%.",
"5# 5# u%.v%.w%.x%.y%.z%.A%.B%.Gs C%.D%.E%.F%.G%.H%.I%.J%.K%.L%.M%.N%.O%.P%.Q%.R%.S%.Ca T%.U%.V%.Jj Zc W%.X%.Y%.Z%.`%. &..&.+&.+&.+&.@&.#&.$&.%&.&&.*&.=&.-&.;&.>&.,&.'&.)&.!&.~&.{&.]&.^&./&.(&._&.:&.<&.[&.}&.|&.1&.2&.3&./..4&.5&.6&.7&.8&.9&.0&.a&.b&.c&.d&.e&.f&.g&.h&.i&.j&.k&.l&.m&.m&.n&.n&.o&.p&.a` n .q&.r&.s&.t&.u&.u&.v&.w&.x&.y&.z&.A&.B&.B&.=g C&.D&.E&.F&.G&.H&.I&.J&.K&.L&.M&.N&.",
"5# 5# @. 1/ ]@.O&.P&.Q&.R&.S&.T&.U&.V&.W&.X&.Y&.Z&.`&. *..*.+*.@*.#*.$*.%*.&*.**.{G =*.-*.;*.>*.,*.LF '*.)*.!*.~*.{*.]*.^*./*.(*./*._*.:*.Yx <*.[*.#*.}*.|*.1*.2*.3*.4*.5*.6*.7*.8*.9*.0*.a*.b*.c*.d*.e*.f*.g*.h*.i*.j*.k*.l*.m*.n*.o*.7&.p*.&j q*.jn r*.s*.t*.u*.v*.w*.x*.y*.z*.A*.B*.C*.D*.o&.o&.E*.F*.G*.H*.I*.J*.K*.L*.M*.N*.M*.u&.w&.M*.O*.7%.P*.z&.z&.Q*.R*.S*.T*.U*.V*.W*.X*.Y*.Z*.`*. =.",
" .  .  . .=.G .+=.@=.#=.$=.%=.&=.*=.==.-=.;=.>=.,=.'=.)=.!=.~=.{=.]=.Xx ^=./=.(=._=.:=.<=.[=.}=.|=.1=.2=.3=.4=.5=.6=.7=.5=.8=.9=.0=.a=.b=.c=.d=.e=.xA f=.g=.h=.i=.j=.k=.l=.m=.n=.o=.p=.q=.r=.s=.t=.u=.v=.e*.i*.w=.x=.y=.z=.A=.B=.C=.D=.E=.F=.G=.H=.I=.J=.K=.&y L=.M=.N=.O=.Fo P=.Q=.[$.R=.m&.m&.o&.b%.S=.T=.n .U=.t&.V=.W=.X=.z&.A&.Y=.N*.O*.Z=.&#.A&.~e aC `=. -..-.+-.@-.#-.$-.%-.&-.*-.=-.--.",
";-.5# 5# .=.5#  % >-.,-.'-.)-.!-.~-.{-.DT ]-.^-./-.(-.!=.{G -B _-.:-.<-.[-.}-.|-.1-.2-.3-.4-.5-.6-.7-.8-.9-.0-.a-.b-.c-.d-.e-.f-.g-.h-.i-.j-.k-.l-.m-.n-.o-.p-.q-.r-.s-.t-.u-.v-.w-.x-.y-.z-.A-.B-.C-.D-.E-.F-.G-.H-.I-.J-.K-.L-.M-.N-.O-.P-.Q-.jn R-.S-.T-.U-.V-.W-.X-.Y-.Z-.`-. ;..;.+;.@;.#;.$;.%;.&;.8` *;.=;.-;.TG ;;.>;.,;.';.);.!;.~;.);.{;.{;.zu Q*.];.^;./;.(;._;.:;.<;.[;.};.|;.1;.2;.",
"3;.5# 5# 5# 5# 5#  .  . /. 4;.5;.6;.7;.8;.9;.0;.a;.b;.c;.d;.%d e;.f;.g;.h;.i;.j;.k;.l;.m;.n;.o;.p;.q;.r;.s;.t;.u;.v;.w;.x;.y;.z;.A;.B;.C;.D;.E;.F;.G;.H;.I;.J;.K;.L;.M;.N;.O;.P;.Q;.R;.S;.T;.U;.V;.W;.X;.Y;.Z;.`;.:D  >..>.+>.@>.#>.$>.%>.^%.&>.*>.=>.->.;>.>>.,>.'>.)>.!>.~>.r..{>.]>.^>./>./>.@;.@;.K..ey (>._>.QI :>.<>.[>.}>.|>.1>.2>.3>.|>.4>.2>.5>.6>.7>.8>.9>.0>.a>.b>.c>.d>.e>.f>.g>.h>.",
"i>.a< 5# 5# 5# 5# 5# 5#  % y%.j>.k>.l>.m>.n>.o>.p>.q>.r>.&U s>.t>.u>.v>.w>.x>.(z y>.z>.A>.B>.C>.D>.E>.F>.G>.H>.I>.J>.K>.L>.M>.N>.O>.P>.Q>.R>.S>.T>.U>.Rt V>.W>.X>.Y>.Z>.`>. ,..,.+,.@,.#,.$,.%,.V;.&,.*,.=,.-,.;,.>,.,,.',.),.!,.$>.|C ~,.{,.^%.],.^,./,.(,._,.:,.<,.h..[,.},.|,.1,.2,.3,.4,.5,.6,.@;.7,.8,.9,.0,.a,.b,.c,.d,.e,.d,.|>.d,.d,.f,.5>.f%.}>.{3 g,.h,.i,.j,.k,.l,.m,.n,.o,.p,.q,.r,.",
"i>.i>.s,.5# 5# 5# 5# 5# G .t,.u,.v,.w,.x,.y,.z,.A,.B,.C,.D,.E,.F,.G,.H,.I,.J,.K,.L,.M,.N,.O,.P,.Q,.R,.S,.T,.U,.V,.W,.X,.Y,.Z,.`,. '..'.+'.@'.#'.$'.%'.&'.*'.='.-'.;'.>'.,'.''.)'.!'.~'.~'.{'.U;.X;.Y;.]'.^'./'.('._'.:'.<'.['.}'.N-.|'.1'.2'.3'.4'.5'.6'.7'.8'.9'.0'.Ws a'.b'.c'.d'.{` e'.f'.g'.h'.@;.i'.j'.k'.l'.;g m'.n'.5>.e,.o'.e,.p'.q'.r'.s'.f%.f%..a t'.u'.v'.w'.x'.y'.z'.A'.B'.C'.D'.E'.",
"i>.i>.z2 ;-.5# 5# 5# 5# 5# F'.F'.G'.H'.I'.J'.K'.L'.M'.N'.O'.P'.Q'.R'.S'.T'.U'.V'.W'.X'.Y'.Z'.`'.vr  )..).+).@).#).$).%).&).*).=).-).;).>).,).').)).!).~).{).]).^)./).()._).:).<).[).}).|).1).2).3).4).5).6).7).8).9).0).a).b).c).d).e).f).g).h).i).j).k).l).m).n).o).p).q)..#.r).s).t).u).v).w).x).y).hM Z=.z).A).B).C).D).|>.E).q'.F).o'.5>.G).H).G).I)..a +a J).K).L).M).N).O).P).P).P).P).P).",
"i>.i>.Q).R).5# 5# 5# 5#  % >-.S).;-.T).U).V).W).X).Y).Z).`). !..!.+!.@!.#!.$!.%!.&!.*!.=!.-!.;!.>!.,!.'!.)!.!!.~!.{!.]!.^!./!.(!._!.:!.<!.[!.}!.|!.1!.2!.3!.4!.5!.6!.7!.1).<).8!.<).9!.0!.a!.b!.c!.*,.d!.e!.f!.g!.h!.i!.j!.k!.l!.m!.n!.o!.p!.n!.q!.r!.s!.k).t!.u!.v!.w!.x!.X@.y!.z!.A!.u).B!.C!.<$.D!.E!.F!.G!.H!.I!.J!.K!.E).2>.e,.2>.L!.|>.G).H).M!.M!. c N!.O!.P!.Q!.R!.S!.T!.U!.U!.P).V!.U!.",
"W!.i>.X!.Y!..=.5# 5# 5# Z!.`!._:  ~..~.+~.@~.#~.$~.%~.&~.*~.=~.-~.;~.>~.,~.'~.)~.!~.~~.{~.]~.^~./~.(~._~.:~.<~.[~.}~.|~.1~.2~.3~.4~.5~.6~.7~.8~.9~.0~.a~.b~.b~.c~.d~.e~.f~.9!.g~.8!.h~.h~.i~.b!.j~.k~.l~.m~.n~.o~.p~.q~.r~.$y s~.t~.o!.p!.f).u~.v~.k).w~.t!.w~.x~.y~.z~.A~.w*.B~.C~.D~.E~.B!.F~.G~.6%.]>.Z=.H~.I~.~G J~.K~.F).L~.M~.d,.f,.G).G).G).G).5>.H).N~.%d O~.P~.Q~.R~.S~.V!.T~.V!.U~.V~.",
"W~.X~.PW .=.5# 5# 5# 5#  % Y~. %  . Z~.`~.|k  {..{.+{.@{.#{.${.%{.&{.*{.={.-{.;{.>{.,{.'{.){.!{.~{.{{.]{.^{./{.({._{.:{.<{.[{.}{.|{.1{.2{.3{.4{.5{.6{.7{.8{.8{.9!.g~.9{.0{.a{.b{.c{.b{.d{.e{.f{.g{.h{.i{.j{.k{.l{.m{.n{.o{.p{.q{.r{.s{.t{.u{.v{.w{.x{.y{.z{.A{.B{.C{.D{.h&.E{.F{.G{.G{.H{.I{.J{.]F K{.L{.M{.N{.M~.O{.P{.Q{.R{.S{.T{.U{.V{.W{.f,.|>.|>.r'.}>.X{.Y{.Z{.`{. ]..].+].@].#].$].%].&].",
"*].p[ =].r  5# 5# 5# 5# 5# Z!.Z!.Z!.39 39 -].;].>].,].'].)].!].~].{].]].^]./].(]._].:].<].[].}].|].1].2].3].4].5].6].7].8].9].0].a].b].c].d].e].f].g].h].c].f{.i].i].j].k].l].m].n].n].l].o].i].p].q].r].j].s].t].u].v].w].x].y].z].A].B].C].D].Zp E].F].G].G].H].I].:%.D .J].K].Q=.L].8 .x..J{.M].,x ~;.N].M~.2>.A*.A*.O].P].Q].Q].R].~G O{.o'.2>.1>.5>.r'.S].T].U].V].W].X].Y].Y].Z].`]. ^..^.",
"+^..=.5# 5# 5# 5# 5# r   % Z!.Z!.Z!.39 39  . @^.pm #^.$^.%^.&^.*^.=^.]].-^.;^.>^.,^.'^.)^.!^.~^.{^.]^.=y ^^./^.(^._^.:^.<^.[^.}^.|^.1^.2^.3^.4^.dD 5^.6^.:).r].r].j].i].7^.m].m].8^.9^.0^.k].8!.i].p].i].p].a^.b^.c^.d^.e^.f^.g^.h^.A].i^.m!.j^.k^.l^.m^.n^.o^.p^.q^.g&.O=.r^.s^.t^.u^.x..v^.w^.]F x^.y^.N{.F).z^.A^.N{.B^.C^.R].R].R].~G D^.p'.o'.M~.3>.E^.F^.G^.H^.I^.J^.K^.L^.M^.N^.O^.P^.Q^.",
"R^. % S^.r  r  r  r  r  T% 6Z 6Z Z!.>-.>-.;-.T^.1/ 0s U^.V^.W^.X^.Y^.Z^.a@.`^. /../.+/.@/.R .#/.Q .$/.%/.&/.*/.=/.-/.;/.>/.,/.'/.)/.-/.!/.|^.~/.{/.]/.:*.^/.//.(/._/.7^.a^.s].:/.:/.</.c{.a!.[/.0{.}/.|/.1/.2/.3/.4/.5/.6/.7/.8/. b 9/.0/.a/.b/.c/.d/.e/.f/.g/.h/.i/.j/.k/.r^.l/.K].UY m/.n/.q..o/.p/.q/.N{.r/.s/.t/.K~.u/.v/.w/.w/.x/.y/.z/.Xp A/.B/.C/.D/.E/.F/.G/.H/.I/.J/.K/.L/.M/.N/.O/.P/.",
"r  5# r  (, (, (, (, (, (, (, r  5# 5# 5# @. ]  w%.Q/.R/.S/.T/.U/.V/.W/.X/.Y/.Z/.`/. (..(.+(.@(.#(.$(.%(.&(.*(.=(.-(.;(.&(.>(.;(.&(.,(.'(.)(.!(.~(.{(.](.^(.8^./(.((._(.:(.j].p].c].<(.[(.b{.}(.|(.1(.2(.3(.4(.5(.BB 6(.4v 7(.8(.9(.n!.a/.0(.a(.b(.c(.d(.e(.f(.g(.h(.i(.j(.v..k(.l(.m(.F{.n(.o(.o(.p(.q(.r(.s(.t(.u(.v(.w(.r'.E).q'.4>.N{.x(.y(.z(.A(.B(.C(.D(.E(.E(.F(.F(.G(.H(.I(.J(.K(.K(.L(.",
"r  5# r  (, r  r  r  r  (, (, (, r  5# 5# .=.Y!.M(.X..N(.O(.P(.Q(.R(.S(.T(.U(.B$.V(.W(.X(.Y(.Z(.`(. _.._.+_.@_.#_.$_.%_.&_.*_.=_.-_.;_.>_.,_.'_.)_.!_.~_.9^.l].n].n].}(.b{.g~.0!.h~.h~.[).{_.]_.^_./_.(_.__.:_.<_.[_.}_.|_.1_.2_.3_.4_.5_.6_.a(.7_.8_.9_.0_.a_.b_.c_.d_.e_.v..f_.g_.!>.h_.i_.j_.k_.l_.m_.n_.o_.J~.u(.p_.q_.q'.r_.s_.s_.t_.u_.v_.w_.x_.y_.z_.A_.B_.C_.D_.E_.F_.G_.H_.I_.J_.K_.L_.",
"r  5# r  (, 5# 5# 5# r  (, (, (, (, r  5# 5# M_.Z!..{ /, a  N_.O_.P_.Q_.R_.S_.T_.U_.V_.W_.X_.Y_.Z_.`_.LK  :..:.c~.+:.@:.#:.$:.%:.&:.*:.=:.0].-:.e{.;:.>:.0^.]_.}(.,:.,:.a!.}).':.':.):.|).!:.~:.{:.]:.^:./:.(:._:.k..::.<:.[:.o!.}:.|:.1:.2:.3:.4:.5:.6:.7:.8:.9:.m(.k(.0:.k(.k(.a:.b:.c:.d:.e:.f:.hD s..RE Xp ~G g:.h:.i:.s_.j:.k:.l:.:B m:.n:.o:.p:.q:.r:.s:.D_.E_.t:.u:.v:.w:.x:.y:.z:.A:.B:.",
"Z!.Z!.C:.(, 5# 5# 5# r  (, (, (, (, (, (, 5# 5#  %  %  % 5# G .D:.E:.F:.G:.H:.I:.J:.K:.L:.M:.N:.O:.P:.Q:.R:.S:.T:.U:.V:.W:.X:.5{.7!.Y:.<(.!:.Z:.`:. <..<.+<.@<.#<.0^.,:.]_.$<.%<.&<.*<.=<.-<.;<.2(.><.,<.'<.)<.!<.~<.{<.]<.^<./<.(<._<.:<.<<.[<.}<.h_.|<.l_.1<.2<.3<.4<.m(.5<.6<.7<.8<.9<.0<.a<.b<.c<.d<.e<.f<.h:.g<.h<.i<.j<.k<.l<.m<.n<.o<.p<.q<.r<.s<.t<.u<.v<.w<.x<.y<.z<.A<.y:.B<.C<.D<.E<.",
"Z!.Z!.S^.r  5# 5# 5# r  r  r  (, (, (, (, (, r  5# 5# 5# 5# .=.:: F<.G<.H<.I<.J<.K<.L<.M<.N<.O<.P<.Vd Q<.R<.S<.T<.U<.V<.W<.X<.Y<.Z<.`<. [..[.+[.@[.#[.$[.%[.&[.*[.=[.%[.-[.$<.=<.&<.;[.>[.,[.'[.)[.![.~[.{[.][.^[./[.([._[.:[.<[.[[.}[.|[.1[.|[.2[.3[.4[.5[.6[.5[.Y-.7[.8[.9[.0[.a[.b[.c[.a .d[.e[.f[.g[.h[.i[.l_.j[.a:.HB k[.l[.m[.n[.o[.p[.q[.r[.s[.t[.u[.v[.w[.x[.y[.z[.A[.B[.C[.D[.E[.F[.G[.",
"Z!.Z!. % 5# (, r  5# 5# 5# 5# 5# (, (, (, 5# 5# r  5# 5# 5# .=.H[.I[.J[.K[.L[.M[.N[.O[.P[.Q[.R[.S[.T[.Mb U[.V[.W[.X[.Y[.Y[.Z[.`[. }..}.+}.@}.#}.$}.%}.&}.*}.=}.-}.@}.*}.;}.$<.>}.>}.>[.%<.,}.__.4(.'}.)}.!}.~}.{}.]}.^}./}.(}._}.6<.:}.|[.:}.|[.<}.!>.5[.6[.u..[}.}}.<}.|}.1}.2}.3}.6[.4}.5}.6}.7}.8}.9}.0}.a}.b}.c}.d}.e}.f}.g}.h}.i}.j}.k}.l}.m}.n}.o}.p}.q}.r}.s}.t}.t}.I_.u}.v}.w}.x}.y}.z}.",
"6Z 5# .=..=.r  r  .=. % 6Z 5# 5# r  r  (, r  r  (, (, r  5# .=.A}.G .B}.C}.D}.E}.F}.G}.H}.I}.J}.2p K}.O0 U0 L}.M}.N}.O}.P}.Q}.R}.S}.T}.U}.V}.Z:.W}.X}.Y}.Z}.`}. |.`}..|.=<.,[.+|.@|.#|.,[.$|.%|.&|.=u *|.=|.-|.;|.>|.,|.'|.a(.)|.!|.~|.!|.!|.!|.{|.8[.]|.^|./|.(|.7}._|.:|.7}.<|.[|.}|.||.1|.2|.3|.4|.e(.5|.6|.7|.8|.9|.0|.a|.b|.c|.d|.e|.f|.g|.h|.i|.j|.k|.l|.m|.I_.J_.n|.o|.p|.q|.r|.s|.t|.u|.",
"=].z} p[ PW PW z} +^..=.Z!.5# 5# 5# r  (, (, (, (, (, (, r  .=.w%.v|.w|.x|.y|.z|.A|.B|.C|.D|.E|.Sa Oc F|.L}.G|.H|.I|.J|.K|.L|.M|.N|.O|.P|.V}.Q|.W}.R|.S|.T|.U|.V|.W|.X|.Y|.)[.)[.Z|.`|. 1..1.+1.-` $` @1.#1.$1.%1.j@.&1.*1.=1.-1.;1.>1.,1._,.YA '1.)1.<|.)1.!1.3}.7}.~1.{1.]1.^1./1.(1._1.:1.oD <1.[1.}1.|1.11.21.31.41.51.i|.t:.t:.61.71.81.91.01.a1.b1.c1.d1.e1.f1.g1.h1.i1.j1.k1.l1.m1.n1.o1.",
"c< z2 p1.q1.r1.s1.t1.+^.r  5# 5# (, (, (, (, (, (, (, (, (, (, u1.v|.v1.w1.|3 x1.y1.z1.A1.B1.C1.D1.Nc Jb F|.E1.Oc I|.F1.G1.H1.I1.J1.K1.L1.V}.M1.N1. W S|.O1.P1.Q1.R1.X|.S1.T1.U1.U1.V1.U1.W1.X1.Y1.Z1.`1. 2..2.+2.@2.#2.$2.%2.&2.*2.=2.YA -2.-2.;2.>2.<}.>2.,2.>2.'2.)2.!2.~2.{2.]2.^2./2.(2._2.:2.<2.[2.}2.|2.12.22.32.42.52.62.61.61.61.72.82.92.02.a2.b2.f1.c2.d2.e2.f2.g2.h2.i2.j2.k2.l2.m2.",
"R| k3 n2.n2.n2.o2.p2.q2.R)..=.5# T% (, (, (, (, (, (, (, (, (, (, r2.O&.O&.Z~.s2.t2.u2.v2.w2.x2.T%.Mb Oc y2.z2.A2.B2.C2.QB D2.E2.F2.G2.H2.I2.J2.K2.L2.M2.N2.O2.P2.Q2.R2.S2.T2.U2.V2.W2.(:.X2.Y2.i..C+.r*.Z2.`2. 3.7w 5_..3.+3.@3.8'.#3.$3.8'.%3.&3.<}.b'.*3.=3.-3.;3.>3.^2.,3.'3.)3.!3.~3.{3.]3.^3./3.(3._3.:3.<3.[3.}3.52.|3.t:.13.52.23.33.43.53.63.c2.f1.73.83.93.e2.03.g2.a3.b3.c3.d3.e3.f3.",
"p7 r[ p1.g3.g3.g3.l4 X~.h3.+^.R^.Z!.S^.(, (, (, (, (, (, (, (, (, (, (, (, r  a  ,/ i3.j3.k3.l3.m3.n3.o3.p3.n3.p3.q3.r3.s3.t3.@}.u3.v3.w3.x3.w3.y3.y3.f~.u].z3.A3.B3.Xx C3.D3.E3.F3.G3.H3.I3.J3.K3.L3.M3.N3.vy O3.P3.Q3.R3.S3.T3.U3.V3.W3.X3.2:.Y3.w].R .Z3.`3. 4..4.+4.@4.#4.$4.%4.&4.*4.=4.-4.;4.>4.,4.'4.)4.)4.o}.o}.!4.!4.~4.{4.{4.]4.^4./4.(4._4.:4._4.<4.[4.h1.e2.f2.}4.|4.14.r|.24.34.34.",
"p7 r[ p1.g3.g3.l4 l4 l4 X~. ~.44.54.64.(, (, (, (, (, (, (, (, (, (, (, (, (, w  74.84.94.04.a4.b4.c4.d4.e4.f4.f4.g4.h4.i4.j4.k4.l4.m4.[*.n4.6^.o4.p4.q4.',.gD ',.r4.s4.t4.u4.u4.v4.w4.x4.y4.z4.A4.B4.]u C4.D4.E4.F4.G4.H4.I4.=1.X3.J4.6_.6_.$2.*y K4.L4.M4.s~.N4.O4.P4.Q4.R4.S4.T4.U4.V4.W4.X4.Y4.Z4.`4.o}.o}.)4.)4.)4. 5.22.22..5.+5.@5.#5.$5.83._4.:4._4.83.%5.&5.*5.03.=5.-5.;5.r|.>5.34.34.",
"p7 p7 p1.l4 l4 l4 l4 l4 l4 ,5.'5.x  )5.(, (, (, (, (, (, (, (, (, (, (, (, (, x  x  x  !5.~5.{5.]5.^5./5.(5.+3._5.:5.<5.[5.}5.|5.15.25.35.45.35.55.65.75.85.85.95.05.05.a5.b5.c5.s~.d5.e5.f5.g5.h5.i5.j5.@y k5.G4.l5.m5.n5.V3.X3.$2.6_.$2.6_.U3.o5.p5.d).q5.r5.s5.t5.u5.v5.w5.x5.y5.z5.A5.B5.C5.D5.D5.91.E5.E5.o}.o}.o}.72.!4.{4.z5.F5.G5.H5.I5.<4.:4.:4.<4.J5.K5.L5.e2.M5.N5.O5.P5.Q5.p|.34.R5.",
"p7 p7 S5.S5.3;.3;.l4 l4 l4 A} +^.(, (, (, (, (, (, (, (, (, (, (, (, (, (, (, (, T% T% (,  { H~ T5.U5.V5.`a W5.X5.Y5.Z5.`5. 6..6.+6.@6.#6.$6.%6.#6.-H &6.*6.=6.a5.-6.K4.;6.>6.,6.'6.)6.!6.~6.7w 8(.{6.:[.o{.]6.^6./6.(6._6.:6.<6.[6.WA }6.|6.~t 16.26.fr 36.46.56.66.76.86.96.06.a6.b6.c6.d6.e6.f6.81.81.g6.h6.i6.i6.i6.j6.k6.l6.m6.n6.o6.I5.p6._4.:4.<4.q6.r6.=5.s6.03.t6.u6.k1.v6.w6.x6.y6.z6.",
"p7 p7 S5.S5.A6.3;.l4 l4 l4 r1.+^.B6.(, (, (, (, (, (, (, (, (, (, (, (, (, (, (, (, (, (, (, (, T% C6.D6.E6.F6.G6.H6.I6.J6.K6.L6.M6.N6.O6.O6.P6.P6.O6.Q6.R6.S6.T6.U6.V6.W6.,6.X6.Y6.Z6.`6.!6.8(.'|. 7..7.75.R .+7.@7.U3.J4.$2.[6.#7.$7.%7.&7.*7.=7.-7.;7.>7.,7.'7.)7.o}.c6.!7.~7.{7.]7.]7.r:.c6.^7./7.(7.(7.i6.i6.i6.i6._7.:7.<7.[7.I5.I5.}7.|7.:4.:4.17.27.37.*5.s6.03.47.57.i2.v6.67.77.87.97.",
"p7 p7 69 A6.A6.3;.l4 l4 l4 r1.Y!.B6.(, (, (, (, (, (, (, (, (, (, (, (, (, (, (, (, (, (, (, (, (, (, (, T% 07.a7.b7.c7.d7.e7.f7.g7.h7.i7.j7.k7.l7.m7.n7.o7.'r p7.q7.r7.s7.t7.u7.v7.8z Y6.w7.m!.x7.y7.z7.A7.a(.$2.6_.(6.J4.$2.B7.^^.C7.&a D7.E7.F7.G7.H7.I7.J7.!7.K7.L7.L7.M7.N7.{7.!7.r:.O7.s<.^7./7.81.P7.i6.z5.Q7.R7.S7.T7.U7.V7.I5.I5.}7.W7.:4.<4.<4.27.37.*5.X7.M5.Y7.Z7.`7. 8.67..8.87.y6.",
"e6 S5.A6.A6.A6.3;.l4 z2 O1 p[ H[.(, (, (, (, (, (, (, (, (, T% T% T% T% T% T% (, (, (, (, (, (, (, (, (, (, r  r  (, r  74.+8.@8.#8.$8.%8.&8.*8.=8.-8.;8.>8.,8.'8.9(.)8.7w !8.v7.v7.v7.~8.{8.b5.]8.^8.Y3./8.(8._8.:8.<8.[8.}8.|8.18.28.38.48.58.68.78.88.98.08.a8.b8.c8.M7.N7.{7.~7.]7.O7.s<.c6.^7.d|.d8.e8.f8.g8.h8.i8.j8.T7.k8.l8.m8.I5.|7.W7.:4.<4.<4.n8.o8.p8.q8.r8.s8.t8.b3.u8..8.87.34.R5.",
"v8.w8.A6.A6.x8.3;.k3 y8.0#. . r  (, (, (, (, (, (, (, (, )5.54.x  x  x  x  x  (, (, (, (, (, (, (, (, (, (, (, (, (, (, 5# z8.A8.B8.C8.D8.E8.F8.yH G8.H8.I8.J8.K8.L8.^,.M8.N8.u~.a/.:8.3:.:5.@7..3.O8.P8.Q8.R8.S8.#3.T8.T8.U8.V8.W8.X8.Y8.Z8.`8. 9..9.+9.@9..9.#9.L7.$9.{7.~7.!7.]7.r:.O7.%9.&9.*9.=9.-9.;9.T7.T7.>9.,9.'9.:4.<4.83.<4.<4.<4._4.:4.<4.<4.<4.J5.)9.!9.~9.{9.]9.v6.^9.j2./9.(9._9.",
"r[ p7 69 A6.A6.Q).k3 O1 0#.r  (, (, (, (, (, (, (, (, (, )5.x  54.54.x  x  x  (, (, (, (, (, (, (, (, (, (, (, (, (, (, r  r  r  5# :9.<9.b} js [9.}9.|9.19.29.39.49.59.69.79.89.99.09.a9.a9.b9.c9.d9.e9.E` f9.9'.g9.h9.i9.j9.k9.l9.m9.n9.o9.p9.q9.+9.+9..9.#9.c8.$9.N7.~7.!7.r:.r9.s9.t9.u9.v9.T7.T7.T7.T7.T7.T7.>9.'9.w9.j8._4.83.83.83.83.<4._4._4.<4.x9.L_.I_.y9.z9.A9.B9.u8..8./9.34.C9.D9.",
"E9.F9.r[ A6.A6.G9.k3 A} .=.(, (, (, (, (, (, (, (, (, (, )5.x  x  x  x  x  x  (, (, (, (, (, (, (, (, (, (, (, (, (, (, (, r  5# 5# 5# 5# 5# 5# 5# H9.'w I9.J9.K9.L9.M9.89.N9.O9.P9.o^.C{.Q9.R9.S9.T9.U9.V9.'1.W9.X9.Y9.Z9.`9. 0..0.+0.@0.#0.$0.%0.@9..9.&0.#9.*0.~7.!7.O7./7.E5.=0.-0.;0.>0.U7.T7.T7.T7.T7.T7.T7.>9.,0.w9.j8.:4.<4.83.83.83.A:.<4.<4.J5.'0.)0.!0.~0.{0.]0.^0.67.j2./9.R5._9.D9.",
"1/ /0.B} X~.l4 *].A} p[ Y!.H[.r  x  )5.(, (, (, x  x  x  x  x  x  x  x  x  x  (, (, (, (, (, (, (, (, (, (, (, (, (, (, 5# 5# 5# 5# 5# 5# 5# 5# 5# 5# 5# 5# 5# =].(0._0.:0.<0.[0.}0.|0.10.20.30.40.50.60.70.80.90.00.a0.b0.c0.d0.e0.f0.g0.h0.i0.j0.k0.l0.M7.m0.n0.o0.b6.p0.g6.[3.z5.q0.r0.s0.T7.T7.T7.T7.T7.T7.t0.:4.:4.u0.v0.w0.U7.27.27.27.m8.L_.A:.73.x0.y0.z0.A0.B0.C0.u8..8.j2.(9.D0.E0.F0.",
"G0.H0.B} X~.l4 X~.s1.s1.s1.I0.Q| (, T% (, (, (, x  x  x  x  x  x  x  x  x  x  (, (, (, (, (, (, (, (, (, (, (, (, (, (, 5# 5# 5# 5# 5# 5# 5# 5# 5# 5# 5# 5# 5#  . J0.K0.L0.M0.N0.O0.P0.Q0.R0.S0.I'.T0.U0.V0.W0.X0.Y0.Z0.A*.`0. a..a.a8.+a.@a.@9..9.c8.M7.{7.n0.#a.$a.%a.p0.&a.*a.=a.-a.>0.;a.T7.T7.T7.T7.T7.T7.:4.:4.:4.73.,9.:4.U7.27.27.27.>a.,a.'a.)a.!a.~a.{a.]a.^a.v6.^9./9.34.C9.D9.F0./a.",
" { _, B} s1.s1.(a._a.:a._a.(a.q2.+^.(, (, (, r  x  x  x  x  x  <a.<a.x  <a.<a.(, (, (, (, (, (, (, (, (, (, (, (, (, (, (, r  5# 5# 5# (, (, (, r  5# 5# 5#  . 59 q  [a.}a.|a.1a.2a.3a.4a.5a.6a.7a.8a.9a.0a.aa.ba.ca.da.ea.fa.ga.ha.%0.ia.+9.@9.#9.$9.N7.~7.ja.o0.b6.ka.p0.&a.la.ma.na.;a.T7.T7.T7.T7.T7.T7.T7.oa.j8.:4.73.v0.73.U7.27.27.37.pa.qa.ra.sa.{9.ta.ua.va.b3. 8.j2.34.R5.D0.D9.wa.xa."};
