/* XPM */
static char * timmi_128_xpm[] = {
"128 128 12075 3",
"   	c #FFFFFF",
".  	c #FBFBFC",
"+  	c #E5E2E3",
"@  	c #B5A9AA",
"#  	c #B1A6A7",
"$  	c #B8B5B6",
"%  	c #A39F97",
"&  	c #D3DCD9",
"*  	c #D0E9E8",
"=  	c #899780",
"-  	c #475855",
";  	c #293132",
">  	c #242C2E",
",  	c #404238",
"'  	c #615F42",
")  	c #3D443C",
"!  	c #3E4732",
"~  	c #394325",
"{  	c #515B38",
"]  	c #515B3D",
"^  	c #68776B",
"/  	c #697468",
"(  	c #4B563B",
"_  	c #4E5235",
":  	c #404424",
"<  	c #585F40",
"[  	c #5D644D",
"}  	c #5A5E42",
"|  	c #626953",
"1  	c #727A6F",
"2  	c #4D5438",
"3  	c #3D4524",
"4  	c #3B4622",
"5  	c #3A491E",
"6  	c #666D3C",
"7  	c #687144",
"8  	c #687046",
"9  	c #667044",
"0  	c #5E673C",
"a  	c #595E45",
"b  	c #505336",
"c  	c #3E4121",
"d  	c #505634",
"e  	c #565A3C",
"f  	c #757C55",
"g  	c #73794A",
"h  	c #707C6A",
"i  	c #525A35",
"j  	c #616A5D",
"k  	c #4E523A",
"l  	c #4A4B33",
"m  	c #4A4B31",
"n  	c #5A603E",
"o  	c #636E4D",
"p  	c #4B5330",
"q  	c #738487",
"r  	c #6A7D7A",
"s  	c #84A2AE",
"t  	c #A7CBDB",
"u  	c #8A9D97",
"v  	c #6C7769",
"w  	c #668692",
"x  	c #A0C8DB",
"y  	c #ADD3E4",
"z  	c #9AB9BF",
"A  	c #ACD1E3",
"B  	c #89A5AD",
"C  	c #4C5B56",
"D  	c #A2C6D4",
"E  	c #95AAB4",
"F  	c #84897E",
"G  	c #8C9288",
"H  	c #83816E",
"I  	c #7E7862",
"J  	c #534F37",
"K  	c #58532E",
"L  	c #3C4127",
"M  	c #42513C",
"N  	c #505738",
"O  	c #4C542D",
"P  	c #4F552E",
"Q  	c #5C603C",
"R  	c #5B5D4C",
"S  	c #282E1D",
"T  	c #282D17",
"U  	c #2E311B",
"V  	c #3A3B23",
"W  	c #4A4930",
"X  	c #3D3E27",
"Y  	c #47492A",
"Z  	c #50543E",
"`  	c #4A4623",
" . 	c #4F4928",
".. 	c #363A21",
"+. 	c #354B48",
"@. 	c #4A6A71",
"#. 	c #6D8A96",
"$. 	c #494C39",
"%. 	c #323A1E",
"&. 	c #544F31",
"*. 	c #4E4F2F",
"=. 	c #505533",
"-. 	c #404523",
";. 	c #47462D",
">. 	c #383A28",
",. 	c #252819",
"'. 	c #1B1E10",
"). 	c #212314",
"!. 	c #393E25",
"~. 	c #282F16",
"{. 	c #89A6B5",
"]. 	c #95B8C6",
"^. 	c #79919A",
"/. 	c #637C7B",
"(. 	c #A1BDCA",
"_. 	c #30361D",
":. 	c #33381F",
"<. 	c #3E4522",
"[. 	c #404723",
"}. 	c #212513",
"|. 	c #2E362D",
"1. 	c #718488",
"2. 	c #262C1D",
"3. 	c #FBFBFB",
"4. 	c #E2E3E4",
"5. 	c #BBC6C6",
"6. 	c #89948C",
"7. 	c #626347",
"8. 	c #5C5B49",
"9. 	c #534E3F",
"0. 	c #393C34",
"a. 	c #252C2B",
"b. 	c #5F5C40",
"c. 	c #5D5B43",
"d. 	c #31381F",
"e. 	c #4C5842",
"f. 	c #434E39",
"g. 	c #505B37",
"h. 	c #606D57",
"i. 	c #657065",
"j. 	c #53624C",
"k. 	c #585B49",
"l. 	c #484C36",
"m. 	c #697056",
"n. 	c #6B7155",
"o. 	c #64694E",
"p. 	c #61684E",
"q. 	c #6D7460",
"r. 	c #5F6548",
"s. 	c #525438",
"t. 	c #3C4623",
"u. 	c #3A461F",
"v. 	c #525D33",
"w. 	c #5A6332",
"x. 	c #596531",
"y. 	c #5C6733",
"z. 	c #5F6836",
"A. 	c #636B3D",
"B. 	c #697045",
"C. 	c #6E754D",
"D. 	c #777C57",
"E. 	c #797F55",
"F. 	c #596137",
"G. 	c #5A613B",
"H. 	c #676D43",
"I. 	c #606539",
"J. 	c #696A45",
"K. 	c #6B6D47",
"L. 	c #71764E",
"M. 	c #74784C",
"N. 	c #757850",
"O. 	c #737752",
"P. 	c #5D6240",
"Q. 	c #606347",
"R. 	c #6D7F7A",
"S. 	c #91A6AC",
"T. 	c #7B897F",
"U. 	c #606244",
"V. 	c #7A97A1",
"W. 	c #A8CEE0",
"X. 	c #ACD3E4",
"Y. 	c #96B5BB",
"Z. 	c #ACCCD8",
"`. 	c #94ADB1",
" + 	c #73807F",
".+ 	c #92A5A3",
"++ 	c #80897E",
"@+ 	c #6A6C55",
"#+ 	c #615F47",
"$+ 	c #50503D",
"%+ 	c #666258",
"&+ 	c #6A6D65",
"*+ 	c #4E482B",
"=+ 	c #6C716B",
"-+ 	c #9AB2BC",
";+ 	c #93B0BA",
">+ 	c #64766F",
",+ 	c #525935",
"'+ 	c #5C5D38",
")+ 	c #7C7C65",
"!+ 	c #5A6150",
"~+ 	c #292E18",
"{+ 	c #2D301B",
"]+ 	c #32341D",
"^+ 	c #393B23",
"/+ 	c #48462D",
"(+ 	c #5A5732",
"_+ 	c #6B6B58",
":+ 	c #564D2F",
"<+ 	c #514D2F",
"[+ 	c #3F4938",
"}+ 	c #8BAAB5",
"|+ 	c #9FC6D3",
"1+ 	c #B3D4E6",
"2+ 	c #606A65",
"3+ 	c #454E3C",
"4+ 	c #5A6A68",
"5+ 	c #798C95",
"6+ 	c #4D5030",
"7+ 	c #4A4E2F",
"8+ 	c #31341C",
"9+ 	c #1A1E10",
"0+ 	c #363F37",
"a+ 	c #515241",
"b+ 	c #3A3F26",
"c+ 	c #343C26",
"d+ 	c #A9B6B6",
"e+ 	c #9FB0AE",
"f+ 	c #7E8E8D",
"g+ 	c #647571",
"h+ 	c #9EB6BD",
"i+ 	c #30351D",
"j+ 	c #40462A",
"k+ 	c #3E4422",
"l+ 	c #39401D",
"m+ 	c #212514",
"n+ 	c #5D777C",
"o+ 	c #ADCCE0",
"p+ 	c #2B3E35",
"q+ 	c #F2FEFF",
"r+ 	c #CAEBF0",
"s+ 	c #8DAAB0",
"t+ 	c #475652",
"u+ 	c #464438",
"v+ 	c #5C533D",
"w+ 	c #6A5C42",
"x+ 	c #746447",
"y+ 	c #73613D",
"z+ 	c #635D45",
"A+ 	c #636852",
"B+ 	c #646F63",
"C+ 	c #616D60",
"D+ 	c #6D7154",
"E+ 	c #6C7463",
"F+ 	c #677165",
"G+ 	c #5D614D",
"H+ 	c #696E62",
"I+ 	c #717761",
"J+ 	c #646D48",
"K+ 	c #6B7053",
"L+ 	c #696B54",
"M+ 	c #71786F",
"N+ 	c #6A7266",
"O+ 	c #3F462C",
"P+ 	c #454E2E",
"Q+ 	c #444F2A",
"R+ 	c #4D582F",
"S+ 	c #474D27",
"T+ 	c #474C29",
"U+ 	c #575F35",
"V+ 	c #5E653B",
"W+ 	c #585F32",
"X+ 	c #5C623D",
"Y+ 	c #767854",
"Z+ 	c #676C40",
"`+ 	c #484F27",
" @ 	c #5E6A4B",
".@ 	c #6F7C6E",
"+@ 	c #747D71",
"@@ 	c #636132",
"#@ 	c #51532E",
"$@ 	c #515631",
"%@ 	c #50542F",
"&@ 	c #4E4C2B",
"*@ 	c #524F2B",
"=@ 	c #57512E",
"-@ 	c #534C2E",
";@ 	c #5D5536",
">@ 	c #5B5736",
",@ 	c #636041",
"'@ 	c #575A3B",
")@ 	c #696D59",
"!@ 	c #7D877E",
"~@ 	c #9BB4B8",
"{@ 	c #A4C3CA",
"]@ 	c #ABC9D1",
"^@ 	c #93A3A3",
"/@ 	c #797966",
"(@ 	c #72745E",
"_@ 	c #718082",
":@ 	c #92ABB5",
"<@ 	c #7D8E8B",
"[@ 	c #8EA6AD",
"}@ 	c #9AB8C6",
"|@ 	c #9ABBCA",
"1@ 	c #A5C5D5",
"2@ 	c #AECDDA",
"3@ 	c #4D4A35",
"4@ 	c #818B8B",
"5@ 	c #889596",
"6@ 	c #808474",
"7@ 	c #8D978F",
"8@ 	c #686A4E",
"9@ 	c #636140",
"0@ 	c #4B502D",
"a@ 	c #394627",
"b@ 	c #486164",
"c@ 	c #344A40",
"d@ 	c #353922",
"e@ 	c #424129",
"f@ 	c #575034",
"g@ 	c #50462C",
"h@ 	c #5D5936",
"i@ 	c #423B23",
"j@ 	c #4A4534",
"k@ 	c #7B8784",
"l@ 	c #A3BABF",
"m@ 	c #BAD4DE",
"n@ 	c #727E7A",
"o@ 	c #8D9BA0",
"p@ 	c #67756A",
"q@ 	c #889996",
"r@ 	c #403E25",
"s@ 	c #4B4F30",
"t@ 	c #3B412A",
"u@ 	c #383C36",
"v@ 	c #454435",
"w@ 	c #8B929B",
"x@ 	c #6E6F63",
"y@ 	c #353A20",
"z@ 	c #2F341C",
"A@ 	c #49462E",
"B@ 	c #47442D",
"C@ 	c #3A3C27",
"D@ 	c #353624",
"E@ 	c #575B44",
"F@ 	c #383C24",
"G@ 	c #3B4024",
"H@ 	c #434828",
"I@ 	c #373D1D",
"J@ 	c #2D413A",
"K@ 	c #A2C3D4",
"L@ 	c #C1E1F5",
"M@ 	c #486667",
"N@ 	c #FEFFFF",
"O@ 	c #F0FEFF",
"P@ 	c #C7E9ED",
"Q@ 	c #8DACB0",
"R@ 	c #3E5253",
"S@ 	c #273333",
"T@ 	c #232E2F",
"U@ 	c #2C3530",
"V@ 	c #564E36",
"W@ 	c #524527",
"X@ 	c #635D41",
"Y@ 	c #726A55",
"Z@ 	c #79705F",
"`@ 	c #7F7760",
" # 	c #837757",
".# 	c #80806C",
"+# 	c #727150",
"@# 	c #7A8171",
"## 	c #A19887",
"$# 	c #97927B",
"%# 	c #74795E",
"&# 	c #6F704F",
"*# 	c #747C71",
"=# 	c #737B71",
"-# 	c #646B53",
";# 	c #6C724E",
"># 	c #6B704C",
",# 	c #63663B",
"'# 	c #35381B",
")# 	c #404329",
"!# 	c #3F422C",
"~# 	c #4F553B",
"{# 	c #72724F",
"]# 	c #565533",
"^# 	c #484627",
"/# 	c #4D4E2B",
"(# 	c #5B5835",
"_# 	c #615A39",
":# 	c #5E5736",
"<# 	c #5E5331",
"[# 	c #584E33",
"}# 	c #4F452E",
"|# 	c #514533",
"1# 	c #463526",
"2# 	c #423223",
"3# 	c #3D2D1F",
"4# 	c #3E2E20",
"5# 	c #3E2F20",
"6# 	c #3C3225",
"7# 	c #3B3226",
"8# 	c #433D31",
"9# 	c #3F3524",
"0# 	c #615238",
"a# 	c #63583B",
"b# 	c #696245",
"c# 	c #756C4E",
"d# 	c #6C6549",
"e# 	c #665B40",
"f# 	c #5A5134",
"g# 	c #5C553F",
"h# 	c #625B49",
"i# 	c #5F5C4B",
"j# 	c #666558",
"k# 	c #66665A",
"l# 	c #646A5A",
"m# 	c #6D6C5F",
"n# 	c #716E5D",
"o# 	c #5A523B",
"p# 	c #544F39",
"q# 	c #696C5C",
"r# 	c #5D5940",
"s# 	c #70706B",
"t# 	c #615E4B",
"u# 	c #5F5945",
"v# 	c #706F63",
"w# 	c #817C6D",
"x# 	c #9DAAAC",
"y# 	c #91A6A8",
"z# 	c #626F65",
"A# 	c #51574A",
"B# 	c #4C4633",
"C# 	c #565E52",
"D# 	c #637370",
"E# 	c #5F6856",
"F# 	c #404824",
"G# 	c #363527",
"H# 	c #373526",
"I# 	c #383521",
"J# 	c #4D4E3C",
"K# 	c #4D432C",
"L# 	c #625E49",
"M# 	c #4C432C",
"N# 	c #554F46",
"O# 	c #565852",
"P# 	c #758186",
"Q# 	c #535F55",
"R# 	c #86959D",
"S# 	c #686154",
"T# 	c #686956",
"U# 	c #5A5E5A",
"V# 	c #343A2F",
"W# 	c #3C4D4A",
"X# 	c #40585E",
"Y# 	c #47636E",
"Z# 	c #384A47",
"`# 	c #31392F",
" $ 	c #444A3A",
".$ 	c #373F2D",
"+$ 	c #3B3F2E",
"@$ 	c #474A31",
"#$ 	c #3B3F22",
"$$ 	c #72898D",
"%$ 	c #C5E4F4",
"&$ 	c #C6E8F9",
"*$ 	c #7694A0",
"=$ 	c #EEFEFF",
"-$ 	c #C5E6EB",
";$ 	c #8BAAAC",
">$ 	c #3B4F50",
",$ 	c #283334",
"'$ 	c #273432",
")$ 	c #3C433B",
"!$ 	c #393F28",
"~$ 	c #3A4027",
"{$ 	c #4D5336",
"]$ 	c #636E61",
"^$ 	c #6C766E",
"/$ 	c #6A7269",
"($ 	c #6A6C61",
"_$ 	c #686756",
":$ 	c #6B6048",
"<$ 	c #6E673E",
"[$ 	c #736A4F",
"}$ 	c #7F725A",
"|$ 	c #97876A",
"1$ 	c #9B8C70",
"2$ 	c #897F62",
"3$ 	c #6B674A",
"4$ 	c #7D7E69",
"5$ 	c #7D7D5B",
"6$ 	c #7B7859",
"7$ 	c #4E5431",
"8$ 	c #615C37",
"9$ 	c #635D3A",
"0$ 	c #48452D",
"a$ 	c #47472F",
"b$ 	c #5A5B45",
"c$ 	c #6A694A",
"d$ 	c #514A2D",
"e$ 	c #574F3B",
"f$ 	c #54432F",
"g$ 	c #513E2D",
"h$ 	c #4C3828",
"i$ 	c #4E382B",
"j$ 	c #4A3628",
"k$ 	c #3E2D20",
"l$ 	c #402F24",
"m$ 	c #3B2A1E",
"n$ 	c #37261B",
"o$ 	c #38281E",
"p$ 	c #35261C",
"q$ 	c #3B2B1E",
"r$ 	c #3A2A1D",
"s$ 	c #3D2F21",
"t$ 	c #403425",
"u$ 	c #473B2E",
"v$ 	c #473D2E",
"w$ 	c #42382B",
"x$ 	c #433425",
"y$ 	c #493A2B",
"z$ 	c #544F46",
"A$ 	c #555142",
"B$ 	c #5A543C",
"C$ 	c #524E34",
"D$ 	c #576261",
"E$ 	c #788A8D",
"F$ 	c #8B9EA4",
"G$ 	c #9ABAC9",
"H$ 	c #A1C1CF",
"I$ 	c #A7CBDD",
"J$ 	c #A3CADA",
"K$ 	c #9AB5BF",
"L$ 	c #717979",
"M$ 	c #545454",
"N$ 	c #849BA5",
"O$ 	c #819299",
"P$ 	c #748185",
"Q$ 	c #5E666A",
"R$ 	c #565C5B",
"S$ 	c #514D43",
"T$ 	c #5B554F",
"U$ 	c #4C4B43",
"V$ 	c #564C3C",
"W$ 	c #63523D",
"X$ 	c #786852",
"Y$ 	c #716650",
"Z$ 	c #594E36",
"`$ 	c #777D74",
" % 	c #5C5E4E",
".% 	c #666956",
"+% 	c #515E2F",
"@% 	c #657267",
"#% 	c #5C6359",
"$% 	c #40402A",
"%% 	c #3A3420",
"&% 	c #52422C",
"*% 	c #494027",
"=% 	c #3B3421",
"-% 	c #3A3525",
";% 	c #464130",
">% 	c #55503E",
",% 	c #73786C",
"'% 	c #868983",
")% 	c #645D4D",
"!% 	c #605341",
"~% 	c #52513E",
"{% 	c #757E7F",
"]% 	c #637664",
"^% 	c #94A4A6",
"/% 	c #9EAEB1",
"(% 	c #737A71",
"_% 	c #59645A",
":% 	c #718588",
"<% 	c #A5C2D3",
"[% 	c #789095",
"}% 	c #8EA7B8",
"|% 	c #555852",
"1% 	c #515C4D",
"2% 	c #BCD8E4",
"3% 	c #C8E8F7",
"4% 	c #9EBBCA",
"5% 	c #EDFEFF",
"6% 	c #C4E4E9",
"7% 	c #87A6A9",
"8% 	c #384E4D",
"9% 	c #313B38",
"0% 	c #484F46",
"a% 	c #424B37",
"b% 	c #2E3728",
"c% 	c #464A32",
"d% 	c #474A2B",
"e% 	c #5A624E",
"f% 	c #6B766E",
"g% 	c #6D776F",
"h% 	c #6D7870",
"i% 	c #6C7970",
"j% 	c #6E7970",
"k% 	c #6F786F",
"l% 	c #6B776D",
"m% 	c #687164",
"n% 	c #5E6044",
"o% 	c #5C5A3C",
"p% 	c #5D5534",
"q% 	c #5B532E",
"r% 	c #665D3A",
"s% 	c #6E6242",
"t% 	c #746747",
"u% 	c #786A4B",
"v% 	c #7F6E50",
"w% 	c #7A6A4A",
"x% 	c #7D6B4C",
"y% 	c #827858",
"z% 	c #685A40",
"A% 	c #594631",
"B% 	c #594733",
"C% 	c #48392A",
"D% 	c #443122",
"E% 	c #5A4333",
"F% 	c #5E4534",
"G% 	c #513B2C",
"H% 	c #4D3B2C",
"I% 	c #493828",
"J% 	c #3E2D21",
"K% 	c #3E2D23",
"L% 	c #39291F",
"M% 	c #2C2119",
"N% 	c #261B14",
"O% 	c #231912",
"P% 	c #1E170D",
"Q% 	c #1F160F",
"R% 	c #231814",
"S% 	c #271C18",
"T% 	c #2B221E",
"U% 	c #413C35",
"V% 	c #38332D",
"W% 	c #332C22",
"X% 	c #352E26",
"Y% 	c #3F392D",
"Z% 	c #3D3F35",
"`% 	c #585F5E",
" & 	c #8CA3AE",
".& 	c #839799",
"+& 	c #696F5F",
"@& 	c #A3BECA",
"#& 	c #A0BAC2",
"$& 	c #99ADB4",
"%& 	c #8C9FA5",
"&& 	c #61615A",
"*& 	c #71787E",
"=& 	c #9BB2BB",
"-& 	c #96B3C1",
";& 	c #A0BFCC",
">& 	c #A3BCC9",
",& 	c #9DB3C1",
"'& 	c #91B2C0",
")& 	c #6C7F89",
"!& 	c #5F6B72",
"~& 	c #77878B",
"{& 	c #72786D",
"]& 	c #5A543A",
"^& 	c #4C5042",
"/& 	c #5D6C6F",
"(& 	c #565F68",
"_& 	c #4B483E",
":& 	c #4F4B2F",
"<& 	c #586234",
"[& 	c #4E562A",
"}& 	c #5B533B",
"|& 	c #504934",
"1& 	c #534A37",
"2& 	c #594A37",
"3& 	c #4C432B",
"4& 	c #554D3A",
"5& 	c #5A523F",
"6& 	c #5E523F",
"7& 	c #5B4F3D",
"8& 	c #574A35",
"9& 	c #5E4F36",
"0& 	c #5B4F36",
"a& 	c #685E49",
"b& 	c #5D5841",
"c& 	c #5E583C",
"d& 	c #565134",
"e& 	c #514E30",
"f& 	c #46462B",
"g& 	c #56554A",
"h& 	c #778482",
"i& 	c #A0B1B6",
"j& 	c #B4CCD5",
"k& 	c #A5BDC5",
"l& 	c #82928E",
"m& 	c #6D7A7C",
"n& 	c #514633",
"o& 	c #8B9A98",
"p& 	c #ADC5C8",
"q& 	c #7C8E87",
"r& 	c #ECFDFF",
"s& 	c #C1E1E7",
"t& 	c #85A3A6",
"u& 	c #384C4B",
"v& 	c #323C3B",
"w& 	c #5F6450",
"x& 	c #384030",
"y& 	c #28332A",
"z& 	c #3E4533",
"A& 	c #46492B",
"B& 	c #4D5032",
"C& 	c #646D5E",
"D& 	c #6E7870",
"E& 	c #6C796F",
"F& 	c #6E7971",
"G& 	c #727C74",
"H& 	c #707D70",
"I& 	c #6B7562",
"J& 	c #656748",
"K& 	c #6C693E",
"L& 	c #6B6C48",
"M& 	c #777D57",
"N& 	c #6E7450",
"O& 	c #737252",
"P& 	c #6D6A48",
"Q& 	c #635F3D",
"R& 	c #635C3D",
"S& 	c #6F6040",
"T& 	c #6D553A",
"U& 	c #6F5440",
"V& 	c #5A4534",
"W& 	c #4D3A2B",
"X& 	c #3D2C21",
"Y& 	c #3E2C1F",
"Z& 	c #483426",
"`& 	c #473123",
" * 	c #312117",
".* 	c #241A12",
"+* 	c #261B13",
"@* 	c #251B15",
"#* 	c #291F1B",
"$* 	c #2A1F18",
"%* 	c #251B16",
"&* 	c #271E19",
"** 	c #201913",
"=* 	c #221B15",
"-* 	c #292218",
";* 	c #261D14",
">* 	c #281D18",
",* 	c #291E18",
"'* 	c #291F19",
")* 	c #2A2019",
"!* 	c #2E221D",
"~* 	c #393024",
"{* 	c #3C3425",
"]* 	c #30291F",
"^* 	c #525855",
"/* 	c #484946",
"(* 	c #595A59",
"_* 	c #66655F",
":* 	c #645F4B",
"<* 	c #71776F",
"[* 	c #889294",
"}* 	c #747A7B",
"|* 	c #676866",
"1* 	c #5E554E",
"2* 	c #696966",
"3* 	c #6F7277",
"4* 	c #A2BABF",
"5* 	c #A0BCC4",
"6* 	c #AAC9D3",
"7* 	c #9AADB0",
"8* 	c #737A79",
"9* 	c #94A4A9",
"0* 	c #677073",
"a* 	c #3F3F42",
"b* 	c #677174",
"c* 	c #4E483A",
"d* 	c #625C42",
"e* 	c #454E3A",
"f* 	c #7E9596",
"g* 	c #98B4BF",
"h* 	c #617374",
"i* 	c #3D3F26",
"j* 	c #596335",
"k* 	c #4B5729",
"l* 	c #42442A",
"m* 	c #433E2B",
"n* 	c #413928",
"o* 	c #473E2D",
"p* 	c #423B27",
"q* 	c #3D3927",
"r* 	c #3B3724",
"s* 	c #3E3926",
"t* 	c #403B26",
"u* 	c #413C25",
"v* 	c #47453B",
"w* 	c #433F31",
"x* 	c #3D3621",
"y* 	c #484028",
"z* 	c #453B26",
"A* 	c #47402B",
"B* 	c #463F29",
"C* 	c #48402A",
"D* 	c #4C402C",
"E* 	c #554934",
"F* 	c #51432D",
"G* 	c #595643",
"H* 	c #63604F",
"I* 	c #504936",
"J* 	c #4B4332",
"K* 	c #524837",
"L* 	c #504A37",
"M* 	c #4F4C38",
"N* 	c #514F37",
"O* 	c #EAFDFF",
"P* 	c #BFE0E6",
"Q* 	c #84A1A4",
"R* 	c #384848",
"S* 	c #2F3B39",
"T* 	c #575E48",
"U* 	c #323B2F",
"V* 	c #25302B",
"W* 	c #3D4435",
"X* 	c #44492B",
"Y* 	c #4B4D2D",
"Z* 	c #575B40",
"`* 	c #6B756A",
" = 	c #6E796E",
".= 	c #707C6D",
"+= 	c #6D7463",
"@= 	c #656753",
"#= 	c #4E573F",
"$= 	c #807F6F",
"%= 	c #898572",
"&= 	c #6C6F51",
"*= 	c #71784F",
"== 	c #757B4D",
"-= 	c #696C3F",
";= 	c #635838",
">= 	c #5F4C33",
",= 	c #55402F",
"'= 	c #4F3B2A",
")= 	c #593D2C",
"!= 	c #644634",
"~= 	c #51372A",
"{= 	c #422F23",
"]= 	c #4C3B2F",
"^= 	c #36261C",
"/= 	c #423125",
"(= 	c #3A291D",
"_= 	c #39281E",
":= 	c #35271E",
"<= 	c #3C2E24",
"[= 	c #32271F",
"}= 	c #2A1F1A",
"|= 	c #281D19",
"1= 	c #201813",
"2= 	c #241E18",
"3= 	c #1E1711",
"4= 	c #221811",
"5= 	c #281E15",
"6= 	c #2E241C",
"7= 	c #31281F",
"8= 	c #362921",
"9= 	c #382A22",
"0= 	c #382B23",
"a= 	c #382D23",
"b= 	c #2F261C",
"c= 	c #221A14",
"d= 	c #231B15",
"e= 	c #261F18",
"f= 	c #2B201A",
"g= 	c #413B33",
"h= 	c #463D33",
"i= 	c #55453B",
"j= 	c #63554C",
"k= 	c #624F41",
"l= 	c #675044",
"m= 	c #6C5C55",
"n= 	c #646663",
"o= 	c #4A3A35",
"p= 	c #574E4B",
"q= 	c #646562",
"r= 	c #7A7C7A",
"s= 	c #5B5954",
"t= 	c #4A443E",
"u= 	c #5C5D59",
"v= 	c #423C39",
"w= 	c #3C3E3F",
"x= 	c #6D7672",
"y= 	c #4C4E40",
"z= 	c #4F4B39",
"A= 	c #42452F",
"B= 	c #667C77",
"C= 	c #7E9296",
"D= 	c #393D25",
"E= 	c #5C6539",
"F= 	c #495626",
"G= 	c #404226",
"H= 	c #5D533D",
"I= 	c #3E3923",
"J= 	c #2A2A19",
"K= 	c #202212",
"L= 	c #202311",
"M= 	c #252615",
"N= 	c #2C2C1A",
"O= 	c #363520",
"P= 	c #697671",
"Q= 	c #53615C",
"R= 	c #363725",
"S= 	c #353724",
"T= 	c #525F5E",
"U= 	c #5F6059",
"V= 	c #7A7E7C",
"W= 	c #7A8D99",
"X= 	c #373520",
"Y= 	c #383623",
"Z= 	c #373521",
"`= 	c #363220",
" - 	c #373221",
".- 	c #322E1E",
"+- 	c #322D1F",
"@- 	c #332F21",
"#- 	c #312F20",
"$- 	c #36321F",
"%- 	c #49462F",
"&- 	c #E9FDFE",
"*- 	c #BDDEE3",
"=- 	c #819FA1",
"-- 	c #364646",
";- 	c #2C3836",
">- 	c #515942",
",- 	c #434C37",
"'- 	c #26322E",
")- 	c #3E4840",
"!- 	c #454B33",
"~- 	c #56573B",
"{- 	c #636647",
"]- 	c #686E56",
"^- 	c #5B6147",
"/- 	c #41472A",
"(- 	c #363B27",
"_- 	c #505B4F",
":- 	c #68766A",
"<- 	c #6E7867",
"[- 	c #7F845F",
"}- 	c #787A4F",
"|- 	c #6B6D40",
"1- 	c #585434",
"2- 	c #544E32",
"3- 	c #5A4B34",
"4- 	c #5E4835",
"5- 	c #5C4030",
"6- 	c #5B3F2E",
"7- 	c #553D30",
"8- 	c #3A2A1F",
"9- 	c #3F3027",
"0- 	c #382921",
"a- 	c #281C16",
"b- 	c #261B16",
"c- 	c #2B1E17",
"d- 	c #291D17",
"e- 	c #201713",
"f- 	c #2D221E",
"g- 	c #2A211C",
"h- 	c #261F19",
"i- 	c #231D17",
"j- 	c #1F1813",
"k- 	c #241A15",
"l- 	c #2B1F1A",
"m- 	c #352920",
"n- 	c #30241C",
"o- 	c #281B13",
"p- 	c #382A23",
"q- 	c #372821",
"r- 	c #32251E",
"s- 	c #241B18",
"t- 	c #1D1612",
"u- 	c #271F1A",
"v- 	c #2A1F1B",
"w- 	c #3E3A36",
"x- 	c #352B25",
"y- 	c #362A23",
"z- 	c #57443C",
"A- 	c #4F3E34",
"B- 	c #4D3F36",
"C- 	c #4E3F3C",
"D- 	c #483832",
"E- 	c #413028",
"F- 	c #3A2D24",
"G- 	c #372B23",
"H- 	c #372920",
"I- 	c #3B2F28",
"J- 	c #3D322D",
"K- 	c #58595A",
"L- 	c #5A626C",
"M- 	c #626A74",
"N- 	c #4A493E",
"O- 	c #383227",
"P- 	c #474530",
"Q- 	c #5A5C4B",
"R- 	c #6A6E5B",
"S- 	c #656D62",
"T- 	c #353921",
"U- 	c #5C653A",
"V- 	c #4A5429",
"W- 	c #6A624C",
"X- 	c #5C5032",
"Y- 	c #2D3015",
"Z- 	c #2A2E1C",
"`- 	c #242618",
" ; 	c #1E2110",
".; 	c #1E2010",
"+; 	c #232414",
"@; 	c #2A2A17",
"#; 	c #34361D",
"$; 	c #3E4225",
"%; 	c #32371F",
"&; 	c #2B2D1A",
"*; 	c #353823",
"=; 	c #758082",
"-; 	c #6E7473",
";; 	c #5E5943",
">; 	c #7F8A88",
",; 	c #515855",
"'; 	c #2F301C",
"); 	c #465659",
"!; 	c #657F8F",
"~; 	c #35413E",
"{; 	c #1E2012",
"]; 	c #1D1E11",
"^; 	c #1F1F13",
"/; 	c #1E1E12",
"(; 	c #201F12",
"_; 	c #262517",
":; 	c #FDFFFF",
"<; 	c #E7FCFE",
"[; 	c #BCDCE3",
"}; 	c #7F9E9D",
"|; 	c #354445",
"1; 	c #293636",
"2; 	c #586049",
"3; 	c #4E553A",
"4; 	c #444C42",
"5; 	c #6B715C",
"6; 	c #6E7156",
"7; 	c #5B5E41",
"8; 	c #3E4024",
"9; 	c #34361F",
"0; 	c #353829",
"a; 	c #515950",
"b; 	c #6A756C",
"c; 	c #727C6D",
"d; 	c #798167",
"e; 	c #747E55",
"f; 	c #717948",
"g; 	c #66663E",
"h; 	c #525230",
"i; 	c #555536",
"j; 	c #494532",
"k; 	c #584938",
"l; 	c #604F3D",
"m; 	c #4A3928",
"n; 	c #412E21",
"o; 	c #573E2E",
"p; 	c #583F2F",
"q; 	c #4F3B2F",
"r; 	c #3A2C24",
"s; 	c #281D17",
"t; 	c #30241D",
"u; 	c #2A1F17",
"v; 	c #2F251D",
"w; 	c #2E231D",
"x; 	c #1C130F",
"y; 	c #1B1411",
"z; 	c #2F2723",
"A; 	c #2A201C",
"B; 	c #211815",
"C; 	c #16130E",
"D; 	c #15120D",
"E; 	c #1B1410",
"F; 	c #241B17",
"G; 	c #2B201B",
"H; 	c #3F3329",
"I; 	c #34271F",
"J; 	c #3B2D23",
"K; 	c #3E2F28",
"L; 	c #33261E",
"M; 	c #271D18",
"N; 	c #231C16",
"O; 	c #211A14",
"P; 	c #27201A",
"Q; 	c #2B231E",
"R; 	c #2F2620",
"S; 	c #342925",
"T; 	c #372F2A",
"U; 	c #423732",
"V; 	c #2E221E",
"W; 	c #352722",
"X; 	c #4C3C32",
"Y; 	c #463730",
"Z; 	c #3C2D26",
"`; 	c #483830",
" > 	c #44352C",
".> 	c #4A3E36",
"+> 	c #3E3329",
"@> 	c #392C23",
"#> 	c #332721",
"$> 	c #3C383A",
"%> 	c #879FAC",
"&> 	c #9CBCC7",
"*> 	c #5A6059",
"=> 	c #383427",
"-> 	c #403D29",
";> 	c #423F2C",
">> 	c #3F4029",
",> 	c #3E4229",
"'> 	c #2F311C",
")> 	c #555F37",
"!> 	c #5B5C3A",
"~> 	c #514D31",
"{> 	c #34391A",
"]> 	c #19260F",
"^> 	c #364541",
"/> 	c #556165",
"(> 	c #374036",
"_> 	c #232918",
":> 	c #474932",
"<> 	c #545439",
"[> 	c #4B4C33",
"}> 	c #393B25",
"|> 	c #2E301D",
"1> 	c #242716",
"2> 	c #252F23",
"3> 	c #40524F",
"4> 	c #41412F",
"5> 	c #716D65",
"6> 	c #6B7578",
"7> 	c #2F2F1D",
"8> 	c #606C67",
"9> 	c #A7BAC4",
"0> 	c #575F59",
"a> 	c #373226",
"b> 	c #3A3429",
"c> 	c #322D21",
"d> 	c #27261A",
"e> 	c #242517",
"f> 	c #FCFDFC",
"g> 	c #E3E6E2",
"h> 	c #FDFEFC",
"i> 	c #E6FDFE",
"j> 	c #B8DBE0",
"k> 	c #7B9A9B",
"l> 	c #324445",
"m> 	c #2D3A36",
"n> 	c #6B7059",
"o> 	c #717657",
"p> 	c #606341",
"q> 	c #3F4326",
"r> 	c #30341E",
"s> 	c #2F321D",
"t> 	c #3B3B25",
"u> 	c #494B2F",
"v> 	c #656E5C",
"w> 	c #707B70",
"x> 	c #78826D",
"y> 	c #7E8560",
"z> 	c #7E835A",
"A> 	c #72764E",
"B> 	c #6B6649",
"C> 	c #57533D",
"D> 	c #575D4F",
"E> 	c #6A6758",
"F> 	c #5E5644",
"G> 	c #665241",
"H> 	c #563E2E",
"I> 	c #37251C",
"J> 	c #3A2820",
"K> 	c #573D2F",
"L> 	c #634E3D",
"M> 	c #433228",
"N> 	c #30221B",
"O> 	c #211612",
"P> 	c #1E1410",
"Q> 	c #2C1F19",
"R> 	c #261B17",
"S> 	c #1F1510",
"T> 	c #1C1510",
"U> 	c #261E1B",
"V> 	c #201A17",
"W> 	c #15110D",
"X> 	c #1D1915",
"Y> 	c #181410",
"Z> 	c #241E19",
"`> 	c #291F1A",
" , 	c #2D201C",
"., 	c #31241D",
"+, 	c #37281F",
"@, 	c #413024",
"#, 	c #413125",
"$, 	c #2D2019",
"%, 	c #241813",
"&, 	c #1D1510",
"*, 	c #241D18",
"=, 	c #28231D",
"-, 	c #211A15",
";, 	c #2F2520",
">, 	c #4B3C33",
",, 	c #322622",
"', 	c #281E1A",
"), 	c #42352F",
"!, 	c #41342D",
"~, 	c #2A1D19",
"{, 	c #372824",
"], 	c #3D2E27",
"^, 	c #35261F",
"/, 	c #33231C",
"(, 	c #473529",
"_, 	c #463528",
":, 	c #443C33",
"<, 	c #3C3D3C",
"[, 	c #2D2520",
"}, 	c #342721",
"|, 	c #2F231E",
"1, 	c #444142",
"2, 	c #768288",
"3, 	c #99B2B6",
"4, 	c #676F6A",
"5, 	c #4F4D3D",
"6, 	c #393225",
"7, 	c #464331",
"8, 	c #45452F",
"9, 	c #41442D",
"0, 	c #393925",
"a, 	c #5A5F3A",
"b, 	c #474E2B",
"c, 	c #3E4733",
"d, 	c #2B3824",
"e, 	c #34483E",
"f, 	c #99B4C7",
"g, 	c #94ABB0",
"h, 	c #6C6E5B",
"i, 	c #5F5E41",
"j, 	c #525435",
"k, 	c #3C4124",
"l, 	c #292E1C",
"m, 	c #1E2214",
"n, 	c #242413",
"o, 	c #637376",
"p, 	c #A2BACD",
"q, 	c #5A6766",
"r, 	c #3B3826",
"s, 	c #403F2D",
"t, 	c #3F3A29",
"u, 	c #4A463A",
"v, 	c #4C5155",
"w, 	c #5B6B79",
"x, 	c #708090",
"y, 	c #60696E",
"z, 	c #212215",
"A, 	c #313325",
"B, 	c #DEE1DC",
"C, 	c #BCBFAE",
"D, 	c #F1F7F2",
"E, 	c #FCFFFF",
"F, 	c #E5FCFD",
"G, 	c #B8D9DD",
"H, 	c #839E97",
"I, 	c #656A58",
"J, 	c #606448",
"K, 	c #46482D",
"L, 	c #353822",
"M, 	c #323423",
"N, 	c #363B32",
"O, 	c #4B554F",
"P, 	c #525C4E",
"Q, 	c #4C4E30",
"R, 	c #555636",
"S, 	c #616448",
"T, 	c #7E8269",
"U, 	c #7D7F63",
"V, 	c #757965",
"W, 	c #68715F",
"X, 	c #6F7766",
"Y, 	c #6F6F63",
"Z, 	c #707163",
"`, 	c #71705D",
" ' 	c #756755",
".' 	c #5C4938",
"+' 	c #55412F",
"@' 	c #432B1F",
"#' 	c #453124",
"$' 	c #4F392C",
"%' 	c #53382D",
"&' 	c #503D30",
"*' 	c #3E2E24",
"=' 	c #34261E",
"-' 	c #281C19",
";' 	c #241915",
">' 	c #251813",
",' 	c #261A14",
"'' 	c #211712",
")' 	c #211915",
"!' 	c #1E1714",
"~' 	c #120D0A",
"{' 	c #110D0A",
"]' 	c #26211E",
"^' 	c #15100D",
"/' 	c #2D2623",
"(' 	c #2F2521",
"_' 	c #2E231F",
":' 	c #251814",
"<' 	c #30221A",
"[' 	c #3A2A20",
"}' 	c #3C2B20",
"|' 	c #2E2018",
"1' 	c #211611",
"2' 	c #221C16",
"3' 	c #2F231D",
"4' 	c #4E3E32",
"5' 	c #2A1E1A",
"6' 	c #1E1610",
"7' 	c #261C16",
"8' 	c #42342C",
"9' 	c #382A25",
"0' 	c #2A1C19",
"a' 	c #3D2E26",
"b' 	c #3A2A22",
"c' 	c #412F23",
"d' 	c #402E23",
"e' 	c #31251E",
"f' 	c #3F4243",
"g' 	c #241D19",
"h' 	c #281F1B",
"i' 	c #30221E",
"j' 	c #382B27",
"k' 	c #383233",
"l' 	c #413F40",
"m' 	c #302D24",
"n' 	c #292017",
"o' 	c #3C3327",
"p' 	c #474331",
"q' 	c #474631",
"r' 	c #6A5F4B",
"s' 	c #575635",
"t' 	c #4F5032",
"u' 	c #63737C",
"v' 	c #41514B",
"w' 	c #4F6258",
"x' 	c #96A9A7",
"y' 	c #6A745F",
"z' 	c #454827",
"A' 	c #30331B",
"B' 	c #212512",
"C' 	c #697984",
"D' 	c #95ADBF",
"E' 	c #5F6A6D",
"F' 	c #302E1D",
"G' 	c #363521",
"H' 	c #383522",
"I' 	c #474435",
"J' 	c #4B4C3E",
"K' 	c #3A392A",
"L' 	c #3F3F3B",
"M' 	c #2C2B1A",
"N' 	c #2B2B19",
"O' 	c #2F2E1C",
"P' 	c #737F86",
"Q' 	c #A5BFCB",
"R' 	c #99B0B5",
"S' 	c #77857E",
"T' 	c #424A3E",
"U' 	c #202215",
"V' 	c #262719",
"W' 	c #3F402D",
"X' 	c #B8B5A6",
"Y' 	c #A7AD98",
"Z' 	c #E0F1EF",
"`' 	c #D2E2DF",
" ) 	c #848F87",
".) 	c #45483D",
"+) 	c #3A3D33",
"@) 	c #32372D",
"#) 	c #393F32",
"$) 	c #4B533A",
"%) 	c #3A452F",
"&) 	c #435048",
"*) 	c #5D6A65",
"=) 	c #677269",
"-) 	c #4F5238",
";) 	c #525333",
">) 	c #5E5F3E",
",) 	c #6A6B56",
"') 	c #747B71",
")) 	c #747C73",
"!) 	c #737265",
"~) 	c #76776B",
"{) 	c #736F5E",
"]) 	c #7B664F",
"^) 	c #624935",
"/) 	c #4F3928",
"() 	c #3A281E",
"_) 	c #4D372B",
":) 	c #4D382A",
"<) 	c #302019",
"[) 	c #3A2B21",
"}) 	c #3D2E24",
"|) 	c #34251E",
"1) 	c #2C1F1C",
"2) 	c #291C14",
"3) 	c #2E1F18",
"4) 	c #241A13",
"5) 	c #1C1612",
"6) 	c #130E0B",
"7) 	c #0E0A07",
"8) 	c #140F0C",
"9) 	c #201916",
"0) 	c #1B1310",
"a) 	c #332621",
"b) 	c #31231C",
"c) 	c #271B13",
"d) 	c #2C1E17",
"e) 	c #33241C",
"f) 	c #261C17",
"g) 	c #271D19",
"h) 	c #2C221C",
"i) 	c #43332A",
"j) 	c #2B1F1B",
"k) 	c #2B221D",
"l) 	c #221A13",
"m) 	c #32231E",
"n) 	c #3E2F26",
"o) 	c #34231C",
"p) 	c #3D2C22",
"q) 	c #30211A",
"r) 	c #30231C",
"s) 	c #332D2C",
"t) 	c #261C18",
"u) 	c #2B241F",
"v) 	c #332B28",
"w) 	c #332622",
"x) 	c #545A5B",
"y) 	c #798A88",
"z) 	c #5B5B4F",
"A) 	c #3E3832",
"B) 	c #43392E",
"C) 	c #524A39",
"D) 	c #4C3F33",
"E) 	c #4E4132",
"F) 	c #534E35",
"G) 	c #3C3C23",
"H) 	c #798383",
"I) 	c #58624E",
"J) 	c #4B4F2E",
"K) 	c #373D1F",
"L) 	c #272A17",
"M) 	c #28281A",
"N) 	c #302F1F",
"O) 	c #3F3C2A",
"P) 	c #606358",
"Q) 	c #4F5646",
"R) 	c #383826",
"S) 	c #2E2D19",
"T) 	c #2F2E1B",
"U) 	c #2C2D1B",
"V) 	c #2E2F1F",
"W) 	c #303528",
"X) 	c #5F6260",
"Y) 	c #4D4D46",
"Z) 	c #1F2011",
"`) 	c #2A2B1A",
" ! 	c #414737",
".! 	c #3E4A3C",
"+! 	c #272D1F",
"@! 	c #373B34",
"#! 	c #424640",
"$! 	c #4C4E45",
"%! 	c #4E4D39",
"&! 	c #54523D",
"*! 	c #F9FCFB",
"=! 	c #D9DDD7",
"-! 	c #9A9279",
";! 	c #8E957E",
">! 	c #ACC1CA",
",! 	c #A1C0C8",
"'! 	c #748E8F",
")! 	c #303E3D",
"!! 	c #253131",
"~! 	c #303B36",
"{! 	c #535B41",
"]! 	c #3D4A31",
"^! 	c #45534A",
"/! 	c #5E6A65",
"(! 	c #6B7970",
"_! 	c #5E6556",
":! 	c #545435",
"<! 	c #575A40",
"[! 	c #72786F",
"}! 	c #757C74",
"|! 	c #777A6F",
"1! 	c #7D786A",
"2! 	c #776E5C",
"3! 	c #795E4A",
"4! 	c #5D4330",
"5! 	c #604835",
"6! 	c #463124",
"7! 	c #3B2A1F",
"8! 	c #433125",
"9! 	c #231915",
"0! 	c #342622",
"a! 	c #3D2E25",
"b! 	c #3F3025",
"c! 	c #30221C",
"d! 	c #271B16",
"e! 	c #2D1F17",
"f! 	c #271C15",
"g! 	c #1C1511",
"h! 	c #0F0B07",
"i! 	c #100C09",
"j! 	c #1C1512",
"k! 	c #251D18",
"l! 	c #211916",
"m! 	c #2D2018",
"n! 	c #31231A",
"o! 	c #2E2118",
"p! 	c #2F2219",
"q! 	c #231711",
"r! 	c #251A16",
"s! 	c #221712",
"t! 	c #37271F",
"u! 	c #32251D",
"v! 	c #362B27",
"w! 	c #31221A",
"x! 	c #31231B",
"y! 	c #291E19",
"z! 	c #2A1D16",
"A! 	c #3C2D25",
"B! 	c #3D2C25",
"C! 	c #35261D",
"D! 	c #372922",
"E! 	c #201511",
"F! 	c #291E1A",
"G! 	c #29211D",
"H! 	c #4B4B4A",
"I! 	c #352724",
"J! 	c #403A34",
"K! 	c #6D746D",
"L! 	c #57554F",
"M! 	c #322A24",
"N! 	c #42382F",
"O! 	c #43382C",
"P! 	c #43362D",
"Q! 	c #3B2F26",
"R! 	c #3E3626",
"S! 	c #514F36",
"T! 	c #47482C",
"U! 	c #35341E",
"V! 	c #292917",
"W! 	c #323221",
"X! 	c #46463E",
"Y! 	c #414337",
"Z! 	c #3A3824",
"`! 	c #32331C",
" ~ 	c #31331E",
".~ 	c #2E2F1C",
"+~ 	c #2A2B19",
"@~ 	c #33331E",
"#~ 	c #433F2F",
"$~ 	c #424231",
"%~ 	c #2A2C1B",
"&~ 	c #37382A",
"*~ 	c #4E4D49",
"=~ 	c #38372D",
"-~ 	c #2E2E22",
";~ 	c #272A18",
">~ 	c #333420",
",~ 	c #7A736E",
"'~ 	c #948C8D",
")~ 	c #918D8C",
"!~ 	c #84827E",
"~~ 	c #797673",
"{~ 	c #656562",
"]~ 	c #D5DCD6",
"^~ 	c #EAECEA",
"/~ 	c #FBFCFC",
"(~ 	c #979D8D",
"_~ 	c #858065",
":~ 	c #A9BBB9",
"<~ 	c #B2D0D8",
"[~ 	c #718F8F",
"}~ 	c #243030",
"|~ 	c #263231",
"1~ 	c #4E563E",
"2~ 	c #414D34",
"3~ 	c #47544C",
"4~ 	c #5F6C67",
"5~ 	c #6B7B71",
"6~ 	c #6B786F",
"7~ 	c #515132",
"8~ 	c #505134",
"9~ 	c #646C5C",
"0~ 	c #797263",
"a~ 	c #756B57",
"b~ 	c #614D38",
"c~ 	c #493326",
"d~ 	c #473526",
"e~ 	c #443224",
"f~ 	c #38271D",
"g~ 	c #3D2D21",
"h~ 	c #261D17",
"i~ 	c #1B1612",
"j~ 	c #413431",
"k~ 	c #47372E",
"l~ 	c #3F2E24",
"m~ 	c #281C14",
"n~ 	c #251A14",
"o~ 	c #2F211A",
"p~ 	c #34251C",
"q~ 	c #322119",
"r~ 	c #261B15",
"s~ 	c #18130E",
"t~ 	c #120E0B",
"u~ 	c #130F0C",
"v~ 	c #211A16",
"w~ 	c #231A15",
"x~ 	c #291C16",
"y~ 	c #312319",
"z~ 	c #2E2017",
"A~ 	c #30231B",
"B~ 	c #291B13",
"C~ 	c #221710",
"D~ 	c #291D16",
"E~ 	c #2F221B",
"F~ 	c #2B1E16",
"G~ 	c #32231C",
"H~ 	c #2B1E19",
"I~ 	c #2E211C",
"J~ 	c #2F221E",
"K~ 	c #2B201C",
"L~ 	c #2F221A",
"M~ 	c #2D2017",
"N~ 	c #271B17",
"O~ 	c #342620",
"P~ 	c #3C2B23",
"Q~ 	c #3F2E25",
"R~ 	c #36271E",
"S~ 	c #2A231E",
"T~ 	c #2B1E1A",
"U~ 	c #35271F",
"V~ 	c #47403A",
"W~ 	c #36322E",
"X~ 	c #2E2821",
"Y~ 	c #353127",
"Z~ 	c #514438",
"`~ 	c #514A3D",
" { 	c #372D24",
".{ 	c #30251D",
"+{ 	c #423E2C",
"@{ 	c #34321F",
"#{ 	c #30301D",
"${ 	c #343621",
"%{ 	c #3D4025",
"&{ 	c #5E5E51",
"*{ 	c #8B8886",
"={ 	c #8A8784",
"-{ 	c #62615D",
";{ 	c #34341F",
">{ 	c #30321D",
",{ 	c #2E301C",
"'{ 	c #292B19",
"){ 	c #2D2F1C",
"!{ 	c #363525",
"~{ 	c #252715",
"{{ 	c #232613",
"]{ 	c #252815",
"^{ 	c #262816",
"/{ 	c #565247",
"({ 	c #595043",
"_{ 	c #5A5246",
":{ 	c #534E47",
"<{ 	c #484B46",
"[{ 	c #514F3C",
"}{ 	c #928783",
"|{ 	c #958F8C",
"1{ 	c #8D8A85",
"2{ 	c #928B87",
"3{ 	c #8C8682",
"4{ 	c #D2D8D2",
"5{ 	c #718173",
"6{ 	c #B8BEB8",
"7{ 	c #FAFBF9",
"8{ 	c #CDD7CF",
"9{ 	c #777357",
"0{ 	c #787B64",
"a{ 	c #A1B7C1",
"b{ 	c #6F8C8C",
"c{ 	c #2F3C3D",
"d{ 	c #242F31",
"e{ 	c #242F30",
"f{ 	c #444B3A",
"g{ 	c #455037",
"h{ 	c #49584D",
"i{ 	c #6A7A70",
"j{ 	c #6D7B72",
"k{ 	c #697269",
"l{ 	c #55573E",
"m{ 	c #4C4D2F",
"n{ 	c #58604E",
"o{ 	c #777365",
"p{ 	c #675647",
"q{ 	c #5D473A",
"r{ 	c #50392D",
"s{ 	c #473326",
"t{ 	c #473528",
"u{ 	c #423123",
"v{ 	c #392A20",
"w{ 	c #1A1310",
"x{ 	c #17120E",
"y{ 	c #1D1512",
"z{ 	c #392C29",
"A{ 	c #412F25",
"B{ 	c #473428",
"C{ 	c #291D15",
"D{ 	c #2A1E19",
"E{ 	c #34241A",
"F{ 	c #332318",
"G{ 	c #1E150E",
"H{ 	c #140F0A",
"I{ 	c #100B08",
"J{ 	c #140F0B",
"K{ 	c #472F24",
"L{ 	c #412B20",
"M{ 	c #35261B",
"N{ 	c #302218",
"O{ 	c #2A1D15",
"P{ 	c #251913",
"Q{ 	c #31241B",
"R{ 	c #2B2017",
"S{ 	c #2B1D18",
"T{ 	c #2B1F18",
"U{ 	c #2E2119",
"V{ 	c #251A15",
"W{ 	c #221813",
"X{ 	c #48362C",
"Y{ 	c #45332A",
"Z{ 	c #382922",
"`{ 	c #2C201C",
" ] 	c #2A1E1B",
".] 	c #201512",
"+] 	c #31241C",
"@] 	c #3A2F28",
"#] 	c #2F2926",
"$] 	c #322A25",
"%] 	c #322B24",
"&] 	c #312920",
"*] 	c #322822",
"=] 	c #3C352C",
"-] 	c #342E23",
";] 	c #413E2D",
">] 	c #464534",
",] 	c #454732",
"'] 	c #44472A",
")] 	c #525236",
"!] 	c #726F5E",
"~] 	c #948C88",
"{] 	c #8B8885",
"]] 	c #464936",
"^] 	c #2C2F1B",
"/] 	c #262916",
"(] 	c #202312",
"_] 	c #222514",
":] 	c #4A4A44",
"<] 	c #303220",
"[] 	c #2A2D1A",
"}] 	c #282B18",
"|] 	c #635E54",
"1] 	c #695C51",
"2] 	c #5E574C",
"3] 	c #978D8F",
"4] 	c #807D7D",
"5] 	c #6B665C",
"6] 	c #827A70",
"7] 	c #777167",
"8] 	c #6A675A",
"9] 	c #595752",
"0] 	c #E5E8E5",
"a] 	c #667565",
"b] 	c #677362",
"c] 	c #8B9587",
"d] 	c #E8F0E9",
"e] 	c #F2F9F7",
"f] 	c #74816C",
"g] 	c #636244",
"h] 	c #7F8A8C",
"i] 	c #6F8688",
"j] 	c #2F3B3C",
"k] 	c #253032",
"l] 	c #252D30",
"m] 	c #384036",
"n] 	c #49533B",
"o] 	c #4C5B50",
"p] 	c #616E67",
"q] 	c #6D7B71",
"r] 	c #707A72",
"s] 	c #687166",
"t] 	c #4D523B",
"u] 	c #565C48",
"v] 	c #6F675A",
"w] 	c #58463B",
"x] 	c #483328",
"y] 	c #49372B",
"z] 	c #554638",
"A] 	c #473429",
"B] 	c #1B1512",
"C] 	c #49372D",
"D] 	c #503C31",
"E] 	c #33241D",
"F] 	c #2E201C",
"G] 	c #44332A",
"H] 	c #302119",
"I] 	c #1B1511",
"J] 	c #15100C",
"K] 	c #18120D",
"L] 	c #2D201A",
"M] 	c #4F3A2C",
"N] 	c #4C3227",
"O] 	c #463125",
"P] 	c #302017",
"Q] 	c #34261D",
"R] 	c #2B1C15",
"S] 	c #291C17",
"T] 	c #2C1E15",
"U] 	c #36281D",
"V] 	c #32251C",
"W] 	c #271B12",
"X] 	c #221713",
"Y] 	c #291D1A",
"Z] 	c #3B2C25",
"`] 	c #251914",
" ^ 	c #31251C",
".^ 	c #261815",
"+^ 	c #271D17",
"@^ 	c #443228",
"#^ 	c #47352C",
"$^ 	c #2C211B",
"%^ 	c #2B1F1C",
"&^ 	c #201915",
"*^ 	c #352E28",
"=^ 	c #3D3530",
"-^ 	c #2F2420",
";^ 	c #2D231C",
">^ 	c #464031",
",^ 	c #3A3927",
"'^ 	c #3D3E29",
")^ 	c #404125",
"!^ 	c #434426",
"~^ 	c #484828",
"{^ 	c #66624D",
"]^ 	c #726F5A",
"^^ 	c #464830",
"/^ 	c #252817",
"(^ 	c #282B1A",
"_^ 	c #514F41",
":^ 	c #393927",
"<^ 	c #282A18",
"[^ 	c #262918",
"}^ 	c #464233",
"|^ 	c #63584B",
"1^ 	c #4E4435",
"2^ 	c #8F8480",
"3^ 	c #A19A98",
"4^ 	c #5B5347",
"5^ 	c #484742",
"6^ 	c #6E6B6A",
"7^ 	c #77716A",
"8^ 	c #FCFDFD",
"9^ 	c #F9FBF9",
"0^ 	c #6B7D6D",
"a^ 	c #596854",
"b^ 	c #5D6854",
"c^ 	c #748971",
"d^ 	c #E1F1EA",
"e^ 	c #AFC6BB",
"f^ 	c #5C5D3F",
"g^ 	c #62685C",
"h^ 	c #657A7C",
"i^ 	c #2E393B",
"j^ 	c #252D2F",
"k^ 	c #2C3333",
"l^ 	c #4D5642",
"m^ 	c #4F5E52",
"n^ 	c #626F67",
"o^ 	c #6E7B72",
"p^ 	c #6F7C73",
"q^ 	c #707C73",
"r^ 	c #707D74",
"s^ 	c #687366",
"t^ 	c #666551",
"u^ 	c #61594A",
"v^ 	c #443329",
"w^ 	c #433127",
"x^ 	c #5B5343",
"y^ 	c #503F31",
"z^ 	c #4A382D",
"A^ 	c #443429",
"B^ 	c #181310",
"C^ 	c #1E1814",
"D^ 	c #443128",
"E^ 	c #392823",
"F^ 	c #271A16",
"G^ 	c #433128",
"H^ 	c #564337",
"I^ 	c #211914",
"J^ 	c #1C1611",
"K^ 	c #1D1712",
"L^ 	c #3C2D24",
"M^ 	c #443125",
"N^ 	c #39261B",
"O^ 	c #49362A",
"P^ 	c #332219",
"Q^ 	c #3D2D24",
"R^ 	c #2E2019",
"S^ 	c #251812",
"T^ 	c #24170F",
"U^ 	c #3B2B1F",
"V^ 	c #3A2C1F",
"W^ 	c #231812",
"X^ 	c #1F1410",
"Y^ 	c #291C19",
"Z^ 	c #291B17",
"`^ 	c #33251F",
" / 	c #413229",
"./ 	c #180E0B",
"+/ 	c #221711",
"@/ 	c #271A15",
"#/ 	c #201711",
"$/ 	c #1E1611",
"%/ 	c #3E2C24",
"&/ 	c #402F25",
"*/ 	c #31221B",
"=/ 	c #2A1F19",
"-/ 	c #221914",
";/ 	c #231712",
">/ 	c #261A15",
",/ 	c #221B17",
"'/ 	c #261E1A",
")/ 	c #27201B",
"!/ 	c #322924",
"~/ 	c #302520",
"{/ 	c #626055",
"]/ 	c #5A554A",
"^/ 	c #574F3C",
"// 	c #524A38",
"(/ 	c #524D38",
"_/ 	c #49462B",
":/ 	c #4F4B2E",
"</ 	c #4D4A2C",
"[/ 	c #45472C",
"}/ 	c #424734",
"|/ 	c #2D3121",
"1/ 	c #313321",
"2/ 	c #30311E",
"3/ 	c #2C2E19",
"4/ 	c #373823",
"5/ 	c #353626",
"6/ 	c #212413",
"7/ 	c #232515",
"8/ 	c #252616",
"9/ 	c #494335",
"0/ 	c #4F4536",
"a/ 	c #63574B",
"b/ 	c #676056",
"c/ 	c #5D5E56",
"d/ 	c #656767",
"e/ 	c #848482",
"f/ 	c #7B7A71",
"g/ 	c #605D49",
"h/ 	c #D1D9D7",
"i/ 	c #9BA99F",
"j/ 	c #546450",
"k/ 	c #4E5C46",
"l/ 	c #535F49",
"m/ 	c #798B78",
"n/ 	c #C3D6D2",
"o/ 	c #6C7357",
"p/ 	c #575C45",
"q/ 	c #516260",
"r/ 	c #2C393A",
"s/ 	c #252F30",
"t/ 	c #262F2F",
"u/ 	c #495244",
"v/ 	c #546155",
"w/ 	c #637068",
"x/ 	c #71796E",
"y/ 	c #706C5B",
"z/ 	c #605748",
"A/ 	c #403026",
"B/ 	c #423124",
"C/ 	c #443227",
"D/ 	c #3E2D24",
"E/ 	c #241814",
"F/ 	c #1B150F",
"G/ 	c #18120F",
"H/ 	c #3C2F25",
"I/ 	c #3B2A20",
"J/ 	c #3E2B23",
"K/ 	c #42312A",
"L/ 	c #443028",
"M/ 	c #574034",
"N/ 	c #1E1510",
"O/ 	c #1F1713",
"P/ 	c #211B16",
"Q/ 	c #211913",
"R/ 	c #44342C",
"S/ 	c #3F2D22",
"T/ 	c #342218",
"U/ 	c #554237",
"V/ 	c #3A2920",
"W/ 	c #312218",
"X/ 	c #3D2D23",
"Y/ 	c #261811",
"Z/ 	c #33241B",
"`/ 	c #251811",
" ( 	c #291C18",
".( 	c #362820",
"+( 	c #201613",
"@( 	c #221812",
"#( 	c #3C2B22",
"$( 	c #231A14",
"%( 	c #1C1410",
"&( 	c #271A17",
"*( 	c #271C17",
"=( 	c #251C17",
"-( 	c #1F1714",
";( 	c #1C1411",
">( 	c #2B211E",
",( 	c #3E3835",
"'( 	c #8A8E91",
")( 	c #99A1A3",
"!( 	c #838586",
"~( 	c #6C665A",
"{( 	c #5E564A",
"]( 	c #595241",
"^( 	c #4B472B",
"/( 	c #4D492D",
"(( 	c #4A462C",
"_( 	c #595443",
":( 	c #504F3F",
"<( 	c #353725",
"[( 	c #31331F",
"}( 	c #30311D",
"|( 	c #343526",
"1( 	c #222315",
"2( 	c #222314",
"3( 	c #2C2D1F",
"4( 	c #242415",
"5( 	c #2D2B1C",
"6( 	c #282617",
"7( 	c #756D6C",
"8( 	c #A39F9F",
"9( 	c #9D9D9D",
"0( 	c #8C8B82",
"a( 	c #6D6759",
"b( 	c #555D5C",
"c( 	c #869690",
"d( 	c #CBD2CD",
"e( 	c #54695B",
"f( 	c #8AA9AD",
"g( 	c #485845",
"h( 	c #414C39",
"i( 	c #596552",
"j( 	c #626548",
"k( 	c #585C3E",
"l( 	c #4C5349",
"m( 	c #2C3739",
"n( 	c #232F30",
"o( 	c #434A42",
"p( 	c #5E665B",
"q( 	c #64716A",
"r( 	c #747C72",
"s( 	c #797A6C",
"t( 	c #777565",
"u( 	c #707263",
"v( 	c #5C5447",
"w( 	c #32211A",
"x( 	c #37291F",
"y( 	c #3E2E22",
"z( 	c #3B2B22",
"A( 	c #211B15",
"B( 	c #16110D",
"C( 	c #16110E",
"D( 	c #1B1613",
"E( 	c #3F2F26",
"F( 	c #3D2A22",
"G( 	c #281A13",
"H( 	c #513B33",
"I( 	c #4D352A",
"J( 	c #18110D",
"K( 	c #16100D",
"L( 	c #18130F",
"M( 	c #1B1611",
"N( 	c #3C2920",
"O( 	c #3A291F",
"P( 	c #544034",
"Q( 	c #4A3529",
"R( 	c #3C2A1E",
"S( 	c #281912",
"T( 	c #2C1E16",
"U( 	c #261911",
"V( 	c #241A14",
"W( 	c #221814",
"X( 	c #2C1E18",
"Y( 	c #291C15",
"Z( 	c #302219",
"`( 	c #413127",
" _ 	c #3D2C23",
"._ 	c #33271E",
"+_ 	c #19120D",
"@_ 	c #34231B",
"#_ 	c #2C2019",
"$_ 	c #231913",
"%_ 	c #221512",
"&_ 	c #1E130F",
"*_ 	c #231713",
"=_ 	c #2B1E18",
"-_ 	c #2D211B",
";_ 	c #231A18",
">_ 	c #201B18",
",_ 	c #3D3734",
"'_ 	c #8B8A8D",
")_ 	c #C5D0D8",
"!_ 	c #B9C7CF",
"~_ 	c #B4BDC7",
"{_ 	c #97ACAE",
"]_ 	c #59635C",
"^_ 	c #4A4630",
"/_ 	c #4E4930",
"(_ 	c #514C35",
"__ 	c #423F27",
":_ 	c #3E4331",
"<_ 	c #414232",
"[_ 	c #292A18",
"}_ 	c #252618",
"|_ 	c #212214",
"1_ 	c #1E1F11",
"2_ 	c #1A1C0E",
"3_ 	c #1A1F13",
"4_ 	c #6F7F8F",
"5_ 	c #363A31",
"6_ 	c #857B77",
"7_ 	c #A8A2A1",
"8_ 	c #94918C",
"9_ 	c #6E6957",
"0_ 	c #636863",
"a_ 	c #8991A1",
"b_ 	c #6C766D",
"c_ 	c #DEE5E4",
"d_ 	c #EFF2F1",
"e_ 	c #5A7266",
"f_ 	c #EDF7F6",
"g_ 	c #A8B7B1",
"h_ 	c #3D4C38",
"i_ 	c #39422F",
"j_ 	c #484F36",
"k_ 	c #54593B",
"l_ 	c #4A5144",
"m_ 	c #293535",
"n_ 	c #232F2F",
"o_ 	c #3C433C",
"p_ 	c #6A6E5A",
"q_ 	c #6D7569",
"r_ 	c #75786B",
"s_ 	c #787466",
"t_ 	c #756E5B",
"u_ 	c #6C6655",
"v_ 	c #6C6857",
"w_ 	c #615D4D",
"x_ 	c #4A3D32",
"y_ 	c #503C33",
"z_ 	c #2F1F1A",
"A_ 	c #403024",
"B_ 	c #312119",
"C_ 	c #29211C",
"D_ 	c #17120F",
"E_ 	c #3B2D24",
"F_ 	c #4E3C32",
"G_ 	c #43322B",
"H_ 	c #301F18",
"I_ 	c #4C382E",
"J_ 	c #130E09",
"K_ 	c #211814",
"L_ 	c #3B2921",
"M_ 	c #402E24",
"N_ 	c #4C362B",
"O_ 	c #422F24",
"P_ 	c #2D1E17",
"Q_ 	c #281A16",
"R_ 	c #2E221B",
"S_ 	c #251B17",
"T_ 	c #201710",
"U_ 	c #32241C",
"V_ 	c #2F2119",
"W_ 	c #45342A",
"X_ 	c #37251B",
"Y_ 	c #3F2E22",
"Z_ 	c #38261B",
"`_ 	c #453326",
" : 	c #1D130E",
".: 	c #241914",
"+: 	c #271D16",
"@: 	c #2D1E18",
"#: 	c #2F2018",
"$: 	c #221613",
"%: 	c #32231D",
"&: 	c #382A21",
"*: 	c #2E231E",
"=: 	c #2F2C28",
"-: 	c #1D1916",
";: 	c #2E221F",
">: 	c #2C211F",
",: 	c #382B28",
"': 	c #746C72",
"): 	c #CCD0D6",
"!: 	c #D5D9E4",
"~: 	c #F9FBFC",
"{: 	c #D4E8EC",
"]: 	c #91ACAD",
"^: 	c #83999B",
"/: 	c #555E52",
"(: 	c #909F9D",
"_: 	c #D0DADB",
":: 	c #98ACAD",
"<: 	c #88A1A8",
"[: 	c #4F676C",
"}: 	c #2C2D20",
"|: 	c #262619",
"1: 	c #202419",
"2: 	c #1D2014",
"3: 	c #1F2114",
"4: 	c #252719",
"5: 	c #848991",
"6: 	c #47463D",
"7: 	c #63564C",
"8: 	c #948A84",
"9: 	c #55564C",
"0: 	c #97989E",
"a: 	c #8B9094",
"b: 	c #697267",
"c: 	c #A9B8B4",
"d: 	c #92A19A",
"e: 	c #E1EDEB",
"f: 	c #F7FAFA",
"g: 	c #768D85",
"h: 	c #445040",
"i: 	c #474E37",
"j: 	c #525639",
"k: 	c #4B5040",
"l: 	c #2D3739",
"m: 	c #293536",
"n: 	c #2D3939",
"o: 	c #2F3B38",
"p: 	c #5B624F",
"q: 	c #7A6F56",
"r: 	c #756C5A",
"s: 	c #707162",
"t: 	c #635F4E",
"u: 	c #544A3F",
"v: 	c #42362C",
"w: 	c #332620",
"x: 	c #42352D",
"y: 	c #533F33",
"z: 	c #2F201A",
"A: 	c #3B2A21",
"B: 	c #33231B",
"C: 	c #291D18",
"D: 	c #2D231E",
"E: 	c #1F1814",
"F: 	c #2C211D",
"G: 	c #2F221C",
"H: 	c #443229",
"I: 	c #3E2E26",
"J: 	c #34241D",
"K: 	c #402F27",
"L: 	c #2E201A",
"M: 	c #170F0C",
"N: 	c #150F0C",
"O: 	c #18110E",
"P: 	c #18120E",
"Q: 	c #221916",
"R: 	c #4C382C",
"S: 	c #493527",
"T: 	c #37261A",
"U: 	c #2C1F17",
"V: 	c #251912",
"W: 	c #231A16",
"X: 	c #19110D",
"Y: 	c #271B15",
"Z: 	c #312219",
"`: 	c #2F1F18",
" < 	c #392820",
".< 	c #4E372A",
"+< 	c #4D392B",
"@< 	c #3E2B1E",
"#< 	c #4C392B",
"$< 	c #2E2219",
"%< 	c #211713",
"&< 	c #231813",
"*< 	c #35251B",
"=< 	c #211511",
"-< 	c #3E2E25",
";< 	c #221C19",
">< 	c #221915",
",< 	c #291E1B",
"'< 	c #656672",
")< 	c #453B44",
"!< 	c #524B47",
"~< 	c #7B6F62",
"{< 	c #E0E4E0",
"]< 	c #EAF6F5",
"^< 	c #F5FCFC",
"/< 	c #F2F6F3",
"(< 	c #7B8A80",
"_< 	c #B6BBB3",
":< 	c #FBFEFD",
"<< 	c #8AA099",
"[< 	c #393B36",
"}< 	c #4C5759",
"|< 	c #798C96",
"1< 	c #394D45",
"2< 	c #232618",
"3< 	c #2A2B1D",
"4< 	c #2B2B1F",
"5< 	c #24261E",
"6< 	c #242216",
"7< 	c #3F3C2D",
"8< 	c #45453D",
"9< 	c #5F5B51",
"0< 	c #6E6A5D",
"a< 	c #49483D",
"b< 	c #6F7A70",
"c< 	c #708076",
"d< 	c #F1F5F5",
"e< 	c #CED7D4",
"f< 	c #D5E4E2",
"g< 	c #E7F1EF",
"h< 	c #728E84",
"i< 	c #5A604C",
"j< 	c #595E44",
"k< 	c #4B4F3C",
"l< 	c #2E3738",
"m< 	c #2C3737",
"n< 	c #393D3B",
"o< 	c #575447",
"p< 	c #696653",
"q< 	c #706D5A",
"r< 	c #727569",
"s< 	c #6E7369",
"t< 	c #201814",
"u< 	c #231B16",
"v< 	c #3C2D27",
"w< 	c #4E3D33",
"x< 	c #4D392D",
"y< 	c #4A372B",
"z< 	c #35241B",
"A< 	c #32231B",
"B< 	c #2E211A",
"C< 	c #201612",
"D< 	c #362620",
"E< 	c #4C3A30",
"F< 	c #392921",
"G< 	c #34251F",
"H< 	c #2D1F1B",
"I< 	c #211714",
"J< 	c #231815",
"K< 	c #1D1511",
"L< 	c #211411",
"M< 	c #36261D",
"N< 	c #3F2D20",
"O< 	c #39271C",
"P< 	c #281A12",
"Q< 	c #211610",
"R< 	c #201712",
"S< 	c #18100D",
"T< 	c #2B1F19",
"U< 	c #382820",
"V< 	c #241612",
"W< 	c #37261D",
"X< 	c #402E21",
"Y< 	c #463326",
"Z< 	c #4A3829",
"`< 	c #34271D",
" [ 	c #251815",
".[ 	c #3D2D25",
"+[ 	c #372820",
"@[ 	c #1A120F",
"#[ 	c #221612",
"$[ 	c #9C999A",
"%[ 	c #787981",
"&[ 	c #41332A",
"*[ 	c #4A372E",
"=[ 	c #887F81",
"-[ 	c #F2EEEF",
";[ 	c #F3F9F8",
">[ 	c #6F7F79",
",[ 	c #303424",
"'[ 	c #5B6155",
")[ 	c #E0E4DD",
"![ 	c #FCFDFA",
"~[ 	c #EBEDEA",
"{[ 	c #B9C7C4",
"][ 	c #6E95A0",
"^[ 	c #85A3A9",
"/[ 	c #A6C6CC",
"([ 	c #B6D6DE",
"_[ 	c #92B2BB",
":[ 	c #233026",
"<[ 	c #232415",
"[[ 	c #4E4E49",
"}[ 	c #96A0B5",
"|[ 	c #3E5051",
"1[ 	c #28261D",
"2[ 	c #59524D",
"3[ 	c #313125",
"4[ 	c #212316",
"5[ 	c #25281B",
"6[ 	c #B1BCB7",
"7[ 	c #6C776B",
"8[ 	c #C4CECC",
"9[ 	c #F7F9F9",
"0[ 	c #CCE0DC",
"a[ 	c #E6F6F4",
"b[ 	c #86A79E",
"c[ 	c #5F6652",
"d[ 	c #5C6146",
"e[ 	c #3B453D",
"f[ 	c #323936",
"g[ 	c #4E4D42",
"h[ 	c #5F5749",
"i[ 	c #524F44",
"j[ 	c #595F52",
"k[ 	c #6F7265",
"l[ 	c #73776C",
"m[ 	c #676359",
"n[ 	c #4A3B33",
"o[ 	c #2C221D",
"p[ 	c #281F1A",
"q[ 	c #47362F",
"r[ 	c #48372E",
"s[ 	c #533D33",
"t[ 	c #553C2F",
"u[ 	c #493528",
"v[ 	c #312018",
"w[ 	c #33251C",
"x[ 	c #372A22",
"y[ 	c #241713",
"z[ 	c #2D1E1A",
"A[ 	c #3E3027",
"B[ 	c #31231D",
"C[ 	c #2B1C18",
"D[ 	c #2C1E1A",
"E[ 	c #251A17",
"F[ 	c #261B18",
"G[ 	c #221714",
"H[ 	c #35251C",
"I[ 	c #3C2B1F",
"J[ 	c #2F2019",
"K[ 	c #1C110D",
"L[ 	c #1A110E",
"M[ 	c #19110E",
"N[ 	c #281A15",
"O[ 	c #291A16",
"P[ 	c #3C2B21",
"Q[ 	c #2A1E16",
"R[ 	c #2C1D14",
"S[ 	c #2E1F16",
"T[ 	c #2A1B12",
"U[ 	c #3A291E",
"V[ 	c #443325",
"W[ 	c #4C3B2D",
"X[ 	c #2E2217",
"Y[ 	c #1B130E",
"Z[ 	c #33271C",
"`[ 	c #2C201A",
" } 	c #392B1F",
".} 	c #2A1E17",
"+} 	c #372B22",
"@} 	c #2F241D",
"#} 	c #49443E",
"$} 	c #51463B",
"%} 	c #423A32",
"&} 	c #473D3C",
"*} 	c #706665",
"=} 	c #ACAAA6",
"-} 	c #454837",
";} 	c #4B4C3B",
">} 	c #494E3B",
",} 	c #92A0A2",
"'} 	c #91A6AD",
")} 	c #D5DDE7",
"!} 	c #D8F3F7",
"~} 	c #C5E8EE",
"{} 	c #D6F4FA",
"]} 	c #DCF9FF",
"^} 	c #D3EFF9",
"/} 	c #648488",
"(} 	c #212416",
"_} 	c #929392",
":} 	c #A5ADB1",
"<} 	c #464846",
"[} 	c #262418",
"}} 	c #232316",
"|} 	c #232518",
"1} 	c #272A1C",
"2} 	c #F3F6F5",
"3} 	c #808C87",
"4} 	c #92A09C",
"5} 	c #E8F6F3",
"6} 	c #D3F2F2",
"7} 	c #809E9C",
"8} 	c #6F745E",
"9} 	c #67644A",
"0} 	c #544F3C",
"a} 	c #494439",
"b} 	c #2F342F",
"c} 	c #3E473F",
"d} 	c #5D655A",
"e} 	c #71756C",
"f} 	c #6D6F63",
"g} 	c #4F473F",
"h} 	c #3E302B",
"i} 	c #372921",
"j} 	c #4D3C32",
"k} 	c #49372C",
"l} 	c #64493C",
"m} 	c #5E4236",
"n} 	c #422F22",
"o} 	c #423025",
"p} 	c #453227",
"q} 	c #38281F",
"r} 	c #38261F",
"s} 	c #38261E",
"t} 	c #3A2922",
"u} 	c #342623",
"v} 	c #2F211E",
"w} 	c #2C1E1B",
"x} 	c #261914",
"y} 	c #2E1F17",
"z} 	c #34241B",
"A} 	c #291F16",
"B} 	c #271D15",
"C} 	c #291F18",
"D} 	c #2B1D1A",
"E} 	c #3D2E23",
"F} 	c #271912",
"G} 	c #2A1B14",
"H} 	c #2B1D13",
"I} 	c #37271B",
"J} 	c #403022",
"K} 	c #3A2C1E",
"L} 	c #1B140E",
"M} 	c #18110B",
"N} 	c #39291C",
"O} 	c #271A13",
"P} 	c #251810",
"Q} 	c #392B20",
"R} 	c #54514E",
"S} 	c #63646B",
"T} 	c #504846",
"U} 	c #4F4038",
"V} 	c #68635B",
"W} 	c #686358",
"X} 	c #565744",
"Y} 	c #40462F",
"Z} 	c #8F9789",
"`} 	c #B7C8C5",
" | 	c #FCFEFE",
".| 	c #D9F5F7",
"+| 	c #C7EAF0",
"@| 	c #D7F5FA",
"#| 	c #DBF8FF",
"$| 	c #B3D3DF",
"%| 	c #314844",
"&| 	c #3D3E2D",
"*| 	c #9A9391",
"=| 	c #918B8C",
"-| 	c #56524C",
";| 	c #242418",
">| 	c #1D1F12",
",| 	c #242619",
"'| 	c #D9E1E0",
")| 	c #73837F",
"!| 	c #EEF3F3",
"~| 	c #D5F3F3",
"{| 	c #94ACAE",
"]| 	c #7C7B68",
"^| 	c #575040",
"/| 	c #2E3534",
"(| 	c #2A3232",
"_| 	c #494F42",
":| 	c #555C4B",
"<| 	c #5B645A",
"[| 	c #6F746D",
"}| 	c #635D50",
"|| 	c #3F3129",
"1| 	c #3A2C25",
"2| 	c #322521",
"3| 	c #3D2C24",
"4| 	c #48342A",
"5| 	c #453229",
"6| 	c #5F4A3D",
"7| 	c #634636",
"8| 	c #5F4436",
"9| 	c #443024",
"0| 	c #34251D",
"a| 	c #2A1D17",
"b| 	c #36281F",
"c| 	c #3E2A1F",
"d| 	c #402D23",
"e| 	c #3E2C23",
"f| 	c #312019",
"g| 	c #2B1D19",
"h| 	c #2B1E1C",
"i| 	c #2B1D17",
"j| 	c #241714",
"k| 	c #1F130F",
"l| 	c #231610",
"m| 	c #241912",
"n| 	c #211710",
"o| 	c #3D2E22",
"p| 	c #281D14",
"q| 	c #1F140E",
"r| 	c #231611",
"s| 	c #35261A",
"t| 	c #2D2016",
"u| 	c #231710",
"v| 	c #413122",
"w| 	c #2B1D14",
"x| 	c #291C13",
"y| 	c #271B14",
"z| 	c #261B12",
"A| 	c #261A13",
"B| 	c #36271C",
"C| 	c #32241A",
"D| 	c #22160F",
"E| 	c #32281F",
"F| 	c #2A2018",
"G| 	c #342A25",
"H| 	c #717477",
"I| 	c #9FA2AE",
"J| 	c #52484F",
"K| 	c #625D58",
"L| 	c #5A5347",
"M| 	c #5D5C4B",
"N| 	c #444732",
"O| 	c #3C432D",
"P| 	c #E8EDEB",
"Q| 	c #D7F3F6",
"R| 	c #C9E7EE",
"S| 	c #DBF8FE",
"T| 	c #DBF6FE",
"U| 	c #90AEB9",
"V| 	c #252B20",
"W| 	c #282618",
"X| 	c #70695F",
"Y| 	c #958E8C",
"Z| 	c #656359",
"`| 	c #1D1D11",
" 1 	c #1B1B0F",
".1 	c #252519",
"+1 	c #B9C6C4",
"@1 	c #D2DDDC",
"#1 	c #F9FFFD",
"$1 	c #C6DFD3",
"%1 	c #7D8883",
"&1 	c #4D5651",
"*1 	c #313C3B",
"=1 	c #5A5F50",
"-1 	c #555B3F",
";1 	c #5A645F",
">1 	c #6E7169",
",1 	c #54473D",
"'1 	c #3B2E25",
")1 	c #3F2E27",
"!1 	c #5F4B3E",
"~1 	c #3A281F",
"{1 	c #6B4F40",
"]1 	c #72503F",
"^1 	c #56382B",
"/1 	c #35251D",
"(1 	c #1E1512",
"_1 	c #2E1E16",
":1 	c #37261E",
"<1 	c #382720",
"[1 	c #352620",
"}1 	c #261814",
"|1 	c #1E1311",
"11 	c #1F1613",
"21 	c #261A16",
"31 	c #32241D",
"41 	c #221611",
"51 	c #201410",
"61 	c #19120C",
"71 	c #281B18",
"81 	c #251C14",
"91 	c #2B2118",
"01 	c #251A12",
"a1 	c #33251A",
"b1 	c #39291D",
"c1 	c #3C2C1F",
"d1 	c #36261B",
"e1 	c #2B1E15",
"f1 	c #1F140D",
"g1 	c #281C13",
"h1 	c #2E1F15",
"i1 	c #261812",
"j1 	c #31261D",
"k1 	c #2B211A",
"l1 	c #2B211B",
"m1 	c #3B3434",
"n1 	c #827B80",
"o1 	c #A0A2A8",
"p1 	c #534C47",
"q1 	c #483E35",
"r1 	c #51493D",
"s1 	c #5B594B",
"t1 	c #434B38",
"u1 	c #E9EDE9",
"v1 	c #9FBCB4",
"w1 	c #8A9E96",
"x1 	c #B7CEC8",
"y1 	c #D7F0F3",
"z1 	c #DBF4FB",
"A1 	c #DCF4F7",
"B1 	c #D9E8F0",
"C1 	c #44554C",
"D1 	c #27271A",
"E1 	c #3C392A",
"F1 	c #625950",
"G1 	c #302F23",
"H1 	c #1C1C10",
"I1 	c #19190E",
"J1 	c #23241A",
"K1 	c #FAFCFC",
"L1 	c #D2E0DF",
"M1 	c #E0EBE0",
"N1 	c #BED3CB",
"O1 	c #ABC9CF",
"P1 	c #80A0A6",
"Q1 	c #4B5C5B",
"R1 	c #4B514C",
"S1 	c #6B6C5A",
"T1 	c #54573F",
"U1 	c #3B4033",
"V1 	c #4F554F",
"W1 	c #6B6D68",
"X1 	c #767269",
"Y1 	c #4E3D34",
"Z1 	c #4C3B30",
"`1 	c #5C4438",
" 2 	c #573D30",
".2 	c #432E24",
"+2 	c #735445",
"@2 	c #7D5947",
"#2 	c #5C3F33",
"$2 	c #1B120F",
"%2 	c #1E1511",
"&2 	c #1E120F",
"*2 	c #231613",
"=2 	c #281A17",
"-2 	c #271A12",
";2 	c #271811",
">2 	c #261813",
",2 	c #30211C",
"'2 	c #3C2C24",
")2 	c #291B18",
"!2 	c #1B130F",
"~2 	c #281C18",
"{2 	c #43322A",
"]2 	c #413027",
"^2 	c #22150F",
"/2 	c #1D130F",
"(2 	c #1A130D",
"_2 	c #1A120D",
":2 	c #1B110D",
"<2 	c #1C130E",
"[2 	c #19110B",
"}2 	c #1C140E",
"|2 	c #221810",
"12 	c #261A12",
"22 	c #322419",
"32 	c #352519",
"42 	c #38291E",
"52 	c #2C1E13",
"62 	c #38291A",
"72 	c #2D1F15",
"82 	c #2C1F16",
"92 	c #30231A",
"02 	c #34251B",
"a2 	c #3D2B20",
"b2 	c #35251A",
"c2 	c #33261D",
"d2 	c #33251D",
"e2 	c #332C2A",
"f2 	c #6D6971",
"g2 	c #616161",
"h2 	c #483F36",
"i2 	c #4E483D",
"j2 	c #50493D",
"k2 	c #5C6051",
"l2 	c #D6D9D4",
"m2 	c #EEF4EE",
"n2 	c #5E7571",
"o2 	c #171F14",
"p2 	c #171D12",
"q2 	c #5C6B5C",
"r2 	c #7A8A7F",
"s2 	c #677572",
"t2 	c #5A635A",
"u2 	c #292D1E",
"v2 	c #202113",
"w2 	c #45433C",
"x2 	c #5F5C5C",
"y2 	c #44443E",
"z2 	c #2D3020",
"A2 	c #5E6266",
"B2 	c #FAFDFD",
"C2 	c #FEFEFE",
"D2 	c #F3FAF9",
"E2 	c #E0F0EE",
"F2 	c #ECF9FC",
"G2 	c #CDEEEE",
"H2 	c #82A4A7",
"I2 	c #69756D",
"J2 	c #7B7A67",
"K2 	c #55563B",
"L2 	c #3C422E",
"M2 	c #3C4235",
"N2 	c #424A43",
"O2 	c #686D67",
"P2 	c #6F6D64",
"Q2 	c #422F25",
"R2 	c #5E4B42",
"S2 	c #513F34",
"T2 	c #543C30",
"U2 	c #604539",
"V2 	c #573C31",
"W2 	c #573F33",
"X2 	c #705246",
"Y2 	c #725345",
"Z2 	c #241C19",
"`2 	c #2A1C16",
" 3 	c #190E0B",
".3 	c #39261D",
"+3 	c #3C2A22",
"@3 	c #2F211D",
"#3 	c #2E211E",
"$3 	c #32241E",
"%3 	c #31211A",
"&3 	c #18110C",
"*3 	c #160E0B",
"=3 	c #18100A",
"-3 	c #201510",
";3 	c #1D140E",
">3 	c #160F0B",
",3 	c #241611",
"'3 	c #291B14",
")3 	c #1F140F",
"!3 	c #1C150F",
"~3 	c #241812",
"{3 	c #251B14",
"]3 	c #281B12",
"^3 	c #2D1F14",
"/3 	c #281A11",
"(3 	c #352619",
"_3 	c #2C1F15",
":3 	c #2A1E15",
"<3 	c #2A1D14",
"[3 	c #32241B",
"}3 	c #36281E",
"|3 	c #281C15",
"13 	c #1C120E",
"23 	c #362418",
"33 	c #453324",
"43 	c #261915",
"53 	c #1A130E",
"63 	c #1A1510",
"73 	c #555354",
"83 	c #595754",
"93 	c #453A33",
"03 	c #4D4339",
"a3 	c #4C4439",
"b3 	c #5B554A",
"c3 	c #7D8588",
"d3 	c #A2BBC0",
"e3 	c #71919C",
"f3 	c #243731",
"g3 	c #151B11",
"h3 	c #141A10",
"i3 	c #13190F",
"j3 	c #3E4443",
"k3 	c #31352E",
"l3 	c #282A1C",
"m3 	c #222415",
"n3 	c #5F5B53",
"o3 	c #8C8583",
"p3 	c #7B7572",
"q3 	c #393D2C",
"r3 	c #45493C",
"s3 	c #FCFEFD",
"t3 	c #FAFFFF",
"u3 	c #CCEBEA",
"v3 	c #8FA59D",
"w3 	c #83836F",
"x3 	c #535741",
"y3 	c #2C342E",
"z3 	c #3D4630",
"A3 	c #5D6347",
"B3 	c #5D614B",
"C3 	c #5F604E",
"D3 	c #746A5B",
"E3 	c #4F392F",
"F3 	c #503C34",
"G3 	c #5D483E",
"H3 	c #5B4134",
"I3 	c #62483C",
"J3 	c #583D32",
"K3 	c #674B3F",
"L3 	c #51392D",
"M3 	c #251D19",
"N3 	c #2D1E16",
"O3 	c #36241C",
"P3 	c #38261D",
"Q3 	c #432C20",
"R3 	c #402A1E",
"S3 	c #211410",
"T3 	c #36231A",
"U3 	c #402C22",
"V3 	c #3D2A23",
"W3 	c #33231E",
"X3 	c #2F231F",
"Y3 	c #2A1B16",
"Z3 	c #33231A",
"`3 	c #35241A",
" 4 	c #18100C",
".4 	c #190F0C",
"+4 	c #3B2C26",
"@4 	c #1D120E",
"#4 	c #291A13",
"$4 	c #2C1D15",
"%4 	c #1E140F",
"&4 	c #17100A",
"*4 	c #1F1511",
"=4 	c #2B1D15",
"-4 	c #281E14",
";4 	c #34261C",
">4 	c #37291E",
",4 	c #2B2019",
"'4 	c #322218",
")4 	c #3E2B1D",
"!4 	c #261910",
"~4 	c #17130F",
"{4 	c #1E1712",
"]4 	c #3D3430",
"^4 	c #3E3431",
"/4 	c #453932",
"(4 	c #534940",
"_4 	c #574D43",
":4 	c #91918D",
"<4 	c #F7FBFB",
"[4 	c #CAEAEE",
"}4 	c #8BAFB9",
"|4 	c #355756",
"14 	c #161F16",
"24 	c #141911",
"34 	c #12170F",
"44 	c #15180E",
"54 	c #232517",
"64 	c #191C0E",
"74 	c #57554A",
"84 	c #837E7A",
"94 	c #3D4033",
"04 	c #323526",
"a4 	c #D3D9D9",
"b4 	c #ECEFEF",
"c4 	c #FDFDFD",
"d4 	c #E5EDEC",
"e4 	c #FBFDFD",
"f4 	c #FEFFFE",
"g4 	c #E9F6EB",
"h4 	c #AFBDA7",
"i4 	c #878672",
"j4 	c #5A5D4B",
"k4 	c #2D3633",
"l4 	c #2D3634",
"m4 	c #424D36",
"n4 	c #606647",
"o4 	c #6B6F52",
"p4 	c #5D5A46",
"q4 	c #5B4D3E",
"r4 	c #503A2F",
"s4 	c #544137",
"t4 	c #5D483C",
"u4 	c #5F483B",
"v4 	c #583B31",
"w4 	c #6C5144",
"x4 	c #6C4F41",
"y4 	c #412D24",
"z4 	c #3B2B21",
"A4 	c #3C2D22",
"B4 	c #3F2F25",
"C4 	c #39271E",
"D4 	c #462F23",
"E4 	c #4F3125",
"F4 	c #4D3225",
"G4 	c #302018",
"H4 	c #3E2B20",
"I4 	c #433024",
"J4 	c #342119",
"K4 	c #31201A",
"L4 	c #322522",
"M4 	c #332520",
"N4 	c #291A14",
"O4 	c #1A120E",
"P4 	c #1D120F",
"Q4 	c #251714",
"R4 	c #2E1E18",
"S4 	c #45332C",
"T4 	c #221511",
"U4 	c #32221B",
"V4 	c #160F0A",
"W4 	c #1B130D",
"X4 	c #1B120D",
"Y4 	c #2F2118",
"Z4 	c #261A11",
"`4 	c #251A11",
" 5 	c #2F2218",
".5 	c #35271D",
"+5 	c #20160D",
"@5 	c #322217",
"#5 	c #493626",
"$5 	c #1B1510",
"%5 	c #2E2421",
"&5 	c #5A5A5B",
"*5 	c #4C4A4C",
"=5 	c #463B37",
"-5 	c #50453C",
";5 	c #676559",
">5 	c #C3CCD0",
",5 	c #BFD9D8",
"'5 	c #BCD8D6",
")5 	c #C1DCE2",
"!5 	c #87AAB3",
"~5 	c #39585A",
"{5 	c #162018",
"]5 	c #15190F",
"^5 	c #232617",
"/5 	c #1C1F11",
"(5 	c #2F2F1C",
"_5 	c #4B4A38",
":5 	c #867E79",
"<5 	c #6E6961",
"[5 	c #36372E",
"}5 	c #49443A",
"|5 	c #E1E9E3",
"15 	c #C4CABF",
"25 	c #B9BFAA",
"35 	c #8B8F75",
"45 	c #848E86",
"55 	c #677D7A",
"65 	c #3B4A4A",
"75 	c #293334",
"85 	c #273030",
"95 	c #3D4537",
"05 	c #535A3B",
"a5 	c #615E48",
"b5 	c #4E4639",
"c5 	c #5E5346",
"d5 	c #523B32",
"e5 	c #614C42",
"f5 	c #644C3F",
"g5 	c #3F2D23",
"h5 	c #5D4638",
"i5 	c #604237",
"j5 	c #725548",
"k5 	c #5E4336",
"l5 	c #3D2B23",
"m5 	c #251D17",
"n5 	c #4E3A31",
"o5 	c #48342C",
"p5 	c #36261F",
"q5 	c #47352B",
"r5 	c #422E24",
"s5 	c #442C20",
"t5 	c #523428",
"u5 	c #624536",
"v5 	c #493429",
"w5 	c #4C372A",
"x5 	c #432F22",
"y5 	c #35241D",
"z5 	c #392821",
"A5 	c #2A1A12",
"B5 	c #332319",
"C5 	c #392A23",
"D5 	c #3B2821",
"E5 	c #412E25",
"F5 	c #33221A",
"G5 	c #231914",
"H5 	c #1C140F",
"I5 	c #19100B",
"J5 	c #251910",
"K5 	c #251911",
"L5 	c #31251A",
"M5 	c #241A11",
"N5 	c #1D150E",
"O5 	c #433123",
"P5 	c #332419",
"Q5 	c #382C24",
"R5 	c #1E1913",
"S5 	c #1C1711",
"T5 	c #1F1611",
"U5 	c #2D2724",
"V5 	c #423A3E",
"W5 	c #5E6164",
"X5 	c #453C38",
"Y5 	c #463932",
"Z5 	c #7A7A72",
"`5 	c #7A8778",
" 6 	c #58634A",
".6 	c #8C9B8B",
"+6 	c #CDE7E8",
"@6 	c #C5E6F0",
"#6 	c #97B8C7",
"$6 	c #5A7887",
"%6 	c #263832",
"&6 	c #373621",
"*6 	c #545242",
"=6 	c #3E382E",
"-6 	c #302D1E",
";6 	c #57524F",
">6 	c #F8FAFA",
",6 	c #F2F7F7",
"'6 	c #F8FBFB",
")6 	c #97A194",
"!6 	c #6A7056",
"~6 	c #4D5845",
"{6 	c #819599",
"]6 	c #759094",
"^6 	c #3A494C",
"/6 	c #293234",
"(6 	c #262E30",
"_6 	c #333A34",
":6 	c #52523F",
"<6 	c #4F4A3B",
"[6 	c #4C453A",
"}6 	c #4D3E35",
"|6 	c #543D34",
"16 	c #614A3F",
"26 	c #6B5246",
"36 	c #3F2C22",
"46 	c #61493C",
"56 	c #664A3F",
"66 	c #684B3E",
"76 	c #50382C",
"86 	c #211813",
"96 	c #4F3D33",
"06 	c #493227",
"a6 	c #5E3D30",
"b6 	c #6B4836",
"c6 	c #674734",
"d6 	c #4E362C",
"e6 	c #463027",
"f6 	c #5E4438",
"g6 	c #422E20",
"h6 	c #4C3A2E",
"i6 	c #2E201B",
"j6 	c #2F1E16",
"k6 	c #332218",
"l6 	c #281B15",
"m6 	c #251915",
"n6 	c #1A0F0B",
"o6 	c #1F120F",
"p6 	c #39271D",
"q6 	c #3E2C22",
"r6 	c #3B2B20",
"s6 	c #19120E",
"t6 	c #241811",
"u6 	c #241910",
"v6 	c #302319",
"w6 	c #291E15",
"x6 	c #271D14",
"y6 	c #201812",
"z6 	c #1D1610",
"A6 	c #20160E",
"B6 	c #32261D",
"C6 	c #38312D",
"D6 	c #433F40",
"E6 	c #433E3B",
"F6 	c #4D4844",
"G6 	c #4B3F39",
"H6 	c #4E4138",
"I6 	c #595044",
"J6 	c #42432F",
"K6 	c #343720",
"L6 	c #677765",
"M6 	c #BCD7D6",
"N6 	c #E3F8FD",
"O6 	c #EEF9FD",
"P6 	c #ACC0C9",
"Q6 	c #2A2E20",
"R6 	c #33341F",
"S6 	c #35351F",
"T6 	c #232113",
"U6 	c #262317",
"V6 	c #3A3833",
"W6 	c #FDFFFE",
"X6 	c #FDFEFE",
"Y6 	c #D7DDD9",
"Z6 	c #737A64",
"`6 	c #676C55",
" 7 	c #616751",
".7 	c #646D62",
"+7 	c #3D4948",
"@7 	c #283233",
"#7 	c #50524C",
"$7 	c #544E46",
"%7 	c #464236",
"&7 	c #3C342D",
"*7 	c #5F4E46",
"=7 	c #64493F",
"-7 	c #74594D",
";7 	c #61493F",
">7 	c #4C382D",
",7 	c #523A2E",
"'7 	c #61473B",
")7 	c #604337",
"!7 	c #493228",
"~7 	c #3B2C23",
"{7 	c #46342A",
"]7 	c #452D22",
"^7 	c #583528",
"/7 	c #67412F",
"(7 	c #78513D",
"_7 	c #654536",
":7 	c #3E271D",
"<7 	c #4C3527",
"[7 	c #39291E",
"}7 	c #2B1D16",
"|7 	c #573E32",
"17 	c #3E2C21",
"27 	c #2F1D15",
"37 	c #36251C",
"47 	c #281B17",
"57 	c #1A100C",
"67 	c #38271F",
"77 	c #3B281E",
"87 	c #3E2B1F",
"97 	c #1F1411",
"07 	c #2D1F16",
"a7 	c #291D14",
"b7 	c #21170E",
"c7 	c #211912",
"d7 	c #20150E",
"e7 	c #2F231A",
"f7 	c #3F3633",
"g7 	c #3A3128",
"h7 	c #4D4642",
"i7 	c #5A554F",
"j7 	c #483C33",
"k7 	c #554E42",
"l7 	c #504D3C",
"m7 	c #454631",
"n7 	c #373924",
"o7 	c #566351",
"p7 	c #CEE2E2",
"q7 	c #F4FBFD",
"r7 	c #B6BFBE",
"s7 	c #393A2E",
"t7 	c #30321C",
"u7 	c #32331D",
"v7 	c #282717",
"w7 	c #676C6F",
"x7 	c #66707B",
"y7 	c #889687",
"z7 	c #72765E",
"A7 	c #686C53",
"B7 	c #63674C",
"C7 	c #555A48",
"D7 	c #283232",
"E7 	c #434A4A",
"F7 	c #6B6663",
"G7 	c #5B5551",
"H7 	c #3E3A34",
"I7 	c #5A554B",
"J7 	c #634F42",
"K7 	c #65493F",
"L7 	c #6A4E43",
"M7 	c #50382E",
"N7 	c #513D31",
"O7 	c #624A3D",
"P7 	c #594033",
"Q7 	c #503B32",
"R7 	c #271B18",
"S7 	c #392B21",
"T7 	c #362720",
"U7 	c #3D2B21",
"V7 	c #493024",
"W7 	c #563424",
"X7 	c #5B3827",
"Y7 	c #603B29",
"Z7 	c #644332",
"`7 	c #452F23",
" 8 	c #50382A",
".8 	c #422E23",
"+8 	c #593D32",
"@8 	c #2D1A13",
"#8 	c #301F17",
"$8 	c #281B14",
"%8 	c #2C1D18",
"&8 	c #34241C",
"*8 	c #3D291D",
"=8 	c #3B291D",
"-8 	c #241A16",
";8 	c #1D150F",
">8 	c #271911",
",8 	c #241810",
"'8 	c #251A13",
")8 	c #1C120A",
"!8 	c #23160D",
"~8 	c #30241A",
"{8 	c #3C3128",
"]8 	c #4B413B",
"^8 	c #666360",
"/8 	c #484037",
"(8 	c #534B40",
"_8 	c #5D594B",
":8 	c #474633",
"<8 	c #3B3C27",
"[8 	c #363924",
"}8 	c #3B3D27",
"|8 	c #828674",
"18 	c #989D90",
"28 	c #5B5845",
"38 	c #2B2B1A",
"48 	c #2D2F1A",
"58 	c #31331D",
"68 	c #7C7E81",
"78 	c #8E97A3",
"88 	c #C8D8D1",
"98 	c #727760",
"08 	c #717254",
"a8 	c #67694A",
"b8 	c #5D6244",
"c8 	c #40453D",
"d8 	c #515551",
"e8 	c #5D5A55",
"f8 	c #46433F",
"g8 	c #5C5651",
"h8 	c #5B4D44",
"i8 	c #60493D",
"j8 	c #63493E",
"k8 	c #5A4035",
"l8 	c #584238",
"m8 	c #533F31",
"n8 	c #473124",
"o8 	c #553F32",
"p8 	c #4D372A",
"q8 	c #3D2F25",
"r8 	c #453327",
"s8 	c #503728",
"t8 	c #5C3B28",
"u8 	c #6D4936",
"v8 	c #65412F",
"w8 	c #725141",
"x8 	c #5C4034",
"y8 	c #4E3629",
"z8 	c #3A2A21",
"A8 	c #3F2B20",
"B8 	c #4F362A",
"C8 	c #3C271D",
"D8 	c #311E17",
"E8 	c #301E16",
"F8 	c #160F09",
"G8 	c #1B120C",
"H8 	c #221610",
"I8 	c #3F2C20",
"J8 	c #3D2A1D",
"K8 	c #291A11",
"L8 	c #1C1310",
"M8 	c #1E1310",
"N8 	c #22160E",
"O8 	c #35241C",
"P8 	c #2E2015",
"Q8 	c #312318",
"R8 	c #1E150F",
"S8 	c #1E130B",
"T8 	c #33271D",
"U8 	c #3B2E23",
"V8 	c #3B2E26",
"W8 	c #483C35",
"X8 	c #74706C",
"Y8 	c #5E564D",
"Z8 	c #5A5247",
"`8 	c #5A564A",
" 9 	c #474434",
".9 	c #3E3D2A",
"+9 	c #383824",
"@9 	c #3D3F2A",
"#9 	c #45432C",
"$9 	c #3B3C24",
"%9 	c #272919",
"&9 	c #2B2C19",
"*9 	c #2C2E1B",
"=9 	c #2C2F21",
"-9 	c #686866",
";9 	c #DFE7E7",
">9 	c #EAEDED",
",9 	c #FAFEFD",
"'9 	c #9EB9AA",
")9 	c #76795C",
"!9 	c #757455",
"~9 	c #666949",
"{9 	c #565C45",
"]9 	c #585B52",
"^9 	c #5C5954",
"/9 	c #4D4A46",
"(9 	c #5B524B",
"_9 	c #554338",
":9 	c #654D41",
"<9 	c #594135",
"[9 	c #503A2D",
"}9 	c #574136",
"|9 	c #523D30",
"19 	c #4C382A",
"29 	c #513E30",
"39 	c #4B3528",
"49 	c #574237",
"59 	c #392B22",
"69 	c #3B2C21",
"79 	c #3C2C22",
"89 	c #453225",
"99 	c #473427",
"09 	c #503627",
"a9 	c #694532",
"b9 	c #6D4734",
"c9 	c #77523F",
"d9 	c #755240",
"e9 	c #51382B",
"f9 	c #38261C",
"g9 	c #413026",
"h9 	c #4B3527",
"i9 	c #493427",
"j9 	c #422D21",
"k9 	c #37241A",
"l9 	c #322019",
"m9 	c #2F2017",
"n9 	c #1A110C",
"o9 	c #3D2A1E",
"p9 	c #423023",
"q9 	c #21150E",
"r9 	c #251916",
"s9 	c #312118",
"t9 	c #35271C",
"u9 	c #37281E",
"v9 	c #221912",
"w9 	c #2C1F18",
"x9 	c #3A2C21",
"y9 	c #645B54",
"z9 	c #665F54",
"A9 	c #585045",
"B9 	c #4C4739",
"C9 	c #464332",
"D9 	c #3E3D2B",
"E9 	c #393827",
"F9 	c #30311F",
"G9 	c #2F321E",
"H9 	c #1C1F12",
"I9 	c #1C1D0F",
"J9 	c #3C3D2B",
"K9 	c #2E311D",
"L9 	c #252818",
"M9 	c #262818",
"N9 	c #8EA2A1",
"O9 	c #CCD3D1",
"P9 	c #E4F8F5",
"Q9 	c #859B87",
"R9 	c #797859",
"S9 	c #737354",
"T9 	c #66674A",
"U9 	c #606351",
"V9 	c #66635C",
"W9 	c #4C4843",
"X9 	c #493E37",
"Y9 	c #5D4A3F",
"Z9 	c #5E4439",
"`9 	c #554033",
" 0 	c #4F392D",
".0 	c #513C2F",
"+0 	c #4C372D",
"@0 	c #2C1D19",
"#0 	c #392A22",
"$0 	c #473426",
"%0 	c #453224",
"&0 	c #432D1D",
"*0 	c #6A4735",
"=0 	c #724C38",
"-0 	c #674330",
";0 	c #563727",
">0 	c #372219",
",0 	c #271810",
"'0 	c #4E3B2F",
")0 	c #483225",
"!0 	c #422E21",
"~0 	c #362318",
"{0 	c #322117",
"]0 	c #1C120D",
"^0 	c #261912",
"/0 	c #20140E",
"(0 	c #2F1E15",
"_0 	c #362319",
":0 	c #3A271B",
"<0 	c #231911",
"[0 	c #2A1C13",
"}0 	c #291B12",
"|0 	c #32231A",
"10 	c #2D1F18",
"20 	c #20150F",
"30 	c #281E17",
"40 	c #261C13",
"50 	c #3A2C23",
"60 	c #54463D",
"70 	c #5E574A",
"80 	c #52493E",
"90 	c #4C4335",
"00 	c #4C4936",
"a0 	c #363522",
"b0 	c #413E30",
"c0 	c #2B2C1B",
"d0 	c #272A19",
"e0 	c #1D2113",
"f0 	c #262D2B",
"g0 	c #5C5C5A",
"h0 	c #393A29",
"i0 	c #333421",
"j0 	c #2E301B",
"k0 	c #252717",
"l0 	c #D8E0DF",
"m0 	c #708780",
"n0 	c #BFCDC6",
"o0 	c #EEFDFD",
"p0 	c #ABCCC8",
"q0 	c #767C63",
"r0 	c #767555",
"s0 	c #646646",
"t0 	c #696A59",
"u0 	c #55483F",
"v0 	c #523F34",
"w0 	c #523D32",
"x0 	c #5C4339",
"y0 	c #554034",
"z0 	c #463227",
"A0 	c #433126",
"B0 	c #3B271A",
"C0 	c #3B2719",
"D0 	c #503526",
"E0 	c #5E3E2C",
"F0 	c #41291D",
"G0 	c #332118",
"H0 	c #291911",
"I0 	c #513C2E",
"J0 	c #422D1F",
"K0 	c #37251A",
"L0 	c #2D1D13",
"M0 	c #2C1B12",
"N0 	c #342319",
"O0 	c #37261C",
"P0 	c #3C291F",
"Q0 	c #342318",
"R0 	c #372519",
"S0 	c #23170F",
"T0 	c #231810",
"U0 	c #241712",
"V0 	c #2A1C15",
"W0 	c #1E130E",
"X0 	c #251B13",
"Y0 	c #372A20",
"Z0 	c #433329",
"`0 	c #5E4E41",
" a 	c #594A3E",
".a 	c #463B2C",
"+a 	c #4B4633",
"@a 	c #555B52",
"#a 	c #6C7371",
"$a 	c #4D4734",
"%a 	c #605C54",
"&a 	c #989CAD",
"*a 	c #6A6F6A",
"=a 	c #474436",
"-a 	c #615854",
";a 	c #434233",
">a 	c #32301D",
",a 	c #3B3926",
"'a 	c #43412B",
")a 	c #A9B7B3",
"!a 	c #6B7E73",
"~a 	c #CDDFD7",
"{a 	c #EBFDFC",
"]a 	c #ABD0D2",
"^a 	c #728781",
"/a 	c #717253",
"(a 	c #7C7B58",
"_a 	c #73724E",
":a 	c #6F715C",
"<a 	c #727063",
"[a 	c #584A40",
"}a 	c #473328",
"|a 	c #533D31",
"1a 	c #624C41",
"2a 	c #533D32",
"3a 	c #3D2B1F",
"4a 	c #3F2D24",
"5a 	c #2A1C18",
"6a 	c #35261E",
"7a 	c #36251B",
"8a 	c #3B271D",
"9a 	c #412B1F",
"0a 	c #3C271A",
"aa 	c #432E20",
"ba 	c #483224",
"ca 	c #4A3124",
"da 	c #3C281C",
"ea 	c #2E1D15",
"fa 	c #33211A",
"ga 	c #4D3729",
"ha 	c #3F2A1E",
"ia 	c #2B1A12",
"ja 	c #2B1911",
"ka 	c #38271C",
"la 	c #271C16",
"ma 	c #463022",
"na 	c #342116",
"oa 	c #342219",
"pa 	c #2B1C14",
"qa 	c #34221A",
"ra 	c #3A281C",
"sa 	c #302217",
"ta 	c #2C1F14",
"ua 	c #281B16",
"va 	c #3E2E21",
"wa 	c #554538",
"xa 	c #5A4C3F",
"ya 	c #4E4535",
"za 	c #494431",
"Aa 	c #4A4D3C",
"Ba 	c #56594C",
"Ca 	c #3F3E29",
"Da 	c #71644C",
"Ea 	c #645D47",
"Fa 	c #50523F",
"Ga 	c #62594F",
"Ha 	c #74685E",
"Ia 	c #595343",
"Ja 	c #353220",
"Ka 	c #34321E",
"La 	c #2E301A",
"Ma 	c #F4F7F7",
"Na 	c #80948E",
"Oa 	c #6F8576",
"Pa 	c #DDF0ED",
"Qa 	c #E5FCFC",
"Ra 	c #A7CBCD",
"Sa 	c #627C7E",
"Ta 	c #4C5344",
"Ua 	c #706F4E",
"Va 	c #7B7A57",
"Wa 	c #7A7A62",
"Xa 	c #7D786C",
"Ya 	c #4C3A31",
"Za 	c #453329",
"`a 	c #49352B",
" b 	c #5B4237",
".b 	c #634A40",
"+b 	c #4C372C",
"@b 	c #3C2A20",
"#b 	c #36271F",
"$b 	c #4C3528",
"%b 	c #4A3325",
"&b 	c #4A3426",
"*b 	c #482F22",
"=b 	c #463123",
"-b 	c #3F281E",
";b 	c #3D251A",
">b 	c #5A3C2F",
",b 	c #553A2D",
"'b 	c #4B3327",
")b 	c #342117",
"!b 	c #291910",
"~b 	c #412C1F",
"{b 	c #3A281B",
"]b 	c #301F16",
"^b 	c #4C3222",
"/b 	c #3F291A",
"(b 	c #3B271B",
"_b 	c #322015",
":b 	c #322318",
"<b 	c #1F1711",
"[b 	c #2A1C14",
"}b 	c #33261A",
"|b 	c #34261B",
"1b 	c #37281C",
"2b 	c #4E3C30",
"3b 	c #5C5043",
"4b 	c #514A3C",
"5b 	c #534B3A",
"6b 	c #393825",
"7b 	c #393826",
"8b 	c #393A25",
"9b 	c #30341A",
"0b 	c #64666B",
"ab 	c #86888C",
"bb 	c #534D3B",
"cb 	c #483E2A",
"db 	c #483F2B",
"eb 	c #342F1C",
"fb 	c #2F2C1B",
"gb 	c #3C3926",
"hb 	c #46442E",
"ib 	c #E5ECEB",
"jb 	c #697F74",
"kb 	c #819A8E",
"lb 	c #D1EDF2",
"mb 	c #A2C7CA",
"nb 	c #5E787A",
"ob 	c #2F3A38",
"pb 	c #3C4134",
"qb 	c #676648",
"rb 	c #7E795F",
"sb 	c #756D5E",
"tb 	c #3D2F27",
"ub 	c #342720",
"vb 	c #433229",
"wb 	c #644B40",
"xb 	c #61473E",
"yb 	c #49332A",
"zb 	c #3E2B22",
"Ab 	c #35281F",
"Bb 	c #3A281D",
"Cb 	c #442E22",
"Db 	c #52382B",
"Eb 	c #4C3427",
"Fb 	c #4B3225",
"Gb 	c #4D3427",
"Hb 	c #493325",
"Ib 	c #412B1E",
"Jb 	c #563828",
"Kb 	c #5D3D2E",
"Lb 	c #42291E",
"Mb 	c #3B241A",
"Nb 	c #301C13",
"Ob 	c #422A1F",
"Pb 	c #3E281C",
"Qb 	c #472E22",
"Rb 	c #4D3628",
"Sb 	c #422F21",
"Tb 	c #412E23",
"Ub 	c #3E291D",
"Vb 	c #563A2B",
"Wb 	c #4A2E20",
"Xb 	c #412819",
"Yb 	c #382319",
"Zb 	c #38251A",
"`b 	c #3A261C",
" c 	c #332117",
".c 	c #34231A",
"+c 	c #342418",
"@c 	c #3C2A1D",
"#c 	c #22150D",
"$c 	c #2A1D13",
"%c 	c #2E2117",
"&c 	c #392920",
"*c 	c #312317",
"=c 	c #3A2A1E",
"-c 	c #463529",
";c 	c #544A3D",
">c 	c #565041",
",c 	c #524C3C",
"'c 	c #434638",
")c 	c #424334",
"!c 	c #292D13",
"~c 	c #616559",
"{c 	c #606551",
"]c 	c #39381C",
"^c 	c #424325",
"/c 	c #3B3B21",
"(c 	c #1D230F",
"_c 	c #131A08",
":c 	c #171F0A",
"<c 	c #1F250F",
"[c 	c #C5D2CE",
"}c 	c #586E5B",
"|c 	c #96ABAE",
"1c 	c #9FC0C5",
"2c 	c #5A7576",
"3c 	c #212A28",
"4c 	c #2D322B",
"5c 	c #656251",
"6c 	c #665B4E",
"7c 	c #372A23",
"8c 	c #46342C",
"9c 	c #564138",
"0c 	c #5C4338",
"ac 	c #513C33",
"bc 	c #47332A",
"cc 	c #2B211C",
"dc 	c #443123",
"ec 	c #432E21",
"fc 	c #402B1E",
"gc 	c #432A1D",
"hc 	c #4F3528",
"ic 	c #4B3628",
"jc 	c #3C291C",
"kc 	c #482E22",
"lc 	c #5C3F2E",
"mc 	c #452B1E",
"nc 	c #3B1F16",
"oc 	c #462A1F",
"pc 	c #452A1E",
"qc 	c #4B2F23",
"rc 	c #553A2A",
"sc 	c #5D4032",
"tc 	c #4A3226",
"uc 	c #3C271B",
"vc 	c #3B251A",
"wc 	c #593A2A",
"xc 	c #4D3122",
"yc 	c #53382A",
"zc 	c #442B1F",
"Ac 	c #352217",
"Bc 	c #3F2D21",
"Cc 	c #322016",
"Dc 	c #302016",
"Ec 	c #312017",
"Fc 	c #3D2C1E",
"Gc 	c #1B1108",
"Hc 	c #1E140C",
"Ic 	c #352319",
"Jc 	c #302318",
"Kc 	c #34251A",
"Lc 	c #43352D",
"Mc 	c #707473",
"Nc 	c #626258",
"Oc 	c #555343",
"Pc 	c #646C69",
"Qc 	c #4D4F43",
"Rc 	c #454336",
"Sc 	c #363C2D",
"Tc 	c #51554B",
"Uc 	c #555A3E",
"Vc 	c #3F4524",
"Wc 	c #39421E",
"Xc 	c #2B3416",
"Yc 	c #273018",
"Zc 	c #212B14",
"`c 	c #202813",
" d 	c #202613",
".d 	c #90ADA4",
"+d 	c #66746A",
"@d 	c #8EA6B1",
"#d 	c #5A7174",
"$d 	c #303C3B",
"%d 	c #202828",
"&d 	c #5D5958",
"*d 	c #504037",
"=d 	c #46352D",
"-d 	c #584439",
";d 	c #543F34",
">d 	c #3F2C26",
",d 	c #453128",
"'d 	c #402D26",
")d 	c #423024",
"!d 	c #483527",
"~d 	c #412D20",
"{d 	c #362217",
"]d 	c #372217",
"^d 	c #3C261A",
"/d 	c #493023",
"(d 	c #472D20",
"_d 	c #3A2318",
":d 	c #3F2619",
"<d 	c #3B2116",
"[d 	c #4A2B1F",
"}d 	c #533428",
"|d 	c #4F3226",
"1d 	c #573A2C",
"2d 	c #674A37",
"3d 	c #54382A",
"4d 	c #3B251B",
"5d 	c #341F15",
"6d 	c #583C2B",
"7d 	c #5B3B2D",
"8d 	c #4E3123",
"9d 	c #503527",
"0d 	c #42291C",
"ad 	c #3E271C",
"bd 	c #4D3527",
"cd 	c #493123",
"dd 	c #3D291B",
"ed 	c #321F15",
"fd 	c #301F15",
"gd 	c #2B1D12",
"hd 	c #302117",
"id 	c #2F2016",
"jd 	c #1B100C",
"kd 	c #1C130C",
"ld 	c #22170F",
"md 	c #21160F",
"nd 	c #1A100B",
"od 	c #38241A",
"pd 	c #38271E",
"qd 	c #2C2017",
"rd 	c #40312C",
"sd 	c #8D9091",
"td 	c #615F55",
"ud 	c #696B64",
"vd 	c #A5C0C4",
"wd 	c #A1B8C3",
"xd 	c #9AB8C1",
"yd 	c #A4B2C1",
"zd 	c #8E9B99",
"Ad 	c #525738",
"Bd 	c #7D7975",
"Cd 	c #76756F",
"Dd 	c #313725",
"Ed 	c #2D321D",
"Fd 	c #2F321F",
"Gd 	c #2D3220",
"Hd 	c #E6F6F7",
"Id 	c #81A098",
"Jd 	c #74898F",
"Kd 	c #586D70",
"Ld 	c #444E4F",
"Md 	c #303936",
"Nd 	c #3E4543",
"Od 	c #7F7C78",
"Pd 	c #30231D",
"Qd 	c #43332B",
"Rd 	c #5A443A",
"Sd 	c #5D4739",
"Td 	c #4E382F",
"Ud 	c #3A2923",
"Vd 	c #3A2A23",
"Wd 	c #362622",
"Xd 	c #33251E",
"Yd 	c #311F17",
"Zd 	c #2B1A11",
"`d 	c #3F281C",
" e 	c #472E21",
".e 	c #462C1F",
"+e 	c #442A1D",
"@e 	c #3F291E",
"#e 	c #3B271C",
"$e 	c #3F271B",
"%e 	c #3B2217",
"&e 	c #4A2E1F",
"*e 	c #553425",
"=e 	c #4A2C20",
"-e 	c #492C21",
";e 	c #5A3E30",
">e 	c #523929",
",e 	c #3D261B",
"'e 	c #3B261B",
")e 	c #3A261B",
"!e 	c #422B1F",
"~e 	c #4A3022",
"{e 	c #462A1D",
"]e 	c #4C2F22",
"^e 	c #4B2F21",
"/e 	c #4B3124",
"(e 	c #55392B",
"_e 	c #472D1E",
":e 	c #3A2417",
"<e 	c #382419",
"[e 	c #301E14",
"}e 	c #281A0F",
"|e 	c #302015",
"1e 	c #2E1E15",
"2e 	c #1F140B",
"3e 	c #19120B",
"4e 	c #1D130A",
"5e 	c #21160E",
"6e 	c #241911",
"7e 	c #3C291E",
"8e 	c #1F130E",
"9e 	c #271A11",
"0e 	c #291C12",
"ae 	c #31241A",
"be 	c #3B2D22",
"ce 	c #554C42",
"de 	c #5D5B4F",
"ee 	c #767A78",
"fe 	c #C5D9D9",
"ge 	c #CBE5ED",
"he 	c #D0ECF5",
"ie 	c #C2D1D9",
"je 	c #637054",
"ke 	c #4D4F39",
"le 	c #9F9592",
"me 	c #726E60",
"ne 	c #56574C",
"oe 	c #76716F",
"pe 	c #484B3C",
"qe 	c #3A3C28",
"re 	c #232715",
"se 	c #F1FFFF",
"te 	c #C7E9EB",
"ue 	c #829A98",
"ve 	c #60716F",
"we 	c #585F5C",
"xe 	c #51514A",
"ye 	c #726C60",
"ze 	c #7B7469",
"Ae 	c #402F26",
"Be 	c #352822",
"Ce 	c #403027",
"De 	c #5E483C",
"Ee 	c #624B3D",
"Fe 	c #473029",
"Ge 	c #4B392E",
"He 	c #44342D",
"Ie 	c #251710",
"Je 	c #412C1D",
"Ke 	c #4B3022",
"Le 	c #472D1F",
"Me 	c #311C14",
"Ne 	c #301E15",
"Oe 	c #392519",
"Pe 	c #40261A",
"Qe 	c #664130",
"Re 	c #5E3C2E",
"Se 	c #4C2F23",
"Te 	c #492F22",
"Ue 	c #422C1F",
"Ve 	c #392318",
"We 	c #3A231A",
"Xe 	c #392419",
"Ye 	c #3E251A",
"Ze 	c #3F2518",
"`e 	c #523424",
" f 	c #4C2D1F",
".f 	c #553627",
"+f 	c #4D3024",
"@f 	c #503323",
"#f 	c #412619",
"$f 	c #442C1E",
"%f 	c #291A0F",
"&f 	c #2A1A11",
"*f 	c #312016",
"=f 	c #2B1B12",
"-f 	c #291B11",
";f 	c #22160D",
">f 	c #1C110C",
",f 	c #261C14",
"'f 	c #1D120D",
")f 	c #1B100B",
"!f 	c #1D120B",
"~f 	c #1E130D",
"{f 	c #4F4F42",
"]f 	c #5D5E50",
"^f 	c #798275",
"/f 	c #C0D5D7",
"(f 	c #D0EBF4",
"_f 	c #9AA8AD",
":f 	c #4F5738",
"<f 	c #5C5B52",
"[f 	c #787768",
"}f 	c #5E5C52",
"|f 	c #8B8481",
"1f 	c #948C8C",
"2f 	c #75736A",
"3f 	c #2F3121",
"4f 	c #262C1F",
"5f 	c #CEEFF2",
"6f 	c #96B7B7",
"7f 	c #777D6D",
"8f 	c #796F5D",
"9f 	c #6D6454",
"0f 	c #595B4C",
"af 	c #7B7269",
"bf 	c #423026",
"cf 	c #45372E",
"df 	c #4C3C2F",
"ef 	c #584538",
"ff 	c #5B4539",
"gf 	c #48352E",
"hf 	c #3B2B23",
"if 	c #4D3B34",
"jf 	c #32221D",
"kf 	c #322017",
"lf 	c #513526",
"mf 	c #472E20",
"nf 	c #4C3225",
"of 	c #3D261A",
"pf 	c #352016",
"qf 	c #311E15",
"rf 	c #342016",
"sf 	c #43281A",
"tf 	c #543423",
"uf 	c #714737",
"vf 	c #704A39",
"wf 	c #603E2F",
"xf 	c #472D21",
"yf 	c #322116",
"zf 	c #352118",
"Af 	c #43291D",
"Bf 	c #4C3123",
"Cf 	c #543524",
"Df 	c #5A3B29",
"Ef 	c #533525",
"Ff 	c #503221",
"Gf 	c #4C3021",
"Hf 	c #583929",
"If 	c #3F261A",
"Jf 	c #3A261A",
"Kf 	c #372318",
"Lf 	c #2D1B11",
"Mf 	c #27160E",
"Nf 	c #2A1C12",
"Of 	c #271910",
"Pf 	c #321E13",
"Qf 	c #3A271C",
"Rf 	c #2C1C13",
"Sf 	c #23160E",
"Tf 	c #1D1711",
"Uf 	c #2D2219",
"Vf 	c #534F44",
"Wf 	c #525445",
"Xf 	c #515444",
"Yf 	c #5A6555",
"Zf 	c #ACBEBD",
"`f 	c #838E88",
" g 	c #464A31",
".g 	c #4E4D3A",
"+g 	c #7D7771",
"@g 	c #999090",
"#g 	c #968F8B",
"$g 	c #79726B",
"%g 	c #48483B",
"&g 	c #5F636C",
"*g 	c #4E5551",
"=g 	c #CEECEF",
"-g 	c #9BB3B2",
";g 	c #7B7B6A",
">g 	c #666553",
",g 	c #60614F",
"'g 	c #66584D",
")g 	c #49362D",
"!g 	c #44332C",
"~g 	c #5A483B",
"{g 	c #4F3A2E",
"]g 	c #513E32",
"^g 	c #433129",
"/g 	c #3C2B24",
"(g 	c #47352A",
"_g 	c #34261F",
":g 	c #4F3E37",
"<g 	c #382821",
"[g 	c #2A1C17",
"}g 	c #3C271E",
"|g 	c #523627",
"1g 	c #4F3123",
"2g 	c #543526",
"3g 	c #4B3122",
"4g 	c #3A2216",
"5g 	c #3A2419",
"6g 	c #3B251C",
"7g 	c #40281E",
"8g 	c #633E2E",
"9g 	c #633C29",
"0g 	c #6E4734",
"ag 	c #6B412F",
"bg 	c #543327",
"cg 	c #39241B",
"dg 	c #2E1D14",
"eg 	c #2C1A11",
"fg 	c #352218",
"gg 	c #3F271C",
"hg 	c #40251A",
"ig 	c #4E3020",
"jg 	c #4A2D1D",
"kg 	c #482E20",
"lg 	c #41261A",
"mg 	c #4D2F20",
"ng 	c #553523",
"og 	c #533524",
"pg 	c #573A29",
"qg 	c #46291B",
"rg 	c #4B2E1F",
"sg 	c #4F3222",
"tg 	c #422619",
"ug 	c #2A1910",
"vg 	c #25160D",
"wg 	c #2A190F",
"xg 	c #3A2319",
"yg 	c #3C2418",
"zg 	c #362015",
"Ag 	c #15100A",
"Bg 	c #17110B",
"Cg 	c #1A120C",
"Dg 	c #5F5D56",
"Eg 	c #535449",
"Fg 	c #4C4E41",
"Gg 	c #3C3F2B",
"Hg 	c #393E26",
"Ig 	c #50523D",
"Jg 	c #3C3E31",
"Kg 	c #74726B",
"Lg 	c #888175",
"Mg 	c #837B70",
"Ng 	c #6D675A",
"Og 	c #363922",
"Pg 	c #555848",
"Qg 	c #616553",
"Rg 	c #333722",
"Sg 	c #E9FBFA",
"Tg 	c #BBD1C9",
"Ug 	c #848E8D",
"Vg 	c #666B53",
"Wg 	c #484D3A",
"Xg 	c #676A64",
"Yg 	c #615146",
"Zg 	c #48362B",
"`g 	c #49362F",
" h 	c #584336",
".h 	c #564336",
"+h 	c #453328",
"@h 	c #3A2B22",
"#h 	c #45342D",
"$h 	c #36251E",
"%h 	c #4C3124",
"&h 	c #613F2B",
"*h 	c #5C3B2B",
"=h 	c #634231",
"-h 	c #664332",
";h 	c #503327",
">h 	c #573A2E",
",h 	c #634234",
"'h 	c #734937",
")h 	c #744835",
"!h 	c #754B39",
"~h 	c #603C2C",
"{h 	c #462C20",
"]h 	c #26170F",
"^h 	c #27160F",
"/h 	c #2D1B12",
"(h 	c #2E1C13",
"_h 	c #2A1810",
":h 	c #301D13",
"<h 	c #342015",
"[h 	c #362218",
"}h 	c #3B2418",
"|h 	c #44281D",
"1h 	c #513225",
"2h 	c #4E2E20",
"3h 	c #42271B",
"4h 	c #3B2015",
"5h 	c #512E20",
"6h 	c #5E3725",
"7h 	c #653F2C",
"8h 	c #66412F",
"9h 	c #553321",
"0h 	c #3F2418",
"ah 	c #28170E",
"bh 	c #291810",
"ch 	c #2D1D15",
"dh 	c #25150D",
"eh 	c #3C2218",
"fh 	c #3B2216",
"gh 	c #3A2116",
"hh 	c #3C271C",
"ih 	c #23160F",
"jh 	c #20140D",
"kh 	c #18100B",
"lh 	c #150F0B",
"mh 	c #16100B",
"nh 	c #151009",
"oh 	c #141009",
"ph 	c #140F09",
"qh 	c #16110B",
"rh 	c #2D2119",
"sh 	c #211910",
"th 	c #615E55",
"uh 	c #666C64",
"vh 	c #525548",
"wh 	c #444638",
"xh 	c #2C311D",
"yh 	c #3F412C",
"zh 	c #4D4F3A",
"Ah 	c #7B7773",
"Bh 	c #BDB7B6",
"Ch 	c #82847F",
"Dh 	c #464A38",
"Eh 	c #363D22",
"Fh 	c #373C24",
"Gh 	c #3A4022",
"Hh 	c #424829",
"Ih 	c #3A4128",
"Jh 	c #F2F8F5",
"Kh 	c #C0DBDB",
"Lh 	c #B6D0D6",
"Mh 	c #93A39C",
"Nh 	c #646B5A",
"Oh 	c #363D34",
"Ph 	c #293332",
"Qh 	c #6C6C68",
"Rh 	c #645448",
"Sh 	c #544037",
"Th 	c #584235",
"Uh 	c #4F3C2F",
"Vh 	c #443328",
"Wh 	c #423129",
"Xh 	c #41322A",
"Yh 	c #3F2F27",
"Zh 	c #523626",
"`h 	c #63402D",
" i 	c #634330",
".i 	c #543425",
"+i 	c #664434",
"@i 	c #5C3B2C",
"#i 	c #5E3E32",
"$i 	c #664637",
"%i 	c #5B3B2F",
"&i 	c #5D3C2D",
"*i 	c #643D2D",
"=i 	c #613D2B",
"-i 	c #5A3827",
";i 	c #452B1F",
">i 	c #1F130D",
",i 	c #1D100C",
"'i 	c #2A1811",
")i 	c #321E15",
"!i 	c #2F1C12",
"~i 	c #2D1A10",
"{i 	c #331F16",
"]i 	c #341E13",
"^i 	c #331C11",
"/i 	c #3D2116",
"(i 	c #3F2318",
"_i 	c #4D2E21",
":i 	c #653D2A",
"<i 	c #693E28",
"[i 	c #714832",
"}i 	c #7B533D",
"|i 	c #774D38",
"1i 	c #6D4730",
"2i 	c #5F3A27",
"3i 	c #41251A",
"4i 	c #29180F",
"5i 	c #2A1911",
"6i 	c #2B180F",
"7i 	c #3D2317",
"8i 	c #3F251A",
"9i 	c #352015",
"0i 	c #23170E",
"ai 	c #1F150E",
"bi 	c #190E0A",
"ci 	c #150E08",
"di 	c #150E0A",
"ei 	c #150D0A",
"fi 	c #150E09",
"gi 	c #131009",
"hi 	c #120E08",
"ii 	c #17120C",
"ji 	c #19130D",
"ki 	c #241D17",
"li 	c #1F1710",
"mi 	c #453E35",
"ni 	c #67695F",
"oi 	c #656658",
"pi 	c #424B3D",
"qi 	c #354234",
"ri 	c #4E513C",
"si 	c #43422E",
"ti 	c #7A7169",
"ui 	c #C0B5B4",
"vi 	c #AFAAA8",
"wi 	c #8F8C8C",
"xi 	c #70716A",
"yi 	c #5E605B",
"zi 	c #666D69",
"Ai 	c #656E77",
"Bi 	c #616E72",
"Ci 	c #FDFEFD",
"Di 	c #EAF3F3",
"Ei 	c #E6F3F5",
"Fi 	c #E1F9FB",
"Gi 	c #B2CECB",
"Hi 	c #789094",
"Ii 	c #46595B",
"Ji 	c #454B4A",
"Ki 	c #716D66",
"Li 	c #5E4B3E",
"Mi 	c #4A362B",
"Ni 	c #624F42",
"Oi 	c #543E30",
"Pi 	c #47382E",
"Qi 	c #3C2D23",
"Ri 	c #3C2A21",
"Si 	c #62432F",
"Ti 	c #694431",
"Ui 	c #664430",
"Vi 	c #533324",
"Wi 	c #614131",
"Xi 	c #533527",
"Yi 	c #503428",
"Zi 	c #4C3125",
"`i 	c #462E23",
" j 	c #322118",
".j 	c #2C1D16",
"+j 	c #241710",
"@j 	c #2B1C16",
"#j 	c #3B2419",
"$j 	c #43291E",
"%j 	c #4B2C20",
"&j 	c #5F3B2B",
"*j 	c #674230",
"=j 	c #6A4230",
"-j 	c #643A2A",
";j 	c #694231",
">j 	c #6E4735",
",j 	c #774C39",
"'j 	c #7F513B",
")j 	c #7E5039",
"!j 	c #82543D",
"~j 	c #885C45",
"{j 	c #885C44",
"]j 	c #825843",
"^j 	c #805840",
"/j 	c #754D35",
"(j 	c #5D3926",
"_j 	c #3E241A",
":j 	c #28170F",
"<j 	c #311D13",
"[j 	c #3D2318",
"}j 	c #361F14",
"|j 	c #281910",
"1j 	c #1F120C",
"2j 	c #18120C",
"3j 	c #110C07",
"4j 	c #16100A",
"5j 	c #241D14",
"6j 	c #201910",
"7j 	c #2D251E",
"8j 	c #555448",
"9j 	c #54584E",
"0j 	c #96ACB4",
"aj 	c #8EA6A7",
"bj 	c #4C4F3C",
"cj 	c #3C3B29",
"dj 	c #3C3A27",
"ej 	c #9B8F89",
"fj 	c #B2A9A7",
"gj 	c #9F9996",
"hj 	c #95908D",
"ij 	c #9A9493",
"jj 	c #ACADB5",
"kj 	c #9FA5B3",
"lj 	c #717E78",
"mj 	c #F0F6F6",
"nj 	c #E3FBFD",
"oj 	c #C3E3E6",
"pj 	c #809EA3",
"qj 	c #45585A",
"rj 	c #293134",
"sj 	c #5E5E5C",
"tj 	c #6E645A",
"uj 	c #584438",
"vj 	c #503D31",
"wj 	c #5F483C",
"xj 	c #503A2E",
"yj 	c #403228",
"zj 	c #523E31",
"Aj 	c #2D1F1A",
"Bj 	c #64422F",
"Cj 	c #6F4A36",
"Dj 	c #654230",
"Ej 	c #5B3D2E",
"Fj 	c #4B3125",
"Gj 	c #3E291E",
"Hj 	c #35231C",
"Ij 	c #1B110C",
"Jj 	c #180E0A",
"Kj 	c #170E0A",
"Lj 	c #2C1C16",
"Mj 	c #3A2217",
"Nj 	c #4B2F22",
"Oj 	c #523226",
"Pj 	c #5F3C2C",
"Qj 	c #6C4532",
"Rj 	c #744B37",
"Sj 	c #784D39",
"Tj 	c #7B4B37",
"Uj 	c #855641",
"Vj 	c #85553F",
"Wj 	c #85543F",
"Xj 	c #865640",
"Yj 	c #91624B",
"Zj 	c #9D6F57",
"`j 	c #9F7259",
" k 	c #9A6B52",
".k 	c #895C45",
"+k 	c #855A43",
"@k 	c #795138",
"#k 	c #653C28",
"$k 	c #4F2D1F",
"%k 	c #29180D",
"&k 	c #442B1E",
"*k 	c #1D140F",
"=k 	c #19140E",
"-k 	c #18130D",
";k 	c #16110C",
">k 	c #1C1610",
",k 	c #241C17",
"'k 	c #241D15",
")k 	c #2B231B",
"!k 	c #42463C",
"~k 	c #87989F",
"{k 	c #C7DDE2",
"]k 	c #99ADA7",
"^k 	c #6A797D",
"/k 	c #3B402C",
"(k 	c #2C2D1D",
"_k 	c #5C5648",
":k 	c #A19593",
"<k 	c #9C9592",
"[k 	c #95908C",
"}k 	c #9B9595",
"|k 	c #AEAFB5",
"1k 	c #8E9493",
"2k 	c #3A4924",
"3k 	c #E3FCFE",
"4k 	c #C1E2E4",
"5k 	c #7C9CA2",
"6k 	c #435455",
"7k 	c #2F3639",
"8k 	c #606361",
"9k 	c #5B4F46",
"0k 	c #564539",
"ak 	c #594538",
"bk 	c #4A3227",
"ck 	c #483227",
"dk 	c #392C22",
"ek 	c #30251F",
"fk 	c #36241B",
"gk 	c #63402F",
"hk 	c #6E4936",
"ik 	c #472D23",
"jk 	c #160E0A",
"kk 	c #140C09",
"lk 	c #19110C",
"mk 	c #3A241A",
"nk 	c #573626",
"ok 	c #65412E",
"pk 	c #704633",
"qk 	c #744935",
"rk 	c #7F503B",
"sk 	c #84543E",
"tk 	c #875741",
"uk 	c #8F5E49",
"vk 	c #9A6B54",
"wk 	c #A5755E",
"xk 	c #A4745C",
"yk 	c #A3755C",
"zk 	c #A2735B",
"Ak 	c #986A51",
"Bk 	c #9B6E56",
"Ck 	c #8E654F",
"Dk 	c #784B39",
"Ek 	c #583625",
"Fk 	c #40281D",
"Gk 	c #2B1910",
"Hk 	c #23140B",
"Ik 	c #2C1C14",
"Jk 	c #503529",
"Kk 	c #593E32",
"Lk 	c #452F22",
"Mk 	c #3D291E",
"Nk 	c #29221C",
"Ok 	c #2F2820",
"Pk 	c #565B51",
"Qk 	c #BFDEE0",
"Rk 	c #AFC1C4",
"Sk 	c #A8BDC5",
"Tk 	c #99B0B0",
"Uk 	c #51554D",
"Vk 	c #2B2F23",
"Wk 	c #31311D",
"Xk 	c #7E7A70",
"Yk 	c #848077",
"Zk 	c #9B9897",
"`k 	c #AFB0B6",
" l 	c #2F3C1C",
".l 	c #F6FDFC",
"+l 	c #F0F5F2",
"@l 	c #E9F4F3",
"#l 	c #F9FFFF",
"$l 	c #E1FCFD",
"%l 	c #BDDFE2",
"&l 	c #7A999C",
"*l 	c #405151",
"=l 	c #242D2C",
"-l 	c #5E605E",
";l 	c #54473B",
">l 	c #5D493B",
",l 	c #46342B",
"'l 	c #36261E",
")l 	c #37261F",
"!l 	c #30221F",
"~l 	c #291D19",
"{l 	c #2D1F19",
"]l 	c #63402E",
"^l 	c #6C4735",
"/l 	c #523528",
"(l 	c #4F382C",
"_l 	c #39271F",
":l 	c #130E0A",
"<l 	c #15100B",
"[l 	c #3C281E",
"}l 	c #452D21",
"|l 	c #5C3A2C",
"1l 	c #633F30",
"2l 	c #744936",
"3l 	c #835540",
"4l 	c #8C5E47",
"5l 	c #95664F",
"6l 	c #9D6D56",
"7l 	c #A6765E",
"8l 	c #A87860",
"9l 	c #A77358",
"0l 	c #A5755B",
"al 	c #A3735A",
"bl 	c #9B6C51",
"cl 	c #9C6E55",
"dl 	c #986C54",
"el 	c #855C46",
"fl 	c #593727",
"gl 	c #482D1F",
"hl 	c #1F120E",
"il 	c #291912",
"jl 	c #150F09",
"kl 	c #17120D",
"ll 	c #17110C",
"ml 	c #2A231D",
"nl 	c #54574D",
"ol 	c #ABBFB9",
"pl 	c #9EB1B4",
"ql 	c #B4C3C9",
"rl 	c #64725F",
"sl 	c #B8B3B5",
"tl 	c #828684",
"ul 	c #34392B",
"vl 	c #5A5849",
"wl 	c #5F614E",
"xl 	c #8F8985",
"yl 	c #9D9A99",
"zl 	c #ABAAAF",
"Al 	c #5A5F4F",
"Bl 	c #293316",
"Cl 	c #EAF0EF",
"Dl 	c #AEB9AF",
"El 	c #DEEAEC",
"Fl 	c #F7FFFE",
"Gl 	c #DFFBFC",
"Hl 	c #BADDDE",
"Il 	c #759496",
"Jl 	c #3C4D4C",
"Kl 	c #232C2B",
"Ll 	c #585A58",
"Ml 	c #55473A",
"Nl 	c #513F32",
"Ol 	c #533F34",
"Pl 	c #2B1E1B",
"Ql 	c #2D1C15",
"Rl 	c #2C1A12",
"Sl 	c #62402F",
"Tl 	c #603C2B",
"Ul 	c #583A2E",
"Vl 	c #614434",
"Wl 	c #604132",
"Xl 	c #624237",
"Yl 	c #593B2C",
"Zl 	c #533829",
"`l 	c #593E2D",
" m 	c #583B2D",
".m 	c #40251B",
"+m 	c #3E2419",
"@m 	c #3D2319",
"#m 	c #201610",
"$m 	c #3A271D",
"%m 	c #52382A",
"&m 	c #5A3B2D",
"*m 	c #714A37",
"=m 	c #8B5D46",
"-m 	c #966650",
";m 	c #9F6F58",
">m 	c #A9765D",
",m 	c #A8755A",
"'m 	c #A67459",
")m 	c #A47258",
"!m 	c #A27258",
"~m 	c #9A6B4F",
"{m 	c #9B6C54",
"]m 	c #9A6C55",
"^m 	c #895E49",
"/m 	c #644131",
"(m 	c #553529",
"_m 	c #36241A",
":m 	c #251713",
"<m 	c #1A140E",
"[m 	c #1B140F",
"}m 	c #1F1812",
"|m 	c #1F1712",
"1m 	c #120D09",
"2m 	c #130F0B",
"3m 	c #19130E",
"4m 	c #2B241C",
"5m 	c #48493F",
"6m 	c #95A8AB",
"7m 	c #B2CED3",
"8m 	c #838D88",
"9m 	c #5C5F51",
"0m 	c #D0C9C9",
"am 	c #CBC4C3",
"bm 	c #9B9995",
"cm 	c #525349",
"dm 	c #5A5B4A",
"em 	c #736E64",
"fm 	c #998F8E",
"gm 	c #807A74",
"hm 	c #3F3E2B",
"im 	c #29311A",
"jm 	c #D6E6E7",
"km 	c #F0F8FA",
"lm 	c #FFFFFE",
"mm 	c #F6FFFF",
"nm 	c #DCF9FB",
"om 	c #B5D9DA",
"pm 	c #6E8E90",
"qm 	c #384948",
"rm 	c #222B2A",
"sm 	c #646462",
"tm 	c #554537",
"um 	c #4E3B2D",
"vm 	c #534032",
"wm 	c #4B372C",
"xm 	c #291913",
"ym 	c #5D3D2C",
"zm 	c #684736",
"Am 	c #6F4D3B",
"Bm 	c #6F4B3B",
"Cm 	c #6F4A3A",
"Dm 	c #663E2C",
"Em 	c #653926",
"Fm 	c #693B28",
"Gm 	c #6C3B27",
"Hm 	c #6B3924",
"Im 	c #6B3926",
"Jm 	c #6E3C28",
"Km 	c #703D2A",
"Lm 	c #703D29",
"Mm 	c #723F2A",
"Nm 	c #713E28",
"Om 	c #6D3B27",
"Pm 	c #613422",
"Qm 	c #502C1C",
"Rm 	c #301C12",
"Sm 	c #4D3629",
"Tm 	c #553828",
"Um 	c #714C38",
"Vm 	c #8B5F48",
"Wm 	c #A0715A",
"Xm 	c #A57258",
"Ym 	c #A6755A",
"Zm 	c #A27157",
"`m 	c #A37156",
" n 	c #9C6E53",
".n 	c #9A6C53",
"+n 	c #92654C",
"@n 	c #835A44",
"#n 	c #5A3A2D",
"$n 	c #53372B",
"%n 	c #473024",
"&n 	c #2D1C14",
"*n 	c #1D140D",
"=n 	c #503325",
"-n 	c #5B392B",
";n 	c #623D2C",
">n 	c #613A29",
",n 	c #603A28",
"'n 	c #5E3A29",
")n 	c #583627",
"!n 	c #4E3023",
"~n 	c #120E0A",
"{n 	c #120F0A",
"]n 	c #120E09",
"^n 	c #1E1812",
"/n 	c #251E18",
"(n 	c #2D261F",
"_n 	c #575850",
":n 	c #A3B4B6",
"<n 	c #98A8A2",
"[n 	c #4E4F3E",
"}n 	c #84837C",
"|n 	c #D7D1D0",
"1n 	c #CEC7C4",
"2n 	c #BFBAB6",
"3n 	c #A09C9B",
"4n 	c #706E63",
"5n 	c #3E3E2A",
"6n 	c #585040",
"7n 	c #1F2712",
"8n 	c #434F47",
"9n 	c #F4FFFF",
"0n 	c #DBF9FB",
"an 	c #B2D4D6",
"bn 	c #6A898C",
"cn 	c #364543",
"dn 	c #303736",
"en 	c #6C6B67",
"fn 	c #5C4B3D",
"gn 	c #4C392A",
"hn 	c #4D3A2C",
"in 	c #503C30",
"jn 	c #432F24",
"kn 	c #402D22",
"ln 	c #5B3D2C",
"mn 	c #6C4836",
"nn 	c #6E4B39",
"on 	c #744C3A",
"pn 	c #734635",
"qn 	c #6C3C2B",
"rn 	c #6A3827",
"sn 	c #6C3926",
"tn 	c #713E2B",
"un 	c #73402D",
"vn 	c #72402C",
"wn 	c #71412D",
"xn 	c #72422E",
"yn 	c #764531",
"zn 	c #784532",
"An 	c #794631",
"Bn 	c #7A4631",
"Cn 	c #7A462F",
"Dn 	c #77432B",
"En 	c #79442C",
"Fn 	c #6F3D27",
"Gn 	c #532E1E",
"Hn 	c #39281D",
"In 	c #453022",
"Jn 	c #503423",
"Kn 	c #6F4B38",
"Ln 	c #865C45",
"Mn 	c #976851",
"Nn 	c #9D6E55",
"On 	c #A16F55",
"Pn 	c #A16F54",
"Qn 	c #A37358",
"Rn 	c #9F6E54",
"Sn 	c #9F6F54",
"Tn 	c #9F7056",
"Un 	c #9D6E54",
"Vn 	c #986950",
"Wn 	c #865D45",
"Xn 	c #77543D",
"Yn 	c #453023",
"Zn 	c #513628",
"`n 	c #724D38",
" o 	c #865A42",
".o 	c #926149",
"+o 	c #946048",
"@o 	c #925E47",
"#o 	c #905C46",
"$o 	c #8D5A44",
"%o 	c #89563E",
"&o 	c #88543C",
"*o 	c #855139",
"=o 	c #87553D",
"-o 	c #85543D",
";o 	c #834F39",
">o 	c #814C36",
",o 	c #7E4834",
"'o 	c #734330",
")o 	c #63392A",
"!o 	c #492A20",
"~o 	c #100C08",
"{o 	c #110D09",
"]o 	c #16130D",
"^o 	c #2C251F",
"/o 	c #56594D",
"(o 	c #727E71",
"_o 	c #3D412D",
":o 	c #3D3C2A",
"<o 	c #9E9B98",
"[o 	c #D8D3D0",
"}o 	c #CDC5C1",
"|o 	c #B7B0AA",
"1o 	c #9C948F",
"2o 	c #676252",
"3o 	c #30351E",
"4o 	c #222912",
"5o 	c #31392D",
"6o 	c #6D7B83",
"7o 	c #DBF8FA",
"8o 	c #B0D3D6",
"9o 	c #6C8A8C",
"0o 	c #374542",
"ao 	c #3F4344",
"bo 	c #5E5C55",
"co 	c #594638",
"do 	c #4F3C2E",
"eo 	c #493628",
"fo 	c #1B100D",
"go 	c #583A29",
"ho 	c #724B39",
"io 	c #734433",
"jo 	c #723E2D",
"ko 	c #703D2C",
"lo 	c #72402E",
"mo 	c #73422F",
"no 	c #74442F",
"oo 	c #774732",
"po 	c #794732",
"qo 	c #7A4732",
"ro 	c #7C4934",
"so 	c #7E4D38",
"to 	c #80503A",
"uo 	c #834F3A",
"vo 	c #824F3A",
"wo 	c #804D38",
"xo 	c #7E4B36",
"yo 	c #804C37",
"zo 	c #824E38",
"Ao 	c #824D35",
"Bo 	c #844D35",
"Co 	c #844C34",
"Do 	c #7D4932",
"Eo 	c #593928",
"Fo 	c #533827",
"Go 	c #6D4A36",
"Ho 	c #835943",
"Io 	c #93644D",
"Jo 	c #98674F",
"Ko 	c #9F6D54",
"Lo 	c #A06E53",
"Mo 	c #9E6C51",
"No 	c #9E6D53",
"Oo 	c #9E6F54",
"Po 	c #96674D",
"Qo 	c #835D46",
"Ro 	c #74513D",
"So 	c #513728",
"To 	c #50392A",
"Uo 	c #74523C",
"Vo 	c #92674C",
"Wo 	c #9B6C52",
"Xo 	c #996A50",
"Yo 	c #946249",
"Zo 	c #925E46",
"`o 	c #8F5B42",
" p 	c #8C5842",
".p 	c #88563F",
"+p 	c #87553E",
"@p 	c #88543E",
"#p 	c #87533D",
"$p 	c #86563F",
"%p 	c #85513C",
"&p 	c #824E39",
"*p 	c #814B37",
"=p 	c #7D4632",
"-p 	c #774430",
";p 	c #633928",
">p 	c #2D1C12",
",p 	c #17100D",
"'p 	c #0E0C08",
")p 	c #0C0B07",
"!p 	c #0F0B08",
"~p 	c #110D08",
"{p 	c #13100A",
"]p 	c #19140F",
"^p 	c #29231D",
"/p 	c #5D625A",
"(p 	c #3B3A26",
"_p 	c #4A4B3F",
":p 	c #B2B1B1",
"<p 	c #C0BAB3",
"[p 	c #898670",
"}p 	c #6E6754",
"|p 	c #4F4B37",
"1p 	c #52513D",
"2p 	c #4D4E39",
"3p 	c #252C16",
"4p 	c #3C4228",
"5p 	c #595E55",
"6p 	c #6C7878",
"7p 	c #FBFFFF",
"8p 	c #F6FEFF",
"9p 	c #E7FDFF",
"0p 	c #D8F3F8",
"ap 	c #B4D3D8",
"bp 	c #718B90",
"cp 	c #3E4B49",
"dp 	c #353A3A",
"ep 	c #625D54",
"fp 	c #554233",
"gp 	c #523E30",
"hp 	c #4B392B",
"ip 	c #4B382A",
"jp 	c #3A251B",
"kp 	c #28160F",
"lp 	c #643E2D",
"mp 	c #754533",
"np 	c #784535",
"op 	c #784635",
"pp 	c #7A4736",
"qp 	c #7B4937",
"rp 	c #794836",
"sp 	c #7A4A39",
"tp 	c #7D4D39",
"up 	c #7F4F3A",
"vp 	c #804F39",
"wp 	c #804F3A",
"xp 	c #81503B",
"yp 	c #83533D",
"zp 	c #84513C",
"Ap 	c #83503B",
"Bp 	c #83513C",
"Cp 	c #82503A",
"Dp 	c #85523D",
"Ep 	c #87543E",
"Fp 	c #89533B",
"Gp 	c #8A533C",
"Hp 	c #8A533D",
"Ip 	c #8C533C",
"Jp 	c #8D573E",
"Kp 	c #7A4D37",
"Lp 	c #80543F",
"Mp 	c #8D5F48",
"Np 	c #94624A",
"Op 	c #9B6950",
"Pp 	c #9D6B50",
"Qp 	c #9B694E",
"Rp 	c #9C6A4F",
"Sp 	c #9C6D51",
"Tp 	c #97694E",
"Up 	c #8E6248",
"Vp 	c #815942",
"Wp 	c #714D39",
"Xp 	c #583C2C",
"Yp 	c #805945",
"Zp 	c #996C53",
"`p 	c #976A4F",
" q 	c #906246",
".q 	c #8E5F46",
"+q 	c #8A5A42",
"@q 	c #8C5B42",
"#q 	c #8C5A41",
"$q 	c #8B5941",
"%q 	c #8A5742",
"&q 	c #87553F",
"*q 	c #85533D",
"=q 	c #83513A",
"-q 	c #82523B",
";q 	c #81513B",
">q 	c #80513B",
",q 	c #814E39",
"'q 	c #804E39",
")q 	c #7F4D38",
"!q 	c #7F4D37",
"~q 	c #7C4A35",
"{q 	c #673D2C",
"]q 	c #331E15",
"^q 	c #160E09",
"/q 	c #0E0A06",
"(q 	c #0C0A06",
"_q 	c #090804",
":q 	c #0C0805",
"<q 	c #100D08",
"[q 	c #110E09",
"}q 	c #15110C",
"|q 	c #1A150F",
"1q 	c #4F4E42",
"2q 	c #3B3A27",
"3q 	c #7E7D7E",
"4q 	c #B7B8B6",
"5q 	c #747263",
"6q 	c #4E4937",
"7q 	c #3E3C26",
"8q 	c #3D3F27",
"9q 	c #535340",
"0q 	c #5E5F4B",
"aq 	c #283018",
"bq 	c #2F3722",
"cq 	c #293118",
"dq 	c #EDFBFF",
"eq 	c #EAF9FE",
"fq 	c #E5F7FD",
"gq 	c #E3F4FB",
"hq 	c #EDF9FD",
"iq 	c #F8FDFE",
"jq 	c #EDFAFD",
"kq 	c #E1F6FD",
"lq 	c #DEF3F9",
"mq 	c #D2E7EE",
"nq 	c #B8CED8",
"oq 	c #81969B",
"pq 	c #4B5454",
"qq 	c #4A4E4D",
"rq 	c #73695D",
"sq 	c #574235",
"tq 	c #433023",
"uq 	c #1A140F",
"vq 	c #442A20",
"wq 	c #503126",
"xq 	c #674735",
"yq 	c #805640",
"zq 	c #7E523D",
"Aq 	c #805340",
"Bq 	c #7D4D3B",
"Cq 	c #7D4C3B",
"Dq 	c #7B4A39",
"Eq 	c #7C4D3B",
"Fq 	c #7D4E3B",
"Gq 	c #7C4C37",
"Hq 	c #7F503A",
"Iq 	c #80503B",
"Jq 	c #7E4E38",
"Kq 	c #7E4F39",
"Lq 	c #814F3A",
"Mq 	c #7E4E39",
"Nq 	c #81523B",
"Oq 	c #85563F",
"Pq 	c #895641",
"Qq 	c #8D5A45",
"Rq 	c #8F5C46",
"Sq 	c #93614A",
"Tq 	c #936048",
"Uq 	c #976247",
"Vq 	c #976245",
"Wq 	c #8A593D",
"Xq 	c #6E4834",
"Yq 	c #7F533D",
"Zq 	c #8B5C45",
"`q 	c #93624B",
" r 	c #97654C",
".r 	c #9A684D",
"+r 	c #9B6A4F",
"@r 	c #9C6C51",
"#r 	c #97694D",
"$r 	c #94674A",
"%r 	c #875F45",
"&r 	c #7E573F",
"*r 	c #7B543E",
"=r 	c #93654E",
"-r 	c #986851",
";r 	c #93634C",
">r 	c #8F5F47",
",r 	c #90624A",
"'r 	c #92624C",
")r 	c #8E5E48",
"!r 	c #8D5D47",
"~r 	c #8B5C44",
"{r 	c #885844",
"]r 	c #835442",
"^r 	c #815240",
"/r 	c #80513E",
"(r 	c #7E4F3D",
"_r 	c #845641",
":r 	c #855642",
"<r 	c #80513D",
"[r 	c #7E4F3B",
"}r 	c #85543E",
"|r 	c #7F4F39",
"1r 	c #81503D",
"2r 	c #7B4C39",
"3r 	c #0D0805",
"4r 	c #0D0A06",
"5r 	c #0F0C08",
"6r 	c #1D1812",
"7r 	c #312C22",
"8r 	c #3F3E2D",
"9r 	c #393928",
"0r 	c #7E817F",
"ar 	c #6E7974",
"br 	c #5A6866",
"cr 	c #5D6A63",
"dr 	c #5D645A",
"er 	c #6B6D64",
"fr 	c #8A8683",
"gr 	c #8B8784",
"hr 	c #474A3F",
"ir 	c #505552",
"jr 	c #616B6E",
"kr 	c #293520",
"lr 	c #DAECF5",
"mr 	c #D5E8F1",
"nr 	c #D3E5EF",
"or 	c #D1E3ED",
"pr 	c #D3E6F1",
"qr 	c #D4E7F1",
"rr 	c #D3E6F0",
"sr 	c #D4E8F3",
"tr 	c #D0E4EF",
"ur 	c #C6D3DB",
"vr 	c #BCCAD6",
"wr 	c #8F9FA4",
"xr 	c #525859",
"yr 	c #6D6D6B",
"zr 	c #6F5C50",
"Ar 	c #5B4537",
"Br 	c #553D2F",
"Cr 	c #4C3729",
"Dr 	c #473527",
"Er 	c #402E20",
"Fr 	c #1C1210",
"Gr 	c #503227",
"Hr 	c #6E4937",
"Ir 	c #855D46",
"Jr 	c #89614A",
"Kr 	c #845B45",
"Lr 	c #80533E",
"Mr 	c #7F503E",
"Nr 	c #7C4C3A",
"Or 	c #7C4B3A",
"Pr 	c #7F4E3D",
"Qr 	c #7F513E",
"Rr 	c #7E503C",
"Sr 	c #7A513E",
"Tr 	c #7A4F3E",
"Ur 	c #794E3D",
"Vr 	c #784D3C",
"Wr 	c #744938",
"Xr 	c #764C38",
"Yr 	c #774B38",
"Zr 	c #7E4E3B",
"`r 	c #86543E",
" s 	c #895540",
".s 	c #895640",
"+s 	c #8F5D47",
"@s 	c #98664D",
"#s 	c #9D6B52",
"$s 	c #9D674A",
"%s 	c #8D5D43",
"&s 	c #7B4F3A",
"*s 	c #875A43",
"=s 	c #91634B",
"-s 	c #9A6A50",
";s 	c #9E6C53",
">s 	c #9E6E53",
",s 	c #9E7053",
"'s 	c #996D50",
")s 	c #885F47",
"!s 	c #875D46",
"~s 	c #94674D",
"{s 	c #91644C",
"]s 	c #90634C",
"^s 	c #8E614B",
"/s 	c #8E604A",
"(s 	c #8E6049",
"_s 	c #8C5D46",
":s 	c #895944",
"<s 	c #885743",
"[s 	c #7F503D",
"}s 	c #7B4E3D",
"|s 	c #7C5244",
"1s 	c #784F42",
"2s 	c #795042",
"3s 	c #794F40",
"4s 	c #7C5240",
"5s 	c #7C5341",
"6s 	c #7A4F3C",
"7s 	c #7B4F3B",
"8s 	c #814F3B",
"9s 	c #82513B",
"0s 	c #82533D",
"as 	c #80513A",
"bs 	c #82553F",
"cs 	c #885A44",
"ds 	c #845640",
"es 	c #593929",
"fs 	c #0E0B07",
"gs 	c #14110C",
"hs 	c #1C1713",
"is 	c #1A1610",
"js 	c #191410",
"ks 	c #221E19",
"ls 	c #3C372A",
"ms 	c #7C8383",
"ns 	c #BFCDD8",
"os 	c #D0DDE8",
"ps 	c #D3DAE7",
"qs 	c #C9CEDB",
"rs 	c #B9BABD",
"ss 	c #A7A3A2",
"ts 	c #9B9794",
"us 	c #7A7973",
"vs 	c #27311C",
"ws 	c #777E85",
"xs 	c #5A6F72",
"ys 	c #CFE1EB",
"zs 	c #CEE0EB",
"As 	c #CCDEE8",
"Bs 	c #CDDFE9",
"Cs 	c #CFE1EC",
"Ds 	c #CEE1EB",
"Es 	c #CFE1ED",
"Fs 	c #CEE0EC",
"Gs 	c #B5BEC6",
"Hs 	c #A0A9AF",
"Is 	c #889293",
"Js 	c #636363",
"Ks 	c #6F6962",
"Ls 	c #6A5647",
"Ms 	c #5F4639",
"Ns 	c #573E31",
"Os 	c #483326",
"Ps 	c #412E20",
"Qs 	c #2E2218",
"Rs 	c #201815",
"Ss 	c #1D1613",
"Ts 	c #1A1411",
"Us 	c #1D1713",
"Vs 	c #2C2018",
"Ws 	c #5C3829",
"Xs 	c #6F422F",
"Ys 	c #70422F",
"Zs 	c #734532",
"`s 	c #744633",
" t 	c #754634",
".t 	c #734333",
"+t 	c #794839",
"@t 	c #794A3A",
"#t 	c #784939",
"$t 	c #7B4F40",
"%t 	c #7C5444",
"&t 	c #724F41",
"*t 	c #6F4C3F",
"=t 	c #6E4E42",
"-t 	c #6B4A3E",
";t 	c #654436",
">t 	c #6F4636",
",t 	c #754939",
"'t 	c #77493A",
")t 	c #7F5240",
"!t 	c #825441",
"~t 	c #8A5843",
"{t 	c #8D5945",
"]t 	c #96644F",
"^t 	c #A06D58",
"/t 	c #A7745A",
"(t 	c #81553D",
"_t 	c #8F6249",
":t 	c #97694F",
"<t 	c #A06F55",
"[t 	c #A3745A",
"}t 	c #A17357",
"|t 	c #9D7156",
"1t 	c #93694F",
"2t 	c #8B6348",
"3t 	c #92664C",
"4t 	c #93674B",
"5t 	c #92674F",
"6t 	c #8C654C",
"7t 	c #8B604B",
"8t 	c #8C5D48",
"9t 	c #8A5C45",
"0t 	c #875B44",
"at 	c #845846",
"bt 	c #7F5445",
"ct 	c #775044",
"dt 	c #754E42",
"et 	c #7A584C",
"ft 	c #725348",
"gt 	c #725248",
"ht 	c #74554B",
"it 	c #76544A",
"jt 	c #7F5C52",
"kt 	c #755042",
"lt 	c #785445",
"mt 	c #7D5748",
"nt 	c #805643",
"ot 	c #7D4C36",
"pt 	c #7C4C36",
"qt 	c #7F523B",
"rt 	c #8B5F49",
"st 	c #8B604C",
"tt 	c #553B2D",
"ut 	c #1B1711",
"vt 	c #221B16",
"wt 	c #19130F",
"xt 	c #1A1712",
"yt 	c #241F1A",
"zt 	c #211C17",
"At 	c #26211D",
"Bt 	c #858385",
"Ct 	c #DBE6EF",
"Dt 	c #E4F0FB",
"Et 	c #E6F0FC",
"Ft 	c #D9E2F0",
"Gt 	c #C6CBD0",
"Ht 	c #A7A4A3",
"It 	c #999592",
"Jt 	c #948E8B",
"Kt 	c #363D27",
"Lt 	c #3F423C",
"Mt 	c #7F9098",
"Nt 	c #CBDDE7",
"Ot 	c #CADCE6",
"Pt 	c #C6D8E1",
"Qt 	c #C9DBE5",
"Rt 	c #CBDEE8",
"St 	c #C9DCE5",
"Tt 	c #C9DCE6",
"Ut 	c #CBDDE8",
"Vt 	c #CDDFEB",
"Wt 	c #B2BAC2",
"Xt 	c #8D8E91",
"Yt 	c #787470",
"Zt 	c #6D625B",
"`t 	c #68584B",
" u 	c #563F33",
".u 	c #4D3529",
"+u 	c #432F23",
"@u 	c #19120F",
"#u 	c #653C2B",
"$u 	c #5D2E1C",
"%u 	c #613627",
"&u 	c #5A2E21",
"*u 	c #5E3023",
"=u 	c #613326",
"-u 	c #643729",
";u 	c #673A2C",
">u 	c #6B4034",
",u 	c #6D453A",
"'u 	c #69453B",
")u 	c #60413A",
"!u 	c #50372D",
"~u 	c #47322A",
"{u 	c #46332B",
"]u 	c #46342D",
"^u 	c #47342D",
"/u 	c #49352D",
"(u 	c #533C30",
"_u 	c #64473C",
":u 	c #67453C",
"<u 	c #6C463C",
"[u 	c #73483B",
"}u 	c #7A4F41",
"|u 	c #82503F",
"1u 	c #875544",
"2u 	c #8D5E4C",
"3u 	c #946352",
"4u 	c #9B6955",
"5u 	c #AB7A62",
"6u 	c #A07058",
"7u 	c #7A4F3A",
"8u 	c #8D6148",
"9u 	c #9B6D53",
"0u 	c #A3755A",
"au 	c #A97D60",
"bu 	c #AE8064",
"cu 	c #A87B5F",
"du 	c #A0765A",
"eu 	c #946B51",
"fu 	c #956A4E",
"gu 	c #92664B",
"hu 	c #906449",
"iu 	c #8E634B",
"ju 	c #896249",
"ku 	c #895D48",
"lu 	c #875942",
"mu 	c #865A45",
"nu 	c #845948",
"ou 	c #7D5442",
"pu 	c #7A5445",
"qu 	c #795347",
"ru 	c #745146",
"su 	c #74524B",
"tu 	c #664941",
"uu 	c #583F37",
"vu 	c #543D36",
"wu 	c #4C3631",
"xu 	c #543B37",
"yu 	c #5B413C",
"zu 	c #593E37",
"Au 	c #61463B",
"Bu 	c #6D4F41",
"Cu 	c #775342",
"Du 	c #7B4F3C",
"Eu 	c #7E4C3A",
"Fu 	c #794734",
"Gu 	c #774633",
"Hu 	c #784834",
"Iu 	c #754632",
"Ju 	c #784A36",
"Ku 	c #80523E",
"Lu 	c #7F563F",
"Mu 	c #2F241C",
"Nu 	c #16120E",
"Ou 	c #17140F",
"Pu 	c #1F1A15",
"Qu 	c #353029",
"Ru 	c #312C24",
"Su 	c #2E2825",
"Tu 	c #71747C",
"Uu 	c #CBD0DB",
"Vu 	c #E0E9F5",
"Wu 	c #D4DFEB",
"Xu 	c #BABEC1",
"Yu 	c #A39F9D",
"Zu 	c #979390",
"`u 	c #948D8A",
" v 	c #8D8881",
".v 	c #353E25",
"+v 	c #252A16",
"@v 	c #707C75",
"#v 	c #C9DBE3",
"$v 	c #C8D9E2",
"%v 	c #C5D5DD",
"&v 	c #C6D6DF",
"*v 	c #C7D8E2",
"=v 	c #C5D7E1",
"-v 	c #C6D8E2",
";v 	c #C3D5DD",
">v 	c #C4D4DE",
",v 	c #CADBE5",
"'v 	c #BACAD1",
")v 	c #909395",
"!v 	c #6F625C",
"~v 	c #564338",
"{v 	c #3E2E23",
"]v 	c #34221C",
"^v 	c #1E1612",
"/v 	c #422A20",
"(v 	c #724935",
"_v 	c #5E3020",
":v 	c #4A2013",
"<v 	c #451D15",
"[v 	c #4E271E",
"}v 	c #562E24",
"|v 	c #633B2F",
"1v 	c #6B4538",
"2v 	c #6E4D43",
"3v 	c #72574C",
"4v 	c #694F46",
"5v 	c #483330",
"6v 	c #2F1F19",
"7v 	c #281C17",
"8v 	c #553D36",
"9v 	c #67433A",
"0v 	c #6B443B",
"av 	c #6E453D",
"bv 	c #744841",
"cv 	c #7D5045",
"dv 	c #835444",
"ev 	c #916251",
"fv 	c #9D6B58",
"gv 	c #A6745B",
"hv 	c #AE7C63",
"iv 	c #B18067",
"jv 	c #734736",
"kv 	c #8D6048",
"lv 	c #A07157",
"mv 	c #AB7C5D",
"nv 	c #B38563",
"ov 	c #B58765",
"pv 	c #B38766",
"qv 	c #A77F60",
"rv 	c #976C52",
"sv 	c #94684C",
"tv 	c #8D6146",
"uv 	c #885D45",
"vv 	c #845B43",
"wv 	c #895C47",
"xv 	c #855947",
"yv 	c #80584A",
"zv 	c #764F45",
"Av 	c #72493D",
"Bv 	c #745046",
"Cv 	c #7A5950",
"Dv 	c #72544C",
"Ev 	c #4E3933",
"Fv 	c #2E1E17",
"Gv 	c #2E1C16",
"Hv 	c #321F19",
"Iv 	c #36231C",
"Jv 	c #38251C",
"Kv 	c #543F33",
"Lv 	c #6E5344",
"Mv 	c #755342",
"Nv 	c #714B3A",
"Ov 	c #6D4233",
"Pv 	c #6A3C2C",
"Qv 	c #683829",
"Rv 	c #683729",
"Sv 	c #683728",
"Tv 	c #673426",
"Uv 	c #6D3B2A",
"Vv 	c #6E3D2A",
"Wv 	c #6F402A",
"Xv 	c #513527",
"Yv 	c #261D18",
"Zv 	c #241C16",
"`v 	c #0F0C09",
" w 	c #28221A",
".w 	c #474037",
"+w 	c #525454",
"@w 	c #7B7C8D",
"#w 	c #BCC8D1",
"$w 	c #DBEAF3",
"%w 	c #E3EFF9",
"&w 	c #DBE8F4",
"*w 	c #C0C6C7",
"=w 	c #A3A09C",
"-w 	c #999591",
";w 	c #958E8B",
">w 	c #8E8982",
",w 	c #474E2E",
"'w 	c #3A4024",
")w 	c #333A1D",
"!w 	c #C5D8DF",
"~w 	c #C4D5DD",
"{w 	c #C1D2DA",
"]w 	c #BECDD5",
"^w 	c #BAC8D0",
"/w 	c #BBCCD5",
"(w 	c #BBCCD4",
"_w 	c #BDCED6",
":w 	c #B8C9D0",
"<w 	c #B0BABF",
"[w 	c #AEB5B6",
"}w 	c #908983",
"|w 	c #453126",
"1w 	c #2E211B",
"2w 	c #201513",
"3w 	c #4E3125",
"4w 	c #734A38",
"5w 	c #6D412F",
"6w 	c #572F21",
"7w 	c #472116",
"8w 	c #431D14",
"9w 	c #482219",
"0w 	c #5A382F",
"aw 	c #66483E",
"bw 	c #715449",
"cw 	c #5C453C",
"dw 	c #221A16",
"ew 	c #372925",
"fw 	c #5E403B",
"gw 	c #61403B",
"hw 	c #5E3B35",
"iw 	c #623E38",
"jw 	c #704943",
"kw 	c #84594C",
"lw 	c #8E6452",
"mw 	c #996956",
"nw 	c #A2725B",
"ow 	c #AB7E68",
"pw 	c #AF8269",
"qw 	c #7B503F",
"rw 	c #8E5E46",
"sw 	c #A37256",
"tw 	c #AF7F5E",
"uw 	c #B68662",
"vw 	c #BA8967",
"ww 	c #B88968",
"xw 	c #AC8161",
"yw 	c #94674C",
"zw 	c #885D41",
"Aw 	c #81583F",
"Bw 	c #835B45",
"Cw 	c #825A43",
"Dw 	c #7E563E",
"Ew 	c #815A48",
"Fw 	c #754F42",
"Gw 	c #745044",
"Hw 	c #6F4A3F",
"Iw 	c #785349",
"Jw 	c #765B53",
"Kw 	c #745D56",
"Lw 	c #5A473F",
"Mw 	c #27170F",
"Nw 	c #2F1F11",
"Ow 	c #312114",
"Pw 	c #654F43",
"Qw 	c #775A4C",
"Rw 	c #765848",
"Sw 	c #714E3E",
"Tw 	c #6A4334",
"Uw 	c #5F3628",
"Vw 	c #5C3128",
"Ww 	c #5D3125",
"Xw 	c #623425",
"Yw 	c #693B2B",
"Zw 	c #714533",
"`w 	c #5C2D1D",
" x 	c #522D1F",
".x 	c #1A1511",
"+x 	c #18140F",
"@x 	c #221C14",
"#x 	c #7A7D7E",
"$x 	c #CDDBE6",
"%x 	c #BDC9DA",
"&x 	c #CAD3E1",
"*x 	c #D8E2ED",
"=x 	c #D2DDE8",
"-x 	c #BFC3C5",
";x 	c #A39F9C",
">x 	c #949189",
",x 	c #7B7868",
"'x 	c #626249",
")x 	c #474D2B",
"!x 	c #3C4425",
"~x 	c #2A3419",
"{x 	c #C1D3DB",
"]x 	c #BBCDD4",
"^x 	c #BFD3DA",
"/x 	c #B8C9D2",
"(x 	c #B0BBC4",
"_x 	c #9FA6AC",
":x 	c #AAB3B8",
"<x 	c #B0B3B3",
"[x 	c #8E8580",
"}x 	c #635043",
"|x 	c #4B362B",
"1x 	c #46352C",
"2x 	c #44342B",
"3x 	c #14100D",
"4x 	c #1F1917",
"5x 	c #1B1412",
"6x 	c #513125",
"7x 	c #623C30",
"8x 	c #674132",
"9x 	c #623C2B",
"0x 	c #573222",
"ax 	c #492318",
"bx 	c #441E14",
"cx 	c #47241A",
"dx 	c #55392F",
"ex 	c #674D43",
"fx 	c #654B42",
"gx 	c #432F2B",
"hx 	c #13110E",
"ix 	c #0F0E0B",
"jx 	c #161411",
"kx 	c #1D1A16",
"lx 	c #25201C",
"mx 	c #241E1A",
"nx 	c #483631",
"ox 	c #5A423D",
"px 	c #5B413A",
"qx 	c #593B36",
"rx 	c #573832",
"sx 	c #68473D",
"tx 	c #765448",
"ux 	c #825D4E",
"vx 	c #8B6556",
"wx 	c #8B6452",
"xx 	c #916556",
"yx 	c #754A3B",
"zx 	c #8F5E43",
"Ax 	c #A87254",
"Bx 	c #B48060",
"Cx 	c #BC8766",
"Dx 	c #BF8867",
"Ex 	c #BF8766",
"Fx 	c #B28062",
"Gx 	c #8F6248",
"Hx 	c #754631",
"Ix 	c #663D28",
"Jx 	c #5C3D2C",
"Kx 	c #6B4A38",
"Lx 	c #6C4937",
"Mx 	c #694838",
"Nx 	c #644135",
"Ox 	c #613E34",
"Px 	c #6C4B44",
"Qx 	c #745A53",
"Rx 	c #715F5A",
"Sx 	c #6A5754",
"Tx 	c #3B2D2B",
"Ux 	c #1E150C",
"Vx 	c #1F1109",
"Wx 	c #25170D",
"Xx 	c #2E1D10",
"Yx 	c #322115",
"Zx 	c #553E35",
"`x 	c #74584A",
" y 	c #795D4E",
".y 	c #735547",
"+y 	c #6C4A3D",
"@y 	c #613D32",
"#y 	c #562F28",
"$y 	c #4D251D",
"%y 	c #4E2419",
"&y 	c #502317",
"*y 	c #532517",
"=y 	c #582918",
"-y 	c #552F1F",
";y 	c #201A15",
">y 	c #1B1713",
",y 	c #0D0B08",
"'y 	c #0E0B08",
")y 	c #14100B",
"!y 	c #2C251D",
"~y 	c #5E5758",
"{y 	c #A0A5AC",
"]y 	c #CDD5DB",
"^y 	c #D2DDE5",
"/y 	c #D8E3ED",
"(y 	c #C6CFD8",
"_y 	c #B3B7B7",
":y 	c #8D8C82",
"<y 	c #5F6147",
"[y 	c #474C2F",
"}y 	c #3D4224",
"|y 	c #343B1D",
"1y 	c #2A3416",
"2y 	c #273215",
"3y 	c #BED1DC",
"4y 	c #BCCFD9",
"5y 	c #B7C8D0",
"6y 	c #B8C5CF",
"7y 	c #BBCED7",
"8y 	c #BCCFD8",
"9y 	c #B8C6CF",
"0y 	c #A8AFB5",
"ay 	c #868182",
"by 	c #635C60",
"cy 	c #696C76",
"dy 	c #78787B",
"ey 	c #50453B",
"fy 	c #201611",
"gy 	c #1E1815",
"hy 	c #16120F",
"iy 	c #583629",
"jy 	c #502E24",
"ky 	c #5A3527",
"ly 	c #5F3A28",
"my 	c #5C3725",
"ny 	c #563023",
"oy 	c #4E291D",
"py 	c #3B2119",
"qy 	c #48342E",
"ry 	c #4B3A35",
"sy 	c #2F201D",
"ty 	c #251D16",
"uy 	c #171411",
"vy 	c #11100E",
"wy 	c #0E0E0C",
"xy 	c #151512",
"yy 	c #1A1915",
"zy 	c #1C1814",
"Ay 	c #231E1A",
"By 	c #251F1B",
"Cy 	c #38302A",
"Dy 	c #4F4139",
"Ey 	c #53423C",
"Fy 	c #543E39",
"Gy 	c #49302A",
"Hy 	c #3B211B",
"Iy 	c #3D2520",
"Jy 	c #40241D",
"Ky 	c #492B24",
"Ly 	c #5C3526",
"My 	c #6F3F2E",
"Ny 	c #764A38",
"Oy 	c #955D45",
"Py 	c #AC6F53",
"Qy 	c #BB7E5F",
"Ry 	c #C28365",
"Sy 	c #C48565",
"Ty 	c #C38868",
"Uy 	c #B88063",
"Vy 	c #764733",
"Wy 	c #613523",
"Xy 	c #502B1D",
"Yy 	c #43261B",
"Zy 	c #482E23",
"`y 	c #4E312B",
" z 	c #5B403C",
".z 	c #6A524D",
"+z 	c #6E5A53",
"@z 	c #715F5C",
"#z 	c #624F4E",
"$z 	c #302221",
"%z 	c #251A18",
"&z 	c #1E1411",
"*z 	c #120D08",
"=z 	c #18120B",
"-z 	c #2D1E14",
";z 	c #685045",
">z 	c #73584A",
",z 	c #6E5343",
"'z 	c #65493A",
")z 	c #55382D",
"!z 	c #4B281F",
"~z 	c #461F16",
"{z 	c #461C14",
"]z 	c #4D1F14",
"^z 	c #582A1B",
"/z 	c #683B28",
"(z 	c #201B15",
"_z 	c #1E1914",
":z 	c #171510",
"<z 	c #0D0C08",
"[z 	c #15110B",
"}z 	c #2C1F1A",
"|z 	c #828283",
"1z 	c #949A9F",
"2z 	c #A5A9AF",
"3z 	c #AFB4BE",
"4z 	c #B5BCC3",
"5z 	c #9A9B9A",
"6z 	c #565540",
"7z 	c #505242",
"8z 	c #585D56",
"9z 	c #626768",
"0z 	c #313C24",
"az 	c #2E3B1A",
"bz 	c #BBCFDA",
"cz 	c #BBCFD9",
"dz 	c #B2C3CA",
"ez 	c #A8AFB8",
"fz 	c #B8CAD4",
"gz 	c #B8C6CE",
"hz 	c #AFBBC5",
"iz 	c #A5ACB4",
"jz 	c #A7B3BC",
"kz 	c #AFBAC2",
"lz 	c #77726D",
"mz 	c #31231E",
"nz 	c #221A15",
"oz 	c #17110E",
"pz 	c #191411",
"qz 	c #211812",
"rz 	c #644031",
"sz 	c #593427",
"tz 	c #4A281C",
"uz 	c #502E1F",
"vz 	c #563122",
"wz 	c #583323",
"xz 	c #542F23",
"yz 	c #4E291C",
"zz 	c #46261C",
"Az 	c #361D18",
"Bz 	c #311E19",
"Cz 	c #1A1613",
"Dz 	c #131210",
"Ez 	c #100F0D",
"Fz 	c #161512",
"Gz 	c #191814",
"Hz 	c #24201D",
"Iz 	c #211A17",
"Jz 	c #453734",
"Kz 	c #423532",
"Lz 	c #3C2E2B",
"Mz 	c #31221E",
"Nz 	c #321C17",
"Oz 	c #44231A",
"Pz 	c #562E21",
"Qz 	c #623928",
"Rz 	c #714632",
"Sz 	c #81523E",
"Tz 	c #9D634A",
"Uz 	c #B27257",
"Vz 	c #C08065",
"Wz 	c #CA8A6E",
"Xz 	c #CA8C70",
"Yz 	c #CA8E72",
"Zz 	c #BD8567",
"`z 	c #A67255",
" A 	c #724632",
".A 	c #623424",
"+A 	c #47261E",
"@A 	c #341A14",
"#A 	c #2E1711",
"$A 	c #382222",
"%A 	c #50403F",
"&A 	c #5D4F4B",
"*A 	c #60524D",
"=A 	c #5F504B",
"-A 	c #4E3B3A",
";A 	c #2B1F1E",
">A 	c #271E1B",
",A 	c #231A17",
"'A 	c #100E0C",
")A 	c #0E0D0B",
"!A 	c #0D0C0B",
"~A 	c #291F17",
"{A 	c #2C1D13",
"]A 	c #2B1C12",
"^A 	c #574338",
"/A 	c #654F40",
"(A 	c #614B3C",
"_A 	c #50392B",
":A 	c #42261D",
"<A 	c #422117",
"[A 	c #482015",
"}A 	c #4F2517",
"|A 	c #592E1F",
"1A 	c #643928",
"2A 	c #69422E",
"3A 	c #191611",
"4A 	c #14120D",
"5A 	c #3D2D29",
"6A 	c #564A49",
"7A 	c #7E7D7F",
"8A 	c #89888B",
"9A 	c #7E7977",
"0A 	c #706763",
"aA 	c #786D6A",
"bA 	c #7E7773",
"cA 	c #99989B",
"dA 	c #9EA2AD",
"eA 	c #667571",
"fA 	c #344728",
"gA 	c #BACED9",
"hA 	c #B7CCD7",
"iA 	c #B3C3C9",
"jA 	c #9BA1A8",
"kA 	c #A9B5BB",
"lA 	c #B4C6CF",
"mA 	c #B2C3CD",
"nA 	c #B7C8D2",
"oA 	c #ACB9C3",
"pA 	c #B0BCC2",
"qA 	c #959795",
"rA 	c #362920",
"sA 	c #302622",
"tA 	c #694131",
"uA 	c #7C4E3B",
"vA 	c #472519",
"wA 	c #47261A",
"xA 	c #4B291B",
"yA 	c #512D21",
"zA 	c #4E2A1E",
"AA 	c #502D21",
"BA 	c #4A291E",
"CA 	c #382018",
"DA 	c #261711",
"EA 	c #1D120C",
"FA 	c #191816",
"GA 	c #10100E",
"HA 	c #221F1C",
"IA 	c #27211F",
"JA 	c #1A1210",
"KA 	c #27201D",
"LA 	c #281E1C",
"MA 	c #231716",
"NA 	c #231412",
"OA 	c #281811",
"PA 	c #362119",
"QA 	c #4B2D1F",
"RA 	c #5E3624",
"SA 	c #683F2C",
"TA 	c #7C4F3B",
"UA 	c #945B43",
"VA 	c #AB6954",
"WA 	c #BB7C65",
"XA 	c #C88C76",
"YA 	c #CE9078",
"ZA 	c #CB8D73",
"`A 	c #CB9379",
" B 	c #BF886B",
".B 	c #AD775B",
"+B 	c #8E6048",
"@B 	c #7E5640",
"#B 	c #704630",
"$B 	c #553022",
"%B 	c #3C2013",
"&B 	c #2E1710",
"*B 	c #261511",
"=B 	c #302A2A",
"-B 	c #4D4D4E",
";B 	c #5C5A5D",
">B 	c #5E5B5F",
",B 	c #524B4F",
"'B 	c #2E2725",
")B 	c #29211E",
"!B 	c #1E1813",
"~B 	c #141311",
"{B 	c #0F0E0C",
"]B 	c #141210",
"^B 	c #231D18",
"/B 	c #47362E",
"(B 	c #533E33",
"_B 	c #3A1F18",
":B 	c #412219",
"<B 	c #4A2619",
"[B 	c #532B1B",
"}B 	c #5B3121",
"|B 	c #603827",
"1B 	c #623C2A",
"2B 	c #4B2E20",
"3B 	c #19150F",
"4B 	c #1B1610",
"5B 	c #1B1712",
"6B 	c #16130F",
"7B 	c #100D0A",
"8B 	c #615F63",
"9B 	c #8A8E97",
"0B 	c #81828B",
"aB 	c #79777C",
"bB 	c #84817D",
"cB 	c #8B837F",
"dB 	c #8F8884",
"eB 	c #A7A5A7",
"fB 	c #A2A7B3",
"gB 	c #8895A0",
"hB 	c #7B8F96",
"iB 	c #B7CDD8",
"jB 	c #B5CBD5",
"kB 	c #ADBBC2",
"lB 	c #A8B2B8",
"mB 	c #9FA8AC",
"nB 	c #9DA4AA",
"oB 	c #ADBBC3",
"pB 	c #B1BFC4",
"qB 	c #A0A5A5",
"rB 	c #796E69",
"sB 	c #3A2B24",
"tB 	c #332623",
"uB 	c #494742",
"vB 	c #28201B",
"wB 	c #251E19",
"xB 	c #1D1411",
"yB 	c #1F1310",
"zB 	c #6C4333",
"AB 	c #96634C",
"BB 	c #462418",
"CB 	c #432116",
"DB 	c #452319",
"EB 	c #4A271C",
"FB 	c #4E2C20",
"GB 	c #523024",
"HB 	c #503125",
"IB 	c #482E24",
"JB 	c #17100C",
"KB 	c #14100E",
"LB 	c #13100D",
"MB 	c #130E0C",
"NB 	c #130D09",
"OB 	c #1A0F0C",
"PB 	c #201210",
"QB 	c #251510",
"RB 	c #2C1B14",
"SB 	c #533327",
"TB 	c #624233",
"UB 	c #734C3A",
"VB 	c #795440",
"WB 	c #724C39",
"XB 	c #794E39",
"YB 	c #8C5741",
"ZB 	c #A16550",
"`B 	c #B37560",
" C 	c #C2866F",
".C 	c #D09680",
"+C 	c #CE9076",
"@C 	c #CB8D72",
"#C 	c #BC856A",
"$C 	c #AD7458",
"%C 	c #9F6C4F",
"&C 	c #865E46",
"*C 	c #7A5642",
"=C 	c #6E4833",
"-C 	c #331D15",
";C 	c #281612",
">C 	c #282022",
",C 	c #39363B",
"'C 	c #423E44",
")C 	c #3C373B",
"!C 	c #231C1A",
"~C 	c #261E1C",
"{C 	c #231B18",
"]C 	c #201A18",
"^C 	c #201E1F",
"/C 	c #222121",
"(C 	c #13100E",
"_C 	c #1F1715",
":C 	c #1E1412",
"<C 	c #241614",
"[C 	c #231612",
"}C 	c #35251E",
"|C 	c #38221D",
"1C 	c #361B14",
"2C 	c #421F16",
"3C 	c #4C2719",
"4C 	c #542E1E",
"5C 	c #5B3322",
"6C 	c #5F3525",
"7C 	c #5E3525",
"8C 	c #4E2B1D",
"9C 	c #170F0A",
"0C 	c #13110D",
"aC 	c #0F0E0A",
"bC 	c #14100C",
"cC 	c #474040",
"dC 	c #979A9F",
"eC 	c #B5BDC4",
"fC 	c #BBC5CA",
"gC 	c #9A9D9A",
"hC 	c #908A85",
"iC 	c #8C827F",
"jC 	c #8D8481",
"kC 	c #9F9C9E",
"lC 	c #999DA8",
"mC 	c #85929D",
"nC 	c #8A9499",
"oC 	c #B6CCD8",
"pC 	c #B6CBD6",
"qC 	c #B3C6CE",
"rC 	c #9EA6AD",
"sC 	c #9DA3A9",
"tC 	c #929298",
"uC 	c #7F7C80",
"vC 	c #817A75",
"wC 	c #5F483E",
"xC 	c #40362F",
"yC 	c #4B4541",
"zC 	c #3B322F",
"AC 	c #3F3836",
"BC 	c #28201A",
"CC 	c #3F332B",
"DC 	c #1B120E",
"EC 	c #2D1E19",
"FC 	c #6F4635",
"GC 	c #99654E",
"HC 	c #A9785D",
"IC 	c #694535",
"JC 	c #442217",
"KC 	c #401E14",
"LC 	c #432117",
"MC 	c #48261C",
"NC 	c #4D2B20",
"OC 	c #512E23",
"PC 	c #573529",
"QC 	c #5A3829",
"RC 	c #583527",
"SC 	c #523328",
"TC 	c #492E23",
"UC 	c #37221A",
"VC 	c #2F1D14",
"WC 	c #311F16",
"XC 	c #39251B",
"YC 	c #40291F",
"ZC 	c #482D23",
"`C 	c #533226",
" D 	c #64402F",
".D 	c #7A5240",
"+D 	c #835E4B",
"@D 	c #825E4B",
"#D 	c #785440",
"$D 	c #784C37",
"%D 	c #8D5940",
"&D 	c #9C614C",
"*D 	c #AD715B",
"=D 	c #BD7E6A",
"-D 	c #CB907B",
";D 	c #D59D89",
">D 	c #D0937A",
",D 	c #CD9378",
"'D 	c #C89177",
")D 	c #B98268",
"!D 	c #AF7861",
"~D 	c #A76F54",
"{D 	c #9B6A50",
"]D 	c #87624C",
"^D 	c #7F5F49",
"/D 	c #78533B",
"(D 	c #65412D",
"_D 	c #4D2E20",
":D 	c #402319",
"<D 	c #311A15",
"[D 	c #211412",
"}D 	c #241919",
"|D 	c #241A1B",
"1D 	c #1C1311",
"2D 	c #1E1513",
"3D 	c #181210",
"4D 	c #171515",
"5D 	c #1A1819",
"6D 	c #131211",
"7D 	c #151311",
"8D 	c #1C0F0D",
"9D 	c #20120E",
"0D 	c #2B1A13",
"aD 	c #371D16",
"bD 	c #44261A",
"cD 	c #512C1B",
"dD 	c #563020",
"eD 	c #583222",
"fD 	c #5A3322",
"gD 	c #563220",
"hD 	c #442619",
"iD 	c #100F0B",
"jD 	c #382C26",
"kD 	c #686261",
"lD 	c #8C8A8B",
"mD 	c #928A86",
"nD 	c #8F827E",
"oD 	c #8E8581",
"pD 	c #8E8480",
"qD 	c #A29FA0",
"rD 	c #999AA4",
"sD 	c #858D92",
"tD 	c #839092",
"uD 	c #B6CCD9",
"vD 	c #B6CCD7",
"wD 	c #B5C9D4",
"xD 	c #AFC0C9",
"yD 	c #ADBAC3",
"zD 	c #ABB4B8",
"AD 	c #8A8884",
"BD 	c #62524F",
"CD 	c #5A5252",
"DD 	c #686463",
"ED 	c #5B5C63",
"FD 	c #636568",
"GD 	c #504A45",
"HD 	c #271F1C",
"ID 	c #332B24",
"JD 	c #3F342B",
"KD 	c #2F231B",
"LD 	c #392620",
"MD 	c #734D39",
"ND 	c #99664E",
"OD 	c #B07D62",
"PD 	c #B9896E",
"QD 	c #7A5544",
"RD 	c #442218",
"SD 	c #3F1E14",
"TD 	c #46241A",
"UD 	c #4D2A20",
"VD 	c #522E22",
"WD 	c #583425",
"XD 	c #583628",
"YD 	c #5C3A2E",
"ZD 	c #654538",
"`D 	c #674A3C",
" E 	c #6C4E41",
".E 	c #68493C",
"+E 	c #68473B",
"@E 	c #69483C",
"#E 	c #6D4A3D",
"$E 	c #6F4A3E",
"%E 	c #774F40",
"&E 	c #764F3E",
"*E 	c #7D5846",
"=E 	c #7F5A49",
"-E 	c #86614D",
";E 	c #825C49",
">E 	c #734E3B",
",E 	c #7E523E",
"'E 	c #90563B",
")E 	c #985E46",
"!E 	c #A96E58",
"~E 	c #B57B64",
"{E 	c #C38770",
"]E 	c #D39B88",
"^E 	c #DAA18F",
"/E 	c #D1947A",
"(E 	c #CD9175",
"_E 	c #C89078",
":E 	c #BA836D",
"<E 	c #B07A65",
"[E 	c #AC775F",
"}E 	c #A96F52",
"|E 	c #9B6B53",
"1E 	c #865E4B",
"2E 	c #845F4A",
"3E 	c #7C5842",
"4E 	c #724E3B",
"5E 	c #6B4635",
"6E 	c #512F20",
"7E 	c #2C1A14",
"8E 	c #201311",
"9E 	c #1A0E0B",
"0E 	c #180D09",
"aE 	c #190E0C",
"bE 	c #130C0A",
"cE 	c #110C0A",
"dE 	c #150F0F",
"eE 	c #211B19",
"fE 	c #191310",
"gE 	c #1C100E",
"hE 	c #1E100C",
"iE 	c #22130E",
"jE 	c #301C14",
"kE 	c #4C2B21",
"lE 	c #542F1F",
"mE 	c #573021",
"nE 	c #3D2316",
"oE 	c #100B07",
"pE 	c #0D0906",
"qE 	c #110E0A",
"rE 	c #0E0D09",
"sE 	c #3F352F",
"tE 	c #47403B",
"uE 	c #423B36",
"vE 	c #5B4C45",
"wE 	c #6D5F57",
"xE 	c #756A61",
"yE 	c #807670",
"zE 	c #8A8481",
"AE 	c #7F7B79",
"BE 	c #6F736C",
"CE 	c #A4B2B9",
"DE 	c #B6CDD9",
"EE 	c #B3C6D0",
"FE 	c #B2C2CB",
"GE 	c #ABB5BC",
"HE 	c #828083",
"IE 	c #676568",
"JE 	c #5E5E62",
"KE 	c #899298",
"LE 	c #7F8897",
"ME 	c #959DA5",
"NE 	c #8C969D",
"OE 	c #575756",
"PE 	c #28201D",
"QE 	c #3A332B",
"RE 	c #463B30",
"SE 	c #472F25",
"TE 	c #4A2F27",
"UE 	c #2B1914",
"VE 	c #3B281D",
"WE 	c #78503C",
"XE 	c #9C6A52",
"YE 	c #B17E63",
"ZE 	c #BF8C71",
"`E 	c #C89479",
" F 	c #A37662",
".F 	c #543428",
"+F 	c #3F1F14",
"@F 	c #3E1E14",
"#F 	c #422419",
"$F 	c #4A2A1F",
"%F 	c #4E2D20",
"&F 	c #512E22",
"*F 	c #583529",
"=F 	c #5B3A2E",
"-F 	c #634537",
";F 	c #6B4D3F",
">F 	c #6F5143",
",F 	c #715144",
"'F 	c #745144",
")F 	c #765145",
"!F 	c #785144",
"~F 	c #7C5644",
"{F 	c #7F5946",
"]F 	c #7C5544",
"^F 	c #754E3D",
"/F 	c #704938",
"(F 	c #754D39",
"_F 	c #935C43",
":F 	c #9C6249",
"<F 	c #9D6249",
"[F 	c #A56B54",
"}F 	c #B37962",
"|F 	c #BC8169",
"1F 	c #C98C77",
"2F 	c #DBA493",
"3F 	c #E0A896",
"4F 	c #D5997E",
"5F 	c #D2957B",
"6F 	c #C98F76",
"7F 	c #BA8670",
"8F 	c #B07C67",
"9F 	c #AD7359",
"0F 	c #AA7457",
"aF 	c #9B6D54",
"bF 	c #8F604D",
"cF 	c #835B47",
"dF 	c #815745",
"eF 	c #7D5043",
"fF 	c #734C3D",
"gF 	c #5E4131",
"hF 	c #382016",
"iF 	c #2C1C12",
"jF 	c #211510",
"kF 	c #1F1210",
"lF 	c #20130F",
"mF 	c #251712",
"nF 	c #2C1B15",
"oF 	c #2F1A13",
"pF 	c #371F18",
"qF 	c #402720",
"rF 	c #4F3027",
"sF 	c #553126",
"tF 	c #563125",
"uF 	c #543021",
"vF 	c #643F2B",
"wF 	c #7F5841",
"xF 	c #734D35",
"yF 	c #3C2315",
"zF 	c #180F0B",
"AF 	c #0B0805",
"BF 	c #231A12",
"CF 	c #352C24",
"DF 	c #58524F",
"EF 	c #67615E",
"FF 	c #584D47",
"GF 	c #584F45",
"HF 	c #6C5F56",
"IF 	c #6F635C",
"JF 	c #675D59",
"KF 	c #6C6D6B",
"LF 	c #8C9297",
"MF 	c #B5CEDA",
"NF 	c #B7CEDA",
"OF 	c #B6CAD6",
"PF 	c #AEBEC6",
"QF 	c #A1ADB5",
"RF 	c #A1B2B8",
"SF 	c #828589",
"TF 	c #8F9CA5",
"UF 	c #8C96A2",
"VF 	c #B6CDDA",
"WF 	c #AEBAC4",
"XF 	c #858F97",
"YF 	c #6A7373",
"ZF 	c #2E2824",
"`F 	c #3B3026",
" G 	c #271A14",
".G 	c #5E4032",
"+G 	c #6A4435",
"@G 	c #462820",
"#G 	c #291914",
"$G 	c #402B21",
"%G 	c #7C543F",
"&G 	c #9F6E56",
"*G 	c #B38168",
"=G 	c #C08C74",
"-G 	c #C9957B",
";G 	c #CF9A81",
">G 	c #CA967E",
",G 	c #A07563",
"'G 	c #5A3B2F",
")G 	c #3C1F13",
"!G 	c #3C2014",
"~G 	c #412417",
"{G 	c #482A1E",
"]G 	c #4C2C20",
"^G 	c #543226",
"/G 	c #5A372B",
"(G 	c #5E3B2F",
"_G 	c #623E32",
":G 	c #694439",
"<G 	c #694437",
"[G 	c #6C4537",
"}G 	c #6D4536",
"|G 	c #6C4535",
"1G 	c #6A4232",
"2G 	c #754A37",
"3G 	c #906046",
"4G 	c #A36A4D",
"5G 	c #A4684C",
"6G 	c #A4664C",
"7G 	c #A76A51",
"8G 	c #B17460",
"9G 	c #BA7F6A",
"0G 	c #C68771",
"aG 	c #D19682",
"bG 	c #E1AB9B",
"cG 	c #DFA591",
"dG 	c #D6997F",
"eG 	c #D2977A",
"fG 	c #CA9279",
"gG 	c #B9836A",
"hG 	c #B07D67",
"iG 	c #AE7B64",
"jG 	c #AF7C63",
"kG 	c #AE785B",
"lG 	c #AD7758",
"mG 	c #A87356",
"nG 	c #966752",
"oG 	c #946652",
"pG 	c #916150",
"qG 	c #865948",
"rG 	c #7E5743",
"sG 	c #7B5540",
"tG 	c #6F4B39",
"uG 	c #63412F",
"vG 	c #5E402D",
"wG 	c #4F3129",
"xG 	c #513428",
"yG 	c #58392C",
"zG 	c #5A392C",
"AG 	c #5A392F",
"BG 	c #5B372A",
"CG 	c #6B4735",
"DG 	c #865F46",
"EG 	c #9C7153",
"FG 	c #A57857",
"GG 	c #9E7155",
"HG 	c #855D45",
"IG 	c #593D2B",
"JG 	c #110C09",
"KG 	c #0B0A06",
"LG 	c #0A0905",
"MG 	c #0B0905",
"NG 	c #15110E",
"OG 	c #221911",
"PG 	c #31251D",
"QG 	c #42352E",
"RG 	c #5A4E48",
"SG 	c #605A50",
"TG 	c #5E5149",
"UG 	c #665A53",
"VG 	c #7B7A7A",
"WG 	c #7D8589",
"XG 	c #9FB0B8",
"YG 	c #B6D0DB",
"ZG 	c #B8D0DC",
"`G 	c #B5CBD7",
" H 	c #B2C7D2",
".H 	c #B7CED8",
"+H 	c #9AA0A5",
"@H 	c #8797A4",
"#H 	c #A4B5C0",
"$H 	c #B0C5D3",
"%H 	c #BCD1DE",
"&H 	c #C0D1DF",
"*H 	c #7E8489",
"=H 	c #676E6C",
"-H 	c #3F3D38",
";H 	c #2D241F",
">H 	c #4E2F23",
",H 	c #522E20",
"'H 	c #503228",
")H 	c #4B3328",
"!H 	c #7F5742",
"~H 	c #A17058",
"{H 	c #B28067",
"]H 	c #BF8B72",
"^H 	c #C89278",
"/H 	c #CE987E",
"(H 	c #D19982",
"_H 	c #D49D85",
":H 	c #D69F88",
"<H 	c #BB8874",
"[H 	c #976A5A",
"}H 	c #6B473B",
"|H 	c #3E2015",
"1H 	c #412217",
"2H 	c #462619",
"3H 	c #47281B",
"4H 	c #4E2F22",
"5H 	c #503023",
"6H 	c #523225",
"7H 	c #553528",
"8H 	c #563526",
"9H 	c #5C3A2A",
"0H 	c #7A503F",
"aH 	c #8F614E",
"bH 	c #A36C54",
"cH 	c #AC6F55",
"dH 	c #AA6E52",
"eH 	c #AA6D53",
"fH 	c #A86B50",
"gH 	c #A96B54",
"hH 	c #AF725C",
"iH 	c #BA7D68",
"jH 	c #C48772",
"kH 	c #CE917C",
"lH 	c #DAA28F",
"mH 	c #E5AD9C",
"nH 	c #DEA48E",
"oH 	c #D79A81",
"pH 	c #D3997E",
"qH 	c #C99176",
"rH 	c #BA8064",
"sH 	c #B17C60",
"tH 	c #B07C64",
"uH 	c #B07D65",
"vH 	c #B07B60",
"wH 	c #AF795A",
"xH 	c #B27C5D",
"yH 	c #B27F60",
"zH 	c #AB795E",
"AH 	c #A47159",
"BH 	c #9F6D56",
"CH 	c #9E6D56",
"DH 	c #9A6C56",
"EH 	c #996C56",
"FH 	c #996D53",
"GH 	c #91694F",
"HH 	c #906A51",
"IH 	c #89614B",
"JH 	c #8F6550",
"KH 	c #896049",
"LH 	c #885E49",
"MH 	c #8A5F49",
"NH 	c #8D634B",
"OH 	c #986A4F",
"PH 	c #A37456",
"QH 	c #AF7E5F",
"RH 	c #B48363",
"SH 	c #B38566",
"TH 	c #AE8062",
"UH 	c #A97A5D",
"VH 	c #A37659",
"WH 	c #916C52",
"XH 	c #735541",
"YH 	c #473126",
"ZH 	c #0A0804",
"`H 	c #110C08",
" I 	c #0B0704",
".I 	c #2E221A",
"+I 	c #483C34",
"@I 	c #5C524B",
"#I 	c #6C6B6B",
"$I 	c #737C81",
"%I 	c #A8B8C0",
"&I 	c #BCD5E1",
"*I 	c #BBD6E1",
"=I 	c #BBD1DF",
"-I 	c #BED4E2",
";I 	c #AEBCC6",
">I 	c #8D95A3",
",I 	c #B2C7D4",
"'I 	c #B5C9D7",
")I 	c #BCD1DF",
"!I 	c #C1D5E2",
"~I 	c #C0D2E0",
"{I 	c #97A6AC",
"]I 	c #4F514E",
"^I 	c #3F3E39",
"/I 	c #443E35",
"(I 	c #3B3027",
"_I 	c #382B22",
":I 	c #1E120E",
"<I 	c #45271B",
"[I 	c #5A3728",
"}I 	c #482C21",
"|I 	c #7E5742",
"1I 	c #A07158",
"2I 	c #B07F68",
"3I 	c #BD8B71",
"4I 	c #C89379",
"5I 	c #CC957C",
"6I 	c #CF967E",
"7I 	c #CF977E",
"8I 	c #D49D86",
"9I 	c #D69981",
"0I 	c #D79C84",
"aI 	c #D69982",
"bI 	c #D19681",
"cI 	c #C5917D",
"dI 	c #B78672",
"eI 	c #AD7D6A",
"fI 	c #A97763",
"gI 	c #A57461",
"hI 	c #A77762",
"iI 	c #AD7C63",
"jI 	c #B68369",
"kI 	c #C18B72",
"lI 	c #BF886F",
"mI 	c #BD866E",
"nI 	c #BA7F64",
"oI 	c #B87C60",
"pI 	c #B3775B",
"qI 	c #B17458",
"rI 	c #AD7055",
"sI 	c #B0735C",
"tI 	c #B77964",
"uI 	c #C38570",
"vI 	c #CC8E78",
"wI 	c #D49986",
"xI 	c #DEA694",
"yI 	c #E4AC9B",
"zI 	c #DDA28B",
"AI 	c #D6967B",
"BI 	c #D3987B",
"CI 	c #CB9173",
"DI 	c #BF8366",
"EI 	c #B37B5E",
"FI 	c #B0795F",
"GI 	c #AF7A62",
"HI 	c #B07B63",
"II 	c #AF795C",
"JI 	c #B37E5D",
"KI 	c #B88362",
"LI 	c #B98565",
"MI 	c #B68464",
"NI 	c #AC7858",
"OI 	c #AB7559",
"PI 	c #A87456",
"QI 	c #AB7858",
"RI 	c #AE7959",
"SI 	c #AF7A59",
"TI 	c #B17C5C",
"UI 	c #B47C5E",
"VI 	c #B67C5D",
"WI 	c #B6805E",
"XI 	c #B7805D",
"YI 	c #BA8564",
"ZI 	c #BA8563",
"`I 	c #B98663",
" J 	c #BA8867",
".J 	c #B68463",
"+J 	c #B68467",
"@J 	c #B28266",
"#J 	c #AF8064",
"$J 	c #AA7B5F",
"%J 	c #A3785C",
"&J 	c #987258",
"*J 	c #83604B",
"=J 	c #624535",
"-J 	c #100D09",
";J 	c #271E17",
">J 	c #423A33",
",J 	c #5E5D5A",
"'J 	c #6B7070",
")J 	c #83888C",
"!J 	c #B5CFDB",
"~J 	c #B7CFDB",
"{J 	c #B9CFDD",
"]J 	c #BACFDD",
"^J 	c #ACBAC7",
"/J 	c #B3C6D5",
"(J 	c #B8CCDA",
"_J 	c #B9CCDC",
":J 	c #BACCDC",
"<J 	c #C0D3E2",
"[J 	c #C0D1E2",
"}J 	c #A2B0BA",
"|J 	c #626B69",
"1J 	c #3C3A32",
"2J 	c #4C463C",
"3J 	c #493D32",
"4J 	c #4C3F35",
"5J 	c #362118",
"6J 	c #46291D",
"7J 	c #513122",
"8J 	c #43261C",
"9J 	c #563C2E",
"0J 	c #A3735C",
"aJ 	c #B07F67",
"bJ 	c #BD8970",
"cJ 	c #C58E76",
"dJ 	c #C88F79",
"eJ 	c #CB927B",
"fJ 	c #CD947C",
"gJ 	c #D1987C",
"hJ 	c #D39881",
"iJ 	c #D79B87",
"jJ 	c #D89E8A",
"kJ 	c #D49581",
"lJ 	c #D29882",
"mJ 	c #D09580",
"nJ 	c #D19480",
"oJ 	c #D19481",
"pJ 	c #CC927D",
"qJ 	c #CB9279",
"rJ 	c #C88E75",
"sJ 	c #C68D72",
"tJ 	c #C48B73",
"uJ 	c #C18970",
"vJ 	c #C08468",
"wJ 	c #BA7E62",
"xJ 	c #B6795D",
"yJ 	c #B0755A",
"zJ 	c #B3775F",
"AJ 	c #BC806C",
"BJ 	c #CA8F7B",
"CJ 	c #D39685",
"DJ 	c #DEA595",
"EJ 	c #E1A998",
"FJ 	c #DA9F86",
"GJ 	c #D4977B",
"HJ 	c #D29679",
"IJ 	c #CB8F70",
"JJ 	c #C4876A",
"KJ 	c #B97F62",
"LJ 	c #B07A5F",
"MJ 	c #AE785E",
"NJ 	c #AF7B63",
"OJ 	c #B17D63",
"PJ 	c #B37D5D",
"QJ 	c #BB8665",
"RJ 	c #BB8666",
"SJ 	c #B78160",
"TJ 	c #B5805F",
"UJ 	c #B27C5B",
"VJ 	c #B07A59",
"WJ 	c #B07858",
"XJ 	c #B27756",
"YJ 	c #B17756",
"ZJ 	c #B47C5B",
"`J 	c #B47C5D",
" K 	c #B77F60",
".K 	c #B8825F",
"+K 	c #BA8664",
"@K 	c #BD8A69",
"#K 	c #BB8867",
"$K 	c #BB8969",
"%K 	c #BA886B",
"&K 	c #B68466",
"*K 	c #B38165",
"=K 	c #AE7D62",
"-K 	c #A97B61",
";K 	c #A2765C",
">K 	c #987157",
",K 	c #89654D",
"'K 	c #6E513C",
")K 	c #0E0906",
"!K 	c #1A1813",
"~K 	c #140E09",
"{K 	c #140E0B",
"]K 	c #28231F",
"^K 	c #2D2722",
"/K 	c #241C1A",
"(K 	c #403E41",
"_K 	c #9EB2BB",
":K 	c #A1B4BD",
"<K 	c #A3B4BF",
"[K 	c #9FAEB9",
"}K 	c #A2B4BF",
"|K 	c #A5B8C3",
"1K 	c #A5B7C3",
"2K 	c #A7B9C6",
"3K 	c #AABBCA",
"4K 	c #AEC0CC",
"5K 	c #A9BBC7",
"6K 	c #89969D",
"7K 	c #565D58",
"8K 	c #4B4941",
"9K 	c #484137",
"0K 	c #483D32",
"aK 	c #4C3E33",
"bK 	c #3E2218",
"cK 	c #42251A",
"dK 	c #48291E",
"eK 	c #452A1F",
"fK 	c #563C2D",
"gK 	c #805B47",
"hK 	c #A17158",
"iK 	c #AF7E66",
"jK 	c #BA866D",
"kK 	c #C18A71",
"lK 	c #C58E77",
"mK 	c #C9907A",
"nK 	c #CC9077",
"oK 	c #CE9378",
"pK 	c #D0967D",
"qK 	c #D29881",
"rK 	c #D49681",
"sK 	c #D49682",
"tK 	c #D59986",
"uK 	c #D3917E",
"vK 	c #D0907C",
"wK 	c #CF8F79",
"xK 	c #CF907A",
"yK 	c #D19581",
"zK 	c #D29782",
"AK 	c #CE927B",
"BK 	c #CD9079",
"CK 	c #CA8E75",
"DK 	c #C78B72",
"EK 	c #C68A72",
"FK 	c #C3876B",
"GK 	c #BF8367",
"HK 	c #B77D62",
"IK 	c #B2785F",
"JK 	c #B57761",
"KK 	c #C28672",
"LK 	c #D09885",
"MK 	c #DAA493",
"NK 	c #E1A999",
"OK 	c #E3AB9A",
"PK 	c #DFA895",
"QK 	c #D59D83",
"RK 	c #D4987C",
"SK 	c #CF9276",
"TK 	c #CE9477",
"UK 	c #C4886A",
"VK 	c #BA7E5F",
"WK 	c #B17A60",
"XK 	c #AE775E",
"YK 	c #B07D64",
"ZK 	c #B37E61",
"`K 	c #BD8666",
" L 	c #BC8666",
".L 	c #BB8363",
"+L 	c #B9805E",
"@L 	c #B57A58",
"#L 	c #B67A58",
"$L 	c #B5795A",
"%L 	c #B37857",
"&L 	c #B47958",
"*L 	c #B88161",
"=L 	c #BB8565",
"-L 	c #B98263",
";L 	c #BC8767",
">L 	c #BA8667",
",L 	c #B88667",
"'L 	c #B58265",
")L 	c #AF7C61",
"!L 	c #AD7C62",
"~L 	c #A97B63",
"{L 	c #A0755C",
"]L 	c #966E55",
"^L 	c #8E6650",
"/L 	c #715340",
"(L 	c #0D0B07",
"_L 	c #2B2825",
":L 	c #302620",
"<L 	c #3A3330",
"[L 	c #5E6161",
"}L 	c #627373",
"|L 	c #647675",
"1L 	c #677877",
"2L 	c #6A7C7B",
"3L 	c #6D7F7E",
"4L 	c #718282",
"5L 	c #758585",
"6L 	c #778888",
"7L 	c #7C8B8E",
"8L 	c #758485",
"9L 	c #5F6C69",
"0L 	c #424541",
"aL 	c #434139",
"bL 	c #4E493F",
"cL 	c #51483D",
"dL 	c #4B3E32",
"eL 	c #3C241C",
"fL 	c #41261C",
"gL 	c #452C21",
"hL 	c #46281E",
"iL 	c #4F3025",
"jL 	c #4C2E23",
"kL 	c #573B2D",
"lL 	c #815C48",
"mL 	c #9F6F57",
"nL 	c #AB7B64",
"oL 	c #B6826A",
"pL 	c #BE886F",
"qL 	c #C18972",
"rL 	c #C7907A",
"sL 	c #C78E74",
"tL 	c #CD917B",
"uL 	c #CD8D79",
"vL 	c #CE8E79",
"wL 	c #D0917A",
"xL 	c #D1907C",
"yL 	c #CF8B77",
"zL 	c #D08E79",
"AL 	c #CE8D77",
"BL 	c #D08F79",
"CL 	c #D0927D",
"DL 	c #D0937D",
"EL 	c #CE927C",
"FL 	c #CE927A",
"GL 	c #CB8E72",
"HL 	c #C98C71",
"IL 	c #C78B70",
"JL 	c #C38A70",
"KL 	c #C0876B",
"LL 	c #B88067",
"ML 	c #B47761",
"NL 	c #B97966",
"OL 	c #CA8F7C",
"PL 	c #D49F8C",
"QL 	c #DAA797",
"RL 	c #DFA998",
"SL 	c #DFA996",
"TL 	c #DDA18E",
"UL 	c #D69E86",
"VL 	c #D2987C",
"WL 	c #D1987B",
"XL 	c #D1977A",
"YL 	c #C99076",
"ZL 	c #BC8267",
"`L 	c #B57D63",
" M 	c #B0765D",
".M 	c #AB755E",
"+M 	c #AD7861",
"@M 	c #B7815F",
"#M 	c #BD8463",
"$M 	c #BE8565",
"%M 	c #BE8363",
"&M 	c #BD8160",
"*M 	c #BA7C5D",
"=M 	c #B87A59",
"-M 	c #B97E5E",
";M 	c #B77D5E",
">M 	c #B77C5E",
",M 	c #B97E60",
"'M 	c #BA8062",
")M 	c #BB8465",
"!M 	c #BB8466",
"~M 	c #B98364",
"{M 	c #B98464",
"]M 	c #B88364",
"^M 	c #B58263",
"/M 	c #B27E61",
"(M 	c #AE7C61",
"_M 	c #AC7A63",
":M 	c #A87961",
"<M 	c #A1765D",
"[M 	c #966D56",
"}M 	c #8A644D",
"|M 	c #715341",
"1M 	c #0C0906",
"2M 	c #0F0C07",
"3M 	c #303030",
"4M 	c #4B4E50",
"5M 	c #2D2626",
"6M 	c #312824",
"7M 	c #3E3B3B",
"8M 	c #524F52",
"9M 	c #66696D",
"0M 	c #828B92",
"aM 	c #414A4A",
"bM 	c #3F494B",
"cM 	c #474E4E",
"dM 	c #4B5252",
"eM 	c #454D4F",
"fM 	c #434B4C",
"gM 	c #454E4D",
"hM 	c #494F4D",
"iM 	c #464B48",
"jM 	c #383B37",
"kM 	c #47443C",
"lM 	c #625549",
"mM 	c #625144",
"nM 	c #5F4D41",
"oM 	c #40271C",
"pM 	c #3F2419",
"qM 	c #46261B",
"rM 	c #583727",
"sM 	c #5D3928",
"tM 	c #573527",
"uM 	c #815E4A",
"vM 	c #9E7059",
"wM 	c #A87861",
"xM 	c #B27E68",
"yM 	c #B8846D",
"zM 	c #BF8770",
"AM 	c #C38B75",
"BM 	c #C28870",
"CM 	c #C48C76",
"DM 	c #C88C77",
"EM 	c #C98772",
"FM 	c #CB8A74",
"GM 	c #C88671",
"HM 	c #CD8B77",
"IM 	c #CC8B73",
"JM 	c #CD8F7A",
"KM 	c #D1927D",
"LM 	c #D0927C",
"MM 	c #D0927B",
"NM 	c #D0927A",
"OM 	c #CC8F73",
"PM 	c #CA8D71",
"QM 	c #C7896D",
"RM 	c #C4886C",
"SM 	c #BE8267",
"TM 	c #B67B61",
"UM 	c #BD806D",
"VM 	c #C68775",
"WM 	c #CF9784",
"XM 	c #D59F8D",
"YM 	c #D7A18F",
"ZM 	c #D99F8C",
"`M 	c #D79E88",
" N 	c #D89F8A",
".N 	c #D59F86",
"+N 	c #D19B81",
"@N 	c #D1997D",
"#N 	c #CC947B",
"$N 	c #C08A6F",
"%N 	c #B77E65",
"&N 	c #B27760",
"*N 	c #AC765E",
"=N 	c #A97259",
"-N 	c #AC765A",
";N 	c #B7815D",
">N 	c #BC8360",
",N 	c #BC805E",
"'N 	c #BE8465",
")N 	c #BF8364",
"!N 	c #BE8464",
"~N 	c #BA7F5F",
"{N 	c #B97C5D",
"]N 	c #BA7B5E",
"^N 	c #BC7E62",
"/N 	c #BB7E61",
"(N 	c #BA7D60",
"_N 	c #BB7F62",
":N 	c #BA8566",
"<N 	c #BA8465",
"[N 	c #B88566",
"}N 	c #B48061",
"|N 	c #B17E62",
"1N 	c #AF7D65",
"2N 	c #A77962",
"3N 	c #9F745D",
"4N 	c #926B55",
"5N 	c #88644E",
"6N 	c #6F5442",
"7N 	c #1A130F",
"8N 	c #0E0B06",
"9N 	c #2D2E29",
"0N 	c #636766",
"aN 	c #3E3D3D",
"bN 	c #2E2420",
"cN 	c #58514D",
"dN 	c #726E6C",
"eN 	c #84848A",
"fN 	c #788186",
"gN 	c #A2AFB6",
"hN 	c #3F4E4F",
"iN 	c #465152",
"jN 	c #454E4F",
"kN 	c #404848",
"lN 	c #3C4244",
"mN 	c #353D3F",
"nN 	c #394140",
"oN 	c #3C4442",
"pN 	c #3F4543",
"qN 	c #434846",
"rN 	c #464845",
"sN 	c #4A4A45",
"tN 	c #53504A",
"uN 	c #5B5649",
"vN 	c #665548",
"wN 	c #675245",
"xN 	c #614E40",
"yN 	c #332017",
"zN 	c #56372A",
"AN 	c #3F2218",
"BN 	c #49281D",
"CN 	c #583525",
"DN 	c #65402E",
"EN 	c #5F3B29",
"FN 	c #604030",
"GN 	c #815F4A",
"HN 	c #9E7159",
"IN 	c #A77861",
"JN 	c #AF7C66",
"KN 	c #B6826C",
"LN 	c #BB856E",
"MN 	c #BE8770",
"NN 	c #C08770",
"ON 	c #C38A73",
"PN 	c #C38671",
"QN 	c #C78772",
"RN 	c #C98974",
"SN 	c #C98B76",
"TN 	c #C98975",
"UN 	c #CA8B76",
"VN 	c #CD8E78",
"WN 	c #CD8E76",
"XN 	c #CE8E74",
"YN 	c #CC8D72",
"ZN 	c #CC8E72",
"`N 	c #CA8B6E",
" O 	c #C9886C",
".O 	c #C58569",
"+O 	c #BF7F63",
"@O 	c #BA7D62",
"#O 	c #BA7C65",
"$O 	c #C98B79",
"%O 	c #CC8F7C",
"&O 	c #CF9883",
"*O 	c #CE9A83",
"=O 	c #D19A86",
"-O 	c #D09681",
";O 	c #D0957F",
">O 	c #D29981",
",O 	c #CF9983",
"'O 	c #CD977F",
")O 	c #CC9378",
"!O 	c #C98E73",
"~O 	c #C88D76",
"{O 	c #BF8A72",
"]O 	c #B7856D",
"^O 	c #B37F67",
"/O 	c #AE7660",
"(O 	c #AB735C",
"_O 	c #A9725B",
":O 	c #AC775A",
"<O 	c #B57D5A",
"[O 	c #BA825E",
"}O 	c #BD8060",
"|O 	c #BE8061",
"1O 	c #BF8565",
"2O 	c #C18768",
"3O 	c #BB8062",
"4O 	c #BB7D60",
"5O 	c #BA7E61",
"6O 	c #BB7E62",
"7O 	c #BA8265",
"8O 	c #B68163",
"9O 	c #AE7D64",
"0O 	c #A97A62",
"aO 	c #A57862",
"bO 	c #9A6E58",
"cO 	c #8C6751",
"dO 	c #85614B",
"eO 	c #694F3D",
"fO 	c #13100B",
"gO 	c #292524",
"hO 	c #43403C",
"iO 	c #494943",
"jO 	c #3B3530",
"kO 	c #3A342F",
"lO 	c #716C69",
"mO 	c #7D7E81",
"nO 	c #7E888C",
"oO 	c #A6AFB9",
"pO 	c #506F78",
"qO 	c #4B676E",
"rO 	c #3B4A51",
"sO 	c #252C2D",
"tO 	c #242C2D",
"uO 	c #282E2E",
"vO 	c #333736",
"wO 	c #464947",
"xO 	c #464744",
"yO 	c #646159",
"zO 	c #60574E",
"AO 	c #665B4F",
"BO 	c #5A4B3E",
"CO 	c #5F5043",
"DO 	c #625143",
"EO 	c #4A3A2D",
"FO 	c #3E2A20",
"GO 	c #5E392A",
"HO 	c #3C1D14",
"IO 	c #552E23",
"JO 	c #5F3728",
"KO 	c #694230",
"LO 	c #66402F",
"MO 	c #835F4C",
"NO 	c #A0735C",
"OO 	c #A57760",
"PO 	c #AA7B64",
"QO 	c #B2806A",
"RO 	c #B6816C",
"SO 	c #B88169",
"TO 	c #BC826B",
"UO 	c #BF856E",
"VO 	c #BE806B",
"WO 	c #C1856F",
"XO 	c #C48872",
"YO 	c #C78873",
"ZO 	c #C6856F",
"`O 	c #C78570",
" P 	c #C7846F",
".P 	c #C6846F",
"+P 	c #C8876E",
"@P 	c #C8866C",
"#P 	c #C9886E",
"$P 	c #C88B6F",
"%P 	c #C8886D",
"&P 	c #C18064",
"*P 	c #BE7E62",
"=P 	c #BB7C60",
"-P 	c #B87B5F",
";P 	c #C28670",
">P 	c #CF9280",
",P 	c #CA8D7A",
"'P 	c #C58A74",
")P 	c #BF876F",
"!P 	c #C48E76",
"~P 	c #C68E79",
"{P 	c #C68A73",
"]P 	c #C79078",
"^P 	c #C59178",
"/P 	c #C38D74",
"(P 	c #C28B71",
"_P 	c #C1866D",
":P 	c #BD826B",
"<P 	c #B4826C",
"[P 	c #B2846E",
"}P 	c #B2836D",
"|P 	c #AF7863",
"1P 	c #AF7661",
"2P 	c #A97058",
"3P 	c #A97459",
"4P 	c #B07A5A",
"5P 	c #B37B59",
"6P 	c #BA7B5C",
"7P 	c #BD7E60",
"8P 	c #BE8161",
"9P 	c #C08366",
"0P 	c #BE7D61",
"aP 	c #BC7C60",
"bP 	c #BC7D61",
"cP 	c #BA7E60",
"dP 	c #B97D60",
"eP 	c #B98163",
"fP 	c #B57E61",
"gP 	c #B17D61",
"hP 	c #AF7C62",
"iP 	c #AC7C64",
"jP 	c #A77A63",
"kP 	c #A27762",
"lP 	c #9B715A",
"mP 	c #8D6954",
"nP 	c #83604C",
"oP 	c #684E3D",
"pP 	c #1E140D",
"qP 	c #0F0A07",
"rP 	c #120F0B",
"sP 	c #26201A",
"tP 	c #423F39",
"uP 	c #37332F",
"vP 	c #544B47",
"wP 	c #777678",
"xP 	c #7F888B",
"yP 	c #A4AFB8",
"zP 	c #7297A9",
"AP 	c #638697",
"BP 	c #495C69",
"CP 	c #222B2C",
"DP 	c #181C1D",
"EP 	c #191D1E",
"FP 	c #1A1D1F",
"GP 	c #1A1E1F",
"HP 	c #222526",
"IP 	c #1D2020",
"JP 	c #2D2D2B",
"KP 	c #3F3D39",
"LP 	c #4E4A44",
"MP 	c #423933",
"NP 	c #4F4439",
"OP 	c #615144",
"PP 	c #5B4A3C",
"QP 	c #564637",
"RP 	c #593F33",
"SP 	c #845744",
"TP 	c #512D22",
"UP 	c #573024",
"VP 	c #623829",
"WP 	c #6B4937",
"XP 	c #85604E",
"YP 	c #A2755E",
"ZP 	c #A87A63",
"`P 	c #A77761",
" Q 	c #AC7A64",
".Q 	c #B07F69",
"+Q 	c #B27E66",
"@Q 	c #B7836A",
"#Q 	c #BA8068",
"$Q 	c #BD806A",
"%Q 	c #C0836E",
"&Q 	c #C1846D",
"*Q 	c #C2826C",
"=Q 	c #C3816B",
"-Q 	c #C5836D",
";Q 	c #C6836E",
">Q 	c #C4826B",
",Q 	c #C48169",
"'Q 	c #C28066",
")Q 	c #C28167",
"!Q 	c #C08064",
"~Q 	c #BF7F62",
"{Q 	c #BD7C60",
"]Q 	c #BB8164",
"^Q 	c #BB816B",
"/Q 	c #C98E7B",
"(Q 	c #CC917E",
"_Q 	c #B0775E",
":Q 	c #A86F5B",
"<Q 	c #A9705B",
"[Q 	c #AF7561",
"}Q 	c #B37660",
"|Q 	c #B57762",
"1Q 	c #B37963",
"2Q 	c #B27B60",
"3Q 	c #B2785D",
"4Q 	c #AD755E",
"5Q 	c #A76F5B",
"6Q 	c #A0715B",
"7Q 	c #A3755F",
"8Q 	c #AA7B67",
"9Q 	c #B07C68",
"0Q 	c #B17864",
"aQ 	c #AC745D",
"bQ 	c #A66E54",
"cQ 	c #AC7555",
"dQ 	c #B17654",
"eQ 	c #B67657",
"fQ 	c #B77759",
"gQ 	c #BA795B",
"hQ 	c #BC7C5E",
"iQ 	c #BD7D61",
"jQ 	c #BC7E61",
"kQ 	c #BC7F62",
"lQ 	c #B57E5F",
"mQ 	c #B57E60",
"nQ 	c #B37D61",
"oQ 	c #B17B62",
"pQ 	c #AD775E",
"qQ 	c #AA7B63",
"rQ 	c #A57861",
"sQ 	c #9F7660",
"tQ 	c #986F57",
"uQ 	c #8A6753",
"vQ 	c #84614E",
"wQ 	c #694B3C",
"xQ 	c #2E1D16",
"yQ 	c #2A1B15",
"zQ 	c #1D110E",
"AQ 	c #120C08",
"BQ 	c #1E1915",
"CQ 	c #27231E",
"DQ 	c #1E1A16",
"EQ 	c #1D1A15",
"FQ 	c #1C1712",
"GQ 	c #2F2923",
"HQ 	c #2F2B27",
"IQ 	c #39332E",
"JQ 	c #5F5753",
"KQ 	c #787574",
"LQ 	c #919499",
"MQ 	c #A4B3BD",
"NQ 	c #95A4AE",
"OQ 	c #80888B",
"PQ 	c #646461",
"QQ 	c #5B5857",
"RQ 	c #545451",
"SQ 	c #4D4F4B",
"TQ 	c #474944",
"UQ 	c #444442",
"VQ 	c #464444",
"WQ 	c #444340",
"XQ 	c #43413D",
"YQ 	c #343431",
"ZQ 	c #484843",
"`Q 	c #554E43",
" R 	c #605345",
".R 	c #655447",
"+R 	c #725649",
"@R 	c #90614F",
"#R 	c #71493B",
"$R 	c #522B1F",
"%R 	c #5F3325",
"&R 	c #6A412E",
"*R 	c #6F4835",
"=R 	c #704D3B",
"-R 	c #805D4B",
";R 	c #A0765F",
">R 	c #A87B64",
",R 	c #A5745E",
"'R 	c #A97660",
")R 	c #AD7A64",
"!R 	c #B38068",
"~R 	c #BB856D",
"{R 	c #BE856E",
"]R 	c #BE816B",
"^R 	c #BE7E68",
"/R 	c #C0826B",
"(R 	c #C18069",
"_R 	c #BE7C63",
":R 	c #BE7D66",
"<R 	c #BF7D62",
"[R 	c #BF7D61",
"}R 	c #BA7B5D",
"|R 	c #B77A5C",
"1R 	c #BB8365",
"2R 	c #BC8068",
"3R 	c #C68C78",
"4R 	c #BF8370",
"5R 	c #AD7159",
"6R 	c #996048",
"7R 	c #885641",
"8R 	c #824F3C",
"9R 	c #895341",
"0R 	c #96614E",
"aR 	c #9E6350",
"bR 	c #9E664F",
"cR 	c #A06850",
"dR 	c #A16951",
"eR 	c #9D6854",
"fR 	c #966753",
"gR 	c #916450",
"hR 	c #936550",
"iR 	c #9D6F56",
"jR 	c #A97C65",
"kR 	c #AE7F68",
"lR 	c #AD7862",
"mR 	c #A66F55",
"nR 	c #AB7556",
"oR 	c #AD7455",
"pR 	c #AF7151",
"qR 	c #B27153",
"rR 	c #B27152",
"sR 	c #B46F50",
"tR 	c #B87457",
"uR 	c #B87759",
"vR 	c #B9785C",
"wR 	c #BB7C5F",
"xR 	c #BA7F62",
"yR 	c #B88162",
"zR 	c #B78263",
"AR 	c #B67F60",
"BR 	c #B47E5F",
"CR 	c #B27D5E",
"DR 	c #AF7A5C",
"ER 	c #AF7961",
"FR 	c #AC7A62",
"GR 	c #AA7A63",
"HR 	c #A67861",
"IR 	c #9C735D",
"JR 	c #946C57",
"KR 	c #886551",
"LR 	c #82604D",
"MR 	c #654B3D",
"NR 	c #442E21",
"OR 	c #432B20",
"PR 	c #221310",
"QR 	c #160D0A",
"RR 	c #1B1210",
"SR 	c #1B1813",
"TR 	c #191512",
"UR 	c #312D27",
"VR 	c #4A4742",
"WR 	c #201E1A",
"XR 	c #2F2A24",
"YR 	c #29231E",
"ZR 	c #261F1A",
"`R 	c #3B3531",
" S 	c #2A211D",
".S 	c #6C6866",
"+S 	c #878485",
"@S 	c #CDC7C8",
"#S 	c #C8C3C2",
"$S 	c #C3B9B8",
"%S 	c #BFB1B2",
"&S 	c #BCAEB0",
"*S 	c #B8ADAD",
"=S 	c #B3A9A8",
"-S 	c #B1A6A6",
";S 	c #AEA3A4",
">S 	c #A99D9F",
",S 	c #A59A99",
"'S 	c #A09695",
")S 	c #9A908E",
"!S 	c #918784",
"~S 	c #908582",
"{S 	c #867973",
"]S 	c #7F6F65",
"^S 	c #67544A",
"/S 	c #815646",
"(S 	c #895D4F",
"_S 	c #5B362B",
":S 	c #68402F",
"<S 	c #68402D",
"[S 	c #6B4431",
"}S 	c #724D3B",
"|S 	c #83604F",
"1S 	c #A0775F",
"2S 	c #A3745D",
"3S 	c #A6755F",
"4S 	c #A87760",
"5S 	c #AC7B64",
"6S 	c #B8836A",
"7S 	c #B97F67",
"8S 	c #BB7D66",
"9S 	c #BB7C61",
"0S 	c #BA7A5F",
"aS 	c #B8775D",
"bS 	c #BA7860",
"cS 	c #B9765B",
"dS 	c #B8755A",
"eS 	c #B7785A",
"fS 	c #B6795B",
"gS 	c #B67F61",
"hS 	c #B4745E",
"iS 	c #B4755E",
"jS 	c #A76B52",
"kS 	c #8F5641",
"lS 	c #6E402D",
"mS 	c #6C432F",
"nS 	c #784B3B",
"oS 	c #825445",
"pS 	c #865643",
"qS 	c #895741",
"rS 	c #8B5841",
"sS 	c #905D4A",
"tS 	c #936352",
"uS 	c #8C6451",
"vS 	c #805745",
"wS 	c #7B503E",
"xS 	c #885741",
"yS 	c #9C6C53",
"zS 	c #A5735C",
"AS 	c #A46D53",
"BS 	c #AC7556",
"CS 	c #AD7254",
"DS 	c #AC6E50",
"ES 	c #AB6B4D",
"FS 	c #AD6C4F",
"GS 	c #AF6E52",
"HS 	c #B06F51",
"IS 	c #B27556",
"JS 	c #B57657",
"KS 	c #B7785B",
"LS 	c #B67B5E",
"MS 	c #B58061",
"NS 	c #B47F60",
"OS 	c #B37E5F",
"PS 	c #B17B5E",
"QS 	c #AC7A5F",
"RS 	c #AB7860",
"SS 	c #AA7961",
"TS 	c #A1745D",
"US 	c #956E59",
"VS 	c #8D6854",
"WS 	c #886651",
"XS 	c #805F4C",
"YS 	c #65493B",
"ZS 	c #53382B",
"`S 	c #402C20",
" T 	c #24130F",
".T 	c #20110E",
"+T 	c #20120B",
"@T 	c #22140F",
"#T 	c #302C28",
"$T 	c #393834",
"%T 	c #2E2C2A",
"&T 	c #1F1C19",
"*T 	c #53524A",
"=T 	c #585953",
"-T 	c #2C2923",
";T 	c #201A14",
">T 	c #2E2822",
",T 	c #3D3630",
"'T 	c #413830",
")T 	c #726C69",
"!T 	c #8C8685",
"~T 	c #DDCECA",
"{T 	c #DCCECA",
"]T 	c #DDCECB",
"^T 	c #E0CECC",
"/T 	c #DECECC",
"(T 	c #DECFCC",
"_T 	c #DDCECC",
":T 	c #DCCDCB",
"<T 	c #D9CAC8",
"[T 	c #DACAC9",
"}T 	c #D3C5C4",
"|T 	c #C3B3B1",
"1T 	c #C5B7B6",
"2T 	c #CEC0BF",
"3T 	c #CBBCBB",
"4T 	c #C4B5B5",
"5T 	c #988C85",
"6T 	c #675953",
"7T 	c #705C53",
"8T 	c #845F50",
"9T 	c #7F5547",
"0T 	c #693F2D",
"aT 	c #633B29",
"bT 	c #653E2C",
"cT 	c #714C3B",
"dT 	c #83614E",
"eT 	c #A07860",
"fT 	c #A67A62",
"gT 	c #A4755D",
"hT 	c #A2735C",
"iT 	c #A4755E",
"jT 	c #AB7A63",
"kT 	c #B27E65",
"lT 	c #B37D64",
"mT 	c #B37960",
"nT 	c #B3765E",
"oT 	c #B3765C",
"pT 	c #B4765A",
"qT 	c #B5775C",
"rT 	c #B5755B",
"sT 	c #B6775B",
"tT 	c #B5775B",
"uT 	c #B37458",
"vT 	c #B27357",
"wT 	c #B17558",
"xT 	c #B88265",
"yT 	c #B9846A",
"zT 	c #B98367",
"AT 	c #B0735D",
"BT 	c #9B5A45",
"CT 	c #834B35",
"DT 	c #683927",
"ET 	c #452015",
"FT 	c #281008",
"GT 	c #311C12",
"HT 	c #5F3D2F",
"IT 	c #754B3A",
"JT 	c #734837",
"KT 	c #784D3B",
"LT 	c #7C523F",
"MT 	c #805A47",
"NT 	c #331D17",
"OT 	c #542D1F",
"PT 	c #906049",
"QT 	c #96644D",
"RT 	c #A1684E",
"ST 	c #AA7154",
"TT 	c #AA6F51",
"UT 	c #A96B4F",
"VT 	c #A7694A",
"WT 	c #A86847",
"XT 	c #AA694A",
"YT 	c #AD6F50",
"ZT 	c #AF7253",
"`T 	c #B37557",
" U 	c #B27558",
".U 	c #B47B5E",
"+U 	c #B37D5E",
"@U 	c #B07A5C",
"#U 	c #B27D5F",
"$U 	c #B07C61",
"%U 	c #AC7A61",
"&U 	c #AA785F",
"*U 	c #A7775E",
"=U 	c #A3755E",
"-U 	c #9E725A",
";U 	c #976F59",
">U 	c #916C57",
",U 	c #8B6854",
"'U 	c #876651",
")U 	c #7E5F4D",
"!U 	c #654739",
"~U 	c #603F2E",
"{U 	c #593D2D",
"]U 	c #2D1913",
"^U 	c #1F0D0B",
"/U 	c #200F0B",
"(U 	c #24130D",
"_U 	c #291710",
":U 	c #281F1C",
"<U 	c #241F1C",
"[U 	c #474643",
"}U 	c #535351",
"|U 	c #4F4F4F",
"1U 	c #1B1714",
"2U 	c #4B453B",
"3U 	c #444237",
"4U 	c #3C3933",
"5U 	c #26201C",
"6U 	c #2B2420",
"7U 	c #312A24",
"8U 	c #433D37",
"9U 	c #403932",
"0U 	c #443B32",
"aU 	c #756F6B",
"bU 	c #908B89",
"cU 	c #D7C8C4",
"dU 	c #D9CAC7",
"eU 	c #DACBC8",
"fU 	c #DBCBC8",
"gU 	c #DBCCC9",
"hU 	c #DCCDCA",
"iU 	c #DDCDCB",
"jU 	c #D9CBC6",
"kU 	c #C3B5B2",
"lU 	c #D4C5C2",
"mU 	c #DACBC7",
"nU 	c #D8C9C6",
"oU 	c #CFC1BE",
"pU 	c #B9ADAA",
"qU 	c #A59A96",
"rU 	c #7D6961",
"sU 	c #8B6657",
"tU 	c #875D4B",
"uU 	c #7C4E3A",
"vU 	c #643E2C",
"wU 	c #694132",
"xU 	c #785342",
"yU 	c #836250",
"zU 	c #A17963",
"AU 	c #A98068",
"BU 	c #A4765F",
"CU 	c #A4765E",
"DU 	c #AB7961",
"EU 	c #AE7A62",
"FU 	c #AF755C",
"GU 	c #B17559",
"HU 	c #AF775C",
"IU 	c #B27459",
"JU 	c #B37358",
"KU 	c #B27358",
"LU 	c #B17356",
"MU 	c #B17256",
"NU 	c #B07558",
"OU 	c #B17A5D",
"PU 	c #B78264",
"QU 	c #BA846A",
"RU 	c #BD876D",
"SU 	c #B47D66",
"TU 	c #955948",
"UU 	c #703827",
"VU 	c #57291A",
"WU 	c #411D14",
"XU 	c #31160E",
"YU 	c #2A130D",
"ZU 	c #351A13",
"`U 	c #5F3A2A",
" V 	c #6B4230",
".V 	c #6A4130",
"+V 	c #6B4636",
"@V 	c #2F1914",
"#V 	c #230E0A",
"$V 	c #29110D",
"%V 	c #3A180F",
"&V 	c #592C1C",
"*V 	c #754331",
"=V 	c #8A5640",
"-V 	c #A16C53",
";V 	c #AB7459",
">V 	c #AA7355",
",V 	c #A76F51",
"'V 	c #A56949",
")V 	c #A36745",
"!V 	c #A56847",
"~V 	c #A86A4A",
"{V 	c #AD7051",
"]V 	c #AF7456",
"^V 	c #B07458",
"/V 	c #B1785E",
"(V 	c #AF795F",
"_V 	c #AF785E",
":V 	c #AE7B63",
"<V 	c #A7775F",
"[V 	c #A3765E",
"}V 	c #A0745C",
"|V 	c #99725A",
"1V 	c #936D56",
"2V 	c #8E6B56",
"3V 	c #8A6854",
"4V 	c #866650",
"5V 	c #7C5E4B",
"6V 	c #624234",
"7V 	c #654431",
"8V 	c #4F3325",
"9V 	c #26140D",
"0V 	c #23120D",
"aV 	c #22110C",
"bV 	c #25120C",
"cV 	c #2E1B14",
"dV 	c #3B2822",
"eV 	c #444342",
"fV 	c #353738",
"gV 	c #2E2B27",
"hV 	c #5B5C5B",
"iV 	c #5E6263",
"jV 	c #424240",
"kV 	c #171210",
"lV 	c #312B24",
"mV 	c #413D38",
"nV 	c #3B3737",
"oV 	c #5A5B5C",
"pV 	c #44413D",
"qV 	c #423D39",
"rV 	c #4C4741",
"sV 	c #443E37",
"tV 	c #59534F",
"uV 	c #75716E",
"vV 	c #838182",
"wV 	c #D2C3C0",
"xV 	c #D3C4C1",
"yV 	c #D5C6C3",
"zV 	c #D7C8C5",
"AV 	c #DBCCC8",
"BV 	c #CCBFB9",
"CV 	c #C5BBB7",
"DV 	c #D3C5C1",
"EV 	c #CFC1BD",
"FV 	c #CEC0BC",
"GV 	c #AE9E9B",
"HV 	c #8C7C75",
"IV 	c #916D5E",
"JV 	c #8C604D",
"KV 	c #7A4C3B",
"LV 	c #815B4A",
"MV 	c #876453",
"NV 	c #A27A65",
"OV 	c #A87E66",
"PV 	c #A4745D",
"QV 	c #A6775F",
"RV 	c #A7765D",
"SV 	c #A7745B",
"TV 	c #A6725A",
"UV 	c #A67057",
"VV 	c #A77157",
"WV 	c #A87155",
"XV 	c #A97257",
"YV 	c #AC7154",
"ZV 	c #AD7054",
"`V 	c #AD7255",
" W 	c #AC7557",
".W 	c #B37E60",
"+W 	c #BC866A",
"@W 	c #C08C72",
"#W 	c #C28F76",
"$W 	c #BE8871",
"%W 	c #AA7662",
"&W 	c #7B4435",
"*W 	c #5A2C1D",
"=W 	c #51281C",
"-W 	c #4C271E",
";W 	c #4D2A1F",
">W 	c #4B281E",
",W 	c #502D1F",
"'W 	c #653D2B",
")W 	c #694634",
"!W 	c #5C3B2D",
"~W 	c #54372D",
"{W 	c #4E2D24",
"]W 	c #4F271B",
"^W 	c #5F3122",
"/W 	c #774634",
"(W 	c #935F49",
"_W 	c #A67358",
":W 	c #AC765B",
"<W 	c #AB775B",
"[W 	c #A97456",
"}W 	c #A46D4E",
"|W 	c #A26949",
"1W 	c #A36847",
"2W 	c #A46C4D",
"3W 	c #A96E4F",
"4W 	c #AB7254",
"5W 	c #AB7456",
"6W 	c #AC7758",
"7W 	c #AA7556",
"8W 	c #AC7657",
"9W 	c #AD755A",
"0W 	c #A9745A",
"aW 	c #A97760",
"bW 	c #A5775F",
"cW 	c #A3765F",
"dW 	c #A0725B",
"eW 	c #9B7159",
"fW 	c #946D56",
"gW 	c #916B54",
"hW 	c #8D6B56",
"iW 	c #8B6B56",
"jW 	c #876652",
"kW 	c #795C4C",
"lW 	c #654335",
"mW 	c #472E1E",
"nW 	c #301A12",
"oW 	c #351E18",
"pW 	c #291510",
"qW 	c #29150E",
"rW 	c #39231C",
"sW 	c #45342E",
"tW 	c #697076",
"uW 	c #616C72",
"vW 	c #32373B",
"wW 	c #3B3939",
"xW 	c #64686A",
"yW 	c #474A49",
"zW 	c #474B4D",
"AW 	c #201C18",
"BW 	c #575F62",
"CW 	c #65696C",
"DW 	c #525354",
"EW 	c #52514E",
"FW 	c #5E5E5B",
"GW 	c #47433D",
"HW 	c #56534E",
"IW 	c #6C6E6E",
"JW 	c #73797D",
"KW 	c #CCBDB9",
"LW 	c #CEBFBC",
"MW 	c #D1C2BF",
"NW 	c #D2C4C1",
"OW 	c #D7C7C4",
"PW 	c #C0B2AE",
"QW 	c #C1B5B2",
"RW 	c #D0C1BE",
"SW 	c #D1C3BF",
"TW 	c #C8B9B6",
"UW 	c #C8B9B3",
"VW 	c #AA9895",
"WW 	c #9A8781",
"XW 	c #8D6B59",
"YW 	c #926753",
"ZW 	c #895B46",
"`W 	c #77432F",
" X 	c #7F5545",
".X 	c #8B6250",
"+X 	c #8A6554",
"@X 	c #A27B65",
"#X 	c #A88067",
"$X 	c #AA7D66",
"%X 	c #A17159",
"&X 	c #A37159",
"*X 	c #A16F56",
"=X 	c #A16E55",
"-X 	c #A46F55",
";X 	c #A67055",
">X 	c #A56E50",
",X 	c #A87052",
"'X 	c #A97052",
")X 	c #A87152",
"!X 	c #AB7758",
"~X 	c #B07C5F",
"{X 	c #B48164",
"]X 	c #B88466",
"^X 	c #BC876A",
"/X 	c #C08B70",
"(X 	c #BE8870",
"_X 	c #9E6556",
":X 	c #763F31",
"<X 	c #5C2F23",
"[X 	c #572E22",
"}X 	c #542F24",
"|X 	c #502E22",
"1X 	c #573220",
"2X 	c #5A3522",
"3X 	c #613D2C",
"4X 	c #5C3A2B",
"5X 	c #603F33",
"6X 	c #5D3B2E",
"7X 	c #5D392B",
"8X 	c #603729",
"9X 	c #744838",
"0X 	c #9F6C53",
"aX 	c #A9765C",
"bX 	c #AE795F",
"cX 	c #A97556",
"dX 	c #A47152",
"eX 	c #A37050",
"fX 	c #A16948",
"gX 	c #A26A49",
"hX 	c #A46C4C",
"iX 	c #A67252",
"jX 	c #A87354",
"kX 	c #A67152",
"lX 	c #A77253",
"mX 	c #A77356",
"nX 	c #A7755B",
"oX 	c #9F725B",
"pX 	c #997259",
"qX 	c #966F57",
"rX 	c #936D57",
"sX 	c #906C56",
"tX 	c #886753",
"uX 	c #77594B",
"vX 	c #684538",
"wX 	c #674231",
"xX 	c #614230",
"yX 	c #533325",
"zX 	c #492D24",
"AX 	c #41261D",
"BX 	c #4E372C",
"CX 	c #3E2F29",
"DX 	c #434344",
"EX 	c #5E676D",
"FX 	c #74858D",
"GX 	c #2A2829",
"HX 	c #32302D",
"IX 	c #404142",
"JX 	c #586065",
"KX 	c #31322F",
"LX 	c #2E2A29",
"MX 	c #717B80",
"NX 	c #85979E",
"OX 	c #4F5259",
"PX 	c #5E6366",
"QX 	c #484540",
"RX 	c #514F4C",
"SX 	c #5C605F",
"TX 	c #5C6467",
"UX 	c #C8B8B3",
"VX 	c #C9BAB6",
"WX 	c #CBBCB9",
"XX 	c #CEBEBB",
"YX 	c #CEBEBC",
"ZX 	c #CFC0BD",
"`X 	c #C5B6B1",
" Y 	c #BAAEA9",
".Y 	c #C3B5B1",
"+Y 	c #D2C2BC",
"@Y 	c #C4B6B1",
"#Y 	c #C1B4B0",
"$Y 	c #B6A69F",
"%Y 	c #AA9B93",
"&Y 	c #958176",
"*Y 	c #806051",
"=Y 	c #946754",
"-Y 	c #8F634D",
";Y 	c #7E4B38",
">Y 	c #986C57",
",Y 	c #8E6250",
"'Y 	c #886250",
")Y 	c #A07964",
"!Y 	c #A97D66",
"~Y 	c #A87A62",
"{Y 	c #A1715A",
"]Y 	c #A07059",
"^Y 	c #9E6D54",
"/Y 	c #9E6B52",
"(Y 	c #A16E53",
"_Y 	c #A26C52",
":Y 	c #A66E50",
"<Y 	c #A77454",
"[Y 	c #AA7758",
"}Y 	c #AA7859",
"|Y 	c #AE7A5C",
"1Y 	c #BA8466",
"2Y 	c #BD866A",
"3Y 	c #BC856B",
"4Y 	c #BA8570",
"5Y 	c #AD7762",
"6Y 	c #925F4A",
"7Y 	c #523124",
"8Y 	c #553221",
"9Y 	c #55311E",
"0Y 	c #57321F",
"aY 	c #5C3726",
"bY 	c #5E3B2A",
"cY 	c #613F30",
"dY 	c #603F2F",
"eY 	c #684634",
"fY 	c #79533E",
"gY 	c #8E614D",
"hY 	c #996951",
"iY 	c #A5735A",
"jY 	c #AA785E",
"kY 	c #AC785C",
"lY 	c #AD7859",
"mY 	c #A37051",
"nY 	c #A26E4E",
"oY 	c #A26D4D",
"pY 	c #A36C4C",
"qY 	c #A26C4A",
"rY 	c #A36D4C",
"sY 	c #A46F4F",
"tY 	c #A57152",
"uY 	c #A46F52",
"vY 	c #A27257",
"wY 	c #A3735B",
"xY 	c #A2745C",
"yY 	c #A1735B",
"zY 	c #9E715A",
"AY 	c #976E57",
"BY 	c #956E58",
"CY 	c #916D57",
"DY 	c #8E6A53",
"EY 	c #8C6C57",
"FY 	c #8A6A55",
"GY 	c #866753",
"HY 	c #755649",
"IY 	c #6D4A3E",
"JY 	c #6B4534",
"KY 	c #6F4937",
"LY 	c #6E4836",
"MY 	c #6C493C",
"NY 	c #5F4237",
"OY 	c #583A2F",
"PY 	c #513A2F",
"QY 	c #2E2925",
"RY 	c #2A2B2C",
"SY 	c #727E83",
"TY 	c #90A6AD",
"UY 	c #606B71",
"VY 	c #40444A",
"WY 	c #5F6A72",
"XY 	c #66737B",
"YY 	c #3C3F37",
"ZY 	c #404845",
"`Y 	c #232528",
" Z 	c #363131",
".Z 	c #575B5D",
"+Z 	c #6C7177",
"@Z 	c #70787D",
"#Z 	c #5F6364",
"$Z 	c #4B4A47",
"%Z 	c #4C4C4A",
"&Z 	c #666664",
"*Z 	c #C1B3B0",
"=Z 	c #C4B6B2",
"-Z 	c #C6B7B4",
";Z 	c #C9BBB8",
">Z 	c #CBBDBA",
",Z 	c #CDBEBB",
"'Z 	c #CEBFBA",
")Z 	c #B2A7A2",
"!Z 	c #BDADA8",
"~Z 	c #B8A7A0",
"{Z 	c #BAACA5",
"]Z 	c #AE9F99",
"^Z 	c #B5A49C",
"/Z 	c #99877D",
"(Z 	c #837268",
"_Z 	c #59413A",
":Z 	c #90685A",
"<Z 	c #936B58",
"[Z 	c #9D715C",
"}Z 	c #7F513D",
"|Z 	c #805847",
"1Z 	c #A07A65",
"2Z 	c #A87962",
"3Z 	c #A67860",
"4Z 	c #9E6E57",
"5Z 	c #9B6B54",
"6Z 	c #9A6A53",
"7Z 	c #9C6950",
"8Z 	c #A06D52",
"9Z 	c #A36E53",
"0Z 	c #A67050",
"aZ 	c #A77252",
"bZ 	c #A57252",
"cZ 	c #A47151",
"dZ 	c #A57353",
"eZ 	c #A57254",
"fZ 	c #AA7659",
"gZ 	c #AE775D",
"hZ 	c #AD745B",
"iZ 	c #A57057",
"jZ 	c #9A6954",
"kZ 	c #90634F",
"lZ 	c #875C49",
"mZ 	c #744C39",
"nZ 	c #644030",
"oZ 	c #58382A",
"pZ 	c #563627",
"qZ 	c #563525",
"rZ 	c #573422",
"sZ 	c #5B3825",
"tZ 	c #5B3724",
"uZ 	c #5B3624",
"vZ 	c #5B3623",
"wZ 	c #5A3624",
"xZ 	c #5C3827",
"yZ 	c #64412E",
"zZ 	c #6A4834",
"AZ 	c #704C39",
"BZ 	c #744F3B",
"CZ 	c #79523C",
"DZ 	c #875E48",
"EZ 	c #8C624A",
"FZ 	c #8F634A",
"GZ 	c #916348",
"HZ 	c #946447",
"IZ 	c #9D6B4D",
"JZ 	c #A16F50",
"KZ 	c #A36F50",
"LZ 	c #A26E4D",
"MZ 	c #A36D4E",
"NZ 	c #A36F51",
"OZ 	c #A37055",
"PZ 	c #A47257",
"QZ 	c #A37459",
"RZ 	c #A1745B",
"SZ 	c #9F745C",
"TZ 	c #9A735B",
"UZ 	c #976F57",
"VZ 	c #946C56",
"WZ 	c #926D57",
"XZ 	c #926E58",
"YZ 	c #8F6C56",
"ZZ 	c #8F6F5A",
"`Z 	c #8A6B57",
" ` 	c #856653",
".` 	c #78564A",
"+` 	c #714C40",
"@` 	c #6E4636",
"#` 	c #744A39",
"$` 	c #764D3C",
"%` 	c #6D4938",
"&` 	c #49362C",
"*` 	c #3E4141",
"=` 	c #607176",
"-` 	c #515C65",
";` 	c #575B63",
">` 	c #75878F",
",` 	c #6D7F8B",
"'` 	c #717E88",
")` 	c #7A8A92",
"!` 	c #647271",
"~` 	c #82959E",
"{` 	c #3B434D",
"]` 	c #211F1F",
"^` 	c #373330",
"/` 	c #575656",
"(` 	c #545150",
"_` 	c #4B4945",
":` 	c #5C5A5B",
"<` 	c #6C6C6F",
"[` 	c #76757B",
"}` 	c #BBAEAA",
"|` 	c #BEB1AD",
"1` 	c #C2B3B0",
"2` 	c #C5B7B4",
"3` 	c #C7B9B6",
"4` 	c #C8BAB7",
"5` 	c #CABBB8",
"6` 	c #CCBDBA",
"7` 	c #CEBFBB",
"8` 	c #CABBB4",
"9` 	c #A7978E",
"0` 	c #B2A49D",
"a` 	c #A19088",
"b` 	c #9E8E85",
"c` 	c #A08F88",
"d` 	c #9F9087",
"e` 	c #A5968F",
"f` 	c #928278",
"g` 	c #695D5E",
"h` 	c #B4A197",
"i` 	c #865B46",
"j` 	c #8D5D46",
"k` 	c #82503B",
"l` 	c #673927",
"m` 	c #613C2D",
"n` 	c #A17C66",
"o` 	c #A87C64",
"p` 	c #A6765F",
"q` 	c #A1725B",
"r` 	c #9A6C54",
"s` 	c #99674F",
"t` 	c #98674E",
"u` 	c #9A664E",
"v` 	c #9E694F",
"w` 	c #A26D52",
"x` 	c #A57055",
"y` 	c #A46E55",
"z` 	c #A87059",
"A` 	c #A66E56",
"B` 	c #A36F56",
"C` 	c #A36F57",
"D` 	c #A7745C",
"E` 	c #A37059",
"F` 	c #976750",
"G` 	c #95654F",
"H` 	c #8B5E48",
"I` 	c #794D3B",
"J` 	c #673F2E",
"K` 	c #5A3A2A",
"L` 	c #503122",
"M` 	c #4F3023",
"N` 	c #623E2C",
"O` 	c #633F2C",
"P` 	c #5F3B28",
"Q` 	c #603B28",
"R` 	c #623D2B",
"S` 	c #6C4934",
"T` 	c #6A4633",
"U` 	c #65422F",
"V` 	c #684632",
"W` 	c #61402C",
"X` 	c #684833",
"Y` 	c #71523B",
"Z` 	c #6C4C35",
"`` 	c #644430",
"  .	c #60412C",
". .	c #694732",
"+ .	c #7F543D",
"@ .	c #8B5E43",
"# .	c #906248",
"$ .	c #96684E",
"% .	c #996C52",
"& .	c #956950",
"* .	c #95694F",
"= .	c #976B50",
"- .	c #9B6E54",
"; .	c #95684F",
"> .	c #90644C",
", .	c #90674F",
"' .	c #90664E",
") .	c #906951",
"! .	c #916B55",
"~ .	c #906F59",
"{ .	c #8C6E59",
"] .	c #846652",
"^ .	c #7F5B49",
"/ .	c #7A503E",
"( .	c #7E5140",
"_ .	c #7D5242",
": .	c #774E3E",
"< .	c #634236",
"[ .	c #5A3D31",
"} .	c #1E1C18",
"| .	c #3E4344",
"1 .	c #8EA2A7",
"2 .	c #A2BBC6",
"3 .	c #9EB8C4",
"4 .	c #A6C1CD",
"5 .	c #7F8A95",
"6 .	c #76858D",
"7 .	c #494C43",
"8 .	c #596267",
"9 .	c #606A70",
"0 .	c #758791",
"a .	c #606D70",
"b .	c #494B4A",
"c .	c #3D3835",
"d .	c #332A27",
"e .	c #4B4948",
"f .	c #625F61",
"g .	c #727074",
"h .	c #77767D",
"i .	c #B8ABA5",
"j .	c #B9ADA9",
"k .	c #BCAFAB",
"l .	c #BFB1AE",
"m .	c #C0B2AF",
"n .	c #C2B4B1",
"o .	c #C4B6B3",
"p .	c #C7B8B5",
"q .	c #C9BAB5",
"r .	c #BAABA3",
"s .	c #A6958D",
"t .	c #917D75",
"u .	c #6F5C54",
"v .	c #826F66",
"w .	c #817269",
"x .	c #887972",
"y .	c #A3968E",
"z .	c #97867E",
"A .	c #9C8D84",
"B .	c #574139",
"C .	c #473127",
"D .	c #653D2D",
"E .	c #613828",
"F .	c #49281B",
"G .	c #9D7963",
"H .	c #A87B63",
"I .	c #9F725A",
"J .	c #936850",
"K .	c #875E47",
"L .	c #7A513A",
"M .	c #714932",
"N .	c #714935",
"O .	c #7B5039",
"P .	c #7F5039",
"Q .	c #83563F",
"R .	c #8A5E48",
"S .	c #91634E",
"T .	c #8F614A",
"U .	c #8E634D",
"V .	c #845942",
"W .	c #7F543F",
"X .	c #7D5541",
"Y .	c #7C5540",
"Z .	c #7C5441",
"` .	c #794E3C",
" ..	c #764D37",
"...	c #7D5741",
"+..	c #5C3927",
"@..	c #543728",
"#..	c #583728",
"$..	c #724A35",
"%..	c #774F3A",
"&..	c #754933",
"*..	c #744A34",
"=..	c #774E38",
"-..	c #77513A",
";..	c #775039",
">..	c #7A543B",
",..	c #7D553C",
"'..	c #7D5239",
")..	c #724630",
"!..	c #6C432D",
"~..	c #724A34",
"{..	c #6F4A35",
"]..	c #66412B",
"^..	c #6E4D35",
"/..	c #62422C",
"(..	c #5E3F2C",
"_..	c #533523",
":..	c #4C3320",
"<..	c #573A27",
"[..	c #674633",
"}..	c #78553F",
"|..	c #75533D",
"1..	c #76523E",
"2..	c #75503C",
"3..	c #78513C",
"4..	c #875D47",
"5..	c #7E5741",
"6..	c #744E39",
"7..	c #6A442E",
"8..	c #6C442D",
"9..	c #774F35",
"0..	c #82563D",
"a..	c #8A5F43",
"b..	c #946A4E",
"c..	c #956E55",
"d..	c #8C6951",
"e..	c #88614D",
"f..	c #8B604D",
"g..	c #794B3A",
"h..	c #845543",
"i..	c #865846",
"j..	c #805545",
"k..	c #6E4E41",
"l..	c #533F35",
"m..	c #12100C",
"n..	c #1B1917",
"o..	c #565E61",
"p..	c #95A8AE",
"q..	c #97AAB5",
"r..	c #A9C8D4",
"s..	c #9AB0BD",
"t..	c #768185",
"u..	c #555D57",
"v..	c #8499A4",
"w..	c #5F6D76",
"x..	c #63707A",
"y..	c #626D6D",
"z..	c #44423E",
"A..	c #4B4B49",
"B..	c #535455",
"C..	c #55575A",
"D..	c #585A5F",
"E..	c #57585E",
"F..	c #B2A69F",
"G..	c #B6A8A5",
"H..	c #B8AAA7",
"I..	c #BBADAA",
"J..	c #BDAFAC",
"K..	c #C3B4B1",
"L..	c #C5B6B3",
"M..	c #BFAFA8",
"N..	c #AC9C97",
"O..	c #978880",
"P..	c #5A4840",
"Q..	c #63514A",
"R..	c #877971",
"S..	c #9C8F87",
"T..	c #988981",
"U..	c #A3958F",
"V..	c #AB9D98",
"W..	c #877061",
"X..	c #30241E",
"Y..	c #684A37",
"Z..	c #9E745A",
"`..	c #996C51",
" +.	c #865A3F",
".+.	c #744F37",
"++.	c #65442F",
"@+.	c #543522",
"#+.	c #603C29",
"$+.	c #643F2D",
"%+.	c #76503C",
"&+.	c #77513E",
"*+.	c #7A5442",
"=+.	c #7F5A47",
"-+.	c #78523F",
";+.	c #7A5542",
">+.	c #7F5B48",
",+.	c #6C4533",
"'+.	c #65402D",
")+.	c #65422E",
"!+.	c #6B4834",
"~+.	c #76513E",
"{+.	c #76523D",
"]+.	c #613E2C",
"^+.	c #624130",
"/+.	c #614130",
"(+.	c #5C3C2C",
"_+.	c #6B4531",
":+.	c #7B4F38",
"<+.	c #865940",
"[+.	c #8D5F44",
"}+.	c #8D5D44",
"|+.	c #8E5D43",
"1+.	c #916145",
"2+.	c #8E6044",
"3+.	c #8D5F41",
"4+.	c #8C5F40",
"5+.	c #8B5D41",
"6+.	c #87593D",
"7+.	c #86583C",
"8+.	c #895D42",
"9+.	c #83583D",
"0+.	c #755238",
"a+.	c #6B4932",
"b+.	c #5A3A27",
"c+.	c #523423",
"d+.	c #4C311F",
"e+.	c #3E291A",
"f+.	c #4E3326",
"g+.	c #5C3D2F",
"h+.	c #5C3F31",
"i+.	c #593C2E",
"j+.	c #543829",
"k+.	c #543627",
"l+.	c #654534",
"m+.	c #6F4E3B",
"n+.	c #62422F",
"o+.	c #613F2E",
"p+.	c #4E2F20",
"q+.	c #523223",
"r+.	c #5F3B27",
"s+.	c #6F4930",
"t+.	c #875D41",
"u+.	c #996B4C",
"v+.	c #A17251",
"w+.	c #A47453",
"x+.	c #A17256",
"y+.	c #996B52",
"z+.	c #90624C",
"A+.	c #8C5C4A",
"B+.	c #865A4A",
"C+.	c #715647",
"D+.	c #362D26",
"E+.	c #201F1C",
"F+.	c #0F0D0A",
"G+.	c #1D1C1B",
"H+.	c #2F3130",
"I+.	c #5E6669",
"J+.	c #84949C",
"K+.	c #A3BAC4",
"L+.	c #A4BCC6",
"M+.	c #738085",
"N+.	c #717C80",
"O+.	c #8EA4AE",
"P+.	c #52646C",
"Q+.	c #50575B",
"R+.	c #474C4A",
"S+.	c #353430",
"T+.	c #3B3C37",
"U+.	c #444846",
"V+.	c #384343",
"W+.	c #2B3839",
"X+.	c #283534",
"Y+.	c #2D3635",
"Z+.	c #AEA29E",
"`+.	c #B2A5A1",
" @.	c #B4A6A3",
".@.	c #B7A9A6",
"+@.	c #B9ABA8",
"@@.	c #C0B1AE",
"#@.	c #BEB0AD",
"$@.	c #B5A6A0",
"%@.	c #A69A95",
"&@.	c #93827B",
"*@.	c #3A2F2A",
"=@.	c #7B6D64",
"-@.	c #908079",
";@.	c #A09289",
">@.	c #A2928B",
",@.	c #9D8F88",
"'@.	c #A4968D",
")@.	c #694D42",
"!@.	c #644331",
"~@.	c #8C6049",
"{@.	c #9D6C50",
"]@.	c #9B6A4C",
"^@.	c #93664B",
"/@.	c #835941",
"(@.	c #6D4833",
"_@.	c #4F3525",
":@.	c #402D1F",
"<@.	c #523726",
"[@.	c #613F2C",
"}@.	c #674331",
"|@.	c #633F2E",
"1@.	c #674333",
"2@.	c #6D4A38",
"3@.	c #684431",
"4@.	c #6B4634",
"5@.	c #6C4A37",
"6@.	c #6C4936",
"7@.	c #64402E",
"8@.	c #684432",
"9@.	c #6A4533",
"0@.	c #694432",
"a@.	c #6F4936",
"b@.	c #734E3A",
"c@.	c #7E5842",
"d@.	c #79543E",
"e@.	c #734E38",
"f@.	c #6D4937",
"g@.	c #684332",
"h@.	c #754C39",
"i@.	c #7B523A",
"j@.	c #885D43",
"k@.	c #926249",
"l@.	c #9A6749",
"m@.	c #A26F50",
"n@.	c #A47256",
"o@.	c #A37155",
"p@.	c #A16F53",
"q@.	c #9F6C4C",
"r@.	c #996646",
"s@.	c #9A6746",
"t@.	c #9A6646",
"u@.	c #9F6B4E",
"v@.	c #A26A4C",
"w@.	c #A06C4E",
"x@.	c #9A684E",
"y@.	c #94664A",
"z@.	c #865B41",
"A@.	c #684430",
"B@.	c #523828",
"C@.	c #5E3F31",
"D@.	c #604334",
"E@.	c #523728",
"F@.	c #4D3425",
"G@.	c #473221",
"H@.	c #533B2B",
"I@.	c #593E2F",
"J@.	c #4F3526",
"K@.	c #4F3629",
"L@.	c #432D1F",
"M@.	c #442F21",
"N@.	c #493224",
"O@.	c #694631",
"P@.	c #855D42",
"Q@.	c #986B4F",
"R@.	c #A17353",
"S@.	c #A27453",
"T@.	c #A27558",
"U@.	c #A07356",
"V@.	c #986B53",
"W@.	c #7B5846",
"X@.	c #1B1A17",
"Y@.	c #161513",
"Z@.	c #282826",
"`@.	c #151412",
" #.	c #454948",
".#.	c #5A6064",
"+#.	c #89999F",
"@#.	c #A3B9C3",
"##.	c #8B9FA3",
"$#.	c #78888E",
"%#.	c #7A8D95",
"&#.	c #535F64",
"*#.	c #303332",
"=#.	c #383B38",
"-#.	c #393A35",
";#.	c #424849",
">#.	c #67727B",
",#.	c #7A8892",
"'#.	c #798D96",
")#.	c #6F8991",
"!#.	c #658288",
"~#.	c #AB9D9A",
"{#.	c #AEA19D",
"]#.	c #B1A3A0",
"^#.	c #B3A5A2",
"/#.	c #BAACA9",
"(#.	c #A89891",
"_#.	c #9C8D88",
":#.	c #8B7C76",
"<#.	c #453F3A",
"[#.	c #6B5C55",
"}#.	c #897974",
"|#.	c #A79B93",
"1#.	c #A7968E",
"2#.	c #96887F",
"3#.	c #907D74",
"4#.	c #62483D",
"5#.	c #6F4C3A",
"6#.	c #986448",
"7#.	c #9D6A4D",
"8#.	c #96664B",
"9#.	c #916146",
"0#.	c #865B42",
"a#.	c #79533A",
"b#.	c #5F3E29",
"c#.	c #543827",
"d#.	c #493122",
"e#.	c #39251A",
"f#.	c #372418",
"g#.	c #442C1D",
"h#.	c #513623",
"i#.	c #523527",
"j#.	c #442A1E",
"k#.	c #4D3125",
"l#.	c #543525",
"m#.	c #6A4734",
"n#.	c #6B4734",
"o#.	c #714C39",
"p#.	c #734D3A",
"q#.	c #825642",
"r#.	c #92654D",
"s#.	c #865A43",
"t#.	c #84563E",
"u#.	c #8C5C46",
"v#.	c #906149",
"w#.	c #9A6950",
"x#.	c #9D684F",
"y#.	c #A06B4E",
"z#.	c #A36E4F",
"A#.	c #A77355",
"B#.	c #AD7A5E",
"C#.	c #AC7859",
"D#.	c #AA785A",
"E#.	c #AA775A",
"F#.	c #A36A50",
"G#.	c #9F6649",
"H#.	c #A16B4E",
"I#.	c #A36F53",
"J#.	c #A27154",
"K#.	c #A06F52",
"L#.	c #946348",
"M#.	c #8B5E41",
"N#.	c #835B41",
"O#.	c #7A533B",
"P#.	c #5E3D2F",
"Q#.	c #654333",
"R#.	c #734F3C",
"S#.	c #73503D",
"T#.	c #644432",
"U#.	c #573C2B",
"V#.	c #4A3222",
"W#.	c #422C1E",
"X#.	c #3F2A1C",
"Y#.	c #3F2B1C",
"Z#.	c #412B1D",
"`#.	c #4D3324",
" $.	c #5C3E2F",
".$.	c #664531",
"+$.	c #835C44",
"@$.	c #94674E",
"#$.	c #9D6F51",
"$$.	c #A17354",
"%$.	c #A07358",
"&$.	c #996D51",
"*$.	c #936A4F",
"=$.	c #684D3A",
"-$.	c #272624",
";$.	c #181916",
">$.	c #242320",
",$.	c #323534",
"'$.	c #545D61",
")$.	c #80929A",
"!$.	c #8EA1AC",
"~$.	c #647379",
"{$.	c #4A5358",
"]$.	c #343B3D",
"^$.	c #383E3B",
"/$.	c #373B37",
"($.	c #353935",
"_$.	c #5D696D",
":$.	c #95A2AC",
"<$.	c #A8BCC5",
"[$.	c #ABC3CA",
"}$.	c #A8C1C8",
"|$.	c #9DBCC4",
"1$.	c #A89A97",
"2$.	c #AEA09D",
"3$.	c #B2A4A1",
"4$.	c #B5A7A4",
"5$.	c #AC9B94",
"6$.	c #968682",
"7$.	c #867770",
"8$.	c #352C27",
"9$.	c #665A54",
"0$.	c #938680",
"a$.	c #8E8179",
"b$.	c #8E7D75",
"c$.	c #96877F",
"d$.	c #8A7A71",
"e$.	c #A26F53",
"f$.	c #9F6C50",
"g$.	c #9A6A4E",
"h$.	c #936448",
"i$.	c #85573E",
"j$.	c #7A5239",
"k$.	c #64412F",
"l$.	c #4C3020",
"m$.	c #452C1D",
"n$.	c #352216",
"o$.	c #462F1F",
"p$.	c #523925",
"q$.	c #3F2918",
"r$.	c #321D10",
"s$.	c #331D12",
"t$.	c #3C251A",
"u$.	c #523426",
"v$.	c #654130",
"w$.	c #774F3C",
"x$.	c #80553F",
"y$.	c #825944",
"z$.	c #7E533F",
"A$.	c #7B4D38",
"B$.	c #865842",
"C$.	c #8D5C45",
"D$.	c #8A5841",
"E$.	c #85533C",
"F$.	c #825139",
"G$.	c #824F38",
"H$.	c #834E39",
"I$.	c #84503B",
"J$.	c #88523D",
"K$.	c #87523D",
"L$.	c #8B5640",
"M$.	c #8E5943",
"N$.	c #915943",
"O$.	c #965C45",
"P$.	c #9A6046",
"Q$.	c #9C654C",
"R$.	c #9B6349",
"S$.	c #955C42",
"T$.	c #8E583E",
"U$.	c #8B553E",
"V$.	c #8C5740",
"W$.	c #8D5841",
"X$.	c #8F5A42",
"Y$.	c #8D5B43",
"Z$.	c #88563E",
"`$.	c #85583E",
" %.	c #80583F",
".%.	c #79523B",
"+%.	c #714835",
"@%.	c #835F49",
"#%.	c #86624A",
"$%.	c #846149",
"%%.	c #76533D",
"&%.	c #654634",
"*%.	c #553928",
"=%.	c #462F21",
"-%.	c #3F291B",
";%.	c #3E2A1D",
">%.	c #442E20",
",%.	c #462C1D",
"'%.	c #5A3C2C",
")%.	c #60412F",
"!%.	c #765038",
"~%.	c #885F43",
"{%.	c #9B6F53",
"]%.	c #9F7255",
"^%.	c #9D7154",
"/%.	c #9D7054",
"(%.	c #9B7054",
"_%.	c #977053",
":%.	c #967055",
"<%.	c #775844",
"[%.	c #30312F",
"}%.	c #21201D",
"|%.	c #3A3C3D",
"1%.	c #61696B",
"2%.	c #91A5A9",
"3%.	c #6B787D",
"4%.	c #5D666A",
"5%.	c #292B2D",
"6%.	c #1F2020",
"7%.	c #323532",
"8%.	c #262723",
"9%.	c #393F3B",
"0%.	c #69797E",
"a%.	c #9CB0B7",
"b%.	c #ADCACE",
"c%.	c #AECED1",
"d%.	c #ADCFD1",
"e%.	c #A6CDD1",
"f%.	c #A59794",
"g%.	c #AD9F9C",
"h%.	c #AFA19E",
"i%.	c #B4A69F",
"j%.	c #938581",
"k%.	c #968780",
"l%.	c #3C2F27",
"m%.	c #413833",
"n%.	c #7C7069",
"o%.	c #9E938A",
"p%.	c #9D8F86",
"q%.	c #907F79",
"r%.	c #94877D",
"s%.	c #9B6E55",
"t%.	c #A27156",
"u%.	c #9F7154",
"v%.	c #996B4F",
"w%.	c #906144",
"x%.	c #7E5038",
"y%.	c #3F2519",
"z%.	c #3D2417",
"A%.	c #402B1D",
"B%.	c #3D271A",
"C%.	c #483220",
"D%.	c #4C331F",
"E%.	c #3D2816",
"F%.	c #382215",
"G%.	c #3E281B",
"H%.	c #603F2D",
"I%.	c #674532",
"J%.	c #6B4835",
"K%.	c #704D3A",
"L%.	c #6A4532",
"M%.	c #6A4431",
"N%.	c #6A402F",
"O%.	c #663C2B",
"P%.	c #5F3424",
"Q%.	c #623627",
"R%.	c #6B3A2B",
"S%.	c #6A3C2B",
"T%.	c #6C3E2D",
"U%.	c #6D3D2C",
"V%.	c #70402E",
"W%.	c #71402D",
"X%.	c #774632",
"Y%.	c #774331",
"Z%.	c #754230",
"`%.	c #713E2D",
" &.	c #703C2B",
".&.	c #754130",
"+&.	c #6E3B2D",
"@&.	c #6D3B2D",
"#&.	c #6C3B2B",
"$&.	c #703E2E",
"%&.	c #764534",
"&&.	c #7A4837",
"*&.	c #7C4A39",
"=&.	c #794838",
"-&.	c #6F4234",
";&.	c #6B3F30",
">&.	c #683D2E",
",&.	c #683E2E",
"'&.	c #663B2B",
")&.	c #6F4231",
"!&.	c #754A39",
"~&.	c #79533D",
"{&.	c #815B44",
"]&.	c #846048",
"^&.	c #7D5A43",
"/&.	c #6B4C38",
"(&.	c #583B29",
"_&.	c #482F21",
":&.	c #462E20",
"<&.	c #3A2719",
"[&.	c #392618",
"}&.	c #412D1F",
"|&.	c #442F1F",
"1&.	c #482E1F",
"2&.	c #523524",
"3&.	c #603F2B",
"4&.	c #6B452F",
"5&.	c #7A5336",
"6&.	c #93674A",
"7&.	c #9C6F52",
"8&.	c #9E7156",
"9&.	c #9B7155",
"0&.	c #9B7357",
"a&.	c #987056",
"b&.	c #956F53",
"c&.	c #916C54",
"d&.	c #15120E",
"e&.	c #201D18",
"f&.	c #1C1914",
"g&.	c #2E2E2C",
"h&.	c #353634",
"i&.	c #1C1A18",
"j&.	c #222222",
"k&.	c #1B1918",
"l&.	c #2B2C28",
"m&.	c #3C4540",
"n&.	c #728387",
"o&.	c #9EB6BB",
"p&.	c #A5C6C8",
"q&.	c #A6CDCF",
"r&.	c #A4CCCE",
"s&.	c #A1CBCF",
"t&.	c #A2958E",
"u&.	c #A4978F",
"v&.	c #A89A93",
"w&.	c #AA9C99",
"x&.	c #B0A29F",
"y&.	c #9E918D",
"z&.	c #6E6058",
"A&.	c #544740",
"B&.	c #443831",
"C&.	c #6E5F58",
"D&.	c #8B7B73",
"E&.	c #988780",
"F&.	c #85756C",
"G&.	c #947B6D",
"H&.	c #9D6F55",
"I&.	c #996C50",
"J&.	c #926449",
"K&.	c #784E37",
"L&.	c #65402C",
"M&.	c #4D2D1F",
"N&.	c #4C3122",
"O&.	c #482E1E",
"P&.	c #4C3323",
"Q&.	c #513825",
"R&.	c #513724",
"S&.	c #4B321F",
"T&.	c #412718",
"U&.	c #3B2114",
"V&.	c #392014",
"W&.	c #3C2216",
"X&.	c #42291B",
"Y&.	c #4F2F22",
"Z&.	c #4D2D20",
"`&.	c #4A2A1D",
" *.	c #47271B",
".*.	c #4A271D",
"+*.	c #4D281E",
"@*.	c #50291F",
"#*.	c #522C1E",
"$*.	c #562E20",
"%*.	c #562F21",
"&*.	c #583122",
"**.	c #5A3122",
"=*.	c #5B3123",
"-*.	c #5C3122",
";*.	c #5F3324",
">*.	c #623326",
",*.	c #603224",
"'*.	c #5E3021",
")*.	c #613327",
"!*.	c #633428",
"~*.	c #67372A",
"{*.	c #67392C",
"]*.	c #623327",
"^*.	c #613227",
"/*.	c #5A2D24",
"(*.	c #5C2E24",
"_*.	c #5F3025",
":*.	c #5F3226",
"<*.	c #613428",
"[*.	c #60392B",
"}*.	c #5C352B",
"|*.	c #5A3329",
"1*.	c #583228",
"2*.	c #573126",
"3*.	c #5A3228",
"4*.	c #593226",
"5*.	c #5C3428",
"6*.	c #5E372A",
"7*.	c #5E3A2A",
"8*.	c #644130",
"9*.	c #4F3426",
"0*.	c #442D1E",
"a*.	c #41271A",
"b*.	c #3B2619",
"c*.	c #392317",
"d*.	c #533724",
"e*.	c #533722",
"f*.	c #593823",
"g*.	c #6D442D",
"h*.	c #86593E",
"i*.	c #95684B",
"j*.	c #9D7053",
"k*.	c #9E7256",
"l*.	c #977257",
"m*.	c #967157",
"n*.	c #674D3A",
"o*.	c #181510",
"p*.	c #1F1A16",
"q*.	c #292724",
"r*.	c #1A1815",
"s*.	c #0D0C0A",
"t*.	c #151413",
"u*.	c #3A3C36",
"v*.	c #3F4C46",
"w*.	c #768E94",
"x*.	c #9DBDC3",
"y*.	c #A3CBCF",
"z*.	c #9ECACD",
"A*.	c #9CCACC",
"B*.	c #99CACB",
"C*.	c #9F928B",
"D*.	c #A2958D",
"E*.	c #A59890",
"F*.	c #AA9C98",
"G*.	c #AC9E99",
"H*.	c #B3A6A3",
"I*.	c #A99D96",
"J*.	c #62574F",
"K*.	c #675C57",
"L*.	c #5F534B",
"M*.	c #33261F",
"N*.	c #342722",
"O*.	c #493A33",
"P*.	c #65544C",
"Q*.	c #7D6E64",
"R*.	c #736155",
"S*.	c #654C3B",
"T*.	c #95684E",
"U*.	c #8E6349",
"V*.	c #805A3E",
"W*.	c #765138",
"X*.	c #694831",
"Y*.	c #64442D",
"Z*.	c #65462E",
"`*.	c #684831",
" =.	c #6E4C34",
".=.	c #704D35",
"+=.	c #6E4A31",
"@=.	c #6A422A",
"#=.	c #623E27",
"$=.	c #603D27",
"%=.	c #613E2A",
"&=.	c #5B3B28",
"*=.	c #593827",
"==.	c #533425",
"-=.	c #503021",
";=.	c #49291D",
">=.	c #47251A",
",=.	c #48261B",
"'=.	c #4E2920",
")=.	c #532A21",
"!=.	c #542B21",
"~=.	c #592F24",
"{=.	c #5F3429",
"]=.	c #5F3028",
"^=.	c #63332C",
"/=.	c #65382D",
"(=.	c #633629",
"_=.	c #67372D",
":=.	c #65342A",
"<=.	c #602F25",
"[=.	c #64352A",
"}=.	c #63302B",
"|=.	c #5C2D25",
"1=.	c #582620",
"2=.	c #5A2720",
"3=.	c #612F27",
"4=.	c #5F2E28",
"5=.	c #64332D",
"6=.	c #65332C",
"7=.	c #66342D",
"8=.	c #663630",
"9=.	c #64352E",
"0=.	c #66382E",
"a=.	c #683A31",
"b=.	c #6B3F37",
"c=.	c #673C34",
"d=.	c #683F37",
"e=.	c #653C34",
"f=.	c #60382F",
"g=.	c #5D342A",
"h=.	c #542E25",
"i=.	c #4C2820",
"j=.	c #46241B",
"k=.	c #3F1E16",
"l=.	c #391B13",
"m=.	c #371912",
"n=.	c #371A12",
"o=.	c #381D13",
"p=.	c #371C12",
"q=.	c #361C11",
"r=.	c #381D11",
"s=.	c #452819",
"t=.	c #492C1C",
"u=.	c #553926",
"v=.	c #583B26",
"w=.	c #583B27",
"x=.	c #553824",
"y=.	c #5A3823",
"z=.	c #774E36",
"A=.	c #8B6145",
"B=.	c #976A4D",
"C=.	c #9C6F53",
"D=.	c #9C7256",
"E=.	c #9A7256",
"F=.	c #987256",
"G=.	c #87664D",
"H=.	c #533E2E",
"I=.	c #1A1715",
"J=.	c #232220",
"K=.	c #424545",
"L=.	c #454946",
"M=.	c #2A2E29",
"N=.	c #374D47",
"O=.	c #75989C",
"P=.	c #96BFC4",
"Q=.	c #97C6C9",
"R=.	c #94C6C8",
"S=.	c #93C6C8",
"T=.	c #9F928A",
"U=.	c #A1948D",
"V=.	c #A49793",
"W=.	c #A69991",
"X=.	c #A99C94",
"Y=.	c #AC9E9B",
"Z=.	c #B0A19E",
"`=.	c #B1A29F",
" -.	c #B3A4A1",
".-.	c #A7978F",
"+-.	c #453834",
"@-.	c #938984",
"#-.	c #867971",
"$-.	c #63554E",
"%-.	c #574A44",
"&-.	c #3D2F2A",
"*-.	c #442F22",
"=-.	c #694C37",
"--.	c #805D44",
";-.	c #856045",
">-.	c #7E5D40",
",-.	c #765538",
"'-.	c #78563A",
")-.	c #7C573D",
"!-.	c #835D41",
"~-.	c #886144",
"{-.	c #885F41",
"]-.	c #8B5E3E",
"^-.	c #8D6143",
"/-.	c #8E6145",
"(-.	c #8F6346",
"_-.	c #8D6245",
":-.	c #8B6245",
"<-.	c #88644A",
"[-.	c #846046",
"}-.	c #825D45",
"|-.	c #7F553F",
"1-.	c #7D513C",
"2-.	c #7C4D3C",
"3-.	c #7C4A3A",
"4-.	c #7E493B",
"5-.	c #7F483B",
"6-.	c #7F483A",
"7-.	c #82493C",
"8-.	c #84463A",
"9-.	c #88483F",
"0-.	c #894A41",
"a-.	c #8D5045",
"b-.	c #8C4F43",
"c-.	c #905245",
"d-.	c #915143",
"e-.	c #8F4F41",
"f-.	c #905042",
"g-.	c #904F44",
"h-.	c #884A3E",
"i-.	c #89493E",
"j-.	c #905149",
"k-.	c #8F5148",
"l-.	c #915249",
"m-.	c #915348",
"n-.	c #8E5045",
"o-.	c #8E5348",
"p-.	c #8D5348",
"q-.	c #90564A",
"r-.	c #93574B",
"s-.	c #92584B",
"t-.	c #92584A",
"u-.	c #8F5848",
"v-.	c #8E5949",
"w-.	c #8C5848",
"x-.	c #885445",
"y-.	c #804F42",
"z-.	c #7E4D40",
"A-.	c #794C3E",
"B-.	c #784C3C",
"C-.	c #744C3B",
"D-.	c #724F3A",
"E-.	c #6E4B38",
"F-.	c #6C4A35",
"G-.	c #6C4A30",
"H-.	c #6E472E",
"I-.	c #714B31",
"J-.	c #714A30",
"K-.	c #6E472D",
"L-.	c #6E482F",
"M-.	c #6B472E",
"N-.	c #6A492F",
"O-.	c #6E4C33",
"P-.	c #795137",
"Q-.	c #885C42",
"R-.	c #987054",
"S-.	c #957056",
"T-.	c #80624D",
"U-.	c #12110E",
"V-.	c #1A1714",
"W-.	c #0E0C09",
"X-.	c #23201E",
"Y-.	c #434446",
"Z-.	c #505656",
"`-.	c #404340",
" ;.	c #2A2F2A",
".;.	c #2A4843",
"+;.	c #578B8C",
"@;.	c #6EA9A9",
"#;.	c #71B0AF",
"$;.	c #73B1B1",
"%;.	c #74B4B2",
"&;.	c #79B6B5",
"*;.	c #998C84",
"=;.	c #9F928D",
"-;.	c #A49691",
";;.	c #A69895",
">;.	c #A99B98",
",;.	c #AB9C99",
"';.	c #AD9E9B",
");.	c #B0A29E",
"!;.	c #A99C93",
"~;.	c #61544E",
"{;.	c #887E78",
"];.	c #786861",
"^;.	c #807370",
"/;.	c #71635D",
"(;.	c #6A5A53",
"_;.	c #5F5247",
":;.	c #524439",
"<;.	c #493C32",
"[;.	c #1F1612",
"};.	c #5B4330",
"|;.	c #88664D",
"1;.	c #8A6248",
"2;.	c #8C6448",
"3;.	c #926549",
"4;.	c #976A49",
"5;.	c #996C4B",
"6;.	c #9A6D4C",
"7;.	c #9C6C4C",
"8;.	c #9D6E4D",
"9;.	c #9D6E4F",
"0;.	c #9D6E51",
"a;.	c #9B6D4E",
"b;.	c #986E51",
"c;.	c #9A6F53",
"d;.	c #996D52",
"e;.	c #9A6D51",
"f;.	c #996A51",
"g;.	c #986850",
"h;.	c #976850",
"i;.	c #94614C",
"j;.	c #945B49",
"k;.	c #945A48",
"l;.	c #955C4A",
"m;.	c #965C4B",
"n;.	c #945848",
"o;.	c #935545",
"p;.	c #955846",
"q;.	c #945644",
"r;.	c #965846",
"s;.	c #9A604E",
"t;.	c #985E4C",
"u;.	c #985C4A",
"v;.	c #975A49",
"w;.	c #985B4B",
"x;.	c #985A4B",
"y;.	c #995A4D",
"z;.	c #975A4A",
"A;.	c #955849",
"B;.	c #955949",
"C;.	c #965B4B",
"D;.	c #955E4C",
"E;.	c #94604B",
"F;.	c #96624C",
"G;.	c #986750",
"H;.	c #986953",
"I;.	c #996B54",
"J;.	c #986A53",
"K;.	c #996C54",
"L;.	c #9B6F56",
"M;.	c #9A7156",
"N;.	c #956C50",
"O;.	c #916A4C",
"P;.	c #91694A",
"Q;.	c #916446",
"R;.	c #906145",
"S;.	c #8A6041",
"T;.	c #855E3E",
"U;.	c #865B3E",
"V;.	c #865C3F",
"W;.	c #8C6546",
"X;.	c #8A6145",
"Y;.	c #7A563E",
"Z;.	c #664935",
"`;.	c #5D4C3F",
" >.	c #1C2023",
".>.	c #1C1916",
"+>.	c #11100C",
"@>.	c #151410",
"#>.	c #252424",
"$>.	c #232121",
"%>.	c #1C1917",
"&>.	c #1E1C1C",
"*>.	c #222120",
"=>.	c #38393B",
"->.	c #424645",
";>.	c #353A36",
">>.	c #232925",
",>.	c #254948",
"'>.	c #367C7C",
")>.	c #3E8884",
"!>.	c #3C8882",
"~>.	c #3B8C85",
"{>.	c #4B9F98",
"]>.	c #55A5A2",
"^>.	c #978A82",
"/>.	c #9A8C85",
"(>.	c #9B8E89",
"_>.	c #9E9189",
":>.	c #A0938B",
"<>.	c #A39590",
"[>.	c #A59693",
"}>.	c #A89996",
"|>.	c #A99A97",
"1>.	c #AD9F9B",
"2>.	c #AA9D96",
"3>.	c #8E807A",
"4>.	c #493F3A",
"5>.	c #594D46",
"6>.	c #7A6E6B",
"7>.	c #80746F",
"8>.	c #786A62",
"9>.	c #625548",
"0>.	c #46382B",
"a>.	c #221815",
"b>.	c #896B57",
"c>.	c #9B7059",
"d>.	c #9B6F57",
"e>.	c #976D54",
"f>.	c #966C51",
"g>.	c #986C51",
"h>.	c #9A6C4D",
"i>.	c #9E6E4E",
"j>.	c #A37251",
"k>.	c #A67554",
"l>.	c #A67555",
"m>.	c #A77756",
"n>.	c #A57656",
"o>.	c #A57756",
"p>.	c #A47658",
"q>.	c #A17458",
"r>.	c #9E7257",
"s>.	c #9E6F55",
"t>.	c #9A6C52",
"u>.	c #996B51",
"v>.	c #986B50",
"w>.	c #98694F",
"x>.	c #9A6650",
"y>.	c #9C6651",
"z>.	c #9C6652",
"A>.	c #9B624F",
"B>.	c #99604D",
"C>.	c #99614D",
"D>.	c #98614D",
"E>.	c #99634E",
"F>.	c #9A6852",
"G>.	c #9B644E",
"H>.	c #98614C",
"I>.	c #975F4B",
"J>.	c #955C49",
"K>.	c #945A47",
"L>.	c #965948",
"M>.	c #965A49",
"N>.	c #96604D",
"O>.	c #996450",
"P>.	c #996650",
"Q>.	c #9A6751",
"R>.	c #9B6F54",
"S>.	c #9E7153",
"T>.	c #9E7055",
"U>.	c #9D7158",
"V>.	c #9D7155",
"W>.	c #9E7157",
"X>.	c #9E7258",
"Y>.	c #9F7257",
"Z>.	c #A17557",
"`>.	c #9E7154",
" ,.	c #915F40",
".,.	c #9C6E4E",
"+,.	c #A07352",
"@,.	c #9F7251",
"#,.	c #9D704F",
"$,.	c #9B6F4E",
"%,.	c #966F4E",
"&,.	c #8E6A4C",
"*,.	c #896850",
"=,.	c #725740",
"-,.	c #4A3422",
";,.	c #412E22",
">,.	c #41382F",
",,.	c #454C51",
"',.	c #5B6A71",
"),.	c #2E373D",
"!,.	c #141313",
"~,.	c #100F0C",
"{,.	c #1C1A19",
"],.	c #5C676D",
"^,.	c #53616A",
"/,.	c #474F57",
"(,.	c #535D63",
"_,.	c #65767D",
":,.	c #788C97",
"<,.	c #738692",
"[,.	c #485454",
"},.	c #2C302D",
"|,.	c #131B19",
"1,.	c #214645",
"2,.	c #2C6E6B",
"3,.	c #2E756F",
"4,.	c #367D78",
"5,.	c #459594",
"6,.	c #55ACAD",
"7,.	c #56AFAE",
"8,.	c #94867F",
"9,.	c #988982",
"0,.	c #9B8E86",
"a,.	c #9D9088",
"b,.	c #A39592",
"c,.	c #A79A94",
"d,.	c #A69994",
"e,.	c #756760",
"f,.	c #403731",
"g,.	c #342F29",
"h,.	c #403834",
"i,.	c #3B302D",
"j,.	c #2E251F",
"k,.	c #161009",
"l,.	c #231916",
"m,.	c #7B604D",
"n,.	c #996F58",
"o,.	c #976D56",
"p,.	c #8F674E",
"q,.	c #91664E",
"r,.	c #8E624A",
"s,.	c #8E624B",
"t,.	c #8C6147",
"u,.	c #8B6246",
"v,.	c #8F664A",
"w,.	c #94694C",
"x,.	c #9B6E50",
"y,.	c #9E7253",
"z,.	c #A27456",
"A,.	c #A07255",
"B,.	c #9A6B51",
"C,.	c #97684E",
"D,.	c #93644A",
"E,.	c #8F6247",
"F,.	c #8C6046",
"G,.	c #8D6147",
"H,.	c #8B5F45",
"I,.	c #8A5D42",
"J,.	c #895B41",
"K,.	c #86583F",
"L,.	c #82543E",
"M,.	c #7B4D36",
"N,.	c #764831",
"O,.	c #744630",
"P,.	c #764932",
"Q,.	c #734A33",
"R,.	c #704731",
"S,.	c #6F4530",
"T,.	c #704331",
"U,.	c #71412F",
"V,.	c #744430",
"W,.	c #794C35",
"X,.	c #7D5139",
"Y,.	c #82563E",
"Z,.	c #865A40",
"`,.	c #8C5D45",
" '.	c #8D5E46",
".'.	c #95684D",
"+'.	c #94684D",
"@'.	c #95694D",
"#'.	c #9D7151",
"$'.	c #9E7355",
"%'.	c #9C7255",
"&'.	c #976F51",
"*'.	c #977055",
"='.	c #977156",
"-'.	c #936F55",
";'.	c #937159",
">'.	c #8E6D58",
",'.	c #8C6D5A",
"''.	c #866B59",
")'.	c #7E6857",
"!'.	c #42382D",
"~'.	c #050504",
"{'.	c #040404",
"]'.	c #0F0A08",
"^'.	c #443026",
"/'.	c #1C1B19",
"('.	c #606E77",
"_'.	c #7A8E96",
":'.	c #6A7A82",
"<'.	c #74848D",
"['.	c #6F8089",
"}'.	c #33393D",
"|'.	c #221F1E",
"1'.	c #575D61",
"2'.	c #8A9FAA",
"3'.	c #8CA1AD",
"4'.	c #8799A6",
"5'.	c #9FB8C4",
"6'.	c #AAC8D7",
"7'.	c #87A4B0",
"8'.	c #354343",
"9'.	c #161818",
"0'.	c #0D1717",
"a'.	c #1B4041",
"b'.	c #23635F",
"c'.	c #377E7C",
"d'.	c #4B9D9E",
"e'.	c #5BB3B5",
"f'.	c #61BBBB",
"g'.	c #58B4AE",
"h'.	c #93857D",
"i'.	c #95877F",
"j'.	c #978A81",
"k'.	c #A0918E",
"l'.	c #A1928E",
"m'.	c #A2948F",
"n'.	c #776963",
"o'.	c #554944",
"p'.	c #221B18",
"q'.	c #1F1A14",
"r'.	c #574E48",
"s'.	c #675244",
"t'.	c #947059",
"u'.	c #946F57",
"v'.	c #926B54",
"w'.	c #8D684E",
"x'.	c #8D664E",
"y'.	c #8F644E",
"z'.	c #895E46",
"A'.	c #815B41",
"B'.	c #7B5940",
"C'.	c #7E5A42",
"D'.	c #856149",
"E'.	c #91684C",
"F'.	c #A67557",
"G'.	c #A47353",
"H'.	c #A47454",
"I'.	c #A37353",
"J'.	c #9E6E4F",
"K'.	c #976A4B",
"L'.	c #916347",
"M'.	c #8B5C42",
"N'.	c #845940",
"O'.	c #7F553D",
"P'.	c #795039",
"Q'.	c #714C36",
"R'.	c #6A4732",
"S'.	c #63402C",
"T'.	c #5E3C28",
"U'.	c #563624",
"V'.	c #543324",
"W'.	c #6C4733",
"X'.	c #704934",
"Y'.	c #794F38",
"Z'.	c #7E553D",
"`'.	c #845C41",
" ).	c #896043",
".).	c #906448",
"+).	c #96694D",
"@).	c #9B6C4E",
"#).	c #9C6F50",
"$).	c #9C6E4F",
"%).	c #996949",
"&).	c #956847",
"*).	c #8B6548",
"=).	c #8A6648",
"-).	c #886448",
";).	c #876349",
">).	c #89664D",
",).	c #88654F",
"').	c #896952",
")).	c #8A6B56",
"!).	c #8C6D58",
"~).	c #8C6C56",
"{).	c #8C6D59",
"]).	c #876A58",
"^).	c #806957",
"/).	c #796555",
"().	c #1F1913",
"_).	c #040403",
":).	c #050503",
"<).	c #060505",
"[).	c #070605",
"}).	c #0B0906",
"|).	c #5C6B73",
"1).	c #879FAB",
"2).	c #7E919A",
"3).	c #6E7D85",
"4).	c #67767E",
"5).	c #42484E",
"6).	c #404345",
"7).	c #92A5AC",
"8).	c #9BB5C0",
"9).	c #9DB8C6",
"0).	c #A7C3D1",
"a).	c #A7C2D5",
"b).	c #75949F",
"c).	c #212E2D",
"d).	c #0A0D0E",
"e).	c #0F1C1C",
"f).	c #215351",
"g).	c #3C8887",
"h).	c #51A8A9",
"i).	c #61BBBC",
"j).	c #65C0C1",
"k).	c #5EBBBA",
"l).	c #54B3A9",
"m).	c #91837A",
"n).	c #93857C",
"o).	c #95877E",
"p).	c #968981",
"q).	c #988A83",
"r).	c #9B8C85",
"s).	c #9D8E87",
"t).	c #9F9089",
"u).	c #A0928A",
"v).	c #A1948C",
"w).	c #A59892",
"x).	c #A39491",
"y).	c #897B76",
"z).	c #423731",
"A).	c #473D38",
"B).	c #3B312D",
"C).	c #322C25",
"D).	c #3C342C",
"E).	c #504238",
"F).	c #8C6A54",
"G).	c #8B6850",
"H).	c #8C6750",
"I).	c #88634A",
"J).	c #8A634C",
"K).	c #8A614B",
"L).	c #8A6249",
"M).	c #8D6249",
"N).	c #865D44",
"O).	c #7D5840",
"P).	c #7C573E",
"Q).	c #856148",
"R).	c #846045",
"S).	c #91694E",
"T).	c #9A6E53",
"U).	c #A17358",
"V).	c #A47458",
"W).	c #A47253",
"X).	c #A47250",
"Y).	c #A57453",
"Z).	c #8C5C42",
"`).	c #84563C",
" !.	c #7E5037",
".!.	c #734B32",
"+!.	c #68432D",
"@!.	c #5F3C26",
"#!.	c #5B3A25",
"$!.	c #553624",
"%!.	c #543427",
"&!.	c #533326",
"*!.	c #623D2A",
"=!.	c #6E442E",
"-!.	c #764A32",
";!.	c #7D5138",
">!.	c #885B42",
",!.	c #9C6F4E",
"'!.	c #A17351",
")!.	c #A37554",
"!!.	c #A47554",
"~!.	c #A07251",
"{!.	c #9B704E",
"]!.	c #966D4E",
"^!.	c #8E694A",
"/!.	c #8D694D",
"(!.	c #89664A",
"_!.	c #87644B",
":!.	c #88644D",
"<!.	c #87654F",
"[!.	c #86654F",
"}!.	c #896954",
"|!.	c #896A55",
"1!.	c #886955",
"2!.	c #856955",
"3!.	c #826856",
"4!.	c #796655",
"5!.	c #060604",
"6!.	c #080705",
"7!.	c #2B2B2B",
"8!.	c #5E6B73",
"9!.	c #8199A3",
"0!.	c #8898A4",
"a!.	c #8AA2AD",
"b!.	c #7C8C96",
"c!.	c #7E9099",
"d!.	c #5C6D74",
"e!.	c #4F5659",
"f!.	c #666E74",
"g!.	c #A3BCC6",
"h!.	c #B2D2DF",
"i!.	c #B6D7E5",
"j!.	c #A5C6D7",
"k!.	c #628187",
"l!.	c #121818",
"m!.	c #070C0C",
"n!.	c #1A3E3E",
"o!.	c #41868A",
"p!.	c #57AFB1",
"q!.	c #65BFC0",
"r!.	c #66C1C2",
"s!.	c #63BFBF",
"t!.	c #5AB8B2",
"u!.	c #52AFA5",
"v!.	c #8F8178",
"w!.	c #92847B",
"x!.	c #94867E",
"y!.	c #968883",
"z!.	c #978A83",
"A!.	c #998B83",
"B!.	c #9B8D86",
"C!.	c #A0928D",
"D!.	c #A0928F",
"E!.	c #A49692",
"F!.	c #A1918B",
"G!.	c #7D6E6A",
"H!.	c #615552",
"I!.	c #372D29",
"J!.	c #251F19",
"K!.	c #221C15",
"L!.	c #795D49",
"M!.	c #8C6952",
"N!.	c #86624C",
"O!.	c #86624B",
"P!.	c #88614C",
"Q!.	c #8A634B",
"R!.	c #8E654C",
"S!.	c #895F46",
"T!.	c #855F45",
"U!.	c #876249",
"V!.	c #905B3D",
"W!.	c #986645",
"X!.	c #A57351",
"Y!.	c #A67655",
"Z!.	c #A17152",
"`!.	c #996B4D",
" ~.	c #936548",
".~.	c #8C5E42",
"+~.	c #885940",
"@~.	c #784C36",
"#~.	c #704831",
"$~.	c #6C4632",
"%~.	c #6B4733",
"&~.	c #704A36",
"*~.	c #704933",
"=~.	c #744B34",
"-~.	c #7B543A",
";~.	c #82563B",
">~.	c #8A5D41",
",~.	c #946749",
"'~.	c #996C4D",
")~.	c #9D704E",
"!~.	c #A07250",
"~~.	c #A27452",
"{~.	c #A47654",
"]~.	c #A37553",
"^~.	c #A47352",
"/~.	c #9A7251",
"(~.	c #967053",
"_~.	c #936F53",
":~.	c #8E6A4E",
"<~.	c #8B674C",
"[~.	c #89664C",
"}~.	c #88644C",
"|~.	c #856550",
"1~.	c #876752",
"2~.	c #876753",
"3~.	c #876854",
"4~.	c #826652",
"5~.	c #816754",
"6~.	c #7C6554",
"7~.	c #786556",
"8~.	c #625044",
"9~.	c #0D0A07",
"0~.	c #080806",
"a~.	c #090806",
"b~.	c #120F0C",
"c~.	c #2D2B2C",
"d~.	c #73848D",
"e~.	c #9CB8C4",
"f~.	c #93AAB9",
"g~.	c #8BA3AF",
"h~.	c #90A3AE",
"i~.	c #7A878E",
"j~.	c #8298A0",
"k~.	c #5D676B",
"l~.	c #6E7C84",
"m~.	c #899EAA",
"n~.	c #ACC7D3",
"o~.	c #B4D4E1",
"p~.	c #9EBECF",
"q~.	c #4D6B6D",
"r~.	c #0A0E0F",
"s~.	c #091616",
"t~.	c #316B6D",
"u~.	c #58AAB2",
"v~.	c #68C0C4",
"w~.	c #69C3C4",
"x~.	c #60BDBC",
"y~.	c #58B4AB",
"z~.	c #4CAEA1",
"A~.	c #8F8077",
"B~.	c #908279",
"C~.	c #93837B",
"D~.	c #93837C",
"E~.	c #95867F",
"F~.	c #958883",
"G~.	c #978982",
"H~.	c #9A8D85",
"I~.	c #9E918A",
"J~.	c #92837D",
"K~.	c #574A43",
"L~.	c #302A22",
"M~.	c #332E25",
"N~.	c #554035",
"O~.	c #86644E",
"P~.	c #815E49",
"Q~.	c #7D5B45",
"R~.	c #815C46",
"S~.	c #87614A",
"T~.	c #8C644B",
"U~.	c #8E664C",
"V~.	c #8B6249",
"W~.	c #8B634A",
"X~.	c #8D664C",
"Y~.	c #8A654C",
"Z~.	c #87634B",
"`~.	c #8F6B51",
" {.	c #9B765A",
".{.	c #A1795D",
"+{.	c #9F7559",
"@{.	c #A27155",
"#{.	c #A8795A",
"${.	c #A87857",
"%{.	c #A77655",
"&{.	c #A67756",
"*{.	c #A27252",
"={.	c #9D6D4D",
"-{.	c #966447",
";{.	c #915F42",
">{.	c #8C5C43",
",{.	c #7F563C",
"'{.	c #845842",
"){.	c #855941",
"!{.	c #895A41",
"~{.	c #8E6046",
"{{.	c #9A6A4C",
"]{.	c #9C6B4C",
"^{.	c #9E6F4E",
"/{.	c #A07150",
"({.	c #A27451",
"_{.	c #9F7253",
":{.	c #9B7252",
"<{.	c #957254",
"[{.	c #8E6E54",
"}{.	c #8F6C52",
"|{.	c #8C6A50",
"1{.	c #8B694F",
"2{.	c #87644C",
"3{.	c #85624C",
"4{.	c #84644F",
"5{.	c #83634F",
"6{.	c #866955",
"7{.	c #7E644F",
"8{.	c #7D6753",
"9{.	c #766252",
"0{.	c #756253",
"a{.	c #5E4E42",
"b{.	c #0A0A06",
"c{.	c #070804",
"d{.	c #050603",
"e{.	c #070604",
"f{.	c #0B0907",
"g{.	c #181411",
"h{.	c #282626",
"i{.	c #7D909B",
"j{.	c #95B3C0",
"k{.	c #A7C5D2",
"l{.	c #93A7B4",
"m{.	c #91A5B1",
"n{.	c #798995",
"o{.	c #81939B",
"p{.	c #4D575E",
"q{.	c #82929C",
"r{.	c #A9C6D5",
"s{.	c #97ADBC",
"t{.	c #ACC7D4",
"u{.	c #90B0C0",
"v{.	c #384F52",
"w{.	c #070B0C",
"x{.	c #112726",
"y{.	c #438689",
"z{.	c #66B7BC",
"A{.	c #68C2C4",
"B{.	c #66C2C3",
"C{.	c #62C0C0",
"D{.	c #5BBBB6",
"E{.	c #4EB3A5",
"F{.	c #46AB9C",
"G{.	c #8E7E76",
"H{.	c #908178",
"I{.	c #91827B",
"J{.	c #91837C",
"K{.	c #93857E",
"L{.	c #94877F",
"M{.	c #978981",
"N{.	c #9C8E87",
"O{.	c #786963",
"P{.	c #3E372E",
"Q{.	c #17110D",
"R{.	c #302722",
"S{.	c #3F332D",
"T{.	c #251E17",
"U{.	c #745644",
"V{.	c #795845",
"W{.	c #795844",
"X{.	c #7A5843",
"Y{.	c #805C47",
"Z{.	c #856049",
"`{.	c #90684E",
" ].	c #8D654B",
".].	c #8B6148",
"+].	c #8E644B",
"@].	c #8E6950",
"#].	c #8C6850",
"$].	c #916B51",
"%].	c #957155",
"&].	c #9A7258",
"*].	c #9F7459",
"=].	c #A2745A",
"-].	c #AA795C",
";].	c #AD7C5C",
">].	c #B1805F",
",].	c #AC7959",
"'].	c #AF7C5C",
")].	c #B07E5E",
"!].	c #B28161",
"~].	c #B07C5D",
"{].	c #AB7657",
"]].	c #A57158",
"^].	c #9B6B55",
"/].	c #9E6D57",
"(].	c #A37357",
"_].	c #A47357",
":].	c #A7765B",
"<].	c #A8795B",
"[].	c #A77857",
"}].	c #A77958",
"|].	c #A67856",
"1].	c #A57755",
"2].	c #A57753",
"3].	c #A37551",
"4].	c #A17451",
"5].	c #996E4F",
"6].	c #956F51",
"7].	c #8F6E53",
"8].	c #88694F",
"9].	c #886A52",
"0].	c #886952",
"a].	c #8B6951",
"b].	c #8A684F",
"c].	c #86634A",
"d].	c #86644C",
"e].	c #84634D",
"f].	c #81624D",
"g].	c #836450",
"h].	c #806550",
"i].	c #7E6551",
"j].	c #77634E",
"k].	c #735F4F",
"l].	c #776153",
"m].	c #5D4C40",
"n].	c #080704",
"o].	c #060603",
"p].	c #070705",
"q].	c #424648",
"r].	c #8198A3",
"s].	c #98B2C2",
"t].	c #A7C4D1",
"u].	c #97ADBD",
"v].	c #788690",
"w].	c #8EA4AC",
"x].	c #81979E",
"y].	c #424C56",
"z].	c #899CA8",
"A].	c #ACC6D3",
"B].	c #B3D1DE",
"C].	c #A0B8CA",
"D].	c #7F9BA9",
"E].	c #233535",
"F].	c #060B0B",
"G].	c #183B39",
"H].	c #499598",
"I].	c #64BDBF",
"J].	c #67C2C3",
"K].	c #63C1C2",
"L].	c #60BFBE",
"M].	c #54B8B0",
"N].	c #49AE9E",
"O].	c #46A698",
"P].	c #8E8077",
"Q].	c #8F8079",
"R].	c #90817A",
"S].	c #91837B",
"T].	c #92857D",
"U].	c #93867E",
"V].	c #958880",
"W].	c #988B83",
"X].	c #5C524A",
"Y].	c #322921",
"Z].	c #453729",
"`].	c #71533F",
" ^.	c #704F3D",
".^.	c #735340",
"+^.	c #795944",
"@^.	c #7B5945",
"#^.	c #88624B",
"$^.	c #8C664C",
"%^.	c #8C664D",
"&^.	c #906A50",
"*^.	c #926D54",
"=^.	c #906C54",
"-^.	c #956F56",
";^.	c #966F55",
">^.	c #9F755B",
",^.	c #A87A60",
"'^.	c #AD7F61",
")^.	c #B88666",
"!^.	c #B78668",
"~^.	c #BB886A",
"{^.	c #BE8B6C",
"]^.	c #C18E71",
"^^.	c #B8856B",
"/^.	c #B48169",
"(^.	c #B07E65",
"_^.	c #AE7E66",
":^.	c #AB7C62",
"<^.	c #AD7E63",
"[^.	c #B07F64",
"}^.	c #AF7D5E",
"|^.	c #AD7E5D",
"1^.	c #A97B5A",
"2^.	c #AB7D5C",
"3^.	c #AC7B5B",
"4^.	c #AA7958",
"5^.	c #AB7C5B",
"6^.	c #AA7C5A",
"7^.	c #A77955",
"8^.	c #A47957",
"9^.	c #A27755",
"0^.	c #996E50",
"a^.	c #946F51",
"b^.	c #8C6C50",
"c^.	c #86674E",
"d^.	c #84664E",
"e^.	c #866750",
"f^.	c #886751",
"g^.	c #8A6751",
"h^.	c #896751",
"i^.	c #85664F",
"j^.	c #82654E",
"k^.	c #826550",
"l^.	c #7D614C",
"m^.	c #7E6550",
"n^.	c #7B634F",
"o^.	c #78624E",
"p^.	c #756050",
"q^.	c #745F4F",
"r^.	c #816559",
"s^.	c #5D4940",
"t^.	c #050602",
"u^.	c #1F1C18",
"v^.	c #3F4244",
"w^.	c #8197A1",
"x^.	c #8BA6B3",
"y^.	c #8CA2B0",
"z^.	c #8DA4B4",
"A^.	c #778A96",
"B^.	c #5A646B",
"C^.	c #5D6D70",
"D^.	c #616A76",
"E^.	c #9AB1BD",
"F^.	c #A2BCCA",
"G^.	c #A5C4D2",
"H^.	c #9CB8C9",
"I^.	c #647E87",
"J^.	c #17211F",
"K^.	c #060B0C",
"L^.	c #224E4E",
"M^.	c #52A0A5",
"N^.	c #65C1C4",
"O^.	c #5DBDBC",
"P^.	c #4FB3AA",
"Q^.	c #47A899",
"R^.	c #40A190",
"S^.	c #8E7F76",
"T^.	c #8E7F77",
"U^.	c #8D7E77",
"V^.	c #8E7F78",
"W^.	c #8F827A",
"X^.	c #90827A",
"Y^.	c #92837C",
"Z^.	c #9B8D85",
"`^.	c #9C8F88",
" /.	c #81726B",
"./.	c #4C3E34",
"+/.	c #382D26",
"@/.	c #0E0C07",
"#/.	c #13100C",
"$/.	c #2B211D",
"%/.	c #15120B",
"&/.	c #584334",
"*/.	c #6A4D3C",
"=/.	c #664A37",
"-/.	c #6E503C",
";/.	c #755340",
">/.	c #815D48",
",/.	c #845F45",
"'/.	c #876248",
")/.	c #8E694E",
"!/.	c #8C684F",
"~/.	c #936C53",
"{/.	c #916D53",
"]/.	c #9B765B",
"^/.	c #A67B60",
"//.	c #B68767",
"(/.	c #B98868",
"_/.	c #BB8A6D",
":/.	c #BB8A6C",
"</.	c #BE8C6E",
"[/.	c #C18E73",
"}/.	c #C39176",
"|/.	c #C28E73",
"1/.	c #C18E76",
"2/.	c #BC8A71",
"3/.	c #B48269",
"4/.	c #AF7F65",
"5/.	c #AC7D63",
"6/.	c #AF8066",
"7/.	c #B28468",
"8/.	c #B38263",
"9/.	c #AD7F5D",
"0/.	c #AC7C5B",
"a/.	c #AC7E5C",
"b/.	c #A87D5A",
"c/.	c #A57C5B",
"d/.	c #A07858",
"e/.	c #977356",
"f/.	c #937156",
"g/.	c #907055",
"h/.	c #87694F",
"i/.	c #856850",
"j/.	c #876852",
"k/.	c #896953",
"l/.	c #8A6A53",
"m/.	c #876750",
"n/.	c #83644C",
"o/.	c #7F654D",
"p/.	c #7E634E",
"q/.	c #7B604B",
"r/.	c #77604B",
"s/.	c #6F5D4B",
"t/.	c #6E5C4B",
"u/.	c #705C4E",
"v/.	c #806559",
"w/.	c #86675C",
"x/.	c #59493E",
"y/.	c #090805",
"z/.	c #13110C",
"A/.	c #221F1A",
"B/.	c #484948",
"C/.	c #5D6A6B",
"D/.	c #5F7172",
"E/.	c #637377",
"F/.	c #65747A",
"G/.	c #627276",
"H/.	c #636E74",
"I/.	c #606E71",
"J/.	c #6F7C81",
"K/.	c #748A8E",
"L/.	c #799195",
"M/.	c #7F9399",
"N/.	c #738A90",
"O/.	c #3C4E50",
"P/.	c #080D0B",
"Q/.	c #080F0F",
"R/.	c #2D6163",
"S/.	c #58A8AE",
"T/.	c #65C0C2",
"U/.	c #62C0C1",
"V/.	c #57BAB6",
"W/.	c #48ADA1",
"X/.	c #42A394",
"Y/.	c #409D8D",
"Z/.	c #8D7C74",
"`/.	c #8D7E75",
" (.	c #8C7D75",
".(.	c #8D7D76",
"+(.	c #91847C",
"@(.	c #968983",
"#(.	c #988B85",
"$(.	c #9A8D86",
"%(.	c #897971",
"&(.	c #58463F",
"*(.	c #3B2F27",
"=(.	c #17130E",
"-(.	c #13120E",
";(.	c #191511",
">(.	c #362F2B",
",(.	c #14110B",
"'(.	c #2A2219",
")(.	c #664C3D",
"!(.	c #604432",
"~(.	c #614633",
"{(.	c #674C38",
"](.	c #6B4E39",
"^(.	c #77533B",
"/(.	c #815D43",
"((.	c #886349",
"_(.	c #8A6548",
":(.	c #88674D",
"<(.	c #8A6851",
"[(.	c #906B57",
"}(.	c #926D55",
"|(.	c #8F6C53",
"1(.	c #9B775D",
"2(.	c #A87F65",
"3(.	c #AD8063",
"4(.	c #B18364",
"5(.	c #B38465",
"6(.	c #B88B6E",
"7(.	c #BA8B6F",
"8(.	c #BC8B71",
"9(.	c #C08F74",
"0(.	c #BA886F",
"a(.	c #B28066",
"b(.	c #AD7D63",
"c(.	c #A97A60",
"d(.	c #A7795F",
"e(.	c #A7775D",
"f(.	c #AE7C5F",
"g(.	c #AF7E5E",
"h(.	c #AF8160",
"i(.	c #A57454",
"j(.	c #A67758",
"k(.	c #A67657",
"l(.	c #A97958",
"m(.	c #AC7E5D",
"n(.	c #A67D5B",
"o(.	c #9F795C",
"p(.	c #9E785A",
"q(.	c #937054",
"r(.	c #937157",
"s(.	c #92735B",
"t(.	c #8D7058",
"u(.	c #8A6E58",
"v(.	c #8A6C57",
"w(.	c #866852",
"x(.	c #81654E",
"y(.	c #7A5F49",
"z(.	c #795E49",
"A(.	c #785F4A",
"B(.	c #725E4A",
"C(.	c #6A5A49",
"D(.	c #695848",
"E(.	c #775F51",
"F(.	c #8A6A5E",
"G(.	c #896B5E",
"H(.	c #56463A",
"I(.	c #060703",
"J(.	c #3A3B37",
"K(.	c #3F403C",
"L(.	c #2E2F2D",
"M(.	c #2C2E2E",
"N(.	c #2A2D2C",
"O(.	c #313535",
"P(.	c #36393B",
"Q(.	c #333434",
"R(.	c #3B3D3B",
"S(.	c #3A3C3A",
"T(.	c #353838",
"U(.	c #363C3B",
"V(.	c #393F3C",
"W(.	c #1B1D1C",
"X(.	c #040808",
"Y(.	c #071514",
"Z(.	c #357176",
"`(.	c #5CAFB6",
" _.	c #63BFC2",
"._.	c #60BEBE",
"+_.	c #51B3B0",
"@_.	c #43A699",
"#_.	c #3EA08F",
"$_.	c #3C998A",
"%_.	c #8B7C74",
"&_.	c #8D7C75",
"*_.	c #8C7D76",
"=_.	c #92847D",
"-_.	c #948780",
";_.	c #958881",
">_.	c #978980",
",_.	c #7B6962",
"'_.	c #2E2926",
")_.	c #443A37",
"!_.	c #4F463F",
"~_.	c #2D2521",
"{_.	c #4E4640",
"]_.	c #241B15",
"^_.	c #856454",
"/_.	c #6C4C3A",
"(_.	c #573E2B",
"__.	c #5A422E",
":_.	c #624834",
"<_.	c #694B36",
"[_.	c #72503B",
"}_.	c #7A5840",
"|_.	c #7C5C44",
"1_.	c #7B5D47",
"2_.	c #7E5E4A",
"3_.	c #876450",
"4_.	c #96725C",
"5_.	c #98735B",
"6_.	c #A67E65",
"7_.	c #A57D63",
"8_.	c #A57A61",
"9_.	c #A97C62",
"0_.	c #AA7B60",
"a_.	c #AD8165",
"b_.	c #B1856A",
"c_.	c #B08469",
"d_.	c #B18369",
"e_.	c #AC7C63",
"f_.	c #AA795E",
"g_.	c #A2745B",
"h_.	c #9F7159",
"i_.	c #A37356",
"j_.	c #A57658",
"k_.	c #A07051",
"l_.	c #A47659",
"m_.	c #A37759",
"n_.	c #A97C5D",
"o_.	c #A57C5E",
"p_.	c #9E7252",
"q_.	c #9C765A",
"r_.	c #9C775C",
"s_.	c #947257",
"t_.	c #8D6D54",
"u_.	c #8D6F57",
"v_.	c #876A53",
"w_.	c #876B55",
"x_.	c #886C57",
"y_.	c #876A55",
"z_.	c #866953",
"A_.	c #846852",
"B_.	c #7F644D",
"C_.	c #7B614B",
"D_.	c #765D47",
"E_.	c #6A5644",
"F_.	c #645443",
"G_.	c #675747",
"H_.	c #6E5B4B",
"I_.	c #8A6B5E",
"J_.	c #8B6A5E",
"K_.	c #8B6C5F",
"L_.	c #080805",
"M_.	c #191713",
"N_.	c #272622",
"O_.	c #353631",
"P_.	c #3D3E3A",
"Q_.	c #3A3E40",
"R_.	c #444D55",
"S_.	c #455159",
"T_.	c #465259",
"U_.	c #424F55",
"V_.	c #445054",
"W_.	c #454F52",
"X_.	c #495254",
"Y_.	c #434A4D",
"Z_.	c #414548",
"`_.	c #2A2E31",
" :.	c #1B1F1E",
".:.	c #030708",
"+:.	c #0B2324",
"@:.	c #387F87",
"#:.	c #58B3BA",
"$:.	c #5EBEC2",
"%:.	c #62BFC1",
"&:.	c #5BBBBB",
"*:.	c #49AFA8",
"=:.	c #3FA193",
"-:.	c #3A9B8C",
";:.	c #389687",
">:.	c #8C7B73",
",:.	c #8B7A71",
"':.	c #8C7C73",
"):.	c #8B7C75",
"!:.	c #8C7E75",
"~:.	c #8F7E76",
"{:.	c #8F7F77",
"]:.	c #8F8078",
"^:.	c #93847D",
"/:.	c #958780",
"(:.	c #8B7C73",
"_:.	c #635249",
"::.	c #41332B",
"<:.	c #17110F",
"[:.	c #615551",
"}:.	c #564C45",
"|:.	c #3A312E",
"1:.	c #8A6756",
"2:.	c #956B57",
"3:.	c #694A38",
"4:.	c #573D2B",
"5:.	c #5A3F30",
"6:.	c #5C4231",
"7:.	c #634834",
"8:.	c #6E503B",
"9:.	c #735641",
"0:.	c #745742",
"a:.	c #7C5B48",
"b:.	c #906D58",
"c:.	c #9B765E",
"d:.	c #A27A60",
"e:.	c #9D755D",
"f:.	c #9D755B",
"g:.	c #9F7359",
"h:.	c #A2745D",
"i:.	c #A5765F",
"j:.	c #A77860",
"k:.	c #A5775D",
"l:.	c #996C55",
"m:.	c #926850",
"n:.	c #946850",
"o:.	c #9A6E52",
"p:.	c #9C7154",
"q:.	c #A07558",
"r:.	c #A37A5B",
"s:.	c #9E775A",
"t:.	c #9A7459",
"u:.	c #977559",
"v:.	c #937258",
"w:.	c #95735B",
"x:.	c #8C6F56",
"y:.	c #8C7059",
"z:.	c #886C56",
"A:.	c #856C55",
"B:.	c #856A54",
"C:.	c #7E654D",
"D:.	c #7D644D",
"E:.	c #785E49",
"F:.	c #715B47",
"G:.	c #6A5645",
"H:.	c #635143",
"I:.	c #5F4E3F",
"J:.	c #685646",
"K:.	c #85685B",
"L:.	c #8F6F60",
"M:.	c #8F6E61",
"N:.	c #8D6E61",
"O:.	c #59473C",
"P:.	c #0B0A07",
"Q:.	c #0C0B08",
"R:.	c #232526",
"S:.	c #343839",
"T:.	c #1B1B15",
"U:.	c #2D2D2A",
"V:.	c #30302E",
"W:.	c #424544",
"X:.	c #55636B",
"Y:.	c #627385",
"Z:.	c #677B8C",
"`:.	c #677B8D",
" <.	c #667A8B",
".<.	c #647A88",
"+<.	c #667987",
"@<.	c #647986",
"#<.	c #64727F",
"$<.	c #5E6C79",
"%<.	c #35444C",
"&<.	c #0B1313",
"*<.	c #030A0A",
"=<.	c #153A3D",
"-<.	c #43919B",
";<.	c #59B6C0",
"><.	c #59BDC1",
",<.	c #5CBCC0",
"'<.	c #56B3B4",
")<.	c #42A599",
"!<.	c #3B978A",
"~<.	c #389183",
"{<.	c #368B7D",
"]<.	c #8B7A72",
"^<.	c #8A7C73",
"/<.	c #8F7F76",
"(<.	c #91817A",
"_<.	c #91847B",
":<.	c #91827A",
"<<.	c #94867D",
"[<.	c #84746D",
"}<.	c #5A4941",
"|<.	c #30251E",
"1<.	c #2F2A25",
"2<.	c #0D0905",
"3<.	c #8C6958",
"4<.	c #9F745F",
"5<.	c #956D58",
"6<.	c #745141",
"7<.	c #563B2C",
"8<.	c #573E2D",
"9<.	c #614634",
"0<.	c #654B39",
"a<.	c #6E543F",
"b<.	c #765A44",
"c<.	c #8A6954",
"d<.	c #98735C",
"e<.	c #9D755A",
"f<.	c #987259",
"g<.	c #9A7259",
"h<.	c #9C6E57",
"i<.	c #996E57",
"j<.	c #9A6F57",
"k<.	c #9C7058",
"l<.	c #966D55",
"m<.	c #92664F",
"n<.	c #8F654D",
"o<.	c #8B644C",
"p<.	c #865F48",
"q<.	c #88614A",
"r<.	c #8D654C",
"s<.	c #92684F",
"t<.	c #90654B",
"u<.	c #8F674D",
"v<.	c #926A52",
"w<.	c #967054",
"x<.	c #976E53",
"y<.	c #957257",
"z<.	c #957156",
"A<.	c #967258",
"B<.	c #937158",
"C<.	c #8F7056",
"D<.	c #8F7058",
"E<.	c #8A6D56",
"F<.	c #836C54",
"G<.	c #7F6951",
"H<.	c #826A52",
"I<.	c #816851",
"J<.	c #7A6149",
"K<.	c #785E48",
"L<.	c #6E5742",
"M<.	c #655241",
"N<.	c #614F41",
"O<.	c #5F4E41",
"P<.	c #796153",
"Q<.	c #8C6D5E",
"R<.	c #917260",
"S<.	c #927362",
"T<.	c #5A4A3D",
"U<.	c #1E1E20",
"V<.	c #4F5A5F",
"W<.	c #242520",
"X<.	c #2F2F2C",
"Y<.	c #232523",
"Z<.	c #3F4A4E",
"`<.	c #627480",
" [.	c #708A98",
".[.	c #7794A0",
"+[.	c #7995A2",
"@[.	c #7994A2",
"#[.	c #7A94A2",
"$[.	c #778E9A",
"%[.	c #6E8390",
"&[.	c #3E5159",
"*[.	c #091312",
"=[.	c #050E10",
"-[.	c #1E575C",
";[.	c #4FA6B4",
">[.	c #63BFCA",
",[.	c #5CBFC7",
"'[.	c #57BCC4",
")[.	c #49A6A9",
"![.	c #2C8277",
"~[.	c #287063",
"{[.	c #246A5C",
"][.	c #246259",
"^[.	c #8C7B71",
"/[.	c #8A7B72",
"([.	c #8B7D74",
"_[.	c #8D7F76",
":[.	c #908078",
"<[.	c #918178",
"[[.	c #887970",
"}[.	c #695C52",
"|[.	c #433831",
"1[.	c #130F0A",
"2[.	c #8F6D5A",
"3[.	c #A27963",
"4[.	c #9D745F",
"5[.	c #976B58",
"6[.	c #7A5645",
"7[.	c #573B2C",
"8[.	c #513826",
"9[.	c #533A2A",
"0[.	c #543E2E",
"a[.	c #54402F",
"b[.	c #584432",
"c[.	c #664E3C",
"d[.	c #7C5D48",
"e[.	c #8A694F",
"f[.	c #85684F",
"g[.	c #8A644E",
"h[.	c #8B684F",
"i[.	c #8B644D",
"j[.	c #8C634A",
"k[.	c #866148",
"l[.	c #7F5B46",
"m[.	c #7C5A45",
"n[.	c #7A5643",
"o[.	c #7E5A44",
"p[.	c #815D45",
"q[.	c #815C43",
"r[.	c #845D45",
"s[.	c #886248",
"t[.	c #90684F",
"u[.	c #8E6C54",
"v[.	c #8F6851",
"w[.	c #8A6650",
"x[.	c #8E6B51",
"y[.	c #906D53",
"z[.	c #876B54",
"A[.	c #896D56",
"B[.	c #88705A",
"C[.	c #806C54",
"D[.	c #7B674F",
"E[.	c #79644C",
"F[.	c #7C644E",
"G[.	c #755C47",
"H[.	c #725A44",
"I[.	c #6D5541",
"J[.	c #65503E",
"K[.	c #5E4C3D",
"L[.	c #5D4A3C",
"M[.	c #604D41",
"N[.	c #705B4E",
"O[.	c #856959",
"P[.	c #8A6A59",
"Q[.	c #927361",
"R[.	c #937362",
"S[.	c #90705F",
"T[.	c #5C4C3F",
"U[.	c #141310",
"V[.	c #363B3C",
"W[.	c #434D51",
"X[.	c #546366",
"Y[.	c #191716",
"Z[.	c #303431",
"`[.	c #2D2E2B",
" }.	c #1E2120",
".}.	c #415056",
"+}.	c #637C88",
"@}.	c #738E9A",
"#}.	c #7895A1",
"$}.	c #7996A2",
"%}.	c #7996A4",
"&}.	c #7B97A4",
"*}.	c #7C98A4",
"=}.	c #7B97A3",
"-}.	c #7A94A1",
";}.	c #6A828F",
">}.	c #33474D",
",}.	c #061110",
"'}.	c #051515",
")}.	c #296B73",
"!}.	c #58B0BE",
"~}.	c #65C3CF",
"{}.	c #63C5CE",
"]}.	c #5CBEC9",
"^}.	c #3C9BA0",
"/}.	c #1A5554",
"(}.	c #103734",
"_}.	c #0F2F2C",
":}.	c #112E2B",
"<}.	c #8D7C72",
"[}.	c #8D7B71",
"}}.	c #897B72",
"|}.	c #907F77",
"1}.	c #8F8179",
"2}.	c #90837A",
"3}.	c #8D7E76",
"4}.	c #84756D",
"5}.	c #6E615C",
"6}.	c #584A44",
"7}.	c #3D332D",
"8}.	c #2A231F",
"9}.	c #251D1B",
"0}.	c #39302E",
"a}.	c #443B35",
"b}.	c #544841",
"c}.	c #987565",
"d}.	c #A87C66",
"e}.	c #A77A64",
"f}.	c #9E715C",
"g}.	c #8F6652",
"h}.	c #6E4F3C",
"i}.	c #503725",
"j}.	c #513A2A",
"k}.	c #4A3727",
"l}.	c #4A3929",
"m}.	c #4F3E2E",
"n}.	c #604A39",
"o}.	c #725741",
"p}.	c #725943",
"q}.	c #725742",
"r}.	c #745641",
"s}.	c #7B5C44",
"t}.	c #7F5D44",
"u}.	c #805C46",
"v}.	c #7E5C44",
"w}.	c #7E5A41",
"x}.	c #7C5841",
"y}.	c #795640",
"z}.	c #76553F",
"A}.	c #73523D",
"B}.	c #70503B",
"C}.	c #6E4F3B",
"D}.	c #71513C",
"E}.	c #72523D",
"F}.	c #7C5943",
"G}.	c #825C44",
"H}.	c #89634B",
"I}.	c #7C5D45",
"J}.	c #80624A",
"K}.	c #86674F",
"L}.	c #826853",
"M}.	c #7A644F",
"N}.	c #7E6954",
"O}.	c #796554",
"P}.	c #74614E",
"Q}.	c #73604A",
"R}.	c #6E5B48",
"S}.	c #695545",
"T}.	c #685344",
"U}.	c #65503F",
"V}.	c #5D4C3C",
"W}.	c #584537",
"X}.	c #5A483A",
"Y}.	c #5D493D",
"Z}.	c #6E5A4B",
"`}.	c #836757",
" |.	c #8D6B5A",
".|.	c #927160",
"+|.	c #947563",
"@|.	c #937462",
"#|.	c #927260",
"$|.	c #665851",
"%|.	c #474F54",
"&|.	c #3D494E",
"*|.	c #4C5960",
"=|.	c #3D4447",
"-|.	c #2E3135",
";|.	c #3D4444",
">|.	c #232321",
",|.	c #202423",
"'|.	c #44535B",
")|.	c #667D8B",
"!|.	c #738F9B",
"~|.	c #74909D",
"{|.	c #7794A2",
"]|.	c #7895A3",
"^|.	c #7A96A4",
"/|.	c #7A97A3",
"(|.	c #7993A0",
"_|.	c #5F7986",
":|.	c #25353B",
"<|.	c #051010",
"[|.	c #081E1F",
"}|.	c #367B86",
"||.	c #5CB7C5",
"1|.	c #66C4CF",
"2|.	c #67C5CF",
"3|.	c #5CBEC8",
"4|.	c #3C9BA2",
"5|.	c #1F6468",
"6|.	c #195154",
"7|.	c #143E3C",
"8|.	c #102B29",
"9|.	c #8C7A70",
"0|.	c #8B796F",
"a|.	c #8A7970",
"b|.	c #8C7D74",
"c|.	c #8D8077",
"d|.	c #8E8178",
"e|.	c #8A7C74",
"f|.	c #82756D",
"g|.	c #7A7068",
"h|.	c #6B605A",
"i|.	c #73655C",
"j|.	c #6E5F55",
"k|.	c #9E7766",
"l|.	c #AD806B",
"m|.	c #A97B64",
"n|.	c #966A55",
"o|.	c #684B38",
"p|.	c #573C2C",
"q|.	c #503828",
"r|.	c #4C3827",
"s|.	c #4C3A2B",
"t|.	c #544031",
"u|.	c #584535",
"v|.	c #5A4633",
"w|.	c #684D39",
"x|.	c #694D39",
"y|.	c #6E523E",
"z|.	c #6F513D",
"A|.	c #6D4D3A",
"B|.	c #6A4D38",
"C|.	c #6D4F3A",
"D|.	c #71513D",
"E|.	c #704F3B",
"F|.	c #70503C",
"G|.	c #72533E",
"H|.	c #6E4F3A",
"I|.	c #6B4D39",
"J|.	c #70513D",
"K|.	c #6D4C37",
"L|.	c #76533E",
"M|.	c #7B5943",
"N|.	c #7D5D48",
"O|.	c #7B5C45",
"P|.	c #7C5F47",
"Q|.	c #81644C",
"R|.	c #7D624C",
"S|.	c #79614C",
"T|.	c #765F4A",
"U|.	c #725F4E",
"V|.	c #685747",
"W|.	c #655443",
"X|.	c #615140",
"Y|.	c #5C4B3B",
"Z|.	c #574537",
"`|.	c #574436",
" 1.	c #5E4C3E",
".1.	c #675346",
"+1.	c #7C6250",
"@1.	c #896A58",
"#1.	c #906F5D",
"$1.	c #937260",
"%1.	c #947463",
"&1.	c #957463",
"*1.	c #937363",
"=1.	c #7F7B7C",
"-1.	c #758C97",
";1.	c #617783",
">1.	c #404C57",
",1.	c #4A555F",
"'1.	c #5A6A73",
")1.	c #34403F",
"!1.	c #191919",
"~1.	c #252829",
"{1.	c #46565E",
"]1.	c #687E8E",
"^1.	c #75919D",
"/1.	c #7895A2",
"(1.	c #77909E",
"_1.	c #546E78",
":1.	c #192728",
"<1.	c #04100F",
"[1.	c #0E2F2F",
"}1.	c #418C99",
"|1.	c #60BBCB",
"11.	c #68C5CF",
"21.	c #65C4CE",
"31.	c #58BDC6",
"41.	c #3D9FA4",
"51.	c #2D8285",
"61.	c #328186",
"71.	c #2A6C70",
"81.	c #18403F",
"91.	c #8D7C70",
"01.	c #8A796F",
"a1.	c #8A7971",
"b1.	c #8C7C74",
"c1.	c #8D7D74",
"d1.	c #8C7E76",
"e1.	c #8C7F76",
"f1.	c #8D7D75",
"g1.	c #8C7B74",
"h1.	c #8B7D75",
"i1.	c #7A6C63",
"j1.	c #74665C",
"k1.	c #6F5F55",
"l1.	c #A07C6A",
"m1.	c #AF826C",
"n1.	c #AA7C65",
"o1.	c #9C725C",
"p1.	c #8A634E",
"q1.	c #745342",
"r1.	c #523729",
"s1.	c #4E3727",
"t1.	c #493627",
"u1.	c #483526",
"v1.	c #453526",
"w1.	c #4D3C2B",
"x1.	c #5A4431",
"y1.	c #614836",
"z1.	c #604534",
"A1.	c #5E4330",
"B1.	c #654835",
"C1.	c #674836",
"D1.	c #644632",
"E1.	c #694B37",
"F1.	c #6C4D38",
"G1.	c #6D4E3A",
"H1.	c #71523E",
"I1.	c #6C4E39",
"J1.	c #72523C",
"K1.	c #70523C",
"L1.	c #72543F",
"M1.	c #70523D",
"N1.	c #70553F",
"O1.	c #69543D",
"P1.	c #6D5946",
"Q1.	c #6B5641",
"R1.	c #6D5744",
"S1.	c #6F5A46",
"T1.	c #665443",
"U1.	c #5F4D3F",
"V1.	c #625142",
"W1.	c #5E4D3C",
"X1.	c #5A4939",
"Y1.	c #574636",
"Z1.	c #534233",
"`1.	c #554335",
" 2.	c #594739",
".2.	c #604E3F",
"+2.	c #685546",
"@2.	c #77604E",
"#2.	c #836854",
"$2.	c #8E6E5B",
"%2.	c #93705D",
"&2.	c #957461",
"*2.	c #977462",
"=2.	c #977463",
"-2.	c #947564",
";2.	c #827F83",
">2.	c #95AEBD",
",2.	c #8FACB8",
"'2.	c #7A91A0",
")2.	c #829AA7",
"!2.	c #657C84",
"~2.	c #2B3735",
"{2.	c #1B1B1B",
"]2.	c #212526",
"^2.	c #495962",
"/2.	c #677F8E",
"(2.	c #74909C",
"_2.	c #76939F",
":2.	c #7693A0",
"<2.	c #7793A1",
"[2.	c #7693A1",
"}2.	c #7895A0",
"|2.	c #728C9A",
"12.	c #475F67",
"22.	c #0D1A18",
"32.	c #040E0E",
"42.	c #174044",
"52.	c #4499A6",
"62.	c #60BFCC",
"72.	c #64C4CD",
"82.	c #5FC2CB",
"92.	c #55BBC3",
"02.	c #47A7AB",
"a2.	c #499FA3",
"b2.	c #51A6AE",
"c2.	c #419098",
"d2.	c #235F5F",
"e2.	c #8D7B6F",
"f2.	c #8B7A70",
"g2.	c #89786E",
"h2.	c #8B7D72",
"i2.	c #8B7B74",
"j2.	c #8A7B74",
"k2.	c #81736A",
"l2.	c #776960",
"m2.	c #716258",
"n2.	c #A07C6C",
"o2.	c #B1826D",
"p2.	c #AD7D67",
"q2.	c #A57863",
"r2.	c #9D745E",
"s2.	c #906751",
"t2.	c #7C5946",
"u2.	c #563B2A",
"v2.	c #53392A",
"w2.	c #513929",
"x2.	c #4F392A",
"y2.	c #4D3829",
"z2.	c #433324",
"A2.	c #3E2F21",
"B2.	c #433325",
"C2.	c #483628",
"D2.	c #4C3A2A",
"E2.	c #553E2C",
"F2.	c #523C2C",
"G2.	c #543D2C",
"H2.	c #593F2F",
"I2.	c #5E432F",
"J2.	c #644732",
"K2.	c #664934",
"L2.	c #674A36",
"M2.	c #634733",
"N2.	c #664A36",
"O2.	c #644833",
"P2.	c #624832",
"Q2.	c #604630",
"R2.	c #604732",
"S2.	c #614834",
"T2.	c #5E4A36",
"U2.	c #584737",
"V2.	c #594837",
"W2.	c #5B4A3B",
"X2.	c #584839",
"Y2.	c #5A493C",
"Z2.	c #584738",
"`2.	c #594838",
" 3.	c #564535",
".3.	c #554434",
"+3.	c #564536",
"@3.	c #594839",
"#3.	c #5E4D3E",
"$3.	c #645143",
"%3.	c #705A48",
"&3.	c #836654",
"*3.	c #8D6E5C",
"=3.	c #8E6D5B",
"-3.	c #92705D",
";3.	c #977461",
">3.	c #987562",
",3.	c #9A7764",
"'3.	c #957565",
")3.	c #817A7A",
"!3.	c #8196A1",
"~3.	c #7D8F9C",
"{3.	c #8CA2AE",
"]3.	c #8094A2",
"^3.	c #636F77",
"/3.	c #2B292A",
"(3.	c #323336",
"_3.	c #515D66",
":3.	c #677E8C",
"<3.	c #748D9B",
"[3.	c #738D9A",
"}3.	c #75909D",
"|3.	c #75929E",
"13.	c #76929F",
"23.	c #6C8693",
"33.	c #395157",
"43.	c #061210",
"53.	c #030D0D",
"63.	c #205357",
"73.	c #49A4B0",
"83.	c #60C0CA",
"93.	c #62C3CC",
"03.	c #60C2CB",
"a3.	c #61BFC7",
"b3.	c #65B9C2",
"c3.	c #71BAC5",
"d3.	c #67B6C0",
"e3.	c #459BA0",
"f3.	c #2C7171",
"g3.	c #8E7B6F",
"h3.	c #8C7A6F",
"i3.	c #8B796E",
"j3.	c #8B7D73",
"k3.	c #8B7A73",
"l3.	c #8B7B72",
"m3.	c #8A7A72",
"n3.	c #8A7B73",
"o3.	c #887971",
"p3.	c #83746C",
"q3.	c #7D6D65",
"r3.	c #77675D",
"s3.	c #A58070",
"t3.	c #B1846E",
"u3.	c #A77864",
"v3.	c #A17460",
"w3.	c #956A54",
"x3.	c #75523F",
"y3.	c #6C4B38",
"z3.	c #5F4231",
"A3.	c #573C2E",
"B3.	c #543A2B",
"C3.	c #52392A",
"D3.	c #4D392A",
"E3.	c #463426",
"F3.	c #402F21",
"G3.	c #423022",
"H3.	c #4E392A",
"I3.	c #51392A",
"J3.	c #533A28",
"K3.	c #583D2A",
"L3.	c #593F2B",
"M3.	c #573F2B",
"N3.	c #58402C",
"O3.	c #563E2B",
"P3.	c #58402D",
"Q3.	c #523D29",
"R3.	c #553D28",
"S3.	c #563F2A",
"T3.	c #533F2E",
"U3.	c #523F2D",
"V3.	c #51402F",
"W3.	c #4E3E2F",
"X3.	c #4F3F30",
"Y3.	c #4E3E30",
"Z3.	c #4B3D30",
"`3.	c #4E3F30",
" 4.	c #4E3D2E",
".4.	c #524131",
"+4.	c #544233",
"@4.	c #564434",
"#4.	c #574435",
"$4.	c #5A4739",
"%4.	c #5E4C3C",
"&4.	c #604F3F",
"*4.	c #645242",
"=4.	c #6F594A",
"-4.	c #7A6250",
";4.	c #886B59",
">4.	c #8E6F5C",
",4.	c #95715E",
"'4.	c #987461",
")4.	c #977664",
"!4.	c #7A6E68",
"~4.	c #5C5F60",
"{4.	c #657376",
"]4.	c #636E72",
"^4.	c #4D5255",
"/4.	c #3D3A3B",
"(4.	c #3D393A",
"_4.	c #424144",
":4.	c #565B62",
"<4.	c #66727C",
"[4.	c #6E7D87",
"}4.	c #6D7E89",
"|4.	c #70828D",
"14.	c #71848F",
"24.	c #718591",
"34.	c #728894",
"44.	c #728995",
"54.	c #617683",
"64.	c #293D41",
"74.	c #050F0E",
"84.	c #061211",
"94.	c #2B686E",
"04.	c #55AEBA",
"a4.	c #65C3CE",
"b4.	c #69C6D0",
"c4.	c #6CC7D2",
"d4.	c #70C6D3",
"e4.	c #81C6D3",
"f4.	c #86C6D3",
"g4.	c #66B4BD",
"h4.	c #398E8F",
"i4.	c #2D7676",
"j4.	c #8F7C70",
"k4.	c #8C7A6E",
"l4.	c #8B796D",
"m4.	c #8A796E",
"n4.	c #88776D",
"o4.	c #89786D",
"p4.	c #8A7C72",
"q4.	c #8A7972",
"r4.	c #897970",
"s4.	c #877870",
"t4.	c #7E7067",
"u4.	c #7A6C61",
"v4.	c #A78270",
"w4.	c #B2846D",
"x4.	c #AE7F69",
"y4.	c #A97A64",
"z4.	c #A2715D",
"A4.	c #946852",
"B4.	c #845E4A",
"C4.	c #775440",
"D4.	c #664837",
"E4.	c #5C4032",
"F4.	c #593D2F",
"G4.	c #503A2B",
"H4.	c #453325",
"I4.	c #3F2D1F",
"J4.	c #402F22",
"K4.	c #433022",
"L4.	c #443223",
"M4.	c #423122",
"N4.	c #473425",
"O4.	c #443324",
"P4.	c #463626",
"Q4.	c #463627",
"R4.	c #473728",
"S4.	c #483829",
"T4.	c #4B3B2C",
"U4.	c #4B3B2E",
"V4.	c #4A3A2C",
"W4.	c #564435",
"X4.	c #564334",
"Y4.	c #594637",
"Z4.	c #604D3E",
"`4.	c #604E3E",
" 5.	c #685545",
".5.	c #775E4F",
"+5.	c #806653",
"@5.	c #896A56",
"#5.	c #8B6A57",
"$5.	c #916C5A",
"%5.	c #96715E",
"&5.	c #9A7562",
"*5.	c #9B7865",
"=5.	c #9C7966",
"-5.	c #987765",
";5.	c #75695F",
">5.	c #3F3C3B",
",5.	c #31302E",
"'5.	c #343433",
")5.	c #323330",
"!5.	c #343331",
"~5.	c #353232",
"{5.	c #393637",
"]5.	c #3D3A3C",
"^5.	c #444243",
"/5.	c #4F5355",
"(5.	c #54575C",
"_5.	c #545D60",
":5.	c #566064",
"<5.	c #596168",
"[5.	c #5B656F",
"}5.	c #5D6872",
"|5.	c #4C565F",
"15.	c #1B2627",
"25.	c #050E0D",
"35.	c #082020",
"45.	c #3B818B",
"55.	c #62BBCA",
"65.	c #71C9D7",
"75.	c #73CCDA",
"85.	c #74CBDA",
"95.	c #75CAD9",
"05.	c #83C9D7",
"a5.	c #81C4D0",
"b5.	c #59A8AE",
"c5.	c #2E7F7D",
"d5.	c #2A7271",
"e5.	c #8F7D70",
"f5.	c #8C796D",
"g5.	c #89786C",
"h5.	c #89796C",
"i5.	c #8A7C71",
"j5.	c #897871",
"k5.	c #897870",
"l5.	c #887870",
"m5.	c #87786F",
"n5.	c #867870",
"o5.	c #86786F",
"p5.	c #86776E",
"q5.	c #807167",
"r5.	c #A8836F",
"s5.	c #B4866F",
"t5.	c #AB7B65",
"u5.	c #A3745F",
"v5.	c #966853",
"w5.	c #86604B",
"x5.	c #7A5541",
"y5.	c #704F3C",
"z5.	c #6A4C39",
"A5.	c #634536",
"B5.	c #583C2E",
"C5.	c #503A2A",
"D5.	c #4C3829",
"E5.	c #4A3627",
"F5.	c #463325",
"G5.	c #3D2B1D",
"H5.	c #3C2A1C",
"I5.	c #3A291C",
"J5.	c #3B2A1D",
"K5.	c #3C2B1E",
"L5.	c #3F2E20",
"M5.	c #403021",
"N5.	c #483728",
"O5.	c #493829",
"P5.	c #4F3E2F",
"Q5.	c #554333",
"R5.	c #594738",
"S5.	c #5B4A3A",
"T5.	c #614E3E",
"U5.	c #645140",
"V5.	c #705B4A",
"W5.	c #7E6351",
"X5.	c #866754",
"Y5.	c #906E5B",
"Z5.	c #94705D",
"`5.	c #97725F",
" 6.	c #997461",
".6.	c #9B7864",
"+6.	c #9C7865",
"@6.	c #987865",
"#6.	c #796C63",
"$6.	c #4C4846",
"%6.	c #413F3E",
"&6.	c #333433",
"*6.	c #202020",
"=6.	c #1F1F1E",
"-6.	c #1E1E1C",
";6.	c #1E1D1D",
">6.	c #1E1E1E",
",6.	c #212120",
"'6.	c #232322",
")6.	c #282827",
"!6.	c #292827",
"~6.	c #2D2C2B",
"{6.	c #2F2E2E",
"]6.	c #323433",
"^6.	c #373A39",
"/6.	c #292D2E",
"(6.	c #0B1413",
"_6.	c #040D0D",
":6.	c #133739",
"<6.	c #4D98A7",
"[6.	c #70C5D7",
"}6.	c #77CEDD",
"|6.	c #76CEDC",
"16.	c #75CCDA",
"26.	c #75CBD9",
"36.	c #82C9D8",
"46.	c #78BDCA",
"56.	c #469A9B",
"66.	c #287472",
"76.	c #266E6D",
"86.	c #8F7D6F",
"96.	c #8D7A6F",
"06.	c #8A786C",
"a6.	c #88786C",
"b6.	c #8A7A6F",
"c6.	c #897B70",
"d6.	c #887770",
"e6.	c #85766F",
"f6.	c #85776E",
"g6.	c #84766D",
"h6.	c #85766E",
"i6.	c #84756E",
"j6.	c #83756C",
"k6.	c #85776F",
"l6.	c #85766D",
"m6.	c #AB8572",
"n6.	c #B58770",
"o6.	c #B0806A",
"p6.	c #A97963",
"q6.	c #A3735F",
"r6.	c #976A56",
"s6.	c #88604B",
"t6.	c #7C5744",
"u6.	c #704E3B",
"v6.	c #6C4D3A",
"w6.	c #664836",
"x6.	c #614436",
"y6.	c #583D2E",
"z6.	c #533D2F",
"A6.	c #4C3628",
"B6.	c #3E2C1E",
"C6.	c #3C2B1D",
"D6.	c #39271B",
"E6.	c #37271A",
"F6.	c #3A291B",
"G6.	c #433223",
"H6.	c #453525",
"I6.	c #473727",
"J6.	c #4A392A",
"K6.	c #514030",
"L6.	c #594436",
"M6.	c #5A4636",
"N6.	c #645141",
"O6.	c #695443",
"P6.	c #795F4D",
"Q6.	c #836653",
"R6.	c #886855",
"S6.	c #8A6956",
"T6.	c #8E6D5A",
"U6.	c #94715D",
"V6.	c #977360",
"W6.	c #9D7865",
"X6.	c #9E7865",
"Y6.	c #9A7969",
"Z6.	c #786961",
"`6.	c #524D4A",
" 7.	c #545151",
".7.	c #414448",
"+7.	c #292D30",
"@7.	c #1E1F1D",
"#7.	c #1A1A1A",
"$7.	c #1C1C1C",
"%7.	c #1B1B1C",
"&7.	c #1B1C1C",
"*7.	c #121615",
"=7.	c #050F0D",
"-7.	c #1B4245",
";7.	c #4F9EAE",
">7.	c #70C5D5",
",7.	c #77CBDB",
"'7.	c #76CDDB",
")7.	c #75CDDB",
"!7.	c #75CAD8",
"~7.	c #7FC9D7",
"{7.	c #69B3BC",
"]7.	c #398684",
"^7.	c #286B6A",
"/7.	c #266968",
"(7.	c #8E7C6E",
"_7.	c #8E7A6E",
":7.	c #8D796E",
"<7.	c #8B786D",
"[7.	c #8A776B",
"}7.	c #89776B",
"|7.	c #89786B",
"17.	c #88786B",
"27.	c #89796E",
"37.	c #8A7C70",
"47.	c #92857E",
"57.	c #8E817A",
"67.	c #897C73",
"77.	c #867871",
"87.	c #83766E",
"97.	c #82746C",
"07.	c #82746B",
"a7.	c #83766C",
"b7.	c #87786E",
"c7.	c #AE8973",
"d7.	c #AF816A",
"e7.	c #A1715B",
"f7.	c #976B56",
"g7.	c #8B614D",
"h7.	c #7E5744",
"i7.	c #694A37",
"j7.	c #654838",
"k7.	c #634638",
"l7.	c #5D4133",
"m7.	c #583E2F",
"n7.	c #443022",
"o7.	c #422F20",
"p7.	c #402E1F",
"q7.	c #3F2C1E",
"r7.	c #3B2A1C",
"s7.	c #3C2B1C",
"t7.	c #3D2C1D",
"u7.	c #3F2D1E",
"v7.	c #412F21",
"w7.	c #473626",
"x7.	c #4B3B2B",
"y7.	c #4D3C2C",
"z7.	c #534232",
"A7.	c #5C4736",
"B7.	c #5D4838",
"C7.	c #5D4B3B",
"D7.	c #5F4E3D",
"E7.	c #695544",
"F7.	c #715A47",
"G7.	c #785C48",
"H7.	c #836651",
"I7.	c #8D6C59",
"J7.	c #8F6C59",
"K7.	c #946F5C",
"L7.	c #997460",
"M7.	c #99755F",
"N7.	c #9E7966",
"O7.	c #987968",
"P7.	c #78675F",
"Q7.	c #403A39",
"R7.	c #4C494A",
"S7.	c #42464A",
"T7.	c #303639",
"U7.	c #1E1F1F",
"V7.	c #1B1B1A",
"W7.	c #1C1C1B",
"X7.	c #212223",
"Y7.	c #232728",
"Z7.	c #25292B",
"`7.	c #25282C",
" 8.	c #272A2E",
".8.	c #26292D",
"+8.	c #25282A",
"@8.	c #222626",
"#8.	c #1E2121",
"$8.	c #0E1515",
"%8.	c #040D0C",
"&8.	c #123436",
"*8.	c #3A858C",
"=8.	c #56B1BB",
"-8.	c #64BEC9",
";8.	c #6AC3CF",
">8.	c #6FC5D2",
",8.	c #72C6D4",
"'8.	c #76C4D1",
")8.	c #59A6AC",
"!8.	c #2C7571",
"~8.	c #246865",
"{8.	c #246362",
"]8.	c #907D6F",
"^8.	c #8F7C6E",
"/8.	c #8D7A6E",
"(8.	c #8C786D",
"_8.	c #8B776C",
":8.	c #897769",
"<8.	c #89766A",
"[8.	c #8A7A6D",
"}8.	c #8A7B6F",
"|8.	c #897B71",
"18.	c #C0AFAB",
"28.	c #CEBCBB",
"38.	c #CCBABA",
"48.	c #C5B3B1",
"58.	c #BEADAB",
"68.	c #B4A7A3",
"78.	c #AEA09B",
"88.	c #A69894",
"98.	c #A1928C",
"08.	c #998C88",
"a8.	c #938681",
"b8.	c #82756B",
"c8.	c #83766B",
"d8.	c #887A6F",
"e8.	c #B18B76",
"f8.	c #B68972",
"g8.	c #B0826B",
"h8.	c #A0705B",
"i8.	c #986954",
"j8.	c #8D604D",
"k8.	c #815B48",
"l8.	c #795341",
"m8.	c #6D4C39",
"n8.	c #6B4B39",
"o8.	c #694A39",
"p8.	c #67493A",
"q8.	c #624537",
"r8.	c #5F4435",
"s8.	c #583D2F",
"t8.	c #4A3225",
"u8.	c #402C1E",
"v8.	c #3D2B1C",
"w8.	c #3E2D1E",
"x8.	c #4B3A2A",
"y8.	c #4C3B2B",
"z8.	c #514031",
"A8.	c #554334",
"B8.	c #594536",
"C8.	c #5E4A3A",
"D8.	c #604D3C",
"E8.	c #604B3B",
"F8.	c #624D3F",
"G8.	c #6B5443",
"H8.	c #715846",
"I8.	c #785D4B",
"J8.	c #7D614E",
"K8.	c #846651",
"L8.	c #896753",
"M8.	c #8C6956",
"N8.	c #8E6A58",
"O8.	c #94715C",
"P8.	c #97745E",
"Q8.	c #9F7A65",
"R8.	c #75635A",
"S8.	c #373538",
"T8.	c #3B4044",
"U8.	c #30363A",
"V8.	c #1C1E1E",
"W8.	c #181817",
"X8.	c #1B1C1B",
"Y8.	c #1F2323",
"Z8.	c #2A3136",
"`8.	c #303B41",
" 9.	c #323D43",
".9.	c #323D45",
"+9.	c #323D44",
"@9.	c #303B42",
"#9.	c #2F3940",
"$9.	c #232D31",
"%9.	c #0E1717",
"&9.	c #030E0D",
"*9.	c #081D1B",
"=9.	c #1A4D48",
"-9.	c #2F7C7D",
";9.	c #41959B",
">9.	c #47A7AC",
",9.	c #55AFB4",
"'9.	c #5BB6BE",
")9.	c #5DB0B8",
"!9.	c #408D8F",
"~9.	c #246463",
"{9.	c #24615F",
"]9.	c #215E5D",
"^9.	c #927E70",
"/9.	c #8E7B6D",
"(9.	c #8D7A6C",
"_9.	c #8C786C",
":9.	c #8B786B",
"<9.	c #8A776A",
"[9.	c #8B7B6E",
"}9.	c #908378",
"|9.	c #C3B3AF",
"19.	c #E6D3D4",
"29.	c #F1DEDD",
"39.	c #F0DDDE",
"49.	c #EEDBDC",
"59.	c #ECD8D8",
"69.	c #E9D6D4",
"79.	c #E6D3D1",
"89.	c #E2CECF",
"99.	c #DFC9CB",
"09.	c #DAC7C6",
"a9.	c #D3C0C0",
"b9.	c #BBA7A5",
"c9.	c #95857C",
"d9.	c #84766E",
"e9.	c #86766D",
"f9.	c #84756C",
"g9.	c #B48B77",
"h9.	c #B78871",
"i9.	c #B3836C",
"j9.	c #A87663",
"k9.	c #9A6B56",
"l9.	c #8C5F4B",
"m9.	c #845C49",
"n9.	c #7C5543",
"o9.	c #75513F",
"p9.	c #6C4C39",
"q9.	c #694B3A",
"r9.	c #644839",
"s9.	c #644739",
"t9.	c #5F4335",
"u9.	c #5B3F31",
"v9.	c #563A2C",
"w9.	c #4F372A",
"x9.	c #3E2D1D",
"y9.	c #3E2C1D",
"z9.	c #402D1E",
"A9.	c #3F2E1E",
"B9.	c #413020",
"C9.	c #534133",
"D9.	c #564436",
"E9.	c #604B3D",
"F9.	c #645142",
"G9.	c #614E3D",
"H9.	c #675240",
"I9.	c #715946",
"J9.	c #765B46",
"K9.	c #785D49",
"L9.	c #7B5F4C",
"M9.	c #7B5D4A",
"N9.	c #846451",
"O9.	c #8D6B57",
"P9.	c #906C58",
"Q9.	c #9B7660",
"R9.	c #9D7762",
"S9.	c #A07B65",
"T9.	c #9E7B68",
"U9.	c #706057",
"V9.	c #2C2B29",
"W9.	c #2A2B2D",
"X9.	c #2B3033",
"Y9.	c #191918",
"Z9.	c #1A1B1A",
"`9.	c #222728",
" 0.	c #30363C",
".0.	c #354248",
"+0.	c #364448",
"@0.	c #39464C",
"#0.	c #39474F",
"$0.	c #38474F",
"%0.	c #384951",
"&0.	c #3B4951",
"*0.	c #2A373D",
"=0.	c #030D0C",
"-0.	c #040F0F",
";0.	c #0E2D2A",
">0.	c #16413E",
",0.	c #266461",
"'0.	c #2F7C7E",
")0.	c #35898C",
"!0.	c #3A9092",
"~0.	c #398587",
"{0.	c #236161",
"]0.	c #1C4D4C",
"^0.	c #937D70",
"/0.	c #907C6E",
"(0.	c #8C796B",
"_0.	c #8B786A",
":0.	c #8B776A",
"<0.	c #A3958A",
"[0.	c #D4C3C1",
"}0.	c #ECDAD9",
"|0.	c #EFDED9",
"10.	c #F1DFDA",
"20.	c #F2E0DE",
"30.	c #F2E1DF",
"40.	c #F3E1DF",
"50.	c #F4E1DF",
"60.	c #F5E1E0",
"70.	c #F3E0DE",
"80.	c #ECD8D7",
"90.	c #CCB9B6",
"00.	c #98877A",
"a0.	c #8E7C73",
"b0.	c #B68C78",
"c0.	c #B98A73",
"d0.	c #B6856E",
"e0.	c #AF7F69",
"f0.	c #A97762",
"g0.	c #A0705C",
"h0.	c #916350",
"i0.	c #855946",
"j0.	c #805846",
"k0.	c #795342",
"l0.	c #72513E",
"m0.	c #6E4E3B",
"n0.	c #6D4E3C",
"o0.	c #6B4E3C",
"p0.	c #684A3B",
"q0.	c #644638",
"r0.	c #604335",
"s0.	c #55392C",
"t0.	c #51382A",
"u0.	c #463323",
"v0.	c #443222",
"w0.	c #433222",
"x0.	c #433021",
"y0.	c #423121",
"z0.	c #402F1F",
"A0.	c #433122",
"B0.	c #453424",
"C0.	c #483727",
"D0.	c #4D3B2D",
"E0.	c #544133",
"F0.	c #5A4537",
"G0.	c #5A4638",
"H0.	c #624E3F",
"I0.	c #6D5847",
"J0.	c #725D4C",
"K0.	c #6D5845",
"L0.	c #765E4A",
"M0.	c #7C614C",
"N0.	c #7A5E4A",
"O0.	c #7C604C",
"P0.	c #7F614D",
"Q0.	c #836350",
"R0.	c #866553",
"S0.	c #896653",
"T0.	c #95725C",
"U0.	c #A17B66",
"V0.	c #9E7C68",
"W0.	c #9A7866",
"X0.	c #6D5D54",
"Y0.	c #242321",
"Z0.	c #262829",
"`0.	c #2E3235",
" a.	c #272B2E",
".a.	c #24282B",
"+a.	c #2F373B",
"@a.	c #344046",
"#a.	c #364449",
"$a.	c #38454C",
"%a.	c #3A484F",
"&a.	c #3C4A53",
"*a.	c #3A4851",
"=a.	c #263238",
"-a.	c #030C0B",
";a.	c #04110F",
">a.	c #091F1E",
",a.	c #0E2E2B",
"'a.	c #0F332F",
")a.	c #123935",
"!a.	c #1B514D",
"~a.	c #246868",
"{a.	c #2D7173",
"]a.	c #255F61",
"^a.	c #163E3D",
"/a.	c #133330",
"(a.	c #163230",
"                  .  +  @  #  $  %  &  *  =  -  ;  >  ,  '  )  !  ~  {  ]  ^  /  (  _  :  <  [  }  |  1  2  3  4  5  6  7  8  9  0  a  b  c  d  e  f  g  h  i  j  k  l  m  n  o  p  q  r  s  t  u  v  w  x  y  z  A  B  C  D  E  F  G  H  I  J  K  L  M  N  O  P  Q  R  S  T  U  V  W  X  Y  Z  `   . .. +. @. #. $. %. &. *. =. -. ;. >. ,. '. ). !. ~. {. ]. ^. /. (. _. :. <. [. }. |. 1. 2. ",
"                              3. 4. 5. 6. 7. 8. 9. 0. a. b. c. d. e. f. g. h. i. j. k. l. m. n. o. p. q. r. s. t. u. v. w. x. y. z. A. B. C. D. E. F. G. H. I. J. K. L. M. N. O. P. Q. R. S. T. U. V. W. X. X. Y. Z. `.  + .+ ++ @+ #+ $+ %+ &+ *+ =+ -+ ;+ >+ ,+ '+ )+ !+ ~+ {+ ]+ ^+ /+ (+ _+ :+ <+ [+ }+ |+ 1+ 2+ 3+ 4+ 5+ 6+ 7+ 8+ '. 9+ 0+ a+ b+ c+ d+ e+ f+ g+ h+ i+ j+ k+ l+ m+ n+ o+ p+ ",
"                                    q+ r+ s+ t+ u+ v+ w+ x+ y+ z+ A+ B+ C+ D+ E+ F+ G+ H+ I+ J+ K+ L+ M+ N+ O+ P+ Q+ R+ S+ T+ U+ V+ W+ X+ Y+ Z+ `+  @ .@ +@ @@ #@ $@ %@ &@ *@ =@ -@ ;@ >@ ,@ '@ )@ !@ ~@ {@ ]@ ^@ /@ (@ _@ :@ <@ [@ }@ |@ 1@ 2@ 3@ 4@ 5@ 6@ 7@ 8@ 9@ 0@ a@ b@ c@ d@ ^+ e@ f@ g@ h@ i@ j@ k@ l@ m@ n@ o@ p@ q@ r@ s@ t@ u@ v@ w@ x@ y@ z@ A@ B@ C@ D@ E@ F@ G@ H@ I@ J@ K@ L@ M@ ",
"                                 N@ O@ P@ Q@ R@ S@ T@ U@ V@ W@ ;@ X@ Y@ Z@ `@  # .# +# @# ## $# %# &# *# =# -# ;# ># ,# T+ '# )# !# ~# {# ]# ^# /# (# _# :# <# [# }# |# 1# 2# 3# 4# 5# 6# 7# 8# 9# 0# a# b# c# d# e# f# g# h# i# j# k# l# m# n# o# p# q# r# s# t# u# v# w# x# y# z# A# B# C# D# E# F# G# H# I# J# K# L# M# N# O# P# Q# R# S# T# U# V# W# X# Y# Z# `#  $ .$ +$ @$ #$ $$ %$ &$ *$ ",
"                                    =$ -$ ;$ >$ ,$ '$ )$ !$ ~$ {$ ]$ ^$ /$ ($ _$ :$ <$ [$ }$ |$ 1$ 2$ 3$ 4$ 5$ 6$ 7$ 8$ 9$ 0$ a$ b$ c$ d$ e$ f$ g$ h$ i$ j$ k$ l$ m$ n$ o$ p$ q$ r$ s$ t$ u$ v$ w$ x$ y$ z$ A$ B$ C$ D$ E$ F$ G$ H$ I$ J$ K$ L$ M$ N$ O$ P$ Q$ R$ S$ T$ U$ V$ W$ X$ Y$ Z$ `$  % .% +% @% #% $% %% &% *% =% -% ;% >% ,% '% )% !% ~% {% ]% ^% /% (% _% :% <% [% }% |% 1% 2% 3% 4% ",
"                                 N@ 5% 6% 7% 8% 9% 0% a% b% c% d% e% f% g% h% i% j% k% l% m% n% o% p% q% r% s% t% u% v% w% x% y% z% A% B% C% D% E% F% G% H% I% J% K% L% M% N% O% P% Q% R% S% T% U% V% W% X% Y% Z% `%  & .& +& S. @& #& $& %& && *& =& -& ;& >& ,& '& )& !& ~& {& ]& ^& /& (& _& :& <& [& }& |& 1& 2& 3& 4& 5& 6& 7& 8& 9& 0& a& b& c& d& e& f& g& h& i& j& k& l& m& n& o& p& q& ",
"                                 N@ r& s& t& u& v& w& x& y& z& A& B& C& D& j% E& F& G& H& I& J& K& L& M& N& O& P& Q& R& S& T& U& V& W& X& Y& Z& `&  * .* +* @* #* $* %* &* ** =* -* ;* >* ,* '* )* !* ~* {* ]* ^* /* (* _* :* <* [* }* |* 1* 2* 3* 4* 5* 6* 7* 8* 9* 0* a* b* c* d* e* f* g* h* i* j* k* l* m* n* o* p* q* r* s* t* u* v* w* x* y* z* A* B* C* D* E* F* G* H* I* J* K* L* M* N* ",
"                                 N@ O* P* Q* R* S* T* U* V* W* X* Y* Z* `*  = .= += @= #= $= %= &= *= == -= ;= >= ,= '= )= != ~= {= ]= ^= /= (= _= := <= [= }= |= '* 1= 2= 3= ** 4= 5= 6= 7= 8= 9= 0= a= b= c= d= e= f= g= h= i= j= k= l= m= n= o= p= q= r= s= t= u= v= w= x= y= z= A= B= C= h* D= E= F= G= H= I= J= K= L= M= N= O= V  P= Q= R= S= T= U= V= W= X= Y= Z= `=  - .- +- @- #- $- %- ",
"                                 N@ &- *- =- -- ;- >- ,- '- )- !- ~- {- ]- ^- /- (- _- :- <- [- }- |- 1- 2- 3- 4- g$ '= 5- 6- 7- 8- 9- 0- a- b- c- d- e- e- f- f- g- h- i- j- k- l- m- n- o- p- q- r- s- t- =* h- u- v- w- x- y- z- A- B- C- D- E- F- G- 8= H- I- J- K- L- M- N- O- P- Q- R- S- T- U- V- W- X- Y- Z- `-  ; .; +; @; #; $; %; &; *; =; -; ;; >; ,; '; ); !; ~; {; ]; ^; /; (; _; ",
"                                 :; <; [; }; |; 1; 2; 3; 4; 5; 6; 7; 8; 9; 0; a; b; c; d; e; f; g; h; i; j; k; l; m; n; o; p; q; r; s; t; u; v; w; x; y; z; A; B; C; D; E; F; G; H; I; o- J; K; L; M; N; O; P; Q; R; S; T; U; V; W; X; Y; Z; `;  > .> +> I; @> G- #> $> %> &> *> => -> ;> >> ,> '> )> !> ~> {> ]> ^> /> (> _> '; :> <> [> }> |> 1> 2> 3> 4> 5> 6> 7> 8> 9> 0> a> b> b> c> d> e> ",
"                     f> g> h>    :; i> j> k> l> m> n> o> p> q> r> s> t> u> v> w> x> y> z> A> B> C> D> E> F> G> H> I> J> K> L> M> N> O> P> Q> R> S> T> U> V> W> D; X> Y> Z> `>  , ., +, @, #, $, %, &, *, =, -, ;, >, ,, ', ), !, ~, {, ], ^, /, (, _, :, <, [, }, |, 1, 2, 3, 4, 5, 6, 7, 8, 9, 0, a, b, c, d, e, f, g, h, i, j, k, l, m, n, n, K= o, p, q, r, s, Y= t, u, v, w, x, y, e> z, A, ",
"                        B, C, D, E, F, G, H, I, J, K, L, M, N, O, P, Q, R, S, T, U, V, W, X, Y, Z, `,  ' .' +' @' #' $' %' &' *' =' -' ;' >' ,' '' )' !' ~' {' ]' ^' /' (' _' :' <' [' }' |' 1' ;' &, =* 2' *, 3' 4' 5' 6' 7' 8' 9' 0' K; a' b' c' d' e' f' g' A; h' i' j' k' l' m' n' o' p' q' r' s' t' u' v' w' x' y' z' A' B' C' D' E' F' G' H' I' J' K' L' M' N' O' P' Q' R' S' T' U' V' W' ",
"                        f> X' Y' Z' `'  ) .) +) @) #) $) %) &) *) =) -) ;) >) ,) ') )) )) !) ~) {) ]) ^) /) () _) :) L% <) [) }) |) 1) !* 2) 3) 4) 5) 6) 7) 8) 9) 0) a) b) c) d) e) o$ |' .* S% R% f) g) 1= h) i) q- j) k) l) r; m) 5' I; n) o) p) q) r) s) t) A; u) v) w) x) y) z) A) B) C) D) E) F) G) H) I) J) K) L) M) N) O) P) Q) R) O' S) T) U) V) W) X) Y) Z) `)  ! .! +! @! #! $! %! &! ",
"               *!          =! -! ;! >! ,! '! )! !! ~! {! ]! ^! /! (! _! t' :! <! [! }! |! 1! 2! 3! 4! 5! 6! 7! 8! $, 9! 0! a! b! c! d! b) e! e) f! g! h! i! j! k! l! m! n! o! p! := m! q! R% r! s! d! d! n- L; t! u! 3' v! S% w! x! y! z! A! B! C! q) D! E! R> F! G! H! I! J! K! L! M! N! O! P! Q! R! S! T! U! V! `) W! X! Y! Z! `!  ~ .~ +~ @~ #~ $~ %~ L= &~ *~ =~ -~ ;~ >~ ,~ '~ )~ !~ ~~ {~ ",
"               ]~ ^~       /~ (~ _~ :~ <~ [~ )! }~ |~ 1~ 2~ 3~ 4~ 5~ 6~ k. 7~ 8~ 9~ `$ 0~ a~ b~ c~ d~ e~ f~ g~ h~ i~ 0) j~ k~ l~ m~ n~ o~ p~ q~ r~ s~ t~ u~ v~ w~ x~ m$ y~ z~ A~ <' B~ C~ R> ,' D~ m! E~ F~ G~ d) H~ I~ J~ K~ L~ M~ N~ S> O~ P~ Q~ R~ e) O> r! K~ S% S~ T~ U~ V~ W~ X~ Y~ Z~ `~  { .{ +{ @{ #{ ${ %{ &{ *{ ={ -{ ;{ >{ ,{ '{ ){ !{ ~{ {{ ]{ ^{ /{ ({ _{ :{ <{ [{ }{ |{ 1{ 2{ 3{ ",
"               4{ 5{ 6{ 7{    8{ 9{ 0{ a{ b{ c{ d{ e{ f{ g{ h{ 4~ i{ j{ k{ l{ m{ n{ o{ p{ q{ r{ s{ t{ u{ v{ d- w{ x{ y{ z{ A{ B{ C{ D{ b' E{ F{ G{ H{ I{ J{ &* Q> K{ L{ M{ N{ O{ d) P{ r! ~, L~ Q{ L~ R{ A~ z! S{ ~, w; y- }= T{ U{ V{ 9! W{ t! X{ Y{ Z{ b- ;' `{  ] .] 1' +] @] #] $] %] &] *] =] `{ -] ;] >] ,] '] )] !] ~] {] ]] ^] /] (] _] :] <] [] }] ^{ ]{ |] 1] 2] 3] 4] 5] 6] 7] 8] 9] ",
"               0] a] b] c] d] e] f] g] h] i] j] k] l] m] n] o] p] q] j{ r] s] t] u] v] w] x] y] z] A] d' u! F; B] ^' j! r- C] D] E] F] G] _, H] 1= I] J] K] L] M] N] O] P] Q] R] <' S] f! T] U] V] W] f! X] X] j) Y] f= Z] .] `]  ^ .^ |= &, +^ @^ #^ q) $^ O> ;' R> ;' X] d- u! %^ l! &^ -, *^ =^ -^ ;^ >^ ,^ '^ )^ !^ ~^ {^ ]^ ^^ [] /^ (^ U) _^ :^ ^{ <^ [^ 1> }^ |^ 1^ 2^ 3^ 3{ 4^ 5^ 6^ 7^ ",
"8^             9^ 0^ a^ b^ c^ d^ e^ f^ g^ h^ i^ d{ j^ k^ l^ m^ n^ o^ p^ q^ r^ s^ t^ u^ v^ w^ x^ y^ z^ A^ T{ j- J] B^ C^ I; i) D^ E^ F^ G^ H^ ,' I^ J^ K^ 3= L^ M^ N^ O^ P^ H] Q^ R^ S^ T^ U^ V^ x~ W^ X^ X^ O> Y^ Z^ `^  / ./ +/ u! @/ /, #/ $/ %/ &/ */ =/ -/ X^ X] R> R% ;/ E~ >/ ,/ 9) '/ )/ !/ K~ ~/ {/ ]/ ^/ // (/ _/ :/ </ [/ }/ |/ 1/ 2/ 3/ 4/ 5/ K= 6/ 7/ 8/ 9/ 0/ a/ b/ c/ d/ e/ f/ g/ ",
"h/                i/ j/ k/ l/ m/ n/ o/ p/ q/ r/ d{ s/ t/ u/ v/ w/ o^ p^ p^ p^ x/ y/ z/ @^ G] A/ B/ C/ D/ E/ F/ i~ ^' G/ H/ I/ J/ K/ S^ L/ M/ N/ O/ P/ =* Q/ R/ S/ T/ U/ V/ W/ X/ Y/ o- e! Z/ `/ N~ O> X] X^ d-  ( L] .( Q^ +( @( u! F~ #( $( %( $, o$ $, ;' k- n~ X^ ;' &( X^ >* *( =( -( ;( 9) >( ;' ,( '( )( !( ~( {( ]( ^( /( (( _( :( <( [( 3/ }( |( 1( 2( 1( 3( 4( 5( 6( 7( 8( 9( 0( a( b( ",
"c( f>             d( e( f( g( h( i( j( k( l( m( k] }~ n( o( p( q( p^ p^ r( s( t( u( v( #^ w( x( y( _= z( O> A( B( C( D( E( C] F( E- G( H( I( J( K( L( M( c= q- N( O( P( Q( R( p~ S( T( e! U( =' V( ;' R> W( X( Y( o~ Z( `( E] E~ A~ +]  _ ._ +_ O% @_ #_ E! 1' u; $_ %_ x~ &_ *_ =_ -_ ;_ 9) >_ U> X] ,_ '_ )_ !_ ~_ {_ ]_ ^_ /_ (_ __ :_ <_ S= |> [_ }_ |_ 1_ ]; 2_ 3_ 4_ 5_ 6_ 7_ 8_ 9_ 0_ a_ ",
"b_ c_             d_ e_ f_ g_ h_ i_ j_ k_ l_ m( m_ }~ n_ o_ p_ q_ r_ s_ t_ u_ v_ w_ x_ y_ z_ o$ A_ o$ B_ S% C_ B( D_ B] E_ F_  _ G_ H_ I_ P~ J( J_ ~' J] K_ Z^ L_ M_ N_ c~ O_ T] R^ P_ Q_ R_ ,* &_ R% S_ T_ U_ w! V_ z! b) W_ _, X_ Y_ Z_ `_ F/  : a-  ( .: r! +: R% @: #: $: %_ %: &: *: =: -: B; ;: >: ,: ': ): !: ~: {: ]: ^: /: (: _: :: :: <: [: }: |: 1: 2: 3: 4: 5: 6: 7: 8: i# 9: 0: a: ",
"b: c:             N@ d: e: f: g: h: i: j: k: l: m: n: }~ o: p: q: r: s: t: u: v: w: x: y: z: A_ J% A: B: C: D: G/ E: F: G: H: M> I: J: K: L: M: N: O: P: Q: X] z_ M_ R: S: T: T( U: V: E/ X] E! F; W: X: Y: Z: b' `: F^ 0'  < c' .< +< @< #< $< %< r! D{ m! &< O> s! +, *< =< :' 9= b' -< W( ;< >< -_ ,< '< )< !< ~< {< ]< ^< /< (< _< N@ N@ N@ :< << [< }< |< 1< 2< 3< 4< 5< 6< 7< 8< 9< 0< a< ",
"b< c< d<             e< f<    g< h< i< j< k< l< d{ m< n< o< p< q< r< s< v( *] t< u< v< w< a! x< y< z< A< B< C< h) t; v- X] D< E< F< G< %: H< I< J< K< 0) y{ |= L< M< S/ N< O< #: P< Q< R% X] R< %( S< %( T< T( F< U< V< N~ e) W< ^= X< Y< Z< /= R% R> *_ `< ,' r! n~ L% ^= .:  [ b) .[ +[ t; @[ ,* e! #[ $[ %[ &[ *[ =[ -[ ;[ >[ ,[ '[ )[ ![ ~[ {[ ][ ^[ /[ ([ _[ :[ <[ [[ }[ |[ 1[ 2[ 3[ 4[ 5[ ",
"6[ 7[ 8[             9[ 0[    N@ a[ b[ c[ d[ e[ f[ g[ h[ i[ j[ k[ l[ m[ n[ o[ -( p[ q[ r[ s[ t[ u[ o$ v[ w[ x[ U_ O{ y[ O> z[ C] A[ B[ C[ D[ |= F! J< E[ F[ |= G[ X] H[ I[ n$ B_ J[ +/ K[ K[ &_ L[ M[ -( s; N[ O[ P[ z! }= Q[ R[ S[ T[ U[ V[ W[ X[ &, Y[ Z[ U: R% `[ T(  } r~ E! .} ^, P_ +} @[ @} x! ;/ F! #} $} %} &} *} =} =) -} ;} >} ,} '} )} !} ~} {} ]} ^} /} (} <^ _} :} <} [} }} |} 1} ",
"2} 3} 4} N@             5}       :; 6} 7} 8} 9} 0} a} b} c} d} e} f} g} h} #* }= i} j} k} l} m} n} o} p} ^, J[ <' o$ q} F< r} s} t} u} v} w} &( S% D{ H~ B< &( F! R% x} y} z} w( q) A} B} C} R% X] -/ S% D} #[ E! +, E} C: =< F} 3) G} H} I} J} K} L} M} p! N} O} F~ P} b) S] b- ;/ J[ F~ Q} T_ -_ Q{ *( d= .{ +} R} S} T} U} V} W} X} Y} Z} `}  | .| +| @| ]} #| $| %| e> &| *| =| -| ;| >| ,| ",
"   '| )| !|             N@       :; ~| {| ]| ^| /| (| _| :| <| [| }| || 1| 2| 3| 4| 5| 6| 7| 8| 9| 0| P{ a| o~ b| S/ c| d| f~ e| f| g| v} h| ;' r! y! .( i| j| X] 5' k| l| P} S^ N[ m| n| R% r! O> C< #[ 0' *_ X] V: o| p| q| r| e! d) P} Z( s| 3# t| Y[ u| v| w| x| o- >' y| $< z| A| O{ B| C| D| <' Q[ s; E| F| G| H| I| J| K| L| M| N| O| P| N@ Q| R| @| ]} S| T| U| V| W| X| Y| Z| `|  1 .1 ",
"   N@ +1 @1                      #1 $1 %1 &1 m( *1 =1 -1 c} ;1 >1 ,1 K: '1 )1 V/ !1 ~1 {1 ]1 ^1 /1 (1 x;  : O> W{ X^ P} _1 :1 L_ <1 [1 }1 |1 11 C< 21 G< &: 31 $, B< .^ 41 B< X^ 51 E! X] E! X] E! 61 E! 71 0' #[ P> 81 91 01 =< S^ O{ U( x| a1 r$ b1 W^ &_ c1 d1 e1 O{ F~ o- U{ U{ f1 g1 h1 Y_ i1 e! c- j1 k1 l1 G; m1 n1 o1 p1 q1 r1 s1 t1 u1 E, v1 w1 x1 y1 z1 A1 B1 C1 D1 E1 F1 G1 H1 I1 J1 ",
"      K1 L1                   M1 N1 O1 P1 Q1 R1 S1 T1 U1 V1 W1 X1 Y1 Y1 k~ Z1 `1  2 .2 +2 @2 #2 $2 %2 1' &_ &2 *2 =2 -2 S( ;2 >2 ,2 q- '2 )2 !2 $2 O> ~2 Z{ {2 ]2 +, d) ^2 S% X^ /2 (2 _2 _2 k| :2 L[ <2 *_ x~ 1' [2 }2 ,' m~ 1' .: |2 01 12 T( 22 32 42 m~ 52 62 72 82 F~ 92 x| o! u| K[ 02 a2 b2 c2 o! d2 k- *_ 5' j- e2 f2 g2 h2 i2 j2 k2 l2 m2 n2 o2 p2 q2 r2 s2 t2 u2 v2 }_ w2 x2 y2 z2 A2 ",
"         B2             C2 D2 E2 F2 G2 H2 I2 J2 K2 L2 M2 N2 O2 P2 Q2 R2 S2 T2 U2 V2 W2 X2 Y2 J: Z2 W( c- >/ >2 `2 e! y} B_ E{ V<  3 B_ .3 +3 @3 J< (1 #3 $3 %3 #(  _ x! u| ;' E! 3= &3 *3 =3 -3 ;3 >3 <2 ,3 '3 )3 L} !3 %< ~3 R% X] R% {3 f! D| ]3 ^3 M{ N{ /3 (3 _3 :3 <3 o! [3 }3 |3 13 p! 23 33 h1 e! d2 n| 43 H< 53 63 73 83 93 03 a3 b3 c3 d3 e3 f3 g3 h3 i3 j3 k3 l3 2_ m3 n3 o3 p3 q3 r3 ",
"                     N@ s3 N@    t3 u3 v3 w3 x3 y3 z3 A3 B3 C3 D3 E3 F3 G3 H3 I3 J3 K3 Y2 L3 -( M3 =/ U{ b' N3 #: O3 P3 Q3 R3 3) S3 T3 U3 V3 W3 X3 %< `{ ,2 Y3 Z3 `3 J[ ,' E! :2 !3  4 .4 P> Y3 +4  : @4 #4 $4 %4 &4 61 *4 X^ ;' X] ;' E! X] ;' `/ t| y~ [3 =4 H} y~ -4 o! p! ;4 >4 ,4 R< _2 '4 )4 N} !4 n! O% r~ r- F/ ~4 {4 ]4 ^4 /4 (4 _4 :4 <4 [4 }4 |4 14 24 34 44 54 64 +; 74 o3 84 94 04 ",
"a4 b4 c4       d4 e4          f4 g4 h4 i4 j4 k4 l4 m4 n4 o4 p4 q4 r4 s4 t4 $' u4 v4 w4 x4 y4 6) $/ z4 A4 B4 ~1 C4 P3 D4 E4 F4 ~1 G4 H4 I4 J4 K4 L4 Y^ M4 .( N4 H[ O( O} ~2 ;' *4 L} O4 P4 Q4 R4 S4 %: T4 G4 U4 E! V4 &3 P> X] J< X^ @4 W4 X4 O% -2 ]3 w| n! Y4 -2 Z4 `4 <3 T]  5 .5 Q[ @* W4 +5 @5 #5 72 |' Y: V{ G- T> x{ $5 %5 &5 *5 =5 -5 ;5 >5 ,5 '5 )5 !5 ~5 {5 ]5 ^5 /5 (5 _5 :5 <5 [5 }5 ",
"         e4 B2 K1       |5 15 25 35 45 55 65 75 85 95 05 a5 b5 c5 d5 e5 f5 g5 h5 i5 j5 k5 l5 ~' m5 n5 o5 p5 q5 y4 r5 s5 t5 u5 v5 y4 w5 x5 d' y5 0' .^ z5 L% A5 B5 q~ |3 X] S% X] E! r! E! d! C5 D5 E5 F5 A: H[ G5 61 M[ y{ E! O> &_ H5 61 I5 C~ C{ J5 K5 T] n! L5 `4 M5 o- <3 x| V] F~ =/ R< !3 N5 O5 P5 z~ A| r| Q5 R5 S5 T5 U5 V5 W5 X5 Y5 v( Z5 `5  6 .6 +6 @6 #6 $6 %6 _] @~ &6 *6 =6 -6 ;6 ",
">6 ,6                   '6 )6 !6 ~6 {6 ]6 ^6 /6 (6 _6 :6 <6 [6 }6 |6 16 26 36 46 56 66 76  _ w{ 86 96 U< F< C] Q2 06 a6 b6 c6 d6 e6 f6 g6 h6 e) >2 i6 M> f~ j6 k6 R[ l6 m6 E! R% @4 X^ n6 o6 L] J> p6 q6 @^ r6 n~ +_ s6 0) &_ R% &_ &, H5 X^ t6 2) C{ u6 2) z~ v6 w6 x6 g1 <3 2) F~ U: B} y6 z6 61 A6 92 Z/ P< P} B6 F/ 2' S% C6 D6 E6 F6 G6 H6 I6 J6 !# K6 L6 M6 N6 O6 P6 Q6 R6 S6  ~ T6 U6 V6 ",
"W6 X6                      Y6 Z6 `6  7 .7 +7 @7 (6 #7 $7 %7 &7 *7 =7 -7 ;7 >7 ,7 '7 )7 !7 A: ;' >* ~7 N3 .[ {7 p} ]7 ^7 /7 (7 _7 :7 <7 6! [7 Z( }7 :1 |7 17 27 37 N3 47 H~ ;' O>  : 57 @4 ,' i6 67 e| 77 87 }' z! N/ L} H5 /2 #* 97 %4  : O> A| <3 Y/ K5 2) 07 Z( a7 b7 A| M~ F~ m! o- M5 c7 ** ** &, d7 #: 07 w| e7 z6 6' H~ x! f7 g7 h7 i7 j7 k7 l7 m7 n7 U  o7 p7 q7 r7 s7 t7 u7  ~ v7 w7 x7 ",
"                           K1 y7 z7 A7 B7 C7 D7 E7 F7 G7 H7 I7 J7 K7 L7 M7 N7 i$ O7 P7 Q7  < R7 5' S7 T7 I: U7 d| V7 W7 X7 Y7 Z7 `7  8 .8 w[ 3) x! E5 +8 q6 @8 #8 F~ $8 F~ V{ 9! !3 &, 4) .( i| %8 &8 77 *8 =8 `/ -8 z6 3= ;8 ;' S% O> @4 &_ V: d) G} o- >8 y} n! 82 m~ n6 u| U: F~ ,8 '8 N/ W( k- P> )8 !8 z~ Y4 ~8 3= T5 R_ V] }3 {8 ]8 ^8 /8 (8 _8 :8 <8 [8 }8 |8 18 28 38 48 '> 58 `) 68 78 ",
"                              88 98 08 a8 b8 c8 d8 e8 f8 g8 h8 i8 j8 k8 l8 m8 n8 o8 p8 G3 M< 0' l- q8 E] {2 r8 `_ s8 t8 u8 v8 w8 x8 y8 `3 Y4 $4 z8 A8 B8 C8 D8 E8 #4 U{ 2) &< !3 F8 G8 c- F~ H8 <2 ;/ 77 I8 J8 K8 A| N/ }2 L8 M8 S% X] O> s! N8 '3 w! O8 _1 P8 Q8 N{ e! `] 41 S^ m! o- A| R8 L} b- m~ S8 P} T^ <3 a7 c7 ;' T{ T8 U8 V8 W8 X8 Y8 Z8 `8  9 .9 +9 @9 #9 $9 %9 {; &9 >{ >{ *9 =9 -9 ",
"               ;9 >9          ,9 '9 )9 !9 ~9 {9 ]9 ^9 /9 (9 _9 :9 <9 [9 }9 |9 19 29 39 49 ~7 @3 59 69 Z( 79 89 99 09 a9 b9 c9 d9 e9 f9 07 S( g9 h9 i9 j9 k9 l9 @_ m9 P_ 01  : 61 !3 C{ <3 T^ f1 n9 13 T/ o9 p9 m9 q9 ;' &_ 97 .] r9 .: ;' *( W] -2 R[ s9 _1 N{ t9 u9 p~ U: K5 )3 ~3 2) R{ v9 =3 41 w9 t6 ,8 ,8 `4 `4 A6 ;' y| n! x9 A< K; y9 z9 A9 B9 C9 D9 E9 F9 G9 (^ H9 I9 J9 '> '> K9 L9 M9 ",
"               '6 N9 O9 f4       P9 Q9 R9 S9 T9 U9 V9 W9 X9 Y9 Z9 `9 |9 }9  0 .0 Y< q; +0 z8 @0 #0 _= H[ p) $0 %0 &0 *0 =0 -0 ;0 >0 j6 ,0 Y/ '0 )0 !0 ~0 {0 j6 G4 w[ 07 ^2 ]0 L} Y( w! T] ^0 =< &_ /0 (0 _0 :0 B5 ,8 .: X] O> ;'  ( <0 R% y| C{ O{ [0 n! R[ }0 T] M< |0 10 O{ 20 @4 K5 C{ 30 %4 20 2) -2 -2 ,8 b7 40 1' r! y[ e! Q} ;4 50 60 70 80 90 00 a0 b0 c0 d0 e0 f0 g0 h0 i0 j0 ){ (^ k0 ",
"                  l0 m0 n0 f4    o0 p0 q0 r0 r0 s0 t0 Z| u0 v0 w0 R: m8 x0 y0 z0 A0 e| A] H- w} +, O( W< p6 #' B0 C0 D0 E0 F0 G0 j6 v[ H0 B: I0 J0 K0 L0 M0 (0 N0 O0 T] m| 6' C! P0 P] Y4 =4 H8 T4 Y/ (0 Q0 R0 I} M~ S0 T0 R% E/ Q> U0 C{ o- 2) U: T] z~ w| G( 41 V0 =4 m! 2) `] K[ W0 X0 +^ r! W^ P} P} o- U( ,8 O{ A| V{  [ +] .5 Q] Y0 Z0 `0  a .a +a @a #a c0 $a %a &a *a =a -a ;a >a ,a 'a ",
"                  N@ )a !a ~a N@ {a ]a ^a /a (a _a :a <a [a ]2 C] }a |a 1a 2a 3a z4 z8 4a N> 5a 6a I/ 7a 8a 9a 0a aa ba ca da 7a ea fa C8 i$ ga ha ia A5 ja T: ka Q0 #8 la O0 ma na oa j6 $4 P< P} pa ea qa K0 ra 72 e1 U( +/ S^ 2) U( P} m! O{ 82 z~ sa ta c) O> s! z! F~ ua E/ Y[ &4 N/ O> R% +/ J5 -2 -2 o- 82 m! o- A| V: U: t9 C| x( va wa xa ya za Aa Ba Ca Da Ea Fa b/ Ga Ha Ia Ja Ka La ",
"                     Ma Na Oa Pa Qa Ra Sa Ta Ua Va Wa Xa Ya U~ Za `a  b .b +b @b }3 N> #b E~ H< w! N0 `3 j9 $b e9 %b &b *b =b N^ -b ;b >b ,b 'b )b !b T[ _0 ~b {b f9 ]b ra ^b /b (b k9 #8 v[ '4 _1 (0 ea @_ _b {b :b Y4 e1 P} P} 2) o- ]3 e1 2) -2 T] Q8 sa !4 d7 &_ %, z! 71 E! <b M} }2 X^ R% n| 12 2) [b H] Y4 M~ F~ F~ -2 e1 }b |b 1b 3a 2b 3b 4b 5b 6b 7b 8b 9b 0b ab bb cb db eb fb gb hb ",
"                        ib jb kb lb mb nb ob pb qb rb sb tb ub vb +0 wb xb yb zb U~ $, d- Ab b) s9 O0 Bb Cb &b Db Eb Fb Gb Hb Ib *b Jb Kb Lb Mb Nb Ob Pb Qb Rb Sb Tb Ub Vb Wb Xb Eb Yb P^ `3 Zb `b  c #8 .c +c @c T: z~ o! 2) x| #c F~ w| <3 T^ z! B~ $c sa %c S0 )3 K[ 1' S% E! k- j- X4 S> O> .: z| x| E{ &c S[ Q{ <3 O{ o- U{ }b *c =c c' -c ;c >c ,c 'c )c ${ !c ~c {c ]c ^c /c (c _c :c <c ",
"                           [c }c |c 1c 2c ;- 3c 4c 5c 6c 7c I; 8c 9c 0c ac bc zb =' cc 1= N> |0 z< X< dc ec fc n8 gc hc ic jc fc kc lc mc nc oc pc qc rc sc tc uc vc 09 wc xc yc zc uc Ac Bc Sb *8 Cc Dc 02 Ec Fc (= N{ z~ Y4 T] U( T] 07 g1 -2 Gc Hc b7 `4 82 O{ q! X^ K[ &_ .: s! O> O> &_ X^ E! '8 =4 p6 Ic O( x! ]3 <3 <3 o! Jc Kc c1 U^ Lc Mc Nc Oc Pc Qc Rc Sc Tc Uc Vc Wc Xc Yc Zc `c  d ",
"                           ,9 .d +d @d #d $d 3c %d &d *d w: Z; =d -d ;d >d ,d 'd b) S_ %2 D~ 8- )d !d ~d {d ]d ^d /d (d _d M0 c| @' :d <d [d }d |d 1d 2d 3d 4d 5d Pb 6d 7d 8d 9d 0d ad *8 bd cd dd ed fd '4 gd ra ra hd 07 02 id <3 w| T] T^ o- N% &_ jd kd ld -2 2) V{ O> /2 md ,8 >/ R% O> L} nd d7 M< od 9| pd 2) >8 x| M~ qd e1 hd s| ^= rd sd td ud vd wd xd yd zd Ad Bd Cd t@ Dd Ed Fd Gd ",
"                              Hd Id Jd Kd Ld Md Nd Od G] Pd Qd Rd Sd Td Ud Za Vd Wd N~  ( Xd [' () Yd Zd Ac `d  e .e +e @e  c #e $e %e &e *e =e -e ;e >e ,e 'e )e !e ~e {e ]e ^e gc /d /e (e _e :e <e [e Dc }e Q0 O< h1 w| |e {0 1e T] <3 T^ 2e O> f! Q% 3e 4e 5e 6e 1' E! E! q! -2 K5 X] E! M} &4 md N0 7e W< 8e S0 9e m9 Z/ A} Z4 0e 72 ae be ce de ee fe ge he ie je ke le me ne oe pe qe re ",
"                              se te ue ve we xe ye ze Ae Be Ce De Ee Fe Ud Ge <' He w) l- N> p$ Ie Ac fc Je /d Ke Le ;b Me Ne Oe Pe E4 Qe v8 Re Se Te Ue Ve We Xe Ye Ze gc `e  f .f +f 3d @f #f $f Q3 Ne [e %f &f *f =f }0 R0 na  c  * -f ;f 4e >f W0 O% ,f G5 'f )f K[ !f ~f N8 #c W0  : Y[ 61 &, 4) y} U: #[ @4 &_ '3 O8 Z: p| u6 -2 9e M~ V] r1 {f ]f ^f /f (f _f :f <f [f }f |f 1f 2f 3f 4f ",
"                              O@ 5f 6f 7f 8f 9f 0f af bf cf df ef ff gf hf -c |) if jf )3 H] _1 kf 1d lf mf nf Te of pf qf rf sf tf uf vf wf xf Ye Pb yf zf 5d of Af (d Bf Cf Df Ef xc Cf Ff Gf Hf If Jf Kf Lf Mf }0 Nf Of Ic <e Pf Qf Rf Sf /0 jd jd jd jd E! E! @4 @4 S0 O{ `4 1' N/ L} !3 Tf 3= T5 O> O> N/ z6 %4 #_ e1 82 C{ 01 z| 12 -2 Uf Vf {f Wf Xf Yf Zf `f  g .g +g @g #g $g %g &g *g ",
"                              =$ =g -g ;g )% >g ,g 'g )g !g ~g {g ]g ^g /g (g _g :g <g [g }g |g 1g 2g Ef 3g gc 4g 5g 6g 7g 8g 9g 0g ag bg cg N0 1e dg (0 eg fg gg hg +e ig jg kg lg mg ng og pg qg rg sg  f tg ug vg }0 /3 wg xg yg zg fd >8 /0 &_ @4 K[ K[ jd K[ 13 X] t6 Z4 T0 S> M} Ag Ag Ag Bg Cg  : T5 z6 z6 *4 X] V: '3 F~ Q[ r~ 4) d7 A} Dg Eg Fg Aa Gg Hg Ig Jg Kg Lg Mg Ng Og Pg Qg Rg ",
"                              Sg Tg Ug D& Vg Wg Xg Yg Zg `g  h .h +h @h <1 {7 B< #h hf $h %h &h *h =h -h 1g ;h gc ca >h ,h 'h )h !h ~h {h E8 K8 ]h T[ /0 ^h /h (h _h :h <h [h }h |h 1h 2h 3h 4h 5h 6h 7h 8h 9h 0h ah bh ch dh pf eh fh gh hh L0 ih jh >f K[ &_ X^ X^ K[ kh lh H{ mh nh oh ph Ag qh Bg M} M} 61 61 Y[ &_ 20 O} U_ rh h~ c= I^ sh th uh vh wh xh yh zh Ah Bh Ch Dh Eh Fh Gh Hh Ih ",
"                           Jh Kh Lh Mh Nh Oh Ph Qh Rh A] Sh Th Uh Vh 6a  < Wh H~ Xh Yh p) Zh &h `h  i .i +i @i #i $i %i &i *i =i -i ;i ea ,0 Sf T^ >i ,i 'i )i !i ~i {i pf ]i ^i /i (i /i _i :i <i [i }i |i 1i 2i 3i 4i 5i bh 6i _d 7i 8i 9i ed [0 0i ai K[ n6 n6 jd bi ci di ei fi ph gi hi Ag qh ii qh 61 61 ji L} L} T5 Q> V_ $8 $( N; ki li mi ni oi pi qi ri si ti ui vi wi xi yi zi Ai Bi ",
"                     Ci Di Ei Fi Gi Hi Ii 85 Ji Ki Li Mi Ni Oi A] Pi 0| (g Qi -_ r; .[ Ri Si Ti Ui Vi Wi Xi Yi Zi `i  j q~ q~ H_ .j `/ +j q9 51 &_ k| @j #j $j 3h %j &j *j =j -j ;j >j ,j 'j )j !j ~j {j ]j ^j /j (j _j 4i j6 :j <j +e [j }j ]d fg |j 1j @4 @4 jd K[  : W4 61 61 _2 ji 2j ii qh ii Ag 3j 4j M} M} 61 3= w~ P{ l6 f) O; N; 5j 6j 7j 8j 9j 0j aj bj cj dj ej fj gj hj ij jj kj lj ",
"                  /~ mj e4 E, nj oj pj qj rj sj tj uj vj wj xj P0 yj e) zj Aj 3' U~ t! X_ Bj Cj Dj Ej Fj Gj 77 Hj f! 1' O> R% ;' X] T4 )3 Ij Jj Kj O> Lj Mj Nj Oj Pj Qj Rj Sj Tj Uj Vj Wj Xj Yj Zj `j  k .k +k @k #k $k lg %k ug /h &k Se /e Pb )e f~ Y( X^ &_ X^ <2 L} L} !3 &, X^ S> *k (2 =k -k Ag ;k ii ji (2 >k 3= Q/ C< E! w~ ** ,k h- 'k )k !k ~k {k ]k ^k /k (k _k :k <k [k }k |k 1k 2k ",
"            e4 8^ N@       t3 3k 4k 5k 6k 7k 8k 9k 0k ak bk ck e| dk [' }a `{ ek N> f| fk gk hk &i ik c| 3a Ic [b >' O> E! E/ O> X^ &_ Ij jk kk ei lk W{ R] mk .e nk ok pk qk rk sk tk uk vk wk xk yk zk Ak Bk Ck Dk /7 Ek Fk Gk Hk Ik Jk Kk Lk Mk v[ ,' 86 T5 Y[ 61 61 L} W4 P> X] ;' O> @4 L} F8 ph J_ H{ 2j 61 (2 z6 L} W4 H5 O; 3= u< h- Nk Ok Pk Qk Rk Sk Tk Uk Vk Wk Xk Yk [k Zk `k /$  l ",
".l Ci +l @l e4             #l $l %l &l *l =l -l ;l h6 >l #' R: ,l 'l A] )l !l ~l {l #8 E8 ]l ^l /l Qb (l O] g5 _l N( C4 @j )2 `] O> W0 I5 J{ :l J{ <l (2 O> [g [l }l |l 1l 2l 3l 4l 5l 6l 7l 8l 9l 0l al bl cl dl el 8h fl gl k9 T^ hl il  j +* <0 <b !3 !2 0) !2 (2 (2 (2 L} *k E! ;' ;' X] Cg F8 jl :l :l B( kl &3 qh ll ;k !3 ** z6 O; P; ml 7j nl ol pl ql rl sl tl ul vl wl xl yl zl Al Bl ",
"Cl Dl El :;             N@ Fl Gl Hl Il Jl Kl Ll Ml Nl 29 q; Ol Za C4 g9 */ Pl P> @: Ql Rl Sl Tl Ul Vl Wl Xl Yl Zl `l  m .m hg +m @m +m 5d #m s6 J] <l 61 /2 V{ W< $m %m &m *m =m -m ;m xk >m ,m 'm )m !m ~m {m ]m ^m /m (m /d _m :m @4 :2 X4 61 <m L} 53 O4 M[ 0) [m !3 z6 z6 }m W{ ;' R> R> |m _2 M} J_ 1m :l J] W> 2m J{ J{ 3m }m ** ** h- Nk 4m 5m 6m 7m 8m 9m 0m am bm cm dm em fm gm hm im ",
"jm km lm                N@ mm nm om pm qm rm sm tm 29 um vm wm f9 r8 H[ [g R> &_ xm ea :j ym v8 zm Am Bm Cm Dm Em Fm Gm Hm Im Jm Km Lm Mm Nm Om Pm Qm Rm W4 +/ J[ f9 Sm Tm Um Vm -m Wm al Xm Ym Zm `m !m  n .n +n @n #n $n %n &n r| @4 =3 &4 *n hh =n -n &j ;n >n ,n 'n )n !n -b 10 |= |= ;' -8 X^ }2 mh :l 1m ~n ~n {n ]n J{ J] ji ^n z6 =* /n (n _n :n <n [n }n |n 1n 2n 3n 4n 5n 6n G9 7n 8n ",
"N@                      N@ 9n 0n an bn cn dn en fn gn hn in A] jn kn @: R% X] %4 il v[ ^h ln mn nn on pn qn rn sn tn un vn wn xn yn zn zn An Bn Cn Dn En Fn Gn [0 Hn In Jn Kn Ln Mn Nn On Pn Qn Rn Sn Tn Un Vn Wn Xn 3d %b Yn `: l6 Zn `n  o .o +o @o #o $o %o &o *o =o -o ;o >o ,o 'o )o !o @/ |3 ,' ai M} :l t~ {n ~o ~o 1m {o ]o F/ z6 z6 N; ^o /o (o _o :o <o [o }o |o 1o 2o 3o 3o 4o 5o 6o ",
"                        :; se 7o 8o 9o 0o ao bo co do eo 29 9| j$ 7a E/ C< &, fo Ec P^ bh go ho io jo ko lo mo no oo po qo ro so to uo vo wo xo yo zo Ao Bo Co Do Eo `& Fo Go Ho Io Jo Ko Lo Mo No Oo Oo bl Po Qo Ro So Hb To Uo Vo Wo Xo Po Yo Zo `o  p .p +p @p #p $p Wj %p &p yo yo *p =p -p ;p 0d >p ^2 ,p ~' 'p )p !p {o ~p {p ]p Tf (2 }m ^p /p :^ (p _p :p <p [p }p |p 1p 2p 3p 4p 5p 6p ",
":; E, #l 7p             8p 9p 0p ap bp cp dp ep fp gp hp Y< ip n} H] *4 $2 !3 _2 jp Fk kp lp mp np op pp qp rp sp tp up vp wp xp yp zp Ap Bp Cp Dp Ep Fp Gp Hp Ip Jp Kp ym Kn Lp Mp Np Op Pp Qp Rp Pp Sp Tp Up Vp Wp Xp Yp Zp `p  q .q .q +q @q #q $q %q &q *q Ap =q -q ;q >q to vp ,q ,q 'q )q !q ~q {q ]q ^q /q (q _q :q !p <q [q }q |q |q =k h- 1q 7b 2q 3q 4q 5q 6q 7q 8q 9q 0q aq Dh bq cq ",
"dq eq fq gq hq iq iq jq kq lq mq nq oq pq qq rq Oi sq tq eo ip [7 X] $2 O4 uq *k vq wq xq yq zq Aq Bq Cq Cq Dq Eq Fq Gq Hq Iq Jq Kq wp Lq Mq Nq Oq Pq Qq Rq Sq Tq Uq Vq Wq Xq Yq Zq `q  r .r +r @r @r #r $r %r &r *r =r -r ;r >r >r ,r 'r )r !r ~r {r ]r ^r /r (r _r :r <r [r so xo wo }r yp to |r xp 1r 2r =e 3r (q 4r 7) 5r <q {n {n L( M( ii 6r 7r 8r 9r 0r ar br cr dr er fr gr hr ir jr kr ",
"lr mr nr or pr qr rr pr sr tr ur vr wr xr yr zr Ar Br Cr Dr Er c- Fr ;( @[ ;k n~ Gr Hr Ir Jr Kr Lr Mr Nr Or Pr Eq Qr Rr Sr Tr Ur Vr Wr Xr Yr Zr <r `r  s .s +s @s Ko #s $s %s &s *s =s Po -s ;s >s ,s 's Vo )s !s ~s {s ]s ^s /s (s 4l _s :s <s [s }s |s 1s 2s 3s 4s 5s 6s 7s Qr 8s ,q 9s 0s !j as ;q bs cs ds es fs gs D; ~n :l J] 2m C; hs is js ks ls ms ns os ps qs rs ss ts [k us vs ws xs ",
"ys zs As Bs Cs Ds Es Fs Fs Bs Gs Hs Is Js Ks Ls Ms Ns Os Ps Qs Rs Ss E; Ts Us Vs Ws )h Xs Ys Zs `s  t .t +t @t #t $t %t &t *t =t -t ;t +i >t ,t 't )t !t ~t {t #o ]t ^t /t /t _r (t _t :t Mo <t [t }t |t 1t 2t 3t 4t 5t 6t 7t 8t =m 9t 0t at bt ct dt et ft gt ht it jt kt lt mt nt wo 9s ;q ot ot pt qt .k rt st tt ut vt wt js x{ W> ~n xt yt zt At ml Bt Ct Dt Et Ft Gt Ht It Jt 2{ Kt Lt Mt ",
"Nt Ot Pt Qt Rt St Tt Ut Vt Ot Wt Xt Yt Zt `t  u (l .u +u #: 0) @u x{ J{ x{ &3 l9 #u $u %u &u *u =u -u ;u >u ,u 'u )u !u ~u {u ]u ^u /u (u _u :u <u [u }u |u 1u 2u 3u 4u On 5u 6u 7u 8u 9u 0u au bu cu du eu fu gu hu iu ju ku lu mu nu ou pu qu ru su tu uu vu wu xu yu zu Au Bu Cu Du /r Eu Fu Gu mo Hu Iu Ju Ku Lu Mu [, -, M( B( Nu i! Ou Pu Qu Ru Su Tu I| Uu Vu Wu Xu Yu Zu `u  v .v +v @v ",
"#v $v %v &v *v =v -v ;v >v ,v 'v )v !v ~v x] {v  < ]v a- ^v @[ u~ ~n Nu B( K< /v (v _v :v <v [v }v |v 1v 2v 3v 4v 5v 6v #: R] =4 }7 ua 7v O~ 8v 9v 0v av bv cv dv ev fv gv hv iv jv kv lv mv nv ov pv qv rv sv hu tv uv vv wv xv yv zv Av Bv Cv Dv Ev &8 z: Fv Gv Hv Iv  j Jv Kv Lv Mv Nv Ov Pv Qv Rv Sv Tv Uv Vv Wv Xv Yv Zv }m uq D_ `v u~ hs  w .w +w @w #w $w %w &w *w =w -w ;w >w ,w 'w )w ",
"!w ~w {w ]w ^w /w (w _w :w <w [w }w ff |w b| 1w b- 2w ;( 0) C( {' u~ t~ B( %( 3w 4w 5w 6w 7w 8w 9w 0w aw bw 3v cw |) G4 R] #m %4 C< w~ =* dw ew fw gw hw iw jw kw lw mw nw ow pw qw rw sw tw uw vw ww xw yw zw Aw Bw Cw Dw Ew Fw Gw Hw Iw Jw Kw Lw E~ F~ F~ B~ Mw bh dg Nw Ow E} Pw Qw Rw Sw Tw Uw Vw Ww Xw Yw Zw `w  x 3= R7 /n Tf .x 'p i! +x @x 7= #x $x %x &x *x =x -x ;x >x ,x 'x )x !x ~x ",
";v {x ]x ^x /x (x _x :x <x [x }x |x 1x 2x I; s; X^ .] y; 0) K( 3x 4x 5x N: ;( 6x 7x 8x 9x 0x ax bx cx dx ex fx gx d) T( R8 hx ix jx kx Pu lx mx nx ox px qx rx sx tx ux vx wx xx yx zx Ax Bx Cx Dx Ex Fx Gx Hx Ix Jx Kx Lx Mx Nx Ox Px Qx Rx Sx Tx a- a- 6e Ux )8 Vx Wx Xx Yx H[ Zx `x  y .y +y @y #y $y %y &y *y =y -y >k 5' /n ;y >y ,y 'y )y F/ !y ~y {y ]y ^y /y (y _y :y <y [y }y |y 1y 2y ",
"3y 4y 5y 6y 7y 8y 9y 0y ay by cy dy ey 31 f= 3= fy r! O/ gy hy 8) B] Rs @u K< iy jy ky ly my ny oy 7w py qy ry sy +^ ty uy vy wy xy yy zy Ay By Cy Dy Ey Fy Gy Hy Iy Jy Ky Ly My Ny Oy Py Qy Ry Sy Ty Uy Po Vy Wy Xy Yy s5 Zy `y  z .z +z @z #z $z %z r! &z :l i! *z =z -z {0  * ,d ;z >z ,z 'z )z !z ~z {z ]z ^z /z *e (z =( h- _z :z <z <z ~n [z $5 }z |z 1z 2z 3z 4z 5z >g 6z 7z 8z 9z 0z az ",
"bz cz dz ez fz cz gz hz iz jz kz lz mz X3 k! {4 %* nz 3= -( oz pz K( -( 0) qz rz sz tz uz vz wz xz yz zz Az Bz 1' C< ;y Cz Dz Ez Fz Gz Hz ;< Iz v) Jz Kz Lz Mz 5i Nz Oz Pz Qz Rz Sz Tz Uz Vz Wz Xz Yz Zz `z Ku  A .A +A @A #A $A %A &A *A =A -A ;A >A ,A Ss 'A )A !A u~ ~A {A ]A @_ ^A /A (A _A :A <A [A }A |A 1A 2A Z3 Tf =* 2' 3A 4A )p )p {o ]n ii &, D{ 5A 6A 7A 8A 9A 0A aA bA cA dA eA fA ",
"gA hA iA jA kA lA mA nA oA pA qA rA G| sA -( ,/ '' <b }m )' oz B] y{ L8 t- X0 tA uA vA wA xA uz yA zA AA BA CA DA EA Us Hz FA GA Dz vy HA IA JA KA LA MA NA OA PA QA RA SA Qj TA UA VA WA XA YA ZA `A  B .B +B @B #B $B %B &B *B =B -B ;B >B ,B 'B )B U> !B ~B {B )A ]B ^B V( >' [g /B (B ck _B :B <B [B }B |B 1B 2B kl 3B 4B 5B 6B 7B )p fs u~ W> x{ 3= ml 8B 9B 0B aB bB cB cB dB eB fB gB hB ",
"iB jB kB lB mB nB oB pB qB rB sB tB uB vB &^ wB -8 !3 z6 ^v @[ xB I< yB !3 O} zB AB >j BB CB DB EB EB FB GB HB IB :7 P< &, JB KB LB MB NB jk OB PB QB RB ;b SB TB UB VB WB XB YB ZB `B  C .C +C @C `A #C $C %C &C *C =C =i ^e -C ;C >C ,C 'C )C !C ~C {C ]C ^C /C Ez (C _C :C <C [C }C |C 1C 2C 3C 4C 5C 6C 7C 8C 9C B( gs gs C; 0C aC )p {' bC x{ L( !3 86 cC dC eC fC gC hC iC jC kC lC mC nC ",
"oC pC qC rC sC tC uC vC wC xC yC zC AC k! BC CC R_ (2 (2 53 DC %_ EC ;/ ]0 O{ FC GC HC IC JC KC LC MC NC OC PC QC RC SC TC /v UC VC WC q~ XC YC ZC `C TB  D .D +D @D #D $D %D &D *D =D -D ;D >D ,D 'D )D !D ~D {D ]D ^D /D (D _D :D <D [D }D |D 1D Rs 2D 3D 4D 5D 6D 7D JA .4 8D 9D 0D aD bD cD dD eD fD gD hD =3 ~n ~o 5r [q D; iD <z <z i! W> x{ ;k (2 N/ b- jD kD lD mD nD oD pD qD rD sD tD ",
"uD vD wD xD yD zD AD BD CD DD ED FD GD HD ID JD KD z6 (2 L} %4 O[ LD =2 O> y} MD ND OD PD QD RD SD KC TD UD VD WD XD YD ZD `D  E .E +E @E #E $E %E &E *E =E -E ;E >E ,E 'E )E !E ~E {E ]E ^E /E (E _E :E <E [E }E |E 1E 2E 3E 4E 5E 6E .m 7E 8E 9E 0E aE bE cE dE eE fE gE hE iE jE py kE uz lE 0x mE -y nE Kj oE pE pE pE h! 3x qE )p rE i! 8) L( -k Bg <2 O% sE tE uE vE wE xE yE zE AE BE CE ",
"DE oC EE FE GE HE IE JE KE LE ME NE OE PE QE RE L; *4 !3 !3 Q< SE TE UE T4 VE WE XE YE ZE `E  F .F +F @F #F $F %F &F *F =F -F ;F >F ,F 'F )F !F ~F {F ]F ^F /F (F _F :F <F [F }F |F 1F 2F 3F 4F 5F 6F 7F 8F 8F 9F 0F aF bF st cF dF eF fF gF _e hF iF DA jF kF lF mF nF oF pF qF rF sF tF uF lE vF wF xF yF zF h! AF AF :q !p {' t~ i! 5r {' ~' ;k kl qh M} !3 BF CF DF EF FF GF HF IF JF KF LF ",
"MF NF OF PF QF RF SF TF UF VF WF XF YF ZF R; `F n- @4 !3 6'  G .G +G @G #G $G %G &G *G =G -G ;G >G ,G 'G )G !G ~G {G ]G %F ^G /G (G _G :G <G [G }G |G 1G 2G 3G 4G 5G 6G 7G 8G 9G 0G aG bG cG dG eG fG gG hG iG jG kG lG mG 9u nG oG pG qG rG sG tG uG vG -F wG xG yG zG *F 0w AG BG BG CG DG EG FG GG HG IG +/ JG KG LG MG ~o {' NG t~ 7) !p {o J{ 4B <m &4 61 (2 OG PG QG RG SG TG UG VG WG XG ",
"YG ZG `G  H .H +H @H #H $H %H &H *H =H -H ;H e' O{ O>  : %4 */ >H ,H 'H 6g )H !H ~H {H ]H ^H /H (H _H :H <H [H }H |H 1H 2H 3H 4H 5H 6H 7H 8H 9H 0H aH bH cH dH eH fH gH hH iH jH kH lH mH nH oH pH qH rH sH tH uH vH wH xH yH zH AH BH CH DH EH FH 3t GH HH IH JH KH LH MH NH OH PH QH RH SH TH UH VH WH XH YH <2 LG _q ZH !p {' hy `H pE  I 7) {o =k ** 3= (2 (2 n9 @4 W^ .I '1 +I @I #I $I %I ",
"&I *I =I -I ;I >I ,I 'I )I !I ~I {I ]I ^I /I (I _I ~2 :I d7 _1 <I [I }I -b y8 |I 1I 2I 3I 4I 5I 6I 7I 8I 9I 0I aI bI cI dI eI fI gI hI iI jI kI lI mI nI oI pI qI rI sI tI uI vI wI xI yI zI AI BI CI DI EI FI GI HI II JI KI LI MI NI OI gv PI QI RI SI TI UI VI WI XI YI ZI `I  J .J +J @J #J $J %J &J *J =J <0 )p LG LG 'p -J 3x JG :q ZH :q {o Ag }m }m }m L} jd bi kh 61 !3 ;J >J ,J 'J )J ",
"!J ~J {J ]J ^J /J (J _J :J <J [J }J |J 1J 2J 3J 4J Q_ S^ Me 5J 6J 7J 8J gg 9J ;E 0J aJ bJ cJ dJ eJ fJ 7I gJ hJ iJ jJ iJ kJ lJ mJ nJ oJ pJ qJ rJ sJ tJ uJ vJ wJ xJ yJ zJ AJ BJ CJ DJ EJ 3F FJ GJ HJ IJ JJ KJ LJ MJ NJ OJ PJ KI QJ RJ SJ TJ UJ VJ WJ XJ YJ ZJ `J  K SJ .K +K @K #K $K %K &K *K =K -K ;K >K ,K 'K x6 <z _q _q )p <z h! oE )K ZH pE fs !K Tf d= =( .: O> X^ <2 M} ~K {K ]K ^K /K (K ",
"_K :K <K [K }K |K 1K 2K 3K 4K 5K 6K 7K 8K 9K 0K aK ^0 Me bK We cK dK -e eK fK gK hK iK jK kK lK mK nK oK pK qK rK sK tK uK vK wK xK yK zK AK BK CK DK EK FK GK HK IK JK KK LK MK NK OK PK QK RK SK TK UK VK WK XK GI YK ZK YI QJ `K  L .L +L @L #L $L %L &L `J  K *L =L -L ;L #K >L ,L 'L )L !L ~L {L ]L ^L /L {3 KG LG KG LG KG pE /q )K pE !p (L (q i~ _L S_ :L R> ;' 9! ** z6 $5 /K h' <L [L ",
"ve }L |L 1L 2L 3L 4L 5L 6L 7L 8L 9L 0L aL bL cL dL O} eL fL gL hL 4H iL jL kL lL mL nL oL pL qL rL sL qJ tL uL vL wL xL yL zL AL BL CL DL EL FL GL HL IL JL KL LL ML NL OL PL QL RL SL TL UL VL WL XL YL ZL `L  M .M +M sH @M ZI #M $M %M &M *M =M -M ;M >M ,M 'M )M  L !M ~M {M ]M ^M /M (M _M :M <M [M }M |M z6 7) 1M MG _q _q pE 5r <q 2M {' -J 7) :q 3M 4M 5M |= V( |= N; P; 6M 7M 8M 9M 0M ",
"aM bM bM aM cM dM eM fM gM gM hM iM jM kM lM mM nM z< YC oM pM qM rM sM tM .G uM vM wM xM yM zM AM BM CM DM EM FM GM EM HM IM JM KM LM MM NM YA OM PM QM RM SM TM UM VM WM XM YM ZM `M  N .N +N @N GL #N $N %N &N *N =N -N ZJ ;N >N ,N 'N )N !N ~N {N ]N ^N /N (N _N /N !M :N <N [N }N |N 1N nL 2N 3N 4N 5N 6N 7N /q 8N :q  I ZH (q {o ~n ~n {' -J {n pE )K 9N 0N aN N; -' bN P; cN dN eN fN gN ",
"hN iN jN kN lN mN nN oN pN qN rN sN tN uN vN wN xN U[ yN zN AN BN CN DN EN FN GN HN IN JN KN LN MN NN ON PN QN RN SN RN TN UN VN AL WN XN YN ZN `N  O .O +O @O #O $O %O &O *O =O -O ;O >O ,O 'O )O !O ~O {O ]O ^O /O (O _O :O <O [O }O |O 1O 2O DI 3O 4O ^N 5O _N 4O 6O 7O ,M KJ 8O yH OD 9O 0O aO bO cO dO eO jk J{ NB NB )K :q 7) qE bC J] fO qE D; {' 7) rE gO hO iO W( -^ jO kO lO mO nO oO ",
"pO qO rO D7 sO tO uO vO wO xO yO zO AO BO CO DO co EO FO GO HO IO JO KO LO Z7 MO NO OO PO QO RO SO TO UO VO WO XO YO ZO `O  P .P +P @P #P $P %P .O &P *P =P -P ;P >P ,P 'P )P !P ~P {P ]P ^P /P (P _P :P <P [P }P |P 1P 2P 3P 4P 5P 6P 7P 8P )N 9P 0P aP bP ^N cP (N dP eP KJ fP ZK gP hP iP jP kP lP mP nP oP S> *n pP /2 jk qP h! ]n J] G/ W> rP Ou ~4 3x 5r {n S5 sP 9! f- tP uP vP wP xP yP ",
"zP AP BP CP DP EP FP GP HP IP JP KP LP MP NP OP PP QP RP SP TP UP VP 4w >j WP XP YP ZP `P  Q .Q +Q @Q #Q $Q %Q &Q *Q =Q =Q -Q ;Q >Q ,Q 'Q )Q !Q ~Q {Q ^N ]Q ^Q /Q (Q VO _Q :Q <Q [Q }Q |Q 1Q 2Q 3Q 4Q 5Q 6Q 7Q 8Q 9Q 0Q aQ bQ cQ dQ eQ fQ gQ hQ 7P iQ 0P jQ kQ ]Q ,M  K lQ mQ nQ oQ pQ iP qQ rQ sQ tQ uQ vQ wQ `3 WC xQ yQ zQ kh AQ AQ S< BQ ~4 u~ C; CQ DQ Ou EQ FQ <m &, u< GQ HQ IQ JQ KQ LQ ",
"MQ NQ OQ PQ QQ RQ SQ TQ UQ VQ WQ XQ YQ ZQ `Q  R `t .R +R @R #R $R %R &R *R =R -R ;R >R ,R 'R )R NJ !R @Q ~R {R ]R ^R /R (R (R _R :R :R <R [R {Q }R |R _N 1R 2R 3R 4R 5R 6R 7R 8R 9R 0R aR bR cR dR eR fR gR hR iR jR kR lR mR nR oR pR qR rR sR tR uR vR wR xR yR zR AR BR CR DR ER FR GR HR sQ IR JR KR LR MR NR OR ha H_ PR k| n6 QR RR Ay SR TR 2m UR VR WR 6r XR YR >k z6 ZR `R  S =] .S +S ",
"@S #S $S %S &S *S =S -S ;S >S ,S 'S )S !S ~S 2^ {S ]S ^S /S (S _S :S <S [S }S |S 1S 2N 2S 3S 4S 5S 1N {H 6S gG 7S 8S 8S 9S 0S aS 0S bS cS dS eS fS mQ 8O gS hS iS jS kS Bn lS mS nS oS pS qS rS sS tS uS vS wS xS yS OO zS AS BS CS DS ES FS GS HS IS JS KS LS MS NS OS CR PS QS RS SS OO TS IR US VS WS XS YS ZS hc `S  T .T +T @T =< (1 #T $T %T &T !2 *T =T -T {4 O; ;T >T ^o ,T !/ 'T )T !T ",
"~T {T ]T ^T /T (T _T ]T :T <T [T }T |T 1T 2T 3T 4T 5T 6T 7T 8T 9T 0T aT bT cT dT eT fT gT hT iT wM jT uH kT lT mT nT oT pT qT rT sT tT uT vT wT LS xT yT zT AT BT CT DT ET FT GT HT IT JT 'h KT LT MT u5 NT &B OT pt PT QT RT ST TT UT VT WT XT YT ZT `T  U .U +U OS @U #U $U %U &U *U =U -U ;U >U ,U 'U )U !U ~U {U ]U ^U /U (U _U R4 :U <U [U }U |U 1U w~ 2U 3U 4U 5U 6U 7U ^o 8U 9U 0U aU bU ",
"cU dU eU fU gU hU hU iU /T hU (T jU kU lU mU nU oU pU qU rU sU tU uU vU wU xU yU zU AU 2N BU CU wk *U DU EU GI XK FU GU HU IU JU KU LU MU NU OU PU QU RU ]H SU TU UU VU WU XU YU ZU `U Qj  V .V +V _G @V #V $V %V &V *V =V -V ;V >V ,V 'V )V !V ~V {V ]V ^V /V OU (V _V (V :V &U <V [V }V |V 1V 2V 3V 4V 5V 6V 7V 8V 9V 0V aV bV cV dV eV fV gV hV iV jV kV ^v lV mV nV oV pV qV rV sV tV uV vV ",
"wV xV yV zV zV nU dU dU eU nU AV BV CV xV lU DV EV FV GV HV IV JV Uj KV yx LV MV NV OV jR OO 0J PV QV RV SV TV UV VV WV XV YV ZV `V `V  W II .W 8O +W @W #W $W %W &W *W =W -W ;W >W ,W 7h 'W bT )W !W ~W {W UD ]W ^W /W (W _W :W <W [W }W |W 1W 2W 3W 4W 5W 6W 7W 8W 9W 0W aW bW cW dW eW fW gW hW iW jW kW lW  D mW nW oW pW qW rW sW tW uW vW wW xW yW zW 6) AW #] BW CW DW EW FW GW HW IW JW ",
"KW LW oU MW NW lU lU yV OW yV zV PW QW RW MW SW TW UW VW WW XW YW ZW `W  X .X +X @X #X $X wk PV %X 2S &X *X =X =X -X ;X >X ,X ST 'X )X !X ~X {X ]X ^X /X @W (X RO _X :X <X [X }X |X 5h 1X 2X ,n 3X 4X 5X 6X 7X 8X 9X PT 0X aX bX .B cX dX eX fX fX gX hX iX jX kX lX mX nX xk 2S oX pX qX rX sX iW iW tX uX vX wX xX yX Oj zX AX BX CX DX EX FX GX HX IX JX KX gs LX MX NX OX PX iV QX RX SX TX ",
"UX VX WX XX YX ZX RW MW xV lU wV `X  Y .Y +Y @Y #Y $Y %Y &Y *Y =Y -Y ;Y >Y ,Y 'Y )Y !Y ~Y OO gT {Y ]Y mL ^Y /Y (Y _Y AS :Y :Y >X iX <Y [Y }Y |Y nQ zR 1Y 2Y 3Y 4Y 5Y 6Y 9X Qe @i 7Y 8Y 9Y 0Y 2X aY bY cY dY eY fY gY hY iY jY kY lY [Y mY nY oY pY qY rY sY tY lX uY vY wY xY yY zY AY BY CY DY EY FY GY HY IY JY KY LY MY NY OY PY QY RY SY TY UY VY WY XY YY ZY `Y  Z .Z +Z @Z #Z $Z %Z FW &Z ",
"*Z =Z -Z TW ;Z >Z ,Z LW ZX RW LW 'Z )Z !Z ~Z {Z ]Z ^Z /Z (Z _Z :Z <Z [Z `q }Z |Z 1Z $X 2Z 3Z gT nw 4Z 5Z 6Z 7Z 8Z 9Z mR >X 0Z aZ bZ cZ dZ eZ fZ gZ XK hZ iZ jZ kZ lZ mZ nZ oZ pZ qZ rZ sZ tZ uZ vZ wZ xZ sM yZ zZ AZ BZ CZ DZ EZ FZ _t GZ HZ IZ JZ KZ LZ MZ NZ OZ PZ QZ RZ SZ TZ UZ VZ WZ XZ YZ ZZ `Z  ` .` +` @` #` $` %` 'G 3w &` *` =` -` ;` >` ,` '` )` hr !` ~` {` ]` ^` /` (` _` :` <` [` ",
"}` |` 1` kU 2` 3` 4` 5` 6` ,Z 7` 8` 9` 0` a` b` c` d` e` f` g` h` i` j` k` l` m` n` o` p` 3Z xY q` ;m r` 6Z s` t` u` v` w` x` y` z` A` B` C` D` E` F` G` H` I` J` K` L` M` 5H Pj N` O` =i P` Y7 Q` ,n R` -0 S` T` U` V` W` X` Y` Z` ``   .. .+ .@ .# .$ .% .& .* .= .- .; .> ., .' .) .! .CY ~ .ZZ { .] .^ ./ .Wr ( ._ .: .< .[ .Mu } .| .1 .2 .3 .4 .5 .6 .7 .8 .9 .0 .a .b .c .d .e .f .g .h .",
"i .j .k .l .m .n .o .p .TW 5` q .r .s .t .u .v .w .x .y .z .A .B .C .D .E .F .fa G .H .2Z I .J .K .L .M .N .O .P .Q .R .S .Yj T .U .V .W .X .Y .Z .` . .....Kn +..K` @..=n #..Ti $..%..&..*..=..-..;..>..,..'..)..!..~..{..]..^../..(.._..:..<..[..BZ }..|..1..2..3..4..5..6..{..7..8..9..0..a..b..c..d..e..f..g..h..i..j..k..l..m..7B n..o..p..q..r..s..t..u..v..w..x..y..|% z..A..B..C..D..E..",
"F..G..H..I..J..l .*Z K..L..p .M..N..O..P..Q..R..S..T..U..V..W..X..>k >3 zF -z Y..Z..`.. +..+.++._..@+.#+.$+.*m %+.&+.*+.=+.-+.;+.>+.,+.R` '+.)+.!+.KY ~+.{+.wX ]+.^+./+.(+._+.:+.<+.[+.}+.|+.1+.# .2+.3+.4+.5+.6+.7+.8+.9+.@k 0+.a+.b+.c+.d+.e+.R3 f+.g+.h+.i+.j+.k+.l+.m+.n+.o+.X7 p+.q+.r+.s+.t+.u+.v+.w+.x+.y+.z+.A+.B+.C+.D+.E+.F+.G+.H+.I+.J+.K+.L+.M+.N+.O+.P+.Q+.R+.S+.T+.U+.V+.W+.X+.Y+.",
"Z+.`+. @..@.+@.I..J..@@.#@.m .$@.%@.&@.*@.=@.-@.;@.>@.,@.'@.)@.r- N% !@.~@.{@.]@.^@./@.(@.(.._@.:@.<@.[@.}@.|@.#..1@.2@.3@.4@.5@.6@.7@.8@.9@.0@.a@.b@.c@.d@.e@.f@.g@.h@.i@.j@.k@.l@.m@.n@.o@.p@.q@.r@.s@.t@.u@.u@.v@.w@.x@.OH y@.z@. ..[S A@.B@.ec ZS C@.D@.kL E@.F@.G@.H@.I@.J@.K@.L@.M@.N@.pg O@.P@.Q@.R@.S@.R@.T@.U@.V@.W@.T< X@.Y@.Z@.`@. #..#.+#.@#.##.$#.%#.&#.*#.=#.-#.;#.>#.,#.'#.)#.!#.",
"~#.{#.]#.^#.G..H../#.I..#@.l .(#._#.:#.<#.[#.}#.|#.1#.2#.3#.4#.5#.6#.7#.8#.9#.0#.a#.b#.c#.d#.e#.f#.g#.h#.i#.mc j#. e k#.l#.es m#.)W n#.n#.o#.p#.,j q#.r#.Io Zq s#.t#.u#.v#.w#.x#.y#.z#.A#.<W B#.C#.D#.E#.A#.~D F#.G#.H#.I#.J#.K#.L#.M#.N#.O#.8@.P#.Q#.2..R#.S#.T#.U#.V#.W#.`& `& X#.Y#.J0 Z#.`#. $..$.+$.@$.#$.$$.U@.%$.%$.&$.*$.=$.-$.;$.>$.,$.'$.)$.!$.)$.~$.{$.]$.^$./$.($._$.:$.<$.[$.}$.|$.",
"1$.~#.2$.]#.3$.4$.G...@..@./#.5$.6$.7$.8$.9$.0$.a$.b$.c$.d$.cO e$.f$.g$.h$.i$.j$.k$.l$.m$.e+.)e n$.o$.p$.q$.r$.s$.t$.u$.Pj v$.6@.a9 hk w$.x$.y$.z$.A$.B$.C$.D$.E$.F$.G$.H$.I$.J$.K$.L$.M$.N$.O$.P$.Q$.R$.S$.T$.U$.V$.W$.X$.Y$.rS Z$.`$. %..%.(F +%.%+.@%.#%.$%.%%.&%.*%.=%.-%.`& ~b ;%.d~ >%.,%.'%.)%.Wp !%.~%.{%.]%.^%./%.(%._%.:%.<%.[%.E+.}%.|%.1%.2%.3%.4%.5%.6%.7%.8%.9%.0%.a%.b%.c%.d%.e%.",
"f%.1$.~#.g%.h%.]#. @.G..H..+@.i%.j%.k%.l%.m%.n%.o%.p%.q%.r%.s%.t%.u%.v%.w%.x%.'W rg y%.z%.W#.A%.B%.C%.D%.E%.F%.G%.lf H%.I%.J%.K%.-0 L%.M%.ag N%.O%.P%.Q%.R%.S%.T%.U%.My V%.W%.X%.X%.Y%.pp Z%.`%. &..&.+&.@&.#&.$&.%&.&&.*&.=&.+t -&.;&.>&.,&.'&.)&.!&.~&.{&.]&.^&./&.(&._&.:&.>%.<&.[&.}&.|&.1&.2&.<..3&.4&.5&.6&.7&.8&.9&.0&.a&.b&.c&.u~ d&.uy e&.f&.g&.h&.i&.Y@.j&.k&.l&.m&.n&.o&.p&.q&.r&.s&.",
"t&.u&.v&.w&.g%.2$.x&.3$.4$..@. @.y&.z&.A&.r~ B&.C&.D&.E&.F&.G&.H&.7&.I&.J&.K&.L&.M&.N&.O&.P&.Q&.R&.S&.T&.U&.V&.W&.X&.Wb Y&.4H Z&.`&. *.BA .*.+*.@*.#*.$*.%*.&*.**.=*.-*.;*.>*.=u ,*.'*.<X )*.!*.~*.{*.]*.^*.<X /*.(*._*.)*.:*.<*.[*.}*.|*.1*.2*.3*.4*.5*.6*.7*.8*.uG ym 9*.0*.a*.b*.c*.B%.L@.3g d*.e*.f*.g*.h*.i*.j*.k*.9&._%.l*.m*.n*.t~ u~ 3x o*.p*.q*.r*.'y s*.t*.KX u*.v*.w*.x*.y*.z*.A*.B*.",
"C*.D*.E*.1$.F*.G*.g%.x&.3$. @.H*.I*.J*.K*.L*.M*.N*.O*.P*.Q*.R*.S*.&C T*.U*.V*.W*.X*.Y*.Z*.`*. =..=.+=.@=.#=.$=.%=.&=.*=.==.-=.;=. *.>=.,=.-W '=.)=.!=.~=.{=.]=.^=.^=./=.(=._=.:=.<=.[=.}=.|=.1=.2=.3=.4=.5=.6=.7=.8=.9=.0=.a=.b=.c=.d=.e=.f=.g=.h=.i=.j=.k=.l=.m=.n=.o=.p=.q=.r=.Ze s=.t=.u=.v=.w=.x=.y=.z=.A=.B=.C=.D=.E=.F=.G=.H=.i! i! i! qE J{ x{ x{ hy I=.J=.K=.L=.M=.N=.O=.P=.Q=.R=.S=.S=.",
"S..T=.U=.V=.W=.X=.Y=.g%.Z=.`=. -..-.+-.@-.#-.$-.%-.&-.o~ >8 2) c) V( *-.=-.--.;-.>-.,-.'-.)-.!-.~-.{-.]-.^-./-.(-._-.:-.<-.[-.}-.|-.1-.7s 2-.3-.4-.5-.6-.7-.8-.9-.0-.a-.b-.c-.d-.e-.f-.g-.b-.h-.i-.j-.k-.l-.m-.n-.o-.p-.q-.r-.s-.t-.u-.v-.w-.x-.y-.z-.A-.B-.C-.>E D-.E-.F-.G-.H-.I-.J-.K-.L-.M-.N-.O-.P-.Q-.hu 4t R-.S-.T-.19 U-.V-.W-.F+.{' ~n W> ~4 D_ 1U X-.Y-.Z-.`-. ;..;.+;.@;.#;.$;.%;.&;.",
"*;.S..=;.D*.-;.;;.>;.,;.';.2$.);.!;.~;.{;.];.^;./;.(;._;.:;.<;.KD [;.lh 8) !p 32 };.|;.1;.2;.3;.4;.5;.6;.7;.8;.9;.0;.a;.(%.b;.c;.d;.d;.e;.f;.g;.6Z 6Z h;.i;.j;.k;.l;.m;.n;.o;.p;.p;.q;.r;.s;.t;.u;.v;.w;.x;.y;.x;.z;.A;.B;.C;.D;.E;.F;.QT G;.H;.h;.I;.J;.K;.L;.M;._%.N;.O;.P;.Q;.R;.^-.S;.T;.U;.V;.{-.W;.X;.Y;.Z;.Os `;.[U  >.(C .>.+>.@>.Gz 4D #>.$>.%>.&>.*>.=>.->.;>.>>.,>.'>.)>.!>.~>.{>.]>.",
"^>./>.(>._>.:>.<>.[>.}>.|>.~#.1>.2>.3>.4>.5>.6>.7>.8>.9>.0>.A< @( <l lh Ts {' NG a>.b>.c>.d>.e>.f>.g>.h>.i>.j>.j>.k>.l>.m>.n>.o>.p>.q>.r>.s>.9u t>.u>.u>.v>.w>.ND x>.y>.z>.A>.B>.C>.D>.E>.F>.G>.H>.I>.J>.K>.L>.M>.N>.O>.P>.Q>. k R>.S>.T>.H&.U>.V>.W>.X>.Y>.U@.Z>.`>. ,..,.+,.@,.#,.$,.%,.&,.*,.=,.-,.-z ;,.Hn #: w5 >,.,,.',./& ),.!,.~,.{,.],.^,./,.(,._,.:,.<,.[,.},.|,.1,.2,.3,.4,.5,.6,.7,.",
"8,.9,.*;.0,.a,.:>.b,.[>.;;.c,.>;.d,.k%.e,.f,.g,.h,.i,.j,.c= Q% k,.V4 >3 w{ D_ NG l,.m,.;U n,.o,.WH p,.q,.r,.s,.t,.u,.v,.w,.x,.y,.z,.A,./%.B,.C,.D,.E,.F,.G,.H,.I,.J,.K,.L,.Hq M,.N,.O,.P,.Q,.R,.S,.T,.U,.V,.Hu W,.X,.Y,.Z,.`,. '.# .yw .'.+'.@'.B=.I&. n ,s #'.$'.%'.&'.*'.='.-'.;'.>'.,'.''.)'.!'.~'.{'.]'.:1 ^'.Ab /'.('._'.:'.<'.['.}'.|'.1'.2'.3'.4'.5'.6'.7'.8'.9'.0'.a'.b'.c'.d'.e'.f'.g'.",
"h'.i'.j'.*;.0,.a,.k'.l'.U..E*.;;.m'./>.n'.o'.zt p'.Ss q'.z6 (2 (2 L} 53 T> :l HQ r'.s'.t'.u'.v'.w'.x'.y'.kv 8u z'.A'.B'.C'.D'.[-.E'.{%.u%.F'.G'.H'.I'.J'.K'.L'.M'.N'.O'.P'.Q'.R'.S'.T'.U'.V'.u$.@..*h O` W'.X'.Y'.Z'.`'. )..).+).@).#).$).%).&).O;.*).=).-).;).>).,).').)).!).~).EY {).]).^)./).()._).:).<).[).}).-J *>.|)._'.1).2).3).4).5).6).7).8).9).0).a).b).c).d).e).f).g).h).i).j).k).l).",
"m).n).o).p).q).r).s).t).u).v).b,.b,.w).x).y).z).A).B).sP <m !3 N/ X] E! *k qh C).D).E).F).G).H).I).J).K).L).M).kv N).O).P).Q).R).S).T).U).V).W).dZ X).Y).j>.9;.L#.Z).`). !..!.+!.@!.#!.$!.%!.&!.fl *!.=!.-!.;!.>!.hu i*.,!.'!.)!.!!.!!.~!.{!.]!.^!./!.(!.;)._!.:!.<!.[!.FY }!.|!.1!.2!.3!.4!.`t pE 5!.5!.:).6!.'y u~ 7!.8!.9!.0!.a!.b!.c!.d!.e!.f!.g!.h!.i!.j!.k!.l!.m!.n!.o!.p!.q!.r!.s!.t!.u!.",
"v!.w!.h'.x!.y!.z!.A!.B!.S.._>.C!.D!.<>.E!.F!.G!.H!.I!.F/ >k (2 O> ;' ;' $/ |q J!.K!.E: L!.M!.N!.O!.P!.IH Q!.R!.M).S!.N).T!.U!.<-.WH 0&.0u }t V!.W!.X!.Y).Y!.Z!.`!. ~..~.+~.as @~.#~.$~.%~.&~.*~.R,.=~.-~.;~.>~.,~.'~.)~.!~.~~.{~.]~.^~.~!./~.(~._~.:~.<~.[~.}~.:!.<!.|~.1~.2~.3~.4~.5~.6~.7~.8~.9~.0~.5!.5!.a~.b~.~4 c~.d~.e~.f~.g~.h~.i~.j~.k~.l~.m~.n~.o~.p~.q~.r~.s~.t~.u~.v~.w~.r!.x~.y~.z~.",
"A~.B~.C~.D~.E~.F~.G~.A!.H~.S..a,.I~.u).U=.E*.u&.J~.K~.Nk ;y }m y6 fy 13 M} ;8 L~.M~.J{ N~.O~.*J P~.Q~.R~.S~.T~.U~.V~.W~.X~.Y~.Z~.`~. {..{.+{.-s @{.#{.${.k>.%{.&{.*{.={.]@.-{.;{.>{.,{.Lu '{.){.!{.~{.^@.{{.]{.^{./{.!~.~~.({.]~.S@._{.:{.<{.[{.}{.|{.1{.|;._!.2{.3{.4{.|~.5{.6{.7{.8{.9{.0{.a{.b{.c{.d{.e{.f{.g{.SR h{.i{.j{.k{.l{.m{.n{.o{.p{.q{.r{.s{.t{.u{.v{.w{.x{.y{.z{.A{.B{.C{.D{.E{.F{.",
"G{.v!.H{.I{.J{.K{.L{.M{.^>.*;.H~.N{.a,.T=.v).u&.u).O{.P{.** Bg B( B( Q{.R{.S{.k- ;8 js T{.U{.V{.W{.X{.Y{.Z{.T~.`{. ]..].+].@].#].$].%].&].*].=].-].;].>].,].'].)].!].!].~].{].]].&G ^]./].Xo Oo (]._].:].<].[].}].|].1].2].3].{~.4].5].6].7].8].9].0].a].b].c].d].e].|~.f].g].h].i].j].k].l].m].n].o].5!.p].,y Y> X> q].r].s].t].u].v].w].x].y].z].A].B].C].D].E].F].G].H].I].J].K].L].M].N].O].",
"b$.A~.P].Q].R].S].T].U].V].p).W].*;.0,.S.._>.:>.D*.W].X].Y].J^ J{ fO Ou >y 9! E[ k! ll [q Z].`]. ^..^.+^.@^.#^.$^.%^.$^.&^.*^.=^.m*.-^.;^.>^.,^.'^..J )^.PU !^.~^.{^.]^.ZE ^^./^.(^._^.iP :^.<^.[^.}^.|^.1^.2^.3^.4^.5^.6^.7^.8^.9^.0^.a^.b^.c^.d^.e^.f^.g^.h^.i^.j^.k^.l^.m^.n^.o^.p^.q^.r^.s^.t^.5!.5!.p].aC 4A u^.v^.w^.x^.y^.z^.A^.B^.C^.D^.E^.F^.G^.H^.I^.J^.K^.L^.M^.q!.N^.K].O^.P^.Q^.R^.",
"b$.S^.T^.U^.V^.W^.X^.Y^.K{.x!.V].p).^>.*;.Z^.`^.0,./>. /../.+/.gs @/.#/.Ay vB $/.|m !B <q %/.&/.*/.=/.-/.;/.>/.,/.'/.w'.WH )/.!/.qX ~/.{/.]/.^/.'^.//.(/._/.:/.</.[/.}/.|/.1/.2/.3/.4/.:^.5/.6/.7/.8/.9/.1^.2^.3^.0/.a/.2^.b/.c/.d/.e/.f/.g/.h/.i/.j/.k/.l/.m/.n/.o/.p/.q/.r/.s/.t/.u/.v/.w/.x/.:).:).:).y/.aC z/.A/.B/.C/.D/.E/.F/.G/.H/.I/.J/.K/.L/.M/.N/.O/.P/.Q/.R/.S/.T/.U/.C{.V/.W/.X/.Y/.",
"Z/.Z/.`/. (..(.U^.Q].Q].I{.+(.T].L{.V].@(.#(.$(.S..Z^.%(.&(.*(.=(.`v -(.;(.2' !3 >(.>(.{o ,(.'(.)(.!(.~(.{(.](.^(./(.((._(.:(.<(.[(.}(.|(.1(.2(.3(.4(.5(.6(.7(.+J 8(.9(.8(.0(.0(.a(.b(.c(.d(.e(.f(.g(.h(.i(.j(.k(.l(.m(.m(.n(.o(.p(.q(.r(.s(.t(.u(.v(.|!.j/.w(.x(.y(.z(.A(.B(.C(.D(.E(.F(.G(.H(.e{.5!.I(.LG aC #/.Hz J(.K(.L(.M(.N(.O(.P(.Q(.R(.S(.T(.U(.V(.W(.X(.Y(.Z(.`(. _.C{.._.+_.@_.#_.$_.",
"Z/.Z/.Z/.%_.&_.*_.U^.-@.-@.B~.J{.=_.T].-_.;_.p).A!.>_.2#.,_.x: Us 7) '_.)_.!_.~_.{_.H{ [q gs ]_.^_./_.(_.__.:_.<_.[_.}_.|_.1_.2_.3_.XZ 4_.5_.6_.7_.8_.9_.0_.a_.b_.c_.d_.d_.e_.0_.f_.g_.h_.R>.`j i_.j_.Y!.k_.l_.m_.o>.n_.o_.p_.q_.r_.s_.t_.u_.v_.w_.x_.y_.z_.A_.B_.C_.D_.E_.F_.G_.H_.I_.J_.K_.w] 6!.p].L_.rE @>.M_.N_.O_.P_.Q_.R_.S_.T_.U_.V_.W_.X_.Y_.Z_.`_. :..:.+:.@:.#:.$:.%:.&:.*:.=:.-:.;:.",
">:.,:.>:.':.%_.):.!:.~:.{:.]:.Q].R].S].^:.T].U]./:.c$.>_.(:._:.::.<:.>_ [:.}:.|:.G| !p <q fO g- 1:.2:.3:.4:.)= 5:.6:.7:.8:.9:.0:.a:.F).b:.c:.d:.e:.f:.g:.h:.[V i:.j:.d(.k:.VH T@.`j l:.m:.n:.I;.Po w>.R>.o:.p:.q:.r:.s:.t:.]/.u:.v:.w:.x:.y:.z:.A:.B:.B:.C:.D:.E:.F:.G:.H:.I:.J:.K:.L:.M:.N:.O:.P:.a~.Q:.R:.S:.T:.U:.V:.W:.X:.Y:.Z:.`:. <..<.+<.@<.#<.$<.%<.&<.*<.=<.-<.;<.><.,<.'<.)<.!<.~<.{<.",
"]<.>:.]<.>:.>:.>:.^<.!:.`/./<.P].Q].-@.(<.S]._<.w!.:<.<<.<<.[<.}<.|<.B( !B yt 1<.[q 2<.h! {o D: 3<.4<.5<.6<.kL (e 7<.8<.9<.0<.n*.a<.b<.c<.d<.e<.f<.g<.h<.i<.j<.k<.l:.K;.r` l<.m<.n<.o<.p<.q<.r<.s<.t<.u<.v<.w<.x<.S-.y<.z<.A<.B<.C<.D<.E<.F<.G<.H<.I<.D:.J<.K<.L<.M<.N<.N<.O<.P<.Q<.R<.S<.L:.T<.~,.s*.U<.V<.fM W<.X<.Y<.Z<.`<. [..[.+[.@[.@[.#[.@[.$[.%[.&[.*[.=[.-[.;[.>[.,[.'[.)[.![.~[.{[.][.",
"^[.^[.^[.,:.>:./[.^<.([.!:.G{._[.T^.T^.:[.<[.P].v!.X^.w!.n).h'.[[.}[.|[.3= 1[.[q [q !p pE JG S; 2[.3[.4[.5[.6[.7[.Zl 8[.9[.0[.a[.b[.c[.d[.O~.e[.f[.h^.g[.h[.c].H).i[.V~.j[.k[.l[.m[.n[.#D o[.p[.q[.r[.s[.t[.u[.v[.w[.x[.y[.YZ )).z[.A[.B[.C[.D[.E[.F[.G[.H[.I[.J[.K[.L[.M[.N[.O[.P[.Q[.R[.S[.T[.U[.V[.W[.X[.Y[.Z[.`[. }..}.+}.@}.#}.$}.%}.&}.*}.=}.-}.;}.>}.,}.'}.)}.!}.~}.{}.]}.^}./}.(}._}.:}.",
"<}.[}.[}.,:.]<./[.}}.>:.>:.Z/.!:.!:.!:./<.|}.A~.P].1}.S].2}.X^.v!.3}.4}.5}.6}.7}.8}.9}.0}.a}.b}.c}.d}.e}.f}.g}.h}.U#.i}.So j}.k}.l}.m}.n}.U& o}.p}.q}.r}.s}.t}.u}.v}.w}.x}.y}.z}.A}.B}.C}.D}.E}.Uo F}.G}.W~.H}.Y{.I}.J}.K}.j/.L}.M}.N}.O}.P}.Q}.R}.S}.T}.U}.V}.W}.X}.Y}.Z}.`}. |..|.+|.@|.#|.$|.%|.&|.*|.=|.-|.;|.>|.,|.'|.)|.!|.~|.{|.]|.%}.^|./|.(|._|.:|.<|.[|.}|.||.1|.2|.3|.4|.5|.6|.7|.8|.",
"[}.[}.9|.0|.a|.,:.d$.]<.>:.D&.b|.`/.!:.`/.~:.G{.3}.T^.c|.d|.V^.P].S^.`/.!:.&_.e|.f|.g|.h|.i|.j|.k|.l|.m|.h:.n|.Y{.o|.p|.So q|.r|.d~ H% s|.t|.u|.v|.w|.x|.y|.z|.A|.B|.C|.D|.E|.F|.G|.H|.I|.J|.B}.K|.L|.x}.^&.M|.N|.O|.P|.Q|.R|.S|.T|.U|.V|.V|.W|.X|.V}.Y|.Z|.`|.X}. 1..1.+1.@1.#1.$1.%1.&1.*1.=1.-1.;1.>1.,1.'1.)1.!1.~1.{1.]1.^1.!|.*$ {|.{|./1./1.(1._1.:1.<1.[1.}1.|1.11.21.31.41.51.61.71.81.",
"91.9|.9|.9|.0|.01.01.a|.a1.D&.>:.b1.([.c1.b$.>:.*_.*_.d1.e1.3}.G{.f1.f1.([.g1.%_.!:.h1.i1.j1.k1.l1.m1.n1.aO o1.p1.q1.u5 fK r1.s1.Cr t1.u1.e~ v1.w1.+' x1.y1.!(.z1.A1.B1.C1.D1.E1.F1.G1.I|.H1.C|.I1.Ro J1.K1.L1.M1.N1.O1.P1.Q1.R1.S1.T1.U1.V1.W1.X1.Y1.Z1.`1. 2..2.+2.@2.#2.$2.%2.&2.*2.=2.-2.;2.>2.,2.'2.)2.!2.~2.{2.]2.^2./2.~|.(2._2.:2.<2.[2.}2.|2.12.22.32.42.52.62.72.82.92.02.a2.b2.c2.d2.",
"e2.9|.9|.0|.f2.01.g2.g2.01.a1.>:.':.h2.Z/.Z/.>:.g1.i2. (.([.f1.Z/.Z/.>:.(:.HV D&.(:.j2.k2.l2.m2.n2.o2.p2.q2.r2.s2.t2.=R T#.u2.v2.w2.x2.y2.!d z2.A2.B2.C2.D2.E2.F2.G2.H2.I@.`l I2.J2.K2.Z;.L2.M2.N2.O2.P2.Q2.R2.S2.T2.U2.V2.W2.X2.Y2. 2.X}.Z2.`2. 3..3.+3.@3.#3.$3.%3.&3.*3.=3.-3.;3.>3.,3.'3.)3.!3.~3.{3.]3.^3.fV /3.(3._3.:3.<3.[3.}3.|3.13._2..[.23.33.43.53.63.73.83.93.03.a3.b3.c3.d3.e3.f3.",
"g3.h3.h3.i3.g2.g2.g2.01.g2.a|.]<.D&.j3.>:.]<.]<.>:.k3.D&.l3.>:.>:.]<.]<.m3.k3.n3./[.o3.p3.q3.r3.s3.t3.kR u3.v3.w3.+D x3.y3.z3.A3.B3.C3.To D3.E3.F3.X< G3.e~ E3.!d !d 1# H3.I3.J3.K3.L3.M3.N3.O3.P3.Q3.R3.S3.T3.U3.V3.W3.X3.Y3.Z3.`3. 4..4.+4.@4.#4.$4.%4.&4.*4.=4.-4.;4.>4.2[.,4.'4.,3.,3.)4.!4.~4.Q$ {4.]4.^4./4.(4._4.:4.<4.[4.}4.|4.14.24.34.44.54.64.74.84.94.04.a4.b4.c4.d4.e4.f4.g4.h4.i4.",
"j4.k4.k4.l4.i3.m4.n4.o4.g2.01.a1.l3.p4.>:.a1.]<.]<.q4.]<.a1.a1.a1.%(.%(.r4.q4.%(.a1.o3.s4.t4.u4.v4.w4.x4.y4.z4.A4.B4.C4.m+.D4.E4.F4.B3.B3.G4.Z< H4.N< Er I4.I4.Er I4.J} F3.p9 J4.dc K4.L4.E3.M4.N4.L4.O4.P4.v1.Q4.R4.S4.T4.U4.V4.T4. 4..4.W4.X4.Y4.Y|.Z4.`4. 5..5.+5.@5.#5.$5.%5.&5.*5.=5.-5.;5.>5.,5.'5.)5.!5.~5.{5.]5.^5.4M /5.(5._5.:5.<5.[5.}5.|5.15.25.35.45.55.65.75.85.95.05.a5.b5.c5.d5.",
"e5.e2.k4.f5.l4.g5.g5.h5.o4.g2.f2.d$.i5.d$.a1.,:.a1.j5.k5.l5.m5.m5.n5.7$.o5.m5.o5.p5.o5.n5.k2.q5.r5.s5.kR t5.u5.v5.w5.x5.y5.z5.A5.E4.B5.fK C5.D5.E5.F5.G3.Er I4.G5.H5.m$ ra N} I5.R( =8 J5.K5.G5.I4.Er X< L5.M5.2# z2.z2.Q4.N5.O5.P5.Q5.`|.u|.Y4.R5.S5.T5.U5.V5.W5.X5.{).Y5.Z5.`5. 6..6.+6.@6.#6.$6.%6.&6.*6.=6.-6.;6.>6.,6.'6.)6.!6.~6.{6.3M ]6.^6./6.(6._6.:6.<6.[6.}6.|6.16.26.36.46.56.66.76.",
"86.k4.96.f5.06.06.06.g5.n4.a6.g2.b6.c6.a1.]<.a1.k5.d6.e6.f6.f6.g6.h6.i6.g6.g6.g6.j6.k6.f6.g6.l6.m6.n6.o6.p6.q6.r6.s6.t6.u6.v6.w6.x6.sc y6.fK z6.A6.ga u1.dc I4.B6.B6.C6.{b D6.E6.ra {b ra F6.H5.G5.B6.H5.Fc M5.v| G6.H6.I6.J6.K6.Q5.X4.L6.V& M6.V}.V}.N6.O6.P6.Q6.R6.S6.T6.U6.V6.&5.W6.X6.Y6.Z6.`6. 7..7.+7.@7.-6.#7.#7.$7.{2.$7.{2.%7.%7.{2.$7.&7.*7.=7._6.-7.;7.>7.,7.'7.)7.!7.~7.{7.]7.^7./7.",
"86.(7._7.:7.<7.[7.}7.}7.|7.17.27.b6.37.d$.m3.{:.47.57.67.77.87.j6.j6.97.07.07.k2.07.j6.g6.a7.b7.c7.n6.d7.y4.e7.f7.g7.h7.S#.y3.i7.j7.k7.l7.m7.K> B3.B3. 8 %b n7.o7.p7.q7.@c r7.J5.@c H5.s7.t7.B6.u7.B6.Er v7.u{ H6.w7.I% x7.y7.z7.+4.#4.V& A7.B7.C7.D7.E7.F7.G7.H7.3V I7.J7.K7.L7.M7.N7.W6.O7.P7.Q7.R7.S7.T7.U7.V7.W7.$7.X7.Y7.Z7.`7. 8..8.+8.@8.#8.$8.%8._6.&8.*8.=8.-8.;8.>8.,8.'8.)8.!8.~8.{8.",
"]8.^8./8.(8.(8._8.:8.<8.|7.h5.h5.[8.}8.|8.*;.18.28.38.48.58.68.78.88.98.08.a8.d1.g6.07.b8.c8.d8.e8.f8.g8.t5.h8.i8.j8.k8.l8.m8.n8.o8.p8.q8.r8.s8.7<.7<.7<.Db t8.In aa u8.G5.H5.H5.G5.B6.v8.w8.B6.u7.p7.v7.G3.O5 w7.O5.x8.y8.m}.z8.A8.B8.C8.D8.E8.F8.G8.H8.I8.J8.K8.L8.M8.N8.O8.P8.G .Q8.N7.@6.R8.^` S8.T8.U8.V8.W8.X8.Y8.Z8.`8. 9..9.+9.+9.@9.#9.$9.%9.%8.&9.*9.=9.-9.;9.>9.,9.'9.)9.!9.~9.{9.]9.",
"^9.^8./9.(9._9.:9.<9.[7.}7.|7.h5.[8.[9.}9.|9.19.29.39.49.59.69.79.89.99.09.a9.b9.c9.d9.e9.f9.b|.g9.h9.i9.p2.j9.k9.l9.m9.n9.o9.p9./_.q9.r9.s9.t9.u9.F4.B5.v9.w9.ga &b `& Sb u7.x9.y9.x9.x9.x9.t7.z9.A9.B9.M4.O5 Dr s|.K6.K6.C9.D9.$4.E9.F9.G9.H9.I9.J9.K9.L9.M9.N9.#5.O9.P9.4_.Q9.R9.S9.T9.@6.U9.V9.W9.vW X9.$7.Y9.Z9.`9. 0..0.+0.@0.#0.$0.%0.&0.*0.%9.=0.-0.*9.;0.>0.,0.'0.)0.!0.~0.{0.]0.]0.]0.",
"^0./0.^8./9.(0._0.:0.[7.}7.06.h5.[8.[9.<0.[0.}0.|0.10.20.30.40.50.60.50.70.80.90.00.m4.b6.g2.a0.b0.c0.d0.e0.f0.g0.h0.i0.j0.k0.l0.m0.n0.o0.p0.q0.r0.E4.;e v9.s0.C3.t0.<7 $b Hb u0.v0.w0.x0.y0.z0.A0.L4.B0.C0.hp D0.E0.F0.G0.L[.H0.S}.I0.J0.K0.L0.M0.N0.O0.P0.Q0.R0.S0.b:.T0.M7.R9.1Z U0.V0.W0.X0.Y0.Z0.`0. a.$7.!1.&7..a.+a.@a.#a.$a.%a.&0.&a.*a.=a.(6.-a.;a.>a.,a.'a.)a.!a.~a.{a.]a.^a./a.(a.(a."};
