/* XPM */
static char * xaniel_128_xpm[] = {
"128 128 14199 3",
"   	c #D3C087",
".  	c #CDBB7A",
"+  	c #C8B46D",
"@  	c #C0AA60",
"#  	c #B79D4C",
"$  	c #B2973F",
"%  	c #B2953A",
"&  	c #B49537",
"*  	c #BB9C3D",
"=  	c #C0A144",
"-  	c #BE9D3F",
";  	c #B79633",
">  	c #BA9732",
",  	c #BD9A34",
"'  	c #C19B35",
")  	c #C29A31",
"!  	c #BF9628",
"~  	c #C09621",
"{  	c #C0961D",
"]  	c #C2971B",
"^  	c #C2981A",
"/  	c #C19718",
"(  	c #C19717",
"_  	c #C29716",
":  	c #C29715",
"<  	c #C49918",
"[  	c #C39817",
"}  	c #C49916",
"|  	c #C49A14",
"1  	c #C39815",
"2  	c #C19613",
"3  	c #C59A17",
"4  	c #C29717",
"5  	c #BE9516",
"6  	c #BD9518",
"7  	c #B99419",
"8  	c #B9941A",
"9  	c #BB931A",
"0  	c #BA9319",
"a  	c #B89218",
"b  	c #B99318",
"c  	c #BA9218",
"d  	c #BC9119",
"e  	c #B99018",
"f  	c #B99118",
"g  	c #B99219",
"h  	c #B89018",
"i  	c #B99019",
"j  	c #B9931A",
"k  	c #B79319",
"l  	c #B59119",
"m  	c #B8901A",
"n  	c #BA911B",
"o  	c #B68F19",
"p  	c #B68F18",
"q  	c #B58F18",
"r  	c #B79019",
"s  	c #B78F18",
"t  	c #B99017",
"u  	c #BA9118",
"v  	c #BC921A",
"w  	c #BD9219",
"x  	c #BF9019",
"y  	c #BE8D18",
"z  	c #BD8B17",
"A  	c #BA8814",
"B  	c #B88815",
"C  	c #B68715",
"D  	c #B58613",
"E  	c #B58413",
"F  	c #B48312",
"G  	c #B48614",
"H  	c #B58714",
"I  	c #B78914",
"J  	c #B88A14",
"K  	c #BA8B16",
"L  	c #BC8D17",
"M  	c #BC8D14",
"N  	c #BA8D17",
"O  	c #B88B15",
"P  	c #B78A14",
"Q  	c #B68616",
"R  	c #B38612",
"S  	c #AD8113",
"T  	c #A87D14",
"U  	c #A77B14",
"V  	c #A57915",
"W  	c #A37815",
"X  	c #A17615",
"Y  	c #A17516",
"Z  	c #9E7413",
"`  	c #9D7215",
" . 	c #9E7317",
".. 	c #9B7215",
"+. 	c #997013",
"@. 	c #9B7115",
"#. 	c #9B7016",
"$. 	c #9C7113",
"%. 	c #9B7012",
"&. 	c #9E7215",
"*. 	c #A17511",
"=. 	c #A47A0F",
"-. 	c #AA7D14",
";. 	c #AD7E14",
">. 	c #B08115",
",. 	c #B28318",
"'. 	c #B18218",
"). 	c #AD7D16",
"!. 	c #A77715",
"~. 	c #9F7213",
"{. 	c #996C13",
"]. 	c #906612",
"^. 	c #8B6517",
"/. 	c #DBDBCB",
"(. 	c #DEDCCE",
"_. 	c #DEDBCD",
":. 	c #D7D2C4",
"<. 	c #D0C8BA",
"[. 	c #CEC5B4",
"}. 	c #CDC2B0",
"|. 	c #D1C5B3",
"1. 	c #D7CBB8",
"2. 	c #DACFBA",
"3. 	c #D3C8B2",
"4. 	c #C3BAA4",
"5. 	c #BBB29B",
"6. 	c #C3BA9E",
"7. 	c #D4C9AB",
"8. 	c #DDD3B4",
"9. 	c #D6CBAE",
"0. 	c #C9BEA0",
"a. 	c #C0B291",
"b. 	c #BDAF86",
"c. 	c #C4B385",
"d. 	c #C9B785",
"e. 	c #CAB680",
"f. 	c #C6B177",
"g. 	c #BFA767",
"h. 	c #B99F55",
"i. 	c #B49746",
"j. 	c #B59541",
"k. 	c #BB9B4A",
"l. 	c #C2A050",
"m. 	c #C4A14F",
"n. 	c #C5A046",
"o. 	c #C69E38",
"p. 	c #C49A27",
"q. 	c #C3981C",
"r. 	c #C39818",
"s. 	c #C29714",
"t. 	c #C19616",
"u. 	c #C19518",
"v. 	c #C19519",
"w. 	c #BE9418",
"x. 	c #B69118",
"y. 	c #B7921A",
"z. 	c #B89019",
"A. 	c #B9911A",
"B. 	c #B98F19",
"C. 	c #BA8E18",
"D. 	c #B78D15",
"E. 	c #B58D14",
"F. 	c #B79017",
"G. 	c #B99117",
"H. 	c #B89319",
"I. 	c #B59218",
"J. 	c #B49318",
"K. 	c #B49018",
"L. 	c #B8911A",
"M. 	c #B58D17",
"N. 	c #B28F17",
"O. 	c #B38F17",
"P. 	c #B59018",
"Q. 	c #BB8E19",
"R. 	c #BD8E19",
"S. 	c #BB8915",
"T. 	c #B88712",
"U. 	c #B68615",
"V. 	c #B58517",
"W. 	c #B28214",
"X. 	c #B48415",
"Y. 	c #B48616",
"Z. 	c #B28616",
"`. 	c #B28717",
" + 	c #B28615",
".+ 	c #B48815",
"++ 	c #B68817",
"@+ 	c #B98B19",
"#+ 	c #BB8C18",
"$+ 	c #B88A17",
"%+ 	c #B78A17",
"&+ 	c #B68816",
"*+ 	c #B28216",
"=+ 	c #AC8011",
"-+ 	c #A77C12",
";+ 	c #A17914",
">+ 	c #9F7613",
",+ 	c #9C7413",
"'+ 	c #9B7412",
")+ 	c #997114",
"!+ 	c #987018",
"~+ 	c #947017",
"{+ 	c #936F16",
"]+ 	c #926E14",
"^+ 	c #916D13",
"/+ 	c #916D14",
"(+ 	c #967118",
"_+ 	c #9A7219",
":+ 	c #976E13",
"<+ 	c #9A7114",
"[+ 	c #9A7213",
"}+ 	c #9B7314",
"|+ 	c #9E7518",
"1+ 	c #A07713",
"2+ 	c #A1790D",
"3+ 	c #A87D13",
"4+ 	c #B18217",
"5+ 	c #AE7F14",
"6+ 	c #AF8017",
"7+ 	c #AF7E18",
"8+ 	c #A97917",
"9+ 	c #A07314",
"0+ 	c #9A6E13",
"a+ 	c #936918",
"b+ 	c #8A621F",
"c+ 	c #E0E7EA",
"d+ 	c #D8DFE0",
"e+ 	c #D5DBDA",
"f+ 	c #D3D9D8",
"g+ 	c #CED2D3",
"h+ 	c #CFD2D3",
"i+ 	c #D7DADB",
"j+ 	c #DEE0E2",
"k+ 	c #E3E6E8",
"l+ 	c #E5E8EA",
"m+ 	c #E0E6E6",
"n+ 	c #D8DFDE",
"o+ 	c #D0D7D6",
"p+ 	c #CDD1D2",
"q+ 	c #CED0D3",
"r+ 	c #D4D5D9",
"s+ 	c #D7D7DB",
"t+ 	c #D9D8DB",
"u+ 	c #DDDCDF",
"v+ 	c #E1E0E2",
"w+ 	c #E3E0E1",
"x+ 	c #E0DDDB",
"y+ 	c #DAD6D2",
"z+ 	c #D4D0C9",
"A+ 	c #D1CDC4",
"B+ 	c #C9C7B9",
"C+ 	c #C2C1AF",
"D+ 	c #C1C0AD",
"E+ 	c #BEBDAA",
"F+ 	c #C1BFAD",
"G+ 	c #C5C4B2",
"H+ 	c #C4C1B1",
"I+ 	c #C6C2B3",
"J+ 	c #CBC6B7",
"K+ 	c #D1C9BB",
"L+ 	c #D6CBB9",
"M+ 	c #D5C5A9",
"N+ 	c #CFB992",
"O+ 	c #C1A671",
"P+ 	c #C0A160",
"Q+ 	c #BD9B53",
"R+ 	c #B99640",
"S+ 	c #B89434",
"T+ 	c #B49027",
"U+ 	c #B48D1E",
"V+ 	c #B28F1A",
"W+ 	c #B18F18",
"X+ 	c #AF8E16",
"Y+ 	c #B18F19",
"Z+ 	c #B18E18",
"`+ 	c #B28C17",
" @ 	c #B78D16",
".@ 	c #B68D14",
"+@ 	c #B78F17",
"@@ 	c #B88F15",
"#@ 	c #B89016",
"$@ 	c #B88F18",
"%@ 	c #B48F19",
"&@ 	c #B58E18",
"*@ 	c #B6901A",
"=@ 	c #B29018",
"-@ 	c #B08D15",
";@ 	c #B18E16",
">@ 	c #B08E16",
",@ 	c #B18F17",
"'@ 	c #B58F19",
")@ 	c #B68F1A",
"!@ 	c #B68E19",
"~@ 	c #B78D19",
"{@ 	c #B98B1A",
"]@ 	c #B58516",
"^@ 	c #B38215",
"/@ 	c #B08015",
"(@ 	c #AF8014",
"_@ 	c #B08215",
":@ 	c #AD8012",
"<@ 	c #AB8112",
"[@ 	c #AC8215",
"}@ 	c #AC8314",
"|@ 	c #AD8414",
"1@ 	c #AC8615",
"2@ 	c #AE8917",
"3@ 	c #B08B18",
"4@ 	c #AF8815",
"5@ 	c #AE8614",
"6@ 	c #AD8613",
"7@ 	c #AA8318",
"8@ 	c #A47F13",
"9@ 	c #A07C14",
"0@ 	c #9C7715",
"a@ 	c #9C7717",
"b@ 	c #997416",
"c@ 	c #997514",
"d@ 	c #9A751B",
"e@ 	c #97711C",
"f@ 	c #967117",
"g@ 	c #947013",
"h@ 	c #956F14",
"i@ 	c #946D12",
"j@ 	c #956F13",
"k@ 	c #9B7516",
"l@ 	c #9B7615",
"m@ 	c #997312",
"n@ 	c #9B7514",
"o@ 	c #9D7516",
"p@ 	c #A07718",
"q@ 	c #A37B0F",
"r@ 	c #A97D13",
"s@ 	c #AE7F16",
"t@ 	c #B28317",
"u@ 	c #AF7F18",
"v@ 	c #AA7A17",
"w@ 	c #A57618",
"x@ 	c #9D7015",
"y@ 	c #946B16",
"z@ 	c #8C651B",
"A@ 	c #C1C3C2",
"B@ 	c #C2C4C1",
"C@ 	c #C5C8C4",
"D@ 	c #C8CBC7",
"E@ 	c #CBCFCB",
"F@ 	c #CCD0CE",
"G@ 	c #C8CDCA",
"H@ 	c #C6CBCA",
"I@ 	c #C8CECC",
"J@ 	c #C7CECD",
"K@ 	c #C4CBCA",
"L@ 	c #C2CAC9",
"M@ 	c #C4CCCB",
"N@ 	c #C7CCCA",
"O@ 	c #C8CBC8",
"P@ 	c #C1C4C1",
"Q@ 	c #B7BBB7",
"R@ 	c #B6B9B5",
"S@ 	c #B8BBB7",
"T@ 	c #B9BCB8",
"U@ 	c #BDC0BD",
"V@ 	c #C3C6C2",
"W@ 	c #C4C7C4",
"X@ 	c #C9CCC9",
"Y@ 	c #D8DBD7",
"Z@ 	c #DDE1DD",
"`@ 	c #D6DAD7",
" # 	c #CED1CF",
".# 	c #D1D5D2",
"+# 	c #D0D4D1",
"@# 	c #CDD0CD",
"## 	c #CFD2D0",
"$# 	c #CCD0CD",
"%# 	c #CBCFCC",
"&# 	c #CED2CF",
"*# 	c #CFD3D1",
"=# 	c #D3D6D3",
"-# 	c #DDDED8",
";# 	c #D8D7CC",
"># 	c #CDCABD",
",# 	c #CDC6B6",
"'# 	c #C8BDA8",
")# 	c #C2B49A",
"!# 	c #C3B297",
"~# 	c #C7B799",
"{# 	c #CCBD9E",
"]# 	c #CCBE9D",
"^# 	c #C8BA96",
"/# 	c #C0B08A",
"(# 	c #BBA981",
"_# 	c #BBA67A",
":# 	c #BDA46A",
"<# 	c #BD9B51",
"[# 	c #B99436",
"}# 	c #B78D21",
"|# 	c #B68D19",
"1# 	c #B38C14",
"2# 	c #B28C14",
"3# 	c #B28C18",
"4# 	c #B18B17",
"5# 	c #B08A18",
"6# 	c #B08D1A",
"7# 	c #AC8C17",
"8# 	c #AB8C14",
"9# 	c #AB8B14",
"0# 	c #AD8E16",
"a# 	c #AC8D15",
"b# 	c #AE8F17",
"c# 	c #AF9018",
"d# 	c #B38F18",
"e# 	c #B38E18",
"f# 	c #B08C15",
"g# 	c #AF8B15",
"h# 	c #AD8813",
"i# 	c #AB8413",
"j# 	c #A77F14",
"k# 	c #A67E13",
"l# 	c #A67E0F",
"m# 	c #A78011",
"n# 	c #A37D0E",
"o# 	c #A47E0F",
"p# 	c #A47F0F",
"q# 	c #A68011",
"r# 	c #A57F10",
"s# 	c #A88413",
"t# 	c #A98513",
"u# 	c #AD8917",
"v# 	c #AF8A18",
"w# 	c #AD8816",
"x# 	c #A78316",
"y# 	c #A58015",
"z# 	c #A37E16",
"A# 	c #9C7916",
"B# 	c #9D7918",
"C# 	c #9B7718",
"D# 	c #997517",
"E# 	c #987313",
"F# 	c #977415",
"G# 	c #947215",
"H# 	c #927014",
"I# 	c #947115",
"J# 	c #987415",
"K# 	c #9E7A19",
"L# 	c #9C7814",
"M# 	c #9F7914",
"N# 	c #A27A15",
"O# 	c #A37916",
"P# 	c #A37814",
"Q# 	c #A77C13",
"R# 	c #AB7D14",
"S# 	c #B18316",
"T# 	c #B38516",
"U# 	c #B18315",
"V# 	c #B08118",
"W# 	c #AB7B16",
"X# 	c #A67515",
"Y# 	c #9E6F16",
"Z# 	c #976D18",
"`# 	c #8C681F",
" $ 	c #A8A89D",
".$ 	c #A9ABA0",
"+$ 	c #A1A499",
"@$ 	c #9A9D92",
"#$ 	c #9B9D94",
"$$ 	c #999C92",
"%$ 	c #9C9E95",
"&$ 	c #9C9D96",
"*$ 	c #A2A39D",
"=$ 	c #ABACA6",
"-$ 	c #A7A8A2",
";$ 	c #9FA09B",
">$ 	c #A5A6A1",
",$ 	c #AAADA8",
"'$ 	c #B3B7B2",
")$ 	c #B2B6B1",
"!$ 	c #AFB3AE",
"~$ 	c #AAAEA8",
"{$ 	c #AEB2AC",
"]$ 	c #A3A7A1",
"^$ 	c #9FA39E",
"/$ 	c #A0A49F",
"($ 	c #A1A59F",
"_$ 	c #A1A49F",
":$ 	c #AAACA9",
"<$ 	c #B0B0AE",
"[$ 	c #C1C2C0",
"}$ 	c #D6D7D5",
"|$ 	c #CACCCA",
"1$ 	c #BABDBA",
"2$ 	c #B8BCB9",
"3$ 	c #B6BBB8",
"4$ 	c #B3B9B5",
"5$ 	c #B4BBB7",
"6$ 	c #B7BEBA",
"7$ 	c #BCC3BF",
"8$ 	c #C1C6BF",
"9$ 	c #C3C5BD",
"0$ 	c #B7B7AE",
"a$ 	c #BDBDB3",
"b$ 	c #C5C4BA",
"c$ 	c #C3C2B8",
"d$ 	c #C5C3B9",
"e$ 	c #C5C3B8",
"f$ 	c #CAC8BE",
"g$ 	c #CFCDC5",
"h$ 	c #D0CFC7",
"i$ 	c #CDCCC5",
"j$ 	c #C8C6BE",
"k$ 	c #C7C5BA",
"l$ 	c #D1CCBB",
"m$ 	c #D4CDBA",
"n$ 	c #D2C8B3",
"o$ 	c #CCC0A8",
"p$ 	c #CCBEA3",
"q$ 	c #C6B896",
"r$ 	c #BAA97E",
"s$ 	c #AF9B66",
"t$ 	c #AF9757",
"u$ 	c #AC9043",
"v$ 	c #A88927",
"w$ 	c #A58818",
"x$ 	c #A68914",
"y$ 	c #A88B16",
"z$ 	c #A88A16",
"A$ 	c #A78914",
"B$ 	c #AA8C15",
"C$ 	c #AD8C16",
"D$ 	c #AD8A16",
"E$ 	c #AB8914",
"F$ 	c #A98712",
"G$ 	c #A78613",
"H$ 	c #A38313",
"I$ 	c #A28214",
"J$ 	c #A18111",
"K$ 	c #A38312",
"L$ 	c #A28211",
"M$ 	c #A18110",
"N$ 	c #A48111",
"O$ 	c #A58312",
"P$ 	c #A68413",
"Q$ 	c #AB8715",
"R$ 	c #AE8A18",
"S$ 	c #AF8B19",
"T$ 	c #B08B19",
"U$ 	c #AC8818",
"V$ 	c #A68115",
"W$ 	c #A68117",
"X$ 	c #9F7D13",
"Y$ 	c #9F7D15",
"Z$ 	c #9F7C17",
"`$ 	c #9F7C16",
" % 	c #9D7A15",
".% 	c #9E7A15",
"+% 	c #9C7913",
"@% 	c #9B7916",
"#% 	c #987715",
"$% 	c #997715",
"%% 	c #9A7816",
"&% 	c #9E7B19",
"*% 	c #9E7B17",
"=% 	c #9E7C15",
"-% 	c #9F7C14",
";% 	c #A27D15",
">% 	c #A57D17",
",% 	c #A77D16",
"'% 	c #AB8015",
")% 	c #AF8214",
"!% 	c #B48617",
"~% 	c #B58816",
"{% 	c #B58718",
"]% 	c #B38517",
"^% 	c #B08116",
"/% 	c #AE7E17",
"(% 	c #A17218",
"_% 	c #976E18",
":% 	c #8D6920",
"<% 	c #878378",
"[% 	c #838174",
"}% 	c #8A897C",
"|% 	c #929183",
"1% 	c #9F9E91",
"2% 	c #A2A294",
"3% 	c #9D9B8E",
"4% 	c #9C998E",
"5% 	c #9D998E",
"6% 	c #A09B91",
"7% 	c #A09B92",
"8% 	c #9A948D",
"9% 	c #9C9690",
"0% 	c #9B9791",
"a% 	c #8D8A84",
"b% 	c #96948D",
"c% 	c #9D9B95",
"d% 	c #9C9993",
"e% 	c #9A9892",
"f% 	c #97958F",
"g% 	c #94928C",
"h% 	c #989690",
"i% 	c #A2A19A",
"j% 	c #ABAAA4",
"k% 	c #A4A39D",
"l% 	c #9A9992",
"m% 	c #95958C",
"n% 	c #98968E",
"o% 	c #9E9C93",
"p% 	c #9F9D94",
"q% 	c #97948C",
"r% 	c #96928A",
"s% 	c #A5A29A",
"t% 	c #A5A19A",
"u% 	c #A09A93",
"v% 	c #97928B",
"w% 	c #A8A59C",
"x% 	c #B3B1A6",
"y% 	c #A5A499",
"z% 	c #9B9B91",
"A% 	c #9FA096",
"B% 	c #A6A89E",
"C% 	c #BBBDB3",
"D% 	c #CCCEC3",
"E% 	c #CFD1C6",
"F% 	c #C6C7BB",
"G% 	c #BFC1B4",
"H% 	c #B8B9AC",
"I% 	c #BAB9A8",
"J% 	c #BCB8A6",
"K% 	c #BEB8A9",
"L% 	c #C1BAAE",
"M% 	c #C8C0B6",
"N% 	c #D1CAC0",
"O% 	c #D0C9BD",
"P% 	c #D2CCBE",
"Q% 	c #D0CEBE",
"R% 	c #C7C5B6",
"S% 	c #C1C0B4",
"T% 	c #CFCEC4",
"U% 	c #DFDCD3",
"V% 	c #DED6CA",
"W% 	c #CCC2A8",
"X% 	c #BCAE84",
"Y% 	c #B7A671",
"Z% 	c #B29E63",
"`% 	c #AC9552",
" & 	c #A88E3E",
".& 	c #A88B29",
"+& 	c #A78918",
"@& 	c #AA8A15",
"#& 	c #AB8B16",
"$& 	c #AE8E19",
"%& 	c #A98915",
"&& 	c #A98817",
"*& 	c #A78417",
"=& 	c #A58314",
"-& 	c #A58413",
";& 	c #A48312",
">& 	c #A48212",
",& 	c #A58111",
"'& 	c #A78213",
")& 	c #A78315",
"!& 	c #A78517",
"~& 	c #A98617",
"{& 	c #A88615",
"]& 	c #AC8A16",
"^& 	c #B28E1B",
"/& 	c #B28E1A",
"(& 	c #B08D19",
"_& 	c #B08C18",
":& 	c #B08C19",
"<& 	c #AD8918",
"[& 	c #AA8517",
"}& 	c #A58313",
"|& 	c #A48214",
"1& 	c #A58317",
"2& 	c #A28114",
"3& 	c #A28014",
"4& 	c #A27F14",
"5& 	c #A27F15",
"6& 	c #A07E16",
"7& 	c #9F7E16",
"8& 	c #9E7D14",
"9& 	c #9F7E15",
"0& 	c #A17E15",
"a& 	c #A07D12",
"b& 	c #A07E12",
"c& 	c #A08013",
"d& 	c #A17E13",
"e& 	c #A68016",
"f& 	c #A97F16",
"g& 	c #AD8316",
"h& 	c #B08413",
"i& 	c #B68916",
"j& 	c #B58813",
"k& 	c #B58815",
"l& 	c #B58916",
"m& 	c #B48716",
"n& 	c #B28316",
"o& 	c #AE7E16",
"p& 	c #AA7916",
"q& 	c #A27314",
"r& 	c #996F14",
"s& 	c #906B1C",
"t& 	c #7E7163",
"u& 	c #847568",
"v& 	c #857668",
"w& 	c #897A6D",
"x& 	c #897B6C",
"y& 	c #827464",
"z& 	c #837666",
"A& 	c #877B6C",
"B& 	c #887D6F",
"C& 	c #80756A",
"D& 	c #80756D",
"E& 	c #867B75",
"F& 	c #8E847F",
"G& 	c #928983",
"H& 	c #8D847E",
"I& 	c #948C85",
"J& 	c #978F88",
"K& 	c #908982",
"L& 	c #8B857E",
"M& 	c #938D86",
"N& 	c #99938C",
"O& 	c #9F9992",
"P& 	c #918C85",
"Q& 	c #86827A",
"R& 	c #848078",
"S& 	c #858076",
"T& 	c #8C877C",
"U& 	c #8E887E",
"V& 	c #8D887D",
"W& 	c #8F8A7F",
"X& 	c #979288",
"Y& 	c #9A958A",
"Z& 	c #969186",
"`& 	c #999489",
" * 	c #9A948A",
".* 	c #989288",
"+* 	c #969085",
"@* 	c #928D81",
"#* 	c #8C887D",
"$* 	c #949288",
"%* 	c #A0A197",
"&* 	c #A7A8A0",
"** 	c #B1B4AB",
"=* 	c #BFC2B8",
"-* 	c #BFC1B6",
";* 	c #B9BAAE",
">* 	c #B3B3A7",
",* 	c #AAAB9D",
"'* 	c #A7A699",
")* 	c #A8A699",
"!* 	c #A9A79A",
"~* 	c #B5B3A6",
"{* 	c #C6C4B7",
"]* 	c #C4C3B6",
"^* 	c #C1BFB3",
"/* 	c #BFBDB2",
"(* 	c #C3C1B7",
"_* 	c #C8C6BD",
":* 	c #C4C2B9",
"<* 	c #C4C2BE",
"[* 	c #CFCDC9",
"}* 	c #D8D5C9",
"|* 	c #D8D4C0",
"1* 	c #D5D0BA",
"2* 	c #D8D4C4",
"3* 	c #E0DDD5",
"4* 	c #E8E4DE",
"5* 	c #E6DFD4",
"6* 	c #DED1B6",
"7* 	c #D5C594",
"8* 	c #CAB571",
"9* 	c #BB9F41",
"0* 	c #B19220",
"a* 	c #AD8D16",
"b* 	c #A88716",
"c* 	c #A78616",
"d* 	c #A58514",
"e* 	c #A98615",
"f* 	c #A98514",
"g* 	c #A78413",
"h* 	c #A78717",
"i* 	c #AB8B20",
"j* 	c #AC8C1F",
"k* 	c #AC8D1A",
"l* 	c #B39018",
"m* 	c #BC9821",
"n* 	c #B3921A",
"o* 	c #B28E16",
"p* 	c #B08B16",
"q* 	c #AE8916",
"r* 	c #AC8816",
"s* 	c #AA8616",
"t* 	c #A98517",
"u* 	c #A68514",
"v* 	c #A68415",
"w* 	c #A58316",
"x* 	c #A48217",
"y* 	c #A58318",
"z* 	c #A58418",
"A* 	c #A48016",
"B* 	c #A68116",
"C* 	c #A58114",
"D* 	c #A68114",
"E* 	c #A38012",
"F* 	c #A38113",
"G* 	c #A58113",
"H* 	c #A88113",
"I* 	c #AA8016",
"J* 	c #AE8317",
"K* 	c #B28512",
"L* 	c #B78A15",
"M* 	c #B68A17",
"N* 	c #B68A15",
"O* 	c #B48715",
"P* 	c #B28418",
"Q* 	c #AF7F17",
"R* 	c #AE7917",
"S* 	c #A57313",
"T* 	c #9A6E14",
"U* 	c #936D1A",
"V* 	c #AD9B8A",
"W* 	c #B29D8E",
"X* 	c #B19B8D",
"Y* 	c #B39E8E",
"Z* 	c #B09C8B",
"`* 	c #A99683",
" = 	c #AB9985",
".= 	c #B19F8A",
"+= 	c #B2A18D",
"@= 	c #AC9B89",
"#= 	c #AE9D8C",
"$= 	c #AC9C8D",
"%= 	c #A9988B",
"&= 	c #A8968C",
"*= 	c #AA988F",
"== 	c #A8968E",
"-= 	c #AA9990",
";= 	c #AC9B92",
">= 	c #A4948B",
",= 	c #AC9C93",
"'= 	c #A7988E",
")= 	c #A1938A",
"!= 	c #9D8F85",
"~= 	c #998C82",
"{= 	c #9B8E84",
"]= 	c #998F85",
"^= 	c #948D83",
"/= 	c #918A80",
"(= 	c #908C81",
"_= 	c #908D82",
":= 	c #8C897E",
"<= 	c #848176",
"[= 	c #828175",
"}= 	c #929286",
"|= 	c #9C9C90",
"1= 	c #9A9A8E",
"2= 	c #918E82",
"3= 	c #868176",
"4= 	c #89867A",
"5= 	c #949187",
"6= 	c #93948A",
"7= 	c #91928A",
"8= 	c #A6A9A0",
"9= 	c #BABDB4",
"0= 	c #A8AA9F",
"a= 	c #AFB0A5",
"b= 	c #A4A598",
"c= 	c #9C9D8F",
"d= 	c #A1A294",
"e= 	c #9E9F93",
"f= 	c #9B9D90",
"g= 	c #A0A194",
"h= 	c #A1A296",
"i= 	c #A0A196",
"j= 	c #9D9E94",
"k= 	c #9A9B92",
"l= 	c #9D9D95",
"m= 	c #ACADA5",
"n= 	c #B7B7B0",
"o= 	c #B8B9B2",
"p= 	c #B3B5AC",
"q= 	c #B3B6AA",
"r= 	c #BDBEB0",
"s= 	c #CFCFBF",
"t= 	c #D5D5C6",
"u= 	c #D6D9CC",
"v= 	c #DBE0D5",
"w= 	c #DEE4DA",
"x= 	c #DBE1D1",
"y= 	c #DADBC3",
"z= 	c #E3DEBA",
"A= 	c #E8DCAC",
"B= 	c #D5BE79",
"C= 	c #C4A442",
"D= 	c #BB992C",
"E= 	c #B89621",
"F= 	c #B7931B",
"G= 	c #B6931C",
"H= 	c #B3911A",
"I= 	c #B18E17",
"J= 	c #AC8A15",
"K= 	c #AC8C19",
"L= 	c #AE911C",
"M= 	c #AC9021",
"N= 	c #BA9D38",
"O= 	c #B89D2D",
"P= 	c #B4971E",
"Q= 	c #B89920",
"R= 	c #BD9B25",
"S= 	c #B19018",
"T= 	c #B39119",
"U= 	c #B49016",
"V= 	c #AD8915",
"W= 	c #AC8817",
"X= 	c #A98815",
"Y= 	c #AA8819",
"Z= 	c #A68516",
"`= 	c #A88618",
" - 	c #A98718",
".- 	c #AB8719",
"+- 	c #AD881A",
"@- 	c #AC8416",
"#- 	c #AC8514",
"$- 	c #AB8514",
"%- 	c #AA8414",
"&- 	c #AD8415",
"*- 	c #AD8314",
"=- 	c #AE8318",
"-- 	c #B68814",
";- 	c #B68914",
">- 	c #B88915",
",- 	c #B58615",
"'- 	c #AF7E16",
")- 	c #AD7A18",
"!- 	c #A57616",
"~- 	c #9C7114",
"{- 	c #946C13",
"]- 	c #D6BDAF",
"^- 	c #D6BCAF",
"/- 	c #D7BCAE",
"(- 	c #D7BDAD",
"_- 	c #CDB4A2",
":- 	c #C1A995",
"<- 	c #C5AD97",
"[- 	c #C6B09A",
"}- 	c #C4AE98",
"|- 	c #C4AE99",
"1- 	c #CDB8A5",
"2- 	c #CCB7A5",
"3- 	c #C4AF9F",
"4- 	c #C5AFA0",
"5- 	c #CBB4A5",
"6- 	c #CFB9A9",
"7- 	c #CCB6A6",
"8- 	c #C9B2A3",
"9- 	c #C7B2A2",
"0- 	c #D0BAAB",
"a- 	c #CAB5A6",
"b- 	c #C6B2A2",
"c- 	c #C8B4A4",
"d- 	c #C7B3A3",
"e- 	c #C8B4A5",
"f- 	c #C3B1A6",
"g- 	c #B8A9A0",
"h- 	c #B7A89F",
"i- 	c #B1A49A",
"j- 	c #B2A59C",
"k- 	c #B5A99F",
"l- 	c #AFA499",
"m- 	c #B2A99E",
"n- 	c #AEA59A",
"o- 	c #A49C90",
"p- 	c #A9A195",
"q- 	c #AEA69A",
"r- 	c #A79F92",
"s- 	c #A49D90",
"t- 	c #A49E92",
"u- 	c #A7A398",
"v- 	c #A7A59B",
"w- 	c #A9A89E",
"x- 	c #ABAAA0",
"y- 	c #A09F95",
"z- 	c #97958A",
"A- 	c #9D9C90",
"B- 	c #A4A498",
"C- 	c #A3A499",
"D- 	c #9B9D91",
"E- 	c #9FA095",
"F- 	c #A8A99F",
"G- 	c #A0A298",
"H- 	c #989991",
"I- 	c #9EA098",
"J- 	c #A4A69F",
"K- 	c #A8AAA4",
"L- 	c #A5A8A2",
"M- 	c #A6A8A2",
"N- 	c #A5A69F",
"O- 	c #A9A89F",
"P- 	c #B6B3A7",
"Q- 	c #C7C2B4",
"R- 	c #CAC5B7",
"S- 	c #C3C0B3",
"T- 	c #C7C7BB",
"U- 	c #D3D4C7",
"V- 	c #E0DFCD",
"W- 	c #D1CAB1",
"X- 	c #D3C4A3",
"Y- 	c #DFCAA0",
"Z- 	c #D8BF81",
"`- 	c #C6AC58",
" ; 	c #BB9F40",
".; 	c #C2A33D",
"+; 	c #CFAD3E",
"@; 	c #D4AE37",
"#; 	c #CEA52A",
"$; 	c #CB9F23",
"%; 	c #C5981D",
"&; 	c #BC9216",
"*; 	c #BA9525",
"=; 	c #BC9B35",
"-; 	c #B2921D",
";; 	c #B09318",
">; 	c #B39518",
",; 	c #B5941C",
"'; 	c #B5931C",
"); 	c #B7921B",
"!; 	c #B69218",
"~; 	c #B59117",
"{; 	c #B48E16",
"]; 	c #B18D16",
"^; 	c #B18D17",
"/; 	c #B08C17",
"(; 	c #AF8A17",
"_; 	c #B08D17",
":; 	c #AF8B16",
"<; 	c #B08B15",
"[; 	c #B38B16",
"}; 	c #B38A16",
"|; 	c #B28815",
"1; 	c #B18815",
"2; 	c #B08613",
"3; 	c #AE8512",
"4; 	c #AE8515",
"5; 	c #AF8414",
"6; 	c #B08515",
"7; 	c #B28517",
"8; 	c #B58618",
"9; 	c #B68915",
"0; 	c #B58914",
"a; 	c #B78915",
"b; 	c #B78714",
"c; 	c #B98714",
"d; 	c #B68415",
"e; 	c #B58117",
"f; 	c #B07D15",
"g; 	c #A87915",
"h; 	c #9D7114",
"i; 	c #986D13",
"j; 	c #DEC4B7",
"k; 	c #DFC3B8",
"l; 	c #E3C7BB",
"m; 	c #DDC1B4",
"n; 	c #D5BAAB",
"o; 	c #D4BAA8",
"p; 	c #D0B7A3",
"q; 	c #CEB5A1",
"r; 	c #D4BBA8",
"s; 	c #D1B8A7",
"t; 	c #D6BFAF",
"u; 	c #DDC6B7",
"v; 	c #D8C0B2",
"w; 	c #CFB6A6",
"x; 	c #C7AC9C",
"y; 	c #C5AB9B",
"z; 	c #CDB3A3",
"A; 	c #D4BAA9",
"B; 	c #D7BDAC",
"C; 	c #D8BEAD",
"D; 	c #CDB3A2",
"E; 	c #CEB4A4",
"F; 	c #CFB7A9",
"G; 	c #D4BEB1",
"H; 	c #CEB8AC",
"I; 	c #C0A99D",
"J; 	c #C2AC9F",
"K; 	c #C6B0A4",
"L; 	c #C8B2A6",
"M; 	c #CEB8AB",
"N; 	c #CEB9AC",
"O; 	c #C6B0A3",
"P; 	c #C5AFA3",
"Q; 	c #CAB4A8",
"R; 	c #C4B0A2",
"S; 	c #BDAB9D",
"T; 	c #BCAB9C",
"U; 	c #B9A99B",
"V; 	c #C3B3A6",
"W; 	c #CCBDB1",
"X; 	c #CCBEB3",
"Y; 	c #CBBFB4",
"Z; 	c #C7BCB2",
"`; 	c #C2B8AE",
" > 	c #BFB5AC",
".> 	c #BCB3AA",
"+> 	c #B9B2A8",
"@> 	c #B5B1A6",
"#> 	c #ABA89D",
"$> 	c #A09E94",
"%> 	c #A7A59C",
"&> 	c #AEADA5",
"*> 	c #ADADA7",
"=> 	c #AEAEA9",
"-> 	c #AAABA6",
";> 	c #A6A9A4",
">> 	c #ABB0AB",
",> 	c #B1B5B0",
"'> 	c #B3B2AB",
")> 	c #B0AA9C",
"!> 	c #AAA18C",
"~> 	c #A69D81",
"{> 	c #A79E7F",
"]> 	c #A59E81",
"^> 	c #A9A48D",
"/> 	c #B6B29F",
"(> 	c #C9C3AF",
"_> 	c #D9CDB2",
":> 	c #D6C49F",
"<> 	c #C5AE7E",
"[> 	c #B8A166",
"}> 	c #BDA561",
"|> 	c #C9AF62",
"1> 	c #D2B55D",
"2> 	c #CAAA47",
"3> 	c #BF9A2C",
"4> 	c #C19820",
"5> 	c #C79D1E",
"6> 	c #C59A19",
"7> 	c #C09514",
"8> 	c #BF9515",
"9> 	c #BD9315",
"0> 	c #C09419",
"a> 	c #C0921B",
"b> 	c #C0931B",
"c> 	c #BF941C",
"d> 	c #BE961B",
"e> 	c #BA951B",
"f> 	c #B8941B",
"g> 	c #BA951D",
"h> 	c #B9941C",
"i> 	c #BA931B",
"j> 	c #B79016",
"k> 	c #B89117",
"l> 	c #B78F16",
"m> 	c #B68C18",
"n> 	c #B98D16",
"o> 	c #BB8B16",
"p> 	c #BA8C18",
"q> 	c #B98A16",
"r> 	c #B88A16",
"s> 	c #B68815",
"t> 	c #B38614",
"u> 	c #B48516",
"v> 	c #B48518",
"w> 	c #B28516",
"x> 	c #B58717",
"y> 	c #B68516",
"z> 	c #B68313",
"A> 	c #B68213",
"B> 	c #B68214",
"C> 	c #B48017",
"D> 	c #B07D13",
"E> 	c #A97815",
"F> 	c #A37417",
"G> 	c #A07216",
"H> 	c #9B6D14",
"I> 	c #E0CABD",
"J> 	c #E0C6BC",
"K> 	c #E2C6BD",
"L> 	c #DFC4B4",
"M> 	c #E1C6B5",
"N> 	c #E1C5B3",
"O> 	c #DDC1AF",
"P> 	c #DCC0AE",
"Q> 	c #E0C3B2",
"R> 	c #E3C6B6",
"S> 	c #E7C9BA",
"T> 	c #E4C6B4",
"U> 	c #E0C3AF",
"V> 	c #DABCA8",
"W> 	c #D5B8A4",
"X> 	c #DABCA9",
"Y> 	c #DCBFAB",
"Z> 	c #DBBDAA",
"`> 	c #DDBFAC",
" , 	c #D8BAA7",
"., 	c #D6B8A4",
"+, 	c #D6B8A5",
"@, 	c #DCBEAC",
"#, 	c #D8B9A9",
"$, 	c #D2B3A2",
"%, 	c #D2B3A3",
"&, 	c #D2B4A3",
"*, 	c #D5B6A6",
"=, 	c #D4B5A4",
"-, 	c #D6B7A7",
";, 	c #D5B7A9",
">, 	c #D1B5A9",
",, 	c #CBB0A4",
"', 	c #C5AB9F",
"), 	c #C6AEA1",
"!, 	c #CBB3A6",
"~, 	c #D0B9AC",
"{, 	c #D1BCAE",
"], 	c #D4C0B2",
"^, 	c #D4C2B4",
"/, 	c #D0BFB0",
"(, 	c #D0BEB1",
"_, 	c #CFBEB1",
":, 	c #CBB8AD",
"<, 	c #C7B6AB",
"[, 	c #C5B5A9",
"}, 	c #C6B8AD",
"|, 	c #C9BCB2",
"1, 	c #C8BEB5",
"2, 	c #C5BDB4",
"3, 	c #BDB8AF",
"4, 	c #AFACA3",
"5, 	c #ADABA2",
"6, 	c #B6B3A4",
"7, 	c #B2AD97",
"8, 	c #ACA38C",
"9, 	c #AA9D85",
"0, 	c #AA9B81",
"a, 	c #AC9D81",
"b, 	c #AA9F80",
"c, 	c #A89E7D",
"d, 	c #B2A884",
"e, 	c #C0B28C",
"f, 	c #C5B289",
"g, 	c #BDA67B",
"h, 	c #B89E71",
"i, 	c #BFA371",
"j, 	c #C8AB70",
"k, 	c #C8A860",
"l, 	c #C3A04A",
"m, 	c #C39E39",
"n, 	c #C0992A",
"o, 	c #C29A25",
"p, 	c #BE951E",
"q, 	c #BD9620",
"r, 	c #C49E2D",
"s, 	c #C7A136",
"t, 	c #CDA537",
"u, 	c #D0A532",
"v, 	c #CB9E28",
"w, 	c #C3971F",
"x, 	c #C1941A",
"y, 	c #BF9318",
"z, 	c #BF9217",
"A, 	c #C1931A",
"B, 	c #C0921A",
"C, 	c #BF9119",
"D, 	c #BE9118",
"E, 	c #BE9319",
"F, 	c #BD9218",
"G, 	c #BD9018",
"H, 	c #BE9119",
"I, 	c #BD8F17",
"J, 	c #C09019",
"K, 	c #C28F1A",
"L, 	c #BE8D1A",
"M, 	c #BF8E1A",
"N, 	c #BE8D19",
"O, 	c #BB8B15",
"P, 	c #BB8A14",
"Q, 	c #BB8A15",
"R, 	c #B98815",
"S, 	c #B78514",
"T, 	c #B58616",
"U, 	c #B48618",
"V, 	c #B28319",
"W, 	c #B2821A",
"X, 	c #B3811A",
"Y, 	c #B6811A",
"Z, 	c #B68118",
"`, 	c #B58114",
" ' 	c #B37F11",
".' 	c #B47F16",
"+' 	c #AF7A11",
"@' 	c #AA7614",
"#' 	c #A47216",
"$' 	c #A16F14",
"%' 	c #9E6C14",
"&' 	c #E5CDC6",
"*' 	c #E2C8C0",
"=' 	c #E1C5BC",
"-' 	c #E1C5BA",
";' 	c #E1C5B9",
">' 	c #E0C4B6",
",' 	c #E1C5B4",
"'' 	c #E2C6B4",
")' 	c #E0C2AF",
"!' 	c #DCBCA9",
"~' 	c #DDBCAA",
"{' 	c #E3C0AF",
"]' 	c #E4C1B0",
"^' 	c #DFBDAA",
"/' 	c #DAB8A4",
"(' 	c #D8B7A3",
"_' 	c #DBBAA5",
":' 	c #DCBBA5",
"<' 	c #DBBAA4",
"[' 	c #DEBDA7",
"}' 	c #E2C2AB",
"|' 	c #E0BFA9",
"1' 	c #DFBEA6",
"2' 	c #DCBBA4",
"3' 	c #DDBCA5",
"4' 	c #DCB9A3",
"5' 	c #DFB9A4",
"6' 	c #DDB7A2",
"7' 	c #D8B39D",
"8' 	c #D7B29E",
"9' 	c #D8B49F",
"0' 	c #D7B39F",
"a' 	c #D4AF9B",
"b' 	c #D5B19D",
"c' 	c #DBB6A3",
"d' 	c #DDB8A5",
"e' 	c #DBB8A5",
"f' 	c #D4B1A2",
"g' 	c #D2AFA4",
"h' 	c #D6B4A9",
"i' 	c #D0AFA2",
"j' 	c #C6A598",
"k' 	c #CDAD9F",
"l' 	c #D5B6A8",
"m' 	c #D6B9A9",
"n' 	c #D6B9AA",
"o' 	c #D7BBAA",
"p' 	c #DBBFAE",
"q' 	c #DABDAB",
"r' 	c #DBBDAB",
"s' 	c #D7BBA9",
"t' 	c #D4B9A6",
"u' 	c #D7BEAD",
"v' 	c #DAC3B3",
"w' 	c #D9C5B7",
"x' 	c #D7C5B7",
"y' 	c #D4C4B7",
"z' 	c #D3C5B9",
"A' 	c #D3C6BB",
"B' 	c #D2C7BB",
"C' 	c #CFC8BC",
"D' 	c #CBC5B9",
"E' 	c #C3BBB0",
"F' 	c #BFB4A9",
"G' 	c #C2B6A9",
"H' 	c #C1B5A4",
"I' 	c #B7AC96",
"J' 	c #B1A78B",
"K' 	c #BAB091",
"L' 	c #C0B494",
"M' 	c #C3B394",
"N' 	c #C5B194",
"O' 	c #C1A989",
"P' 	c #C3A781",
"Q' 	c #CCAE7F",
"R' 	c #CCAC72",
"S' 	c #C09E57",
"T' 	c #BB9743",
"U' 	c #C19C3E",
"V' 	c #CBA440",
"W' 	c #CBA33E",
"X' 	c #CDA440",
"Y' 	c #D5AC4B",
"Z' 	c #D5AC4D",
"`' 	c #D0A740",
" ) 	c #C79D2B",
".) 	c #BD931C",
"+) 	c #BC9017",
"@) 	c #BD9118",
"#) 	c #BC8E17",
"$) 	c #BE901A",
"%) 	c #BC8D19",
"&) 	c #BC8D1A",
"*) 	c #BF911C",
"=) 	c #BE911B",
"-) 	c #C09219",
";) 	c #C19217",
">) 	c #C19317",
",) 	c #C19319",
"') 	c #C29219",
")) 	c #C29119",
"!) 	c #C1901A",
"~) 	c #C08F1A",
"{) 	c #BF8E19",
"]) 	c #B98914",
"^) 	c #B98B15",
"/) 	c #B78916",
"() 	c #B68619",
"_) 	c #B2831D",
":) 	c #B28224",
"<) 	c #B38126",
"[) 	c #B37F23",
"}) 	c #B57F23",
"|) 	c #B27E1C",
"1) 	c #B37D15",
"2) 	c #B27B10",
"3) 	c #B27C14",
"4) 	c #B07A11",
"5) 	c #AA7411",
"6) 	c #A77217",
"7) 	c #A47016",
"8) 	c #A16E15",
"9) 	c #E9CFC7",
"0) 	c #E7CBC0",
"a) 	c #E6C9BC",
"b) 	c #E4C8B9",
"c) 	c #E3C8B8",
"d) 	c #E3C9B8",
"e) 	c #E4CAB7",
"f) 	c #E3C8B4",
"g) 	c #DFC2AE",
"h) 	c #DEBFAB",
"i) 	c #E3C1AD",
"j) 	c #E4C0AD",
"k) 	c #E0BBA7",
"l) 	c #DDB9A5",
"m) 	c #DCB9A5",
"n) 	c #DDBAA4",
"o) 	c #DAB7A1",
"p) 	c #D8B59F",
"q) 	c #DBB9A1",
"r) 	c #DBB89F",
"s) 	c #D9B69D",
"t) 	c #D9B79C",
"u) 	c #DAB79D",
"v) 	c #DCB89E",
"w) 	c #DFBAA0",
"x) 	c #E1B9A0",
"y) 	c #E0B79E",
"z) 	c #DCB49D",
"A) 	c #DBB29C",
"B) 	c #DAB39C",
"C) 	c #D7B19B",
"D) 	c #D6B09B",
"E) 	c #DBB6A0",
"F) 	c #E1BCA8",
"G) 	c #DFBAA7",
"H) 	c #D9B6A2",
"I) 	c #D9B7A3",
"J) 	c #DAB9A5",
"K) 	c #DDBBA7",
"L) 	c #D9B8A2",
"M) 	c #D8B7A0",
"N) 	c #D8B8A1",
"O) 	c #D7B69F",
"P) 	c #D8B79E",
"Q) 	c #DABAA1",
"R) 	c #DEBEA5",
"S) 	c #E0C1A9",
"T) 	c #DFC1AA",
"U) 	c #DCBEA9",
"V) 	c #D9BDA8",
"W) 	c #D9BEAB",
"X) 	c #D8BFAE",
"Y) 	c #D9C1B2",
"Z) 	c #DAC4B7",
"`) 	c #DAC5BA",
" ! 	c #D9C4BA",
".! 	c #D8C4BB",
"+! 	c #D9C8BE",
"@! 	c #DBCDC3",
"#! 	c #DACDC5",
"$! 	c #D9CDC7",
"%! 	c #DBD0CC",
"&! 	c #D9CFCB",
"*! 	c #D4CAC5",
"=! 	c #D2C8C0",
"-! 	c #D1C6B9",
";! 	c #CCBFAD",
">! 	c #C4B69F",
",! 	c #BEAF94",
"'! 	c #C1AB8B",
")! 	c #C3A782",
"!! 	c #C1A277",
"~! 	c #C1A36F",
"{! 	c #BC9E5F",
"]! 	c #B8984E",
"^! 	c #BC9B47",
"/! 	c #B99739",
"(! 	c #BB9733",
"_! 	c #C29C34",
":! 	c #C19B30",
"<! 	c #BC9527",
"[! 	c #B8901E",
"}! 	c #B68D18",
"|! 	c #B68C17",
"1! 	c #B48A14",
"2! 	c #B38914",
"3! 	c #B88D18",
"4! 	c #B88B16",
"5! 	c #B98C17",
"6! 	c #B98B17",
"7! 	c #B98B16",
"8! 	c #BE8F18",
"9! 	c #C3911A",
"0! 	c #C19018",
"a! 	c #C2901A",
"b! 	c #C2901B",
"c! 	c #C18E1B",
"d! 	c #BE8C19",
"e! 	c #BB8A17",
"f! 	c #B88816",
"g! 	c #B38120",
"h! 	c #B18129",
"i! 	c #AE8031",
"j! 	c #AE7D32",
"k! 	c #AC7D2F",
"l! 	c #AA7B2A",
"m! 	c #AB7B26",
"n! 	c #B07B1B",
"o! 	c #B27A18",
"p! 	c #AD7714",
"q! 	c #AE7812",
"r! 	c #AA7513",
"s! 	c #A67016",
"t! 	c #A47015",
"u! 	c #A06E13",
"v! 	c #E9D0C8",
"w! 	c #E9CEC5",
"x! 	c #E8CCC2",
"y! 	c #E6CBC1",
"z! 	c #E5CCC0",
"A! 	c #E4CCBE",
"B! 	c #E3CBBC",
"C! 	c #E4CBBB",
"D! 	c #E4C9B9",
"E! 	c #E3C6B4",
"F! 	c #E2C2B0",
"G! 	c #E3C1AF",
"H! 	c #E6C2B1",
"I! 	c #EAC4B2",
"J! 	c #EBC5B2",
"K! 	c #E9C3B0",
"L! 	c #E6C1AC",
"M! 	c #E6C1AB",
"N! 	c #EAC4AF",
"O! 	c #EAC5AE",
"P! 	c #E7C1AA",
"Q! 	c #E1BCA5",
"R! 	c #DDB9A0",
"S! 	c #DDB89E",
"T! 	c #E3BAA2",
"U! 	c #E3B7A0",
"V! 	c #E2B79F",
"W! 	c #E0B59E",
"X! 	c #DBB09B",
"Y! 	c #DCB39D",
"Z! 	c #E1B7A3",
"`! 	c #E1B8A4",
" ~ 	c #DEB6A1",
".~ 	c #DCB4A1",
"+~ 	c #DCB5A2",
"@~ 	c #DCB6A3",
"#~ 	c #E1BCA4",
"$~ 	c #E4BFA6",
"%~ 	c #E0BBA2",
"&~ 	c #DDB89F",
"*~ 	c #DBB69C",
"=~ 	c #D9B59A",
"-~ 	c #DAB69B",
";~ 	c #DAB59A",
">~ 	c #DAB69A",
",~ 	c #DBB79A",
"'~ 	c #DCB79B",
")~ 	c #DAB49A",
"!~ 	c #DCB59F",
"~~ 	c #DDB6A2",
"{~ 	c #DEB7A3",
"]~ 	c #DDB7A5",
"^~ 	c #DCB7A6",
"/~ 	c #DEBAA9",
"(~ 	c #E2BEAF",
"_~ 	c #E3C0B2",
":~ 	c #E2BFB2",
"<~ 	c #DEBBAF",
"[~ 	c #DBBAAE",
"}~ 	c #DABBAF",
"|~ 	c #D7BAAF",
"1~ 	c #D6BCB3",
"2~ 	c #D9C2BC",
"3~ 	c #DDC9C5",
"4~ 	c #DBCAC7",
"5~ 	c #D6C9C4",
"6~ 	c #D8CCC5",
"7~ 	c #DCD0C6",
"8~ 	c #DACEC2",
"9~ 	c #D2C5B7",
"0~ 	c #CABBAA",
"a~ 	c #C7B3A0",
"b~ 	c #C4AF96",
"c~ 	c #C0AA88",
"d~ 	c #BAA175",
"e~ 	c #B49B62",
"f~ 	c #B49954",
"g~ 	c #B29643",
"h~ 	c #B29537",
"i~ 	c #B5972F",
"j~ 	c #B09123",
"k~ 	c #AE8E1B",
"l~ 	c #BA921C",
"m~ 	c #BC941E",
"n~ 	c #BB921D",
"o~ 	c #B78D17",
"p~ 	c #B68C16",
"q~ 	c #B78C17",
"r~ 	c #B68B16",
"s~ 	c #B78B16",
"t~ 	c #B58713",
"u~ 	c #BA8C16",
"v~ 	c #BA8A16",
"w~ 	c #BB8916",
"x~ 	c #BB8815",
"y~ 	c #B88515",
"z~ 	c #B5851A",
"A~ 	c #B58321",
"B~ 	c #B17E2B",
"C~ 	c #AA7D33",
"D~ 	c #A87C3B",
"E~ 	c #AA7B3F",
"F~ 	c #A87A3C",
"G~ 	c #A67938",
"H~ 	c #A67933",
"I~ 	c #AA7827",
"J~ 	c #AC7720",
"K~ 	c #AD781C",
"L~ 	c #AD7715",
"M~ 	c #A87114",
"N~ 	c #A36F15",
"O~ 	c #A27014",
"P~ 	c #EED3CE",
"Q~ 	c #EED2CD",
"R~ 	c #ECD0CB",
"S~ 	c #E7CDC8",
"T~ 	c #E6CDC8",
"U~ 	c #E5CDC7",
"V~ 	c #E4CBC4",
"W~ 	c #E3C8C0",
"X~ 	c #E2C6BC",
"Y~ 	c #E5C7BD",
"Z~ 	c #ECCBC1",
"`~ 	c #EFCCC1",
" { 	c #ECC9B9",
".{ 	c #EAC5B3",
"+{ 	c #E9C4B1",
"@{ 	c #EAC4B1",
"#{ 	c #EAC4B0",
"${ 	c #ECC4B1",
"%{ 	c #EDC5B1",
"&{ 	c #ECC5B0",
"*{ 	c #E8C2AC",
"={ 	c #E4BFA7",
"-{ 	c #E2BEA5",
";{ 	c #E1BDA4",
">{ 	c #E4B7A1",
",{ 	c #E3B6A0",
"'{ 	c #E1B49F",
"){ 	c #E1B5A0",
"!{ 	c #E0B4A0",
"~{ 	c #E1B5A1",
"{{ 	c #E0B5A1",
"]{ 	c #DEB39F",
"^{ 	c #E4B9A6",
"/{ 	c #E3B7A3",
"({ 	c #E6BAA5",
"_{ 	c #E8BCA7",
":{ 	c #E5B8A3",
"<{ 	c #E5B9A3",
"[{ 	c #E1B59E",
"}{ 	c #D9AD96",
"|{ 	c #D7AB93",
"1{ 	c #D6AB92",
"2{ 	c #D9AD95",
"3{ 	c #DCB098",
"4{ 	c #DEB299",
"5{ 	c #DDB199",
"6{ 	c #DBAF98",
"7{ 	c #DAAE97",
"8{ 	c #DAAD98",
"9{ 	c #DBAE9A",
"0{ 	c #DEB19E",
"a{ 	c #DFB29F",
"b{ 	c #DBAF9E",
"c{ 	c #DDB2A1",
"d{ 	c #E2B7A7",
"e{ 	c #DDB3A4",
"f{ 	c #D7AD9E",
"g{ 	c #DCB0A5",
"h{ 	c #E0B3AB",
"i{ 	c #DEB3A9",
"j{ 	c #DDB5A8",
"k{ 	c #DAB6A6",
"l{ 	c #D7B7A6",
"m{ 	c #D6B9A8",
"n{ 	c #D5BBAB",
"o{ 	c #D6BEB2",
"p{ 	c #DAC5BC",
"q{ 	c #DCC8C3",
"r{ 	c #DBC9C6",
"s{ 	c #D9CAC8",
"t{ 	c #DACECA",
"u{ 	c #DED1CA",
"v{ 	c #DDCFC5",
"w{ 	c #D8CABA",
"x{ 	c #CEBEA8",
"y{ 	c #C1AF90",
"z{ 	c #B5A076",
"A{ 	c #B29962",
"B{ 	c #B29650",
"C{ 	c #BA9B46",
"D{ 	c #BF9E3F",
"E{ 	c #BD9A32",
"F{ 	c #BA9526",
"G{ 	c #B6901E",
"H{ 	c #B38C17",
"I{ 	c #B38D14",
"J{ 	c #B38C13",
"K{ 	c #B28A11",
"L{ 	c #B28A13",
"M{ 	c #B38A15",
"N{ 	c #B38B15",
"O{ 	c #B18A13",
"P{ 	c #B08911",
"Q{ 	c #B18911",
"R{ 	c #B48914",
"S{ 	c #B38713",
"T{ 	c #B18511",
"U{ 	c #B68A16",
"V{ 	c #B78B17",
"W{ 	c #B78A16",
"X{ 	c #B58814",
"Y{ 	c #B98717",
"Z{ 	c #B8871B",
"`{ 	c #B28023",
" ] 	c #AC7B31",
".] 	c #A77A3E",
"+] 	c #A67847",
"@] 	c #A77749",
"#] 	c #A67546",
"$] 	c #A67643",
"%] 	c #A5753D",
"&] 	c #A87633",
"*] 	c #A97627",
"=] 	c #AB761F",
"-] 	c #A97317",
";] 	c #A97117",
">] 	c #A66D15",
",] 	c #A26C13",
"'] 	c #A06F15",
")] 	c #E2C6C0",
"!] 	c #E1C4BD",
"~] 	c #E7CAC2",
"{] 	c #E8CCC4",
"]] 	c #EACFC8",
"^] 	c #E6CCC6",
"/] 	c #E4CAC4",
"(] 	c #E8CEC7",
"_] 	c #E8CDC6",
":] 	c #E4C7BE",
"<] 	c #E3C4BB",
"[] 	c #E7C6BB",
"}] 	c #E6C4B8",
"|] 	c #E4C3B2",
"1] 	c #E1C1AD",
"2] 	c #E2C0AD",
"3] 	c #E5C2AF",
"4] 	c #E7C3B1",
"5] 	c #ECC7B6",
"6] 	c #EDC7B7",
"7] 	c #EDC8B8",
"8] 	c #EBC7B7",
"9] 	c #E6C3B4",
"0] 	c #E5C3B4",
"a] 	c #E5C2B3",
"b] 	c #E8C1AE",
"c] 	c #ECC0AB",
"d] 	c #EBBEA9",
"e] 	c #E8BBA6",
"f] 	c #E7BAA5",
"g] 	c #E2B5A0",
"h] 	c #DEB19C",
"i] 	c #E3B6A1",
"j] 	c #E6B9A4",
"k] 	c #E0B39E",
"l] 	c #E2B59F",
"m] 	c #DEB19A",
"n] 	c #D9AC95",
"o] 	c #DCAF98",
"p] 	c #DCB097",
"q] 	c #D7AB92",
"r] 	c #D3A78E",
"s] 	c #D4A78E",
"t] 	c #D7A991",
"u] 	c #DAAA93",
"v] 	c #DFAD97",
"w] 	c #E1AE99",
"x] 	c #DDAA95",
"y] 	c #DAA794",
"z] 	c #D9A795",
"A] 	c #D9A997",
"B] 	c #DCAE9D",
"C] 	c #DFB5A3",
"D] 	c #DEB7A4",
"E] 	c #DBB4A3",
"F] 	c #D9B2A3",
"G] 	c #DBB3A4",
"H] 	c #DCB3A3",
"I] 	c #D9AF9F",
"J] 	c #D9B0A0",
"K] 	c #DBB2A3",
"L] 	c #DAB3A5",
"M] 	c #D9B4A8",
"N] 	c #D7B5AA",
"O] 	c #DBBAB1",
"P] 	c #E0C1B9",
"Q] 	c #DEC2BB",
"R] 	c #D7BEB7",
"S] 	c #D7C0B8",
"T] 	c #DDC8BE",
"U] 	c #E1CEC4",
"V] 	c #DECEC5",
"W] 	c #D9CAC0",
"X] 	c #D6C5B8",
"Y] 	c #D6C5AF",
"Z] 	c #CAB897",
"`] 	c #BDAA7B",
" ^ 	c #B9A569",
".^ 	c #B59B4D",
"+^ 	c #B49232",
"@^ 	c #B38E23",
"#^ 	c #B38E19",
"$^ 	c #B58E13",
"%^ 	c #B58D10",
"&^ 	c #B38A0F",
"*^ 	c #B48A13",
"=^ 	c #B48C17",
"-^ 	c #B28B18",
";^ 	c #AF8B17",
">^ 	c #AF8C16",
",^ 	c #B18C16",
"'^ 	c #B38915",
")^ 	c #B68B18",
"!^ 	c #B48816",
"~^ 	c #B88B18",
"{^ 	c #B78816",
"]^ 	c #B78815",
"^^ 	c #B78814",
"/^ 	c #B88919",
"(^ 	c #B28322",
"_^ 	c #AD7D37",
":^ 	c #A97845",
"<^ 	c #A5744D",
"[^ 	c #A6744E",
"}^ 	c #A57247",
"|^ 	c #A5713C",
"1^ 	c #A77330",
"2^ 	c #A97324",
"3^ 	c #A9721A",
"4^ 	c #A87016",
"5^ 	c #A66D14",
"6^ 	c #A36C13",
"7^ 	c #9F6C14",
"8^ 	c #E5C8BF",
"9^ 	c #EACBC1",
"0^ 	c #E6C8BE",
"a^ 	c #E2C4BC",
"b^ 	c #E7CAC3",
"c^ 	c #E8CCC5",
"d^ 	c #ECCFC8",
"e^ 	c #EBCDC5",
"f^ 	c #E5C6BC",
"g^ 	c #E8C8BC",
"h^ 	c #E6C3B7",
"i^ 	c #E5C1B2",
"j^ 	c #E8C3B2",
"k^ 	c #E5BFAD",
"l^ 	c #E1BAA9",
"m^ 	c #E3BEAC",
"n^ 	c #E8C4B3",
"o^ 	c #E8C5B4",
"p^ 	c #E9C6B6",
"q^ 	c #EAC4B6",
"r^ 	c #E9C3B6",
"s^ 	c #EAC3B7",
"t^ 	c #EAC1B4",
"u^ 	c #E7BDAB",
"v^ 	c #E7BBA6",
"w^ 	c #EABDA8",
"x^ 	c #E6B9A5",
"y^ 	c #E9BCA7",
"z^ 	c #E4B7A2",
"A^ 	c #E0B39D",
"B^ 	c #E1B49D",
"C^ 	c #E3B69F",
"D^ 	c #E4B89F",
"E^ 	c #E2B69D",
"F^ 	c #DDB198",
"G^ 	c #DEB198",
"H^ 	c #E0B19A",
"I^ 	c #E0AE98",
"J^ 	c #E1AD98",
"K^ 	c #E3AE99",
"L^ 	c #E3AD99",
"M^ 	c #E1AA96",
"N^ 	c #DDA693",
"O^ 	c #DAA591",
"P^ 	c #DCA894",
"Q^ 	c #DEAC97",
"R^ 	c #DDAE99",
"S^ 	c #DFB29B",
"T^ 	c #DFB49E",
"U^ 	c #DFB5A0",
"V^ 	c #E2B6A2",
"W^ 	c #E0B49E",
"X^ 	c #DDAF99",
"Y^ 	c #DBAD97",
"Z^ 	c #DBAD9A",
"`^ 	c #D9AC9B",
" / 	c #D9AE9F",
"./ 	c #D7ADA0",
"+/ 	c #D7AEA3",
"@/ 	c #D8B1A6",
"#/ 	c #D4B0A5",
"$/ 	c #D4B3A5",
"%/ 	c #D9BAAB",
"&/ 	c #DDC1B3",
"*/ 	c #DCC4B8",
"=/ 	c #D6C1B9",
"-/ 	c #D1BFBA",
";/ 	c #D3C4BF",
">/ 	c #D7CBC0",
",/ 	c #D9D0BF",
"'/ 	c #D8D0B8",
")/ 	c #D5CBAA",
"!/ 	c #CABB90",
"~/ 	c #C0AE76",
"{/ 	c #B8A25B",
"]/ 	c #B2953E",
"^/ 	c #B3922B",
"// 	c #B08B1C",
"(/ 	c #B28A18",
"_/ 	c #B28918",
":/ 	c #AE8A15",
"</ 	c #AE8914",
"[/ 	c #B28A16",
"}/ 	c #B48B17",
"|/ 	c #B58B18",
"1/ 	c #B58A17",
"2/ 	c #B88917",
"3/ 	c #B78B15",
"4/ 	c #B48813",
"5/ 	c #B48721",
"6/ 	c #B08231",
"7/ 	c #AA7B3C",
"8/ 	c #A8763E",
"9/ 	c #A57133",
"0/ 	c #A9722A",
"a/ 	c #A7701C",
"b/ 	c #A76E15",
"c/ 	c #A26C11",
"d/ 	c #A16C15",
"e/ 	c #E4C8BD",
"f/ 	c #E3C6BA",
"g/ 	c #E1C3B9",
"h/ 	c #DEC0B7",
"i/ 	c #DCBFB6",
"j/ 	c #E0C3BB",
"k/ 	c #DFC2BA",
"l/ 	c #E0C2B9",
"m/ 	c #E5C5BB",
"n/ 	c #E4C4B8",
"o/ 	c #E9C8BA",
"p/ 	c #E7C5B5",
"q/ 	c #E2BFAD",
"r/ 	c #E5BDAD",
"s/ 	c #E6BCAB",
"t/ 	c #E7BDAC",
"u/ 	c #E7BEAD",
"v/ 	c #E3BAA9",
"w/ 	c #E4BCAB",
"x/ 	c #EAC2B0",
"y/ 	c #E5BBA9",
"z/ 	c #E3B8A4",
"A/ 	c #E5B9A4",
"B/ 	c #E6B9A3",
"C/ 	c #DFB49F",
"D/ 	c #E4B7A3",
"E/ 	c #E6B8A5",
"F/ 	c #E5B7A3",
"G/ 	c #E5B6A3",
"H/ 	c #E6B6A3",
"I/ 	c #E8B7A4",
"J/ 	c #E9B8A5",
"K/ 	c #E7B6A3",
"L/ 	c #E6B6A4",
"M/ 	c #E7B7A6",
"N/ 	c #E6B7A6",
"O/ 	c #E5B5A3",
"P/ 	c #E7B8A5",
"Q/ 	c #E8B9A6",
"R/ 	c #E6B7A3",
"S/ 	c #E5B6A1",
"T/ 	c #E2B49E",
"U/ 	c #DFB19B",
"V/ 	c #DDAF98",
"W/ 	c #DDAF97",
"X/ 	c #DFB099",
"Y/ 	c #E2B19B",
"Z/ 	c #E2B09A",
"`/ 	c #E2AE99",
" ( 	c #E1AB97",
".( 	c #DEA893",
"+( 	c #DAA490",
"@( 	c #D59F8B",
"#( 	c #DCA592",
"$( 	c #DDA793",
"%( 	c #D9A490",
"&( 	c #D8A38F",
"*( 	c #D4A08B",
"=( 	c #D8A48F",
"-( 	c #DCA793",
";( 	c #D9A590",
">( 	c #DAA793",
",( 	c #D6A591",
"'( 	c #D4A592",
")( 	c #D6A897",
"!( 	c #D7AB9B",
"~( 	c #DBB2A4",
"{( 	c #DDB5A9",
"]( 	c #DDB7A9",
"^( 	c #DCB8A9",
"/( 	c #D9B9AA",
"(( 	c #D6B8AC",
"_( 	c #D3B8AF",
":( 	c #D2BAB3",
"<( 	c #D1BCB7",
"[( 	c #D5C0BC",
"}( 	c #D7C4BF",
"|( 	c #D9C7C1",
"1( 	c #D7CBC9",
"2( 	c #D7D0D0",
"3( 	c #D8D1C7",
"4( 	c #D9CFB6",
"5( 	c #D8CBA1",
"6( 	c #CAB982",
"7( 	c #B8A35F",
"8( 	c #AD923D",
"9( 	c #AC8C27",
"0( 	c #AF8C1C",
"a( 	c #B28B13",
"b( 	c #B28B0D",
"c( 	c #B48D11",
"d( 	c #B28C15",
"e( 	c #B18A15",
"f( 	c #B48B18",
"g( 	c #B38918",
"h( 	c #B38816",
"i( 	c #B98C16",
"j( 	c #B88B17",
"k( 	c #B78918",
"l( 	c #B48913",
"m( 	c #B48818",
"n( 	c #B3851E",
"o( 	c #AF7E20",
"p( 	c #AA761A",
"q( 	c #A96F16",
"r( 	c #A76F17",
"s( 	c #A46D15",
"t( 	c #A16B14",
"u( 	c #E7CCC4",
"v( 	c #E8CDC4",
"w( 	c #E8CCC3",
"x( 	c #E9CCC5",
"y( 	c #E8CBC5",
"z( 	c #EACBC5",
"A( 	c #E8C7C0",
"B( 	c #E2C0B7",
"C( 	c #DEBBB1",
"D( 	c #DFBBAF",
"E( 	c #E4C0B2",
"F( 	c #E3BEAE",
"G( 	c #E2BAAB",
"H( 	c #E3B9AB",
"I( 	c #E1B7A9",
"J( 	c #E0B4A8",
"K( 	c #E2B5AA",
"L( 	c #E1B3A8",
"M( 	c #E5B6AA",
"N( 	c #E6B7AA",
"O( 	c #E6B6A7",
"P( 	c #E2B19F",
"Q( 	c #E5B49F",
"R( 	c #E4B49E",
"S( 	c #E2B39C",
"T( 	c #E1B39A",
"U( 	c #E0B199",
"V( 	c #E5B69E",
"W( 	c #EABBA2",
"X( 	c #E4B39B",
"Y( 	c #E5B39B",
"Z( 	c #E0AD95",
"`( 	c #E0AC95",
" _ 	c #E5B099",
"._ 	c #E2AC95",
"+_ 	c #E2AB96",
"@_ 	c #E6AE9B",
"#_ 	c #E5AE9B",
"$_ 	c #E3AB9A",
"%_ 	c #E2AB98",
"&_ 	c #E5AE99",
"*_ 	c #E8B09D",
"=_ 	c #EFB8A3",
"-_ 	c #EEB7A1",
";_ 	c #E3AC96",
">_ 	c #DAA38D",
",_ 	c #DAA48E",
"'_ 	c #E7B29B",
")_ 	c #E5B29C",
"!_ 	c #E4B09A",
"~_ 	c #E0AE97",
"{_ 	c #DDAC95",
"]_ 	c #E2B29C",
"^_ 	c #E6B7A1",
"/_ 	c #E5B7A0",
"(_ 	c #E6B9A2",
"__ 	c #E1B69F",
":_ 	c #E5BAA5",
"<_ 	c #DEB29B",
"[_ 	c #DEB199",
"}_ 	c #DEB09A",
"|_ 	c #E1B39E",
"1_ 	c #DDB09B",
"2_ 	c #D8AA96",
"3_ 	c #D5A894",
"4_ 	c #D5A795",
"5_ 	c #DAAD9A",
"6_ 	c #DEB09F",
"7_ 	c #DBAD9D",
"8_ 	c #DBAE9E",
"9_ 	c #DDB4A4",
"0_ 	c #DCB7A8",
"a_ 	c #DBB8AA",
"b_ 	c #DABCAE",
"c_ 	c #D8BCB0",
"d_ 	c #D3B9AE",
"e_ 	c #D0B7AD",
"f_ 	c #D1B9B1",
"g_ 	c #D5BEB7",
"h_ 	c #D6BFB9",
"i_ 	c #D6C0BA",
"j_ 	c #D6C5C1",
"k_ 	c #D4CAC6",
"l_ 	c #D4CBC6",
"m_ 	c #D3CAC3",
"n_ 	c #D4CBC0",
"o_ 	c #D8CDBB",
"p_ 	c #DBCEB2",
"q_ 	c #D7C8A0",
"r_ 	c #D1BE8A",
"s_ 	c #CAB473",
"t_ 	c #BAA154",
"u_ 	c #AE9137",
"v_ 	c #AF8F24",
"w_ 	c #B28811",
"x_ 	c #B98817",
"y_ 	c #B98718",
"z_ 	c #BA8819",
"A_ 	c #BA8919",
"B_ 	c #B48812",
"C_ 	c #B38A10",
"D_ 	c #B48A12",
"E_ 	c #B48916",
"F_ 	c #B38815",
"G_ 	c #B18414",
"H_ 	c #AE7C15",
"I_ 	c #A87314",
"J_ 	c #A56F16",
"K_ 	c #E8CBCB",
"L_ 	c #E1C6C2",
"M_ 	c #DFC5BE",
"N_ 	c #DCC1BB",
"O_ 	c #DFC2BE",
"P_ 	c #E3C3C0",
"Q_ 	c #E0BDBB",
"R_ 	c #E5C0BD",
"S_ 	c #EAC3BF",
"T_ 	c #EBC3BD",
"U_ 	c #EBC1B9",
"V_ 	c #EABFB5",
"W_ 	c #E2B6AB",
"X_ 	c #DCAFA1",
"Y_ 	c #DFB1A1",
"Z_ 	c #E1B2A3",
"`_ 	c #E0B1A4",
" : 	c #E1B1A4",
".: 	c #E1B0A3",
"+: 	c #E3B0A3",
"@: 	c #E5B2A3",
"#: 	c #EAB5A5",
"$: 	c #E9B3A0",
"%: 	c #E2AD97",
"&: 	c #E1AB94",
"*: 	c #E2AC94",
"=: 	c #E3AE96",
"-: 	c #E1AB93",
";: 	c #DFA992",
">: 	c #E1AA93",
",: 	c #DDA68E",
"': 	c #DCA58D",
"): 	c #DFA890",
"!: 	c #DCA68E",
"~: 	c #D9A28B",
"{: 	c #DCA38D",
"]: 	c #DFA38E",
"^: 	c #DEA28D",
"/: 	c #DDA18C",
"(: 	c #DBA089",
"_: 	c #D99D86",
":: 	c #D69B83",
"<: 	c #D59A82",
"[: 	c #D49980",
"}: 	c #D2977D",
"|: 	c #D0957B",
"1: 	c #D2967D",
"2: 	c #D49882",
"3: 	c #D89C88",
"4: 	c #DDA18E",
"5: 	c #DEA390",
"6: 	c #DDA591",
"7: 	c #DEA894",
"8: 	c #E0AC97",
"9: 	c #DDAC96",
"0: 	c #DCAD97",
"a: 	c #D7A993",
"b: 	c #DBAF9A",
"c: 	c #E2B7A0",
"d: 	c #DEB39D",
"e: 	c #DCB19B",
"f: 	c #DDB29E",
"g: 	c #DDB29F",
"h: 	c #DAAE9B",
"i: 	c #D6AB99",
"j: 	c #D7AC9B",
"k: 	c #D8AD9C",
"l: 	c #D6AE9D",
"m: 	c #D4AF9E",
"n: 	c #D6B2A1",
"o: 	c #DCB6A7",
"p: 	c #E0BBAE",
"q: 	c #E1BCB1",
"r: 	c #DEBBB0",
"s: 	c #DAB9B0",
"t: 	c #DABBB3",
"u: 	c #DABEB7",
"v: 	c #D9BFB8",
"w: 	c #D7BFB8",
"x: 	c #D4C0B8",
"y: 	c #D2C2BA",
"z: 	c #D3C3BD",
"A: 	c #D3C3BF",
"B: 	c #D2C3C1",
"C: 	c #D3C3C2",
"D: 	c #D4C5C3",
"E: 	c #D5C6C1",
"F: 	c #D7C9BF",
"G: 	c #DACCBE",
"H: 	c #DACDBA",
"I: 	c #D6C8B2",
"J: 	c #D3C09B",
"K: 	c #C5AB70",
"L: 	c #B29447",
"M: 	c #AF8D2B",
"N: 	c #B38C1C",
"O: 	c #B68614",
"P: 	c #B98618",
"Q: 	c #B9871B",
"R: 	c #B8881A",
"S: 	c #B58D12",
"T: 	c #B58C12",
"U: 	c #B58913",
"V: 	c #B38913",
"W: 	c #E4C6C8",
"X: 	c #E8CCC8",
"Y: 	c #E9CDC6",
"Z: 	c #E3C4BE",
"`: 	c #E4C2BC",
" < 	c #E4BFB9",
".< 	c #E6BEB8",
"+< 	c #E1B7AF",
"@< 	c #DFB2A9",
"#< 	c #E1B4A8",
"$< 	c #E5B8A9",
"%< 	c #E4B7A7",
"&< 	c #DFB2A0",
"*< 	c #DAAC98",
"=< 	c #DEAE9A",
"-< 	c #DBAB97",
";< 	c #DBA997",
">< 	c #D7A492",
",< 	c #D5A18E",
"'< 	c #DCA693",
")< 	c #DEA793",
"!< 	c #DEA792",
"~< 	c #DDA58F",
"{< 	c #DEA690",
"]< 	c #E4AD98",
"^< 	c #E1AA95",
"/< 	c #E3AB96",
"(< 	c #E2AA96",
"_< 	c #E2AA95",
":< 	c #E5AC98",
"<< 	c #E2A995",
"[< 	c #E3AA96",
"}< 	c #E2A893",
"|< 	c #E2A791",
"1< 	c #E6AA94",
"2< 	c #E6AB95",
"3< 	c #E4A992",
"4< 	c #E3A891",
"5< 	c #DFA48C",
"6< 	c #DCA089",
"7< 	c #D89D85",
"8< 	c #D79C84",
"9< 	c #DBA087",
"0< 	c #DCA08A",
"a< 	c #DC9E8C",
"b< 	c #DFA18E",
"c< 	c #DFA38F",
"d< 	c #DCA18F",
"e< 	c #DFA593",
"f< 	c #DEA592",
"g< 	c #D9A18F",
"h< 	c #D8A08F",
"i< 	c #D9A291",
"j< 	c #DAA693",
"k< 	c #D7A590",
"l< 	c #D7A591",
"m< 	c #D9A894",
"n< 	c #D9A995",
"o< 	c #DAAB97",
"p< 	c #DBAD99",
"q< 	c #DBAF9B",
"r< 	c #DBB09C",
"s< 	c #D8AF9A",
"t< 	c #D6AD99",
"u< 	c #D7AD9B",
"v< 	c #D8AC9C",
"w< 	c #D8AB9B",
"x< 	c #D9AB9C",
"y< 	c #DAAC9E",
"z< 	c #DAACA0",
"A< 	c #DAAEA3",
"B< 	c #DAB0A7",
"C< 	c #D9B2AA",
"D< 	c #D9B5AE",
"E< 	c #D6B5B0",
"F< 	c #D4B6B2",
"G< 	c #D4B9B5",
"H< 	c #D2BBB6",
"I< 	c #D1B9B4",
"J< 	c #CEB8B2",
"K< 	c #CFB8B3",
"L< 	c #D2BCB8",
"M< 	c #D6C1BD",
"N< 	c #D7C5C1",
"O< 	c #D8C7C7",
"P< 	c #D6C9CA",
"Q< 	c #D4C9CC",
"R< 	c #D4CACE",
"S< 	c #D6CDC9",
"T< 	c #D8CEBD",
"U< 	c #D9CAAD",
"V< 	c #D5BF98",
"W< 	c #C9AC77",
"X< 	c #BB964E",
"Y< 	c #B68B2E",
"Z< 	c #B98A1E",
"`< 	c #B88716",
" [ 	c #BA8B18",
".[ 	c #B98915",
"+[ 	c #B88814",
"@[ 	c #B98916",
"#[ 	c #B88A15",
"$[ 	c #DEBAB4",
"%[ 	c #E0BCB3",
"&[ 	c #E2BCB1",
"*[ 	c #DDB6AB",
"=[ 	c #D6ACA1",
"-[ 	c #DAAFA4",
";[ 	c #DAAFA2",
">[ 	c #D7AC9E",
",[ 	c #D6AB9C",
"'[ 	c #D9AE9E",
")[ 	c #DDB2A2",
"![ 	c #DDB4A3",
"~[ 	c #DEB8A9",
"{[ 	c #E1BCAE",
"][ 	c #DFB9AB",
"^[ 	c #DFB7A8",
"/[ 	c #E2B8A8",
"([ 	c #E3B7A6",
"_[ 	c #E3B5A3",
":[ 	c #E5B5A1",
"<[ 	c #E1B09B",
"[[ 	c #E3B09A",
"}[ 	c #E6B29C",
"|[ 	c #E6B09A",
"1[ 	c #E5B09A",
"2[ 	c #E2AE98",
"3[ 	c #E1AD97",
"4[ 	c #E6B19B",
"5[ 	c #E8B19C",
"6[ 	c #E3AC97",
"7[ 	c #E4AB96",
"8[ 	c #E6AA95",
"9[ 	c #E5A992",
"0[ 	c #E3A78F",
"a[ 	c #E0A48C",
"b[ 	c #DEA28A",
"c[ 	c #E1A58D",
"d[ 	c #E2A68E",
"e[ 	c #DFA38B",
"f[ 	c #DB9F87",
"g[ 	c #DA9E86",
"h[ 	c #DDA189",
"i[ 	c #DDA08B",
"j[ 	c #DFA18F",
"k[ 	c #E0A390",
"l[ 	c #DCA28E",
"m[ 	c #DFA492",
"n[ 	c #DFA592",
"o[ 	c #DFA693",
"p[ 	c #DEA593",
"q[ 	c #DEA695",
"r[ 	c #E1A998",
"s[ 	c #E0AC9A",
"t[ 	c #D7A793",
"u[ 	c #D7A894",
"v[ 	c #DCAD99",
"w[ 	c #DDAF9B",
"x[ 	c #D8AC96",
"y[ 	c #D8AE98",
"z[ 	c #DAB09A",
"A[ 	c #DDB19C",
"B[ 	c #DDB09D",
"C[ 	c #E2B4A0",
"D[ 	c #E1B29F",
"E[ 	c #D7A998",
"F[ 	c #D4A697",
"G[ 	c #D5A99C",
"H[ 	c #D3A9A0",
"I[ 	c #D5ADA6",
"J[ 	c #D5B0AA",
"K[ 	c #D7B4B0",
"L[ 	c #D8BAB6",
"M[ 	c #D7BBB7",
"N[ 	c #D5BAB5",
"O[ 	c #D2B8B3",
"P[ 	c #D1B7B2",
"Q[ 	c #D2B9B5",
"R[ 	c #D4BCB8",
"S[ 	c #D3BDB9",
"T[ 	c #CFBDB8",
"U[ 	c #CFBFBA",
"V[ 	c #D1C3BD",
"W[ 	c #D3C6C1",
"X[ 	c #D4C8C3",
"Y[ 	c #D5CAC6",
"Z[ 	c #D6CAC7",
"`[ 	c #DACDC7",
" } 	c #DFD0C3",
".} 	c #DCCCB2",
"+} 	c #D4C196",
"@} 	c #C3AC70",
"#} 	c #B59748",
"$} 	c #B48F2A",
"%} 	c #B78C18",
"&} 	c #B98A0F",
"*} 	c #BA8A10",
"=} 	c #BA8815",
"-} 	c #BC8A18",
";} 	c #BF8D1A",
">} 	c #BD8C19",
",} 	c #BD8B18",
"'} 	c #BC8916",
")} 	c #BB8816",
"!} 	c #BC8A17",
"~} 	c #BA8715",
"{} 	c #DEB8AC",
"]} 	c #E3BBB1",
"^} 	c #E4BBB1",
"/} 	c #E4BCB2",
"(} 	c #E1B9AF",
"_} 	c #DCB5AA",
":} 	c #E0B9AE",
"<} 	c #E0B7AC",
"[} 	c #DFB5A9",
"}} 	c #DDAFA4",
"|} 	c #DEAFA4",
"1} 	c #E3B3A8",
"2} 	c #DFB0A5",
"3} 	c #DCADA0",
"4} 	c #E2B3A6",
"5} 	c #E1B2A2",
"6} 	c #E0B0A0",
"7} 	c #E0AF9D",
"8} 	c #DDAB98",
"9} 	c #DBA893",
"0} 	c #DEAA94",
"a} 	c #DDA993",
"b} 	c #DAA690",
"c} 	c #D9A58F",
"d} 	c #DBA690",
"e} 	c #DDA691",
"f} 	c #DAA28E",
"g} 	c #DBA28E",
"h} 	c #E1A894",
"i} 	c #E4AB97",
"j} 	c #E1A893",
"k} 	c #E0A58F",
"l} 	c #DEA28B",
"m} 	c #DCA088",
"n} 	c #DB9E89",
"o} 	c #DC9F8C",
"p} 	c #DB9F8C",
"q} 	c #E0A593",
"r} 	c #E1A896",
"s} 	c #E1A897",
"t} 	c #DFA896",
"u} 	c #DDA996",
"v} 	c #DBAA96",
"w} 	c #DBAC98",
"x} 	c #DEAF9B",
"y} 	c #DFB19C",
"z} 	c #DCAF9A",
"A} 	c #D9AC97",
"B} 	c #D9AD97",
"C} 	c #DDB39D",
"D} 	c #DEB49D",
"E} 	c #DCB29A",
"F} 	c #DBAF96",
"G} 	c #DBAE96",
"H} 	c #DCAE96",
"I} 	c #DAAB95",
"J} 	c #D6A894",
"K} 	c #DAAD9F",
"L} 	c #D7ACA1",
"M} 	c #D5ABA3",
"N} 	c #D7AFA8",
"O} 	c #D8B1AD",
"P} 	c #D5B0AE",
"Q} 	c #D3B1AE",
"R} 	c #D5B6B3",
"S} 	c #DABCB9",
"T} 	c #DBBFBC",
"U} 	c #D8BFBB",
"V} 	c #D2BBB7",
"W} 	c #CFBAB7",
"X} 	c #D1BDB9",
"Y} 	c #D0BBB8",
"Z} 	c #D0BAB7",
"`} 	c #D3BCBC",
" | 	c #D3BCBF",
".| 	c #D2BFC2",
"+| 	c #D1C3C6",
"@| 	c #D0C8CB",
"#| 	c #D2CCCF",
"$| 	c #D5CFCD",
"%| 	c #DAD0C4",
"&| 	c #DCCBB0",
"*| 	c #D6BD8F",
"=| 	c #C4A461",
"-| 	c #B69139",
";| 	c #B68B20",
">| 	c #BA8917",
",| 	c #BE8B18",
"'| 	c #C08C17",
")| 	c #C18D18",
"!| 	c #C08B17",
"~| 	c #BF8B16",
"{| 	c #DEB9A9",
"]| 	c #DFB7AC",
"^| 	c #DAB2A9",
"/| 	c #DBB2A9",
"(| 	c #DCB4AA",
"_| 	c #D9B0A4",
":| 	c #DBB0A4",
"<| 	c #E4B7AA",
"[| 	c #E5B6A8",
"}| 	c #E2B2A3",
"|| 	c #DFAC9D",
"1| 	c #DCA899",
"2| 	c #DBA594",
"3| 	c #D8A290",
"4| 	c #D8A190",
"5| 	c #D9A290",
"6| 	c #DAA391",
"7| 	c #DDA794",
"8| 	c #E4AD99",
"9| 	c #DFA894",
"0| 	c #DFA994",
"a| 	c #E3AD97",
"b| 	c #E3AF99",
"c| 	c #E1AC97",
"d| 	c #E0AA95",
"e| 	c #E0A994",
"f| 	c #DFA793",
"g| 	c #DFA692",
"h| 	c #E0A693",
"i| 	c #E0A793",
"j| 	c #D89D87",
"k| 	c #D99D85",
"l| 	c #DC9F87",
"m| 	c #DEA089",
"n| 	c #DEA189",
"o| 	c #D99C84",
"p| 	c #D99B83",
"q| 	c #DB9D85",
"r| 	c #DA9C84",
"s| 	c #D69A82",
"t| 	c #D49A83",
"u| 	c #D59C84",
"v| 	c #D89F87",
"w| 	c #DBA28A",
"x| 	c #DEA58F",
"y| 	c #DBA38C",
"z| 	c #D9A18B",
"A| 	c #DBA38E",
"B| 	c #DDA490",
"C| 	c #DDAA96",
"D| 	c #DCA994",
"E| 	c #DAA893",
"F| 	c #D9A893",
"G| 	c #DCAA97",
"H| 	c #DAA996",
"I| 	c #D8A795",
"J| 	c #D9A896",
"K| 	c #D9A895",
"L| 	c #D9A994",
"M| 	c #DEB098",
"N| 	c #D9AB96",
"O| 	c #D6AA96",
"P| 	c #D9AD9B",
"Q| 	c #DAAF9E",
"R| 	c #D8AE9E",
"S| 	c #D7AFA0",
"T| 	c #D7B1A6",
"U| 	c #D7B5AE",
"V| 	c #D5B3AE",
"W| 	c #D2B3AE",
"X| 	c #D6B8B4",
"Y| 	c #D5B9B6",
"Z| 	c #D5BAB7",
"`| 	c #D5BBB9",
" 1 	c #D5BCB9",
".1 	c #D0B8B4",
"+1 	c #CFB6B3",
"@1 	c #D2B9B8",
"#1 	c #D4BBBD",
"$1 	c #D3BDBD",
"%1 	c #D1BEBC",
"&1 	c #CEBFBC",
"*1 	c #CFC2C3",
"=1 	c #D2C5C9",
"-1 	c #D3C6CA",
";1 	c #D8CAC7",
">1 	c #DECFC0",
",1 	c #E0D1B3",
"'1 	c #D5C399",
")1 	c #C5AA6E",
"!1 	c #BB903B",
"~1 	c #B88924",
"{1 	c #B7891B",
"]1 	c #BB8B1B",
"^1 	c #C08E20",
"/1 	c #BE8B1D",
"(1 	c #BE8B19",
"_1 	c #C08D18",
":1 	c #C08E18",
"<1 	c #C08E1B",
"[1 	c #C08D1B",
"}1 	c #C08D1A",
"|1 	c #C08C1A",
"11 	c #C18D1A",
"21 	c #DAAE96",
"31 	c #D3A692",
"41 	c #D3A593",
"51 	c #D9AB99",
"61 	c #D8AB98",
"71 	c #DEB09B",
"81 	c #DDAE98",
"91 	c #DBAD96",
"01 	c #DCAD95",
"a1 	c #DDAE96",
"b1 	c #D7A890",
"c1 	c #DBAC94",
"d1 	c #E0AE96",
"e1 	c #DEAC94",
"f1 	c #DDA890",
"g1 	c #DFA78F",
"h1 	c #DCA38C",
"i1 	c #DCA28B",
"j1 	c #DFA38C",
"k1 	c #DFA28A",
"l1 	c #DBA289",
"m1 	c #D8A287",
"n1 	c #D7A187",
"o1 	c #D49D83",
"p1 	c #CE977E",
"q1 	c #CE977D",
"r1 	c #CE967D",
"s1 	c #D19980",
"t1 	c #D49A82",
"u1 	c #D39981",
"v1 	c #D39880",
"w1 	c #D3987D",
"x1 	c #D5997D",
"y1 	c #D89C80",
"z1 	c #D79A7E",
"A1 	c #DA9D80",
"B1 	c #D99C80",
"C1 	c #D3967A",
"D1 	c #D39579",
"E1 	c #D5957A",
"F1 	c #D6967B",
"G1 	c #D6977B",
"H1 	c #D3977C",
"I1 	c #D0967B",
"J1 	c #D0977C",
"K1 	c #D2997E",
"L1 	c #D49B81",
"M1 	c #D79D85",
"N1 	c #D89E85",
"O1 	c #D69C84",
"P1 	c #D89E88",
"Q1 	c #DBA18B",
"R1 	c #D8A18B",
"S1 	c #D5A08A",
"T1 	c #D5A18B",
"U1 	c #D39F8A",
"V1 	c #D7A38F",
"W1 	c #D9A491",
"X1 	c #D9A492",
"Y1 	c #DCA795",
"Z1 	c #DAA594",
"`1 	c #D8A492",
" 2 	c #D8A592",
".2 	c #DEAD99",
"+2 	c #DAAA96",
"@2 	c #D9AA97",
"#2 	c #DCAE9B",
"$2 	c #D6AB98",
"%2 	c #D3AA97",
"&2 	c #D5AC99",
"*2 	c #D5AC9A",
"=2 	c #D2AB99",
"-2 	c #CFAC9E",
";2 	c #D2B3A9",
">2 	c #D4B6AE",
",2 	c #D5B7B1",
"'2 	c #D4B8B4",
")2 	c #D2B6B2",
"!2 	c #D2B6B4",
"~2 	c #D0B5B3",
"{2 	c #D2B8B5",
"]2 	c #D1B8B4",
"^2 	c #D0B9B3",
"/2 	c #CFB8B2",
"(2 	c #CEB7B2",
"_2 	c #D2BDB6",
":2 	c #D3C0B7",
"<2 	c #D3C3BA",
"[2 	c #D1C2BD",
"}2 	c #CDC0C0",
"|2 	c #CDC1C7",
"12 	c #D0C3CB",
"22 	c #D1C4C9",
"32 	c #D5C9C8",
"42 	c #DACDC6",
"52 	c #DDCDB7",
"62 	c #DCC79E",
"72 	c #CDB57D",
"82 	c #BB9D53",
"92 	c #B28D2A",
"02 	c #B58A13",
"a2 	c #BC8C0A",
"b2 	c #C08D09",
"c2 	c #C08B0D",
"d2 	c #C08B13",
"e2 	c #BB8917",
"f2 	c #BA891D",
"g2 	c #BD8C1D",
"h2 	c #BD8B1A",
"i2 	c #BC8A19",
"j2 	c #BB8918",
"k2 	c #BB8818",
"l2 	c #BC8817",
"m2 	c #D9A78E",
"n2 	c #D8A68F",
"o2 	c #D9A790",
"p2 	c #DFAD96",
"q2 	c #DCAA94",
"r2 	c #DBAA93",
"s2 	c #DCAC94",
"t2 	c #DBAB93",
"u2 	c #D5A78E",
"v2 	c #CFA188",
"w2 	c #CD9F86",
"x2 	c #CFA189",
"y2 	c #D4A68E",
"z2 	c #DAAC95",
"A2 	c #D7A992",
"B2 	c #DAAB94",
"C2 	c #DCAC95",
"D2 	c #DAA991",
"E2 	c #DBA790",
"F2 	c #DDA891",
"G2 	c #DBA58E",
"H2 	c #DAA38B",
"I2 	c #D59D85",
"J2 	c #DAA289",
"K2 	c #D9A288",
"L2 	c #D69E83",
"M2 	c #D59C82",
"N2 	c #D2997F",
"O2 	c #D1987E",
"P2 	c #D89D84",
"Q2 	c #DBA086",
"R2 	c #DA9E85",
"S2 	c #DDA087",
"T2 	c #DC9F85",
"U2 	c #D99C83",
"V2 	c #DA9E83",
"W2 	c #DDA286",
"X2 	c #DFA388",
"Y2 	c #DDA085",
"Z2 	c #DEA186",
"`2 	c #DFA287",
" 3 	c #DFA186",
".3 	c #DE9E84",
"+3 	c #DB9B81",
"@3 	c #DC9C82",
"#3 	c #DB9C81",
"$3 	c #DB9D83",
"%3 	c #DDA086",
"&3 	c #DCA086",
"*3 	c #DB9E84",
"=3 	c #DA9D84",
"-3 	c #DC9F8A",
";3 	c #E0A38E",
">3 	c #E3A590",
",3 	c #E1A48F",
"'3 	c #D7A28A",
")3 	c #D7A38B",
"!3 	c #D9A58E",
"~3 	c #DCA890",
"{3 	c #DCA891",
"]3 	c #D7A38E",
"^3 	c #D8A48E",
"/3 	c #D5A18C",
"(3 	c #D7A491",
"_3 	c #D4A391",
":3 	c #D2A190",
"<3 	c #D2A291",
"[3 	c #D4A694",
"}3 	c #D5A898",
"|3 	c #D4AA99",
"13 	c #D6AC9C",
"23 	c #D4AC9D",
"33 	c #D5B1A4",
"43 	c #D3B4AA",
"53 	c #D5B8B2",
"63 	c #D6B9B5",
"73 	c #D6BAB7",
"83 	c #D6B9B8",
"93 	c #D3B7B6",
"03 	c #CFB5B2",
"a3 	c #CAB2AD",
"b3 	c #C8B1AB",
"c3 	c #CBB4AE",
"d3 	c #D1BAB6",
"e3 	c #D0BBB4",
"f3 	c #D2BFB5",
"g3 	c #D1C1B6",
"h3 	c #CDBFB7",
"i3 	c #D2C5C2",
"j3 	c #D2C6C9",
"k3 	c #D1C4CC",
"l3 	c #D0C3C8",
"m3 	c #D2C5C7",
"n3 	c #D4C7C6",
"o3 	c #D5C8C3",
"p3 	c #DBCBBF",
"q3 	c #DFCAB2",
"r3 	c #D3B791",
"s3 	c #C3A168",
"t3 	c #B48D3C",
"u3 	c #B1871C",
"v3 	c #B4870F",
"w3 	c #B6880E",
"x3 	c #B58611",
"y3 	c #B9881D",
"z3 	c #BA881A",
"A3 	c #BA8817",
"B3 	c #B98716",
"C3 	c #BB8717",
"D3 	c #BB8716",
"E3 	c #D39F88",
"F3 	c #D4A087",
"G3 	c #D4A086",
"H3 	c #D6A28A",
"I3 	c #DCA893",
"J3 	c #DFAC98",
"K3 	c #D7A493",
"L3 	c #DDAA99",
"M3 	c #DFAD9D",
"N3 	c #E0AE9C",
"O3 	c #E0B09C",
"P3 	c #DEAE99",
"Q3 	c #E0B19C",
"R3 	c #E0B09B",
"S3 	c #DFB09A",
"T3 	c #E1B19B",
"U3 	c #DFAF99",
"V3 	c #D9A992",
"W3 	c #DDA791",
"X3 	c #DFA691",
"Y3 	c #DDA48F",
"Z3 	c #E1A792",
"`3 	c #D89F88",
" 4 	c #D49A84",
".4 	c #D99F88",
"+4 	c #DA9F88",
"@4 	c #DCA28A",
"#4 	c #DEA48C",
"$4 	c #D99E86",
"%4 	c #DBA189",
"&4 	c #DA9D85",
"*4 	c #E0A38B",
"=4 	c #DB9C85",
"-4 	c #D99A83",
";4 	c #DC9D86",
">4 	c #DC9B85",
",4 	c #DC9C85",
"'4 	c #DE9E87",
")4 	c #D99B84",
"!4 	c #DA9C87",
"~4 	c #DA9D87",
"{4 	c #DB9E8A",
"]4 	c #D99D89",
"^4 	c #D69B86",
"/4 	c #D79C88",
"(4 	c #D9A08A",
"_4 	c #D7A189",
":4 	c #D5A088",
"<4 	c #DDA992",
"[4 	c #DBA791",
"}4 	c #D6A38D",
"|4 	c #D3A08B",
"14 	c #D8A590",
"24 	c #DCA996",
"34 	c #DCA898",
"44 	c #DCAA99",
"54 	c #DAA898",
"64 	c #D8A697",
"74 	c #D6A697",
"84 	c #D5A697",
"94 	c #D8AB9C",
"04 	c #DAAE9F",
"a4 	c #D9AFA0",
"b4 	c #D7B0A4",
"c4 	c #D3AFA6",
"d4 	c #D6B3AC",
"e4 	c #DBB9B4",
"f4 	c #DAB9B6",
"g4 	c #D8B8B6",
"h4 	c #D6B8B7",
"i4 	c #D3B8B7",
"j4 	c #D3BAB8",
"k4 	c #D0BAB5",
"l4 	c #CDB8B2",
"m4 	c #CDB8B3",
"n4 	c #CFB9B5",
"o4 	c #CFBAB5",
"p4 	c #CFBBB5",
"q4 	c #CBB9B1",
"r4 	c #C9B8B1",
"s4 	c #CCBCB7",
"t4 	c #CDBDBB",
"u4 	c #CFC0C0",
"v4 	c #D2C2C2",
"w4 	c #D0C0C1",
"x4 	c #CFBFBF",
"y4 	c #D1C0C2",
"z4 	c #D3C1C8",
"A4 	c #D5C5CD",
"B4 	c #D4C8CC",
"C4 	c #D4CAC4",
"D4 	c #D5C8B1",
"E4 	c #CDBB8F",
"F4 	c #B99F5D",
"G4 	c #AD8933",
"H4 	c #AE841D",
"I4 	c #B18516",
"J4 	c #B48314",
"K4 	c #B48113",
"L4 	c #B78415",
"M4 	c #B88516",
"N4 	c #B88616",
"O4 	c #B98616",
"P4 	c #B88615",
"Q4 	c #D6A28C",
"R4 	c #D7A28E",
"S4 	c #D7A38D",
"T4 	c #E0AC96",
"U4 	c #E3AF98",
"V4 	c #DEAB93",
"W4 	c #E2B099",
"X4 	c #E1B19A",
"Y4 	c #D5A58F",
"Z4 	c #D2A28C",
"`4 	c #D6A690",
" 5 	c #D8A891",
".5 	c #DAAA94",
"+5 	c #DBAA94",
"@5 	c #D9A08C",
"#5 	c #D59C88",
"$5 	c #DAA18C",
"%5 	c #D69E87",
"&5 	c #D79F88",
"*5 	c #D9A28A",
"=5 	c #D8A087",
"-5 	c #D9A188",
";5 	c #D59D84",
">5 	c #D59C83",
",5 	c #D89C84",
"'5 	c #DC9F88",
")5 	c #DA9C85",
"!5 	c #DA9A84",
"~5 	c #DA9983",
"{5 	c #DB9B85",
"]5 	c #DFA18A",
"^5 	c #DB9D86",
"/5 	c #D79984",
"(5 	c #D79A85",
"_5 	c #D89B88",
":5 	c #DA9F8B",
"<5 	c #DAA08C",
"[5 	c #D69D89",
"}5 	c #D39A85",
"|5 	c #D49C85",
"15 	c #D7A088",
"25 	c #DBA58D",
"35 	c #DBA58F",
"45 	c #DCA792",
"55 	c #D9A691",
"65 	c #DAA792",
"75 	c #DEAA97",
"85 	c #DEA999",
"95 	c #DCA998",
"05 	c #DBA798",
"a5 	c #D9A597",
"b5 	c #D9A798",
"c5 	c #D7A798",
"d5 	c #D4A595",
"e5 	c #D6A798",
"f5 	c #D6A99A",
"g5 	c #D4A999",
"h5 	c #DAB1A4",
"i5 	c #D3ADA2",
"j5 	c #D3AEA5",
"k5 	c #D8B4AC",
"l5 	c #D8B6B0",
"m5 	c #D5B4B1",
"n5 	c #D3B5B3",
"o5 	c #D4B9B7",
"p5 	c #D6BCBB",
"q5 	c #D4BDBB",
"r5 	c #D2BDB8",
"s5 	c #D2BEB9",
"t5 	c #D1BEB7",
"u5 	c #CEBAB3",
"v5 	c #CEBAB5",
"w5 	c #CBB8B2",
"x5 	c #CDBAB5",
"y5 	c #D0BDBA",
"z5 	c #CDBBB9",
"A5 	c #D0BEBD",
"B5 	c #D4C2C2",
"C5 	c #D3C0C2",
"D5 	c #CEBDBE",
"E5 	c #CDBDBD",
"F5 	c #CEC1C4",
"G5 	c #CCC3C8",
"H5 	c #CDC7CC",
"I5 	c #D1CBCA",
"J5 	c #D5CBBE",
"K5 	c #D8C8AA",
"L5 	c #D0B988",
"M5 	c #BC9F5B",
"N5 	c #A8862D",
"O5 	c #A88218",
"P5 	c #AC8214",
"Q5 	c #B08013",
"R5 	c #B28115",
"S5 	c #B18013",
"T5 	c #B18113",
"U5 	c #B38314",
"V5 	c #DFAB94",
"W5 	c #DFAB95",
"X5 	c #D9A68F",
"Y5 	c #DAA68F",
"Z5 	c #D9A58C",
"`5 	c #D8A48A",
" 6 	c #D9A68A",
".6 	c #DAA78B",
"+6 	c #DAA88C",
"@6 	c #D2A389",
"#6 	c #D7A88F",
"$6 	c #D9AA91",
"%6 	c #D8A990",
"&6 	c #DEAF96",
"*6 	c #DCAD93",
"=6 	c #D8A98F",
"-6 	c #D9AA90",
";6 	c #DDAE94",
">6 	c #DEAE95",
",6 	c #E2AC96",
"'6 	c #D8A08B",
")6 	c #D9A18C",
"!6 	c #D59D86",
"~6 	c #DAA28A",
"{6 	c #DEA68D",
"]6 	c #DBA38A",
"^6 	c #DDA58C",
"/6 	c #DFA78E",
"(6 	c #DDA38B",
"_6 	c #DAA088",
":6 	c #D79B83",
"<6 	c #DD9F88",
"[6 	c #DE9D87",
"}6 	c #DF9E88",
"|6 	c #DE9F88",
"16 	c #DFA18B",
"26 	c #DC9E88",
"36 	c #D99B86",
"46 	c #D99C87",
"56 	c #D69986",
"66 	c #D59A86",
"76 	c #D69C88",
"86 	c #D79D89",
"96 	c #DAA08B",
"06 	c #DCA28C",
"a6 	c #DBA28B",
"b6 	c #DAA18B",
"c6 	c #D79E8A",
"d6 	c #D7A08B",
"e6 	c #D9A28E",
"f6 	c #D8A28D",
"g6 	c #D7A08C",
"h6 	c #D6A18C",
"i6 	c #D6A08E",
"j6 	c #D5A090",
"k6 	c #D3A08F",
"l6 	c #D19D8E",
"m6 	c #D4A092",
"n6 	c #D8A798",
"o6 	c #D8A899",
"p6 	c #D5A696",
"q6 	c #D1A394",
"r6 	c #D2A596",
"s6 	c #D5AA9A",
"t6 	c #D6AB9B",
"u6 	c #D3AB9A",
"v6 	c #D2AC9B",
"w6 	c #D5B1A2",
"x6 	c #D7B4A7",
"y6 	c #D5B3AA",
"z6 	c #D3B3AD",
"A6 	c #D2B4B0",
"B6 	c #D4B9B6",
"C6 	c #DAC1BF",
"D6 	c #DCC5C2",
"E6 	c #D7C2BF",
"F6 	c #D3C0BC",
"G6 	c #D2BEB7",
"H6 	c #D2BEB8",
"I6 	c #CDBAB4",
"J6 	c #CCB9B5",
"K6 	c #CCBAB6",
"L6 	c #CBB9B7",
"M6 	c #CCBAB9",
"N6 	c #CDBABB",
"O6 	c #CEBBBD",
"P6 	c #CFBEBF",
"Q6 	c #CFC0BF",
"R6 	c #CDBFBD",
"S6 	c #CDBFC0",
"T6 	c #CDC2C5",
"U6 	c #CCC5CB",
"V6 	c #CBC8CD",
"W6 	c #CBCBC9",
"X6 	c #CFCCBE",
"Y6 	c #D4C9A9",
"Z6 	c #CDB687",
"`6 	c #B9995B",
" 7 	c #AC8432",
".7 	c #AC801C",
"+7 	c #AA7E15",
"@7 	c #AA7E14",
"#7 	c #A87C12",
"$7 	c #AA7E13",
"%7 	c #B08317",
"&7 	c #D7A087",
"*7 	c #CF997F",
"=7 	c #CB947B",
"-7 	c #D09980",
";7 	c #D59F85",
">7 	c #D39C83",
",7 	c #D29C83",
"'7 	c #D59E85",
")7 	c #DAA38A",
"!7 	c #DFA88F",
"~7 	c #DCA68D",
"{7 	c #D9A58B",
"]7 	c #DAA88D",
"^7 	c #D7A58A",
"/7 	c #D5A389",
"(7 	c #D6A48A",
"_7 	c #D4A288",
":7 	c #DBA98E",
"<7 	c #DFAD92",
"[7 	c #DAA88E",
"}7 	c #D6A489",
"|7 	c #DBA98F",
"17 	c #DEAB91",
"27 	c #D9A38A",
"37 	c #D59E86",
"47 	c #D49C84",
"57 	c #D19981",
"67 	c #CF977F",
"77 	c #D39B82",
"87 	c #D49C83",
"97 	c #D39A81",
"07 	c #D49981",
"a7 	c #D79A83",
"b7 	c #D99C85",
"c7 	c #D89A83",
"d7 	c #DD9C86",
"e7 	c #D99781",
"f7 	c #DC9A85",
"g7 	c #D89883",
"h7 	c #D79782",
"i7 	c #DA9B86",
"j7 	c #DA9D88",
"k7 	c #D99D88",
"l7 	c #D69A85",
"m7 	c #D79C87",
"n7 	c #D99E89",
"o7 	c #D9A08B",
"p7 	c #D89F8A",
"q7 	c #D89F8B",
"r7 	c #DAA18D",
"s7 	c #D69E8A",
"t7 	c #D9A18D",
"u7 	c #D8A18E",
"v7 	c #D49F8E",
"w7 	c #D29F8D",
"x7 	c #D3A090",
"y7 	c #D8A595",
"z7 	c #D8A797",
"A7 	c #D4A494",
"B7 	c #D0A191",
"C7 	c #D3A495",
"D7 	c #D3A898",
"E7 	c #D4AB99",
"F7 	c #D2AC99",
"G7 	c #D1AB9A",
"H7 	c #D1AD9E",
"I7 	c #D2B0A4",
"J7 	c #D2B0A8",
"K7 	c #D0B1AC",
"L7 	c #D0B3B0",
"M7 	c #D1B6B3",
"N7 	c #D1B8B5",
"O7 	c #D0B9B5",
"P7 	c #CDB7B3",
"Q7 	c #CCB5B1",
"R7 	c #CDB6B1",
"S7 	c #D0B9B4",
"T7 	c #D3BCB8",
"U7 	c #CEBAB6",
"V7 	c #CEBBB7",
"W7 	c #CEBBB8",
"X7 	c #CCBAB8",
"Y7 	c #CEBEBC",
"Z7 	c #D1C1C0",
"`7 	c #D3C4C2",
" 8 	c #D3C5C3",
".8 	c #CFC2C1",
"+8 	c #CBC1C0",
"@8 	c #C7C1C1",
"#8 	c #C4C2C3",
"$8 	c #C2C4C5",
"%8 	c #C5C8C6",
"&8 	c #C9CBC5",
"*8 	c #CBC9BD",
"=8 	c #D0C8B4",
"-8 	c #CFC1A7",
";8 	c #C7B388",
">8 	c #AE914F",
",8 	c #9F7C26",
"'8 	c #A27B1C",
")8 	c #A57911",
"!8 	c #AA7C0F",
"~8 	c #A97B0B",
"{8 	c #D0987F",
"]8 	c #D29A81",
"^8 	c #D79F86",
"/8 	c #D69E85",
"(8 	c #CC947B",
"_8 	c #CF9C81",
":8 	c #DAA78D",
"<8 	c #D7A489",
"[8 	c #D4A186",
"}8 	c #D9A68B",
"|8 	c #D3A085",
"18 	c #D09D82",
"28 	c #D29F84",
"38 	c #D9A58A",
"48 	c #D39F84",
"58 	c #D6A388",
"68 	c #D7A388",
"78 	c #D8A489",
"88 	c #D39F85",
"98 	c #D5A187",
"08 	c #DCA78C",
"a8 	c #E0A78E",
"b8 	c #E0A58D",
"c8 	c #DDA089",
"d8 	c #E0A28B",
"e8 	c #E1A38C",
"f8 	c #E4A58E",
"g8 	c #E6A690",
"h8 	c #E3A38D",
"i8 	c #DC9A86",
"j8 	c #DC9A87",
"k8 	c #DD9A87",
"l8 	c #DA9885",
"m8 	c #D89783",
"n8 	c #D79682",
"o8 	c #D99985",
"p8 	c #D99A86",
"q8 	c #D69883",
"r8 	c #D49782",
"s8 	c #D49884",
"t8 	c #D49B87",
"u8 	c #D39A86",
"v8 	c #D9A18E",
"w8 	c #D7A18E",
"x8 	c #D59F8D",
"y8 	c #D7A390",
"z8 	c #DAA895",
"A8 	c #D8A896",
"B8 	c #DAAB9A",
"C8 	c #D8AA9A",
"D8 	c #D5A897",
"E8 	c #D6AD9F",
"F8 	c #D4ADA1",
"G8 	c #D5AFA5",
"H8 	c #D5B0A9",
"I8 	c #D3B1AC",
"J8 	c #D4B4B1",
"K8 	c #D7B9B6",
"L8 	c #D6BAB6",
"M8 	c #D2B9B3",
"N8 	c #CFB7B1",
"O8 	c #CEB5B0",
"P8 	c #CEB4AF",
"Q8 	c #CFB5B0",
"R8 	c #D0B6B2",
"S8 	c #CBB2AE",
"T8 	c #C5AEA9",
"U8 	c #C3ADA9",
"V8 	c #C3AFAB",
"W8 	c #C6B3AF",
"X8 	c #C9B7B3",
"Y8 	c #CBB9B6",
"Z8 	c #CCBBB8",
"`8 	c #CEBDBA",
" 9 	c #CEBDBB",
".9 	c #C8BAB8",
"+9 	c #C3B7B6",
"@9 	c #C1B7B7",
"#9 	c #C3BCBD",
"$9 	c #C6C0C0",
"%9 	c #C7C1BF",
"&9 	c #CAC2BF",
"*9 	c #CCC3BD",
"=9 	c #CFC4BC",
"-9 	c #D5C6B1",
";9 	c #C5A876",
">9 	c #AD894A",
",9 	c #A27725",
"'9 	c #A47615",
")9 	c #A67810",
"!9 	c #DAA48C",
"~9 	c #D9A289",
"{9 	c #CF987E",
"]9 	c #D5A186",
"^9 	c #DBA88D",
"/9 	c #DCA98E",
"(9 	c #D9A78C",
"_9 	c #D7A78B",
":9 	c #D8A88C",
"<9 	c #DAA98E",
"[9 	c #D9A88D",
"}9 	c #D8A78C",
"|9 	c #DBAA8F",
"19 	c #DBAB8F",
"29 	c #D9A88C",
"39 	c #DFAE92",
"49 	c #DEAD92",
"59 	c #DBA78D",
"69 	c #DDA78D",
"79 	c #E0A88F",
"89 	c #DEA38C",
"99 	c #DDA28A",
"09 	c #DBA088",
"a9 	c #DB9E88",
"b9 	c #DC9D89",
"c9 	c #DC9E89",
"d9 	c #DBA08A",
"e9 	c #DDA48E",
"f9 	c #DCA38F",
"g9 	c #CD9480",
"h9 	c #C9917D",
"i9 	c #CD9581",
"j9 	c #D39B87",
"k9 	c #D6A08C",
"l9 	c #D6A38F",
"m9 	c #D8A591",
"n9 	c #D9A794",
"o9 	c #D4A490",
"p9 	c #D5A692",
"q9 	c #D4A693",
"r9 	c #D1A290",
"s9 	c #D5A798",
"t9 	c #D7AB9E",
"u9 	c #D8ADA3",
"v9 	c #D8AEA6",
"w9 	c #D7B3B0",
"x9 	c #D4B3AF",
"y9 	c #D3B4AF",
"z9 	c #D4B6B0",
"A9 	c #D2B7AF",
"B9 	c #D1B7AE",
"C9 	c #D2B8AF",
"D9 	c #D1B5AF",
"E9 	c #CFB4AD",
"F9 	c #CEB3AD",
"G9 	c #CFB5AF",
"H9 	c #D0B7B1",
"I9 	c #D0B8B2",
"J9 	c #CEB7B1",
"K9 	c #CFBAB4",
"L9 	c #D0BDB8",
"M9 	c #D0BEB8",
"N9 	c #D1BEBA",
"O9 	c #CEBBB9",
"P9 	c #CBB8B9",
"Q9 	c #C9B8BA",
"R9 	c #C8B8BB",
"S9 	c #CAB9BD",
"T9 	c #C9B9BE",
"U9 	c #C9B9BF",
"V9 	c #CABAC0",
"W9 	c #C9BEC0",
"X9 	c #C9C2BA",
"Y9 	c #CCBEA9",
"Z9 	c #C9B18B",
"`9 	c #B3925C",
" 0 	c #9A722A",
".0 	c #9A7019",
"+0 	c #CF9983",
"@0 	c #D39E87",
"#0 	c #D5A289",
"$0 	c #D9A58D",
"%0 	c #D9A68D",
"&0 	c #D7A68C",
"*0 	c #D6A58B",
"=0 	c #D5A48A",
"-0 	c #D4A38A",
";0 	c #D4A48A",
">0 	c #D3A389",
",0 	c #D7A68B",
"'0 	c #D4A287",
")0 	c #D8A68B",
"!0 	c #D6A186",
"~0 	c #D8A389",
"{0 	c #D5A085",
"]0 	c #DAA48A",
"^0 	c #DAA58C",
"/0 	c #DEAA91",
"(0 	c #E2AE95",
"_0 	c #DFAB92",
":0 	c #DCA78F",
"<0 	c #DFA991",
"[0 	c #DBA48C",
"}0 	c #DCA48C",
"|0 	c #D8A088",
"10 	c #DFA68F",
"20 	c #E0A790",
"30 	c #E0AA92",
"40 	c #E0AB93",
"50 	c #E1AE95",
"60 	c #E0AE95",
"70 	c #DBA990",
"80 	c #DDA990",
"90 	c #DBA78E",
"00 	c #DDA88F",
"a0 	c #DFA68E",
"b0 	c #DCA38B",
"c0 	c #D9A189",
"d0 	c #DDA58E",
"e0 	c #DCA48F",
"f0 	c #D8A18C",
"g0 	c #D69F8A",
"h0 	c #DAA48F",
"i0 	c #DAA38F",
"j0 	c #DBA590",
"k0 	c #DCA692",
"l0 	c #D9A38F",
"m0 	c #D6A08B",
"n0 	c #D39E89",
"o0 	c #D5A08B",
"p0 	c #D8A28C",
"q0 	c #DDA690",
"r0 	c #D8A28E",
"s0 	c #D8A493",
"t0 	c #D5A293",
"u0 	c #D19F91",
"v0 	c #CFA096",
"w0 	c #D1A59E",
"x0 	c #D4A9A2",
"y0 	c #D2A8A2",
"z0 	c #D2A9A3",
"A0 	c #D2ABA5",
"B0 	c #D3ADA7",
"C0 	c #D4B0A8",
"D0 	c #D0AEA6",
"E0 	c #CEADA5",
"F0 	c #CFAFA7",
"G0 	c #CFB1A7",
"H0 	c #CEB0A6",
"I0 	c #CEB0A7",
"J0 	c #CCAFA7",
"K0 	c #CCAFA9",
"L0 	c #D1B5B0",
"M0 	c #D3B8B3",
"N0 	c #D1B7B3",
"O0 	c #D2B9B6",
"P0 	c #D1BBB6",
"Q0 	c #CBB8B1",
"R0 	c #C8B4AE",
"S0 	c #CAB8B2",
"T0 	c #D0BEBA",
"U0 	c #D0BFBB",
"V0 	c #CCBCB9",
"W0 	c #C9B9B8",
"X0 	c #CBBCBC",
"Y0 	c #CDBEBF",
"Z0 	c #CCBDC0",
"`0 	c #CABBC0",
" a 	c #CBBDC1",
".a 	c #CBC0C5",
"+a 	c #CCC4C7",
"@a 	c #CFC5C1",
"#a 	c #D0C0B1",
"$a 	c #D1B99C",
"%a 	c #BC9F73",
"&a 	c #A38244",
"*a 	c #D7A18C",
"=a 	c #D6A48B",
"-a 	c #DCAA91",
";a 	c #DAA98F",
">a 	c #D7A88E",
",a 	c #D6A78D",
"'a 	c #DAAB91",
")a 	c #D4A68C",
"!a 	c #D3A489",
"~a 	c #D9A98D",
"{a 	c #D4A488",
"]a 	c #D09F83",
"^a 	c #CF9D82",
"/a 	c #D3A186",
"(a 	c #D19E83",
"_a 	c #DBA78C",
":a 	c #DCA78D",
"<a 	c #D7A38A",
"[a 	c #D5A189",
"}a 	c #DBA68E",
"|a 	c #DEA991",
"1a 	c #E0AA93",
"2a 	c #DEA890",
"3a 	c #DAA68E",
"4a 	c #DAA990",
"5a 	c #DBAC92",
"6a 	c #DCAC92",
"7a 	c #D7A48C",
"8a 	c #D8A48C",
"9a 	c #DBA58C",
"0a 	c #DFA88E",
"aa 	c #E2AB91",
"ba 	c #DFA98F",
"ca 	c #DFA891",
"da 	c #E1AA92",
"ea 	c #E2AB97",
"fa 	c #E2AC98",
"ga 	c #DDA792",
"ha 	c #DCA691",
"ia 	c #D4A08C",
"ja 	c #D6A492",
"ka 	c #D8A898",
"la 	c #D6A99D",
"ma 	c #D8ADA4",
"na 	c #DCB3AC",
"oa 	c #D5ACA6",
"pa 	c #D1A9A2",
"qa 	c #D4ACA5",
"ra 	c #D5AEA7",
"sa 	c #D4AEA6",
"ta 	c #D4AFA7",
"ua 	c #D5B1A9",
"va 	c #D2AFA6",
"wa 	c #D0ADA5",
"xa 	c #D1B0A7",
"ya 	c #D2B2A9",
"za 	c #D0B3AA",
"Aa 	c #CCB0A9",
"Ba 	c #CEB2AE",
"Ca 	c #D1B5B2",
"Da 	c #D2B7B4",
"Ea 	c #D3B9B8",
"Fa 	c #D3BAB7",
"Ga 	c #CFBBB4",
"Ha 	c #CDB9B2",
"Ia 	c #CBB7B1",
"Ja 	c #CBB9B2",
"Ka 	c #CDBBB4",
"La 	c #CCBAB4",
"Ma 	c #CCBAB5",
"Na 	c #CBBAB6",
"Oa 	c #C9B9B6",
"Pa 	c #C8B8B6",
"Qa 	c #C7B8B8",
"Ra 	c #C9BABA",
"Sa 	c #CBBCBD",
"Ta 	c #CBBDC0",
"Ua 	c #CEC1C5",
"Va 	c #CFC1C4",
"Wa 	c #D0C1BF",
"Xa 	c #D4C2B7",
"Ya 	c #D4C0A7",
"Za 	c #CCB68C",
"`a 	c #DDA892",
" b 	c #D9A68E",
".b 	c #DDAB92",
"+b 	c #E2B198",
"@b 	c #D4A58B",
"#b 	c #D0A187",
"$b 	c #D5A78D",
"%b 	c #D3A58B",
"&b 	c #D6A98E",
"*b 	c #DBAD91",
"=b 	c #DCAF92",
"-b 	c #DDB093",
";b 	c #DCAE91",
">b 	c #DAAB8F",
",b 	c #D8A98D",
"'b 	c #D6A68A",
")b 	c #DCAB8F",
"!b 	c #DDAB90",
"~b 	c #DEAB90",
"{b 	c #E0AD94",
"]b 	c #D8A58D",
"^b 	c #E2AF97",
"/b 	c #DDAC93",
"(b 	c #E1B298",
"_b 	c #E3B49A",
":b 	c #E2B49A",
"<b 	c #E0B298",
"[b 	c #DFB196",
"}b 	c #DFB096",
"|b 	c #DBAB91",
"1b 	c #DBAD93",
"2b 	c #DBAE93",
"3b 	c #DAAD92",
"4b 	c #D9AC91",
"5b 	c #DDAF95",
"6b 	c #E0B197",
"7b 	c #DFAD94",
"8b 	c #DFAB93",
"9b 	c #DDA78F",
"0b 	c #DCA88E",
"ab 	c #DDAA8F",
"bb 	c #DDA991",
"cb 	c #DFAA93",
"db 	c #E3B29C",
"eb 	c #E2B49D",
"fb 	c #E2B39D",
"gb 	c #DFB19A",
"hb 	c #DEB099",
"ib 	c #DCAE97",
"jb 	c #DDAA98",
"kb 	c #D9A692",
"lb 	c #D8A490",
"mb 	c #D5A693",
"nb 	c #D7AB9A",
"ob 	c #DAB0A0",
"pb 	c #D9B3A3",
"qb 	c #D5B0A3",
"rb 	c #D6B1A7",
"sb 	c #D8B3AB",
"tb 	c #D5B0A8",
"ub 	c #D2ADA5",
"vb 	c #D3ADA5",
"wb 	c #D6B1A9",
"xb 	c #D4AEA7",
"yb 	c #CCA9A1",
"zb 	c #CCADA4",
"Ab 	c #D0B4AD",
"Bb 	c #D3B7B3",
"Cb 	c #D7BBB8",
"Db 	c #D7BCB9",
"Eb 	c #D0B7B4",
"Fb 	c #CCB8B1",
"Gb 	c #D1BDB5",
"Hb 	c #CFBCB4",
"Ib 	c #D3BFB9",
"Jb 	c #D3C0BA",
"Kb 	c #CEBBB6",
"Lb 	c #CBB8B4",
"Mb 	c #C9B7B5",
"Nb 	c #C9B7B6",
"Ob 	c #C9B8B7",
"Pb 	c #C8B7B7",
"Qb 	c #C7B6B4",
"Rb 	c #C8B9B4",
"Sb 	c #C7B8B6",
"Tb 	c #C6B9BA",
"Ub 	c #C7BBBC",
"Vb 	c #CABFB8",
"Wb 	c #CCC0AC",
"Xb 	c #D19D87",
"Yb 	c #D4A18B",
"Zb 	c #D9A78F",
"`b 	c #DBA992",
" c 	c #DEAF98",
".c 	c #DAAC94",
"+c 	c #D9AE97",
"@c 	c #DCB09A",
"#c 	c #DFB29C",
"$c 	c #E1B49C",
"%c 	c #DCAF97",
"&c 	c #E1B49B",
"*c 	c #E1B49A",
"=c 	c #DFB297",
"-c 	c #DDB095",
";c 	c #E4B79B",
">c 	c #DFB396",
",c 	c #D3A68A",
"'c 	c #D3A68C",
")c 	c #D2A48C",
"!c 	c #D4A68F",
"~c 	c #D8AB93",
"{c 	c #D9AC94",
"]c 	c #D9AE95",
"^c 	c #D9AE96",
"/c 	c #D6AA92",
"(c 	c #D3A68F",
"_c 	c #DBAD95",
":c 	c #DDAD96",
"<c 	c #D9A892",
"[c 	c #D7A68F",
"}c 	c #DAA78E",
"|c 	c #DAA88F",
"1c 	c #DBA88F",
"2c 	c #DCA991",
"3c 	c #DCAA92",
"4c 	c #DCA992",
"5c 	c #DDAB94",
"6c 	c #DEAC96",
"7c 	c #DEAB96",
"8c 	c #DDAB95",
"9c 	c #D9AF97",
"0c 	c #D9B097",
"ac 	c #D9B098",
"bc 	c #DAB099",
"cc 	c #DBB19A",
"dc 	c #DBB19B",
"ec 	c #DBB19C",
"fc 	c #DBB19D",
"gc 	c #DAB09C",
"hc 	c #D9AF9B",
"ic 	c #DBAE9C",
"jc 	c #DFB0A0",
"kc 	c #DEB09E",
"lc 	c #D8A997",
"mc 	c #D7A895",
"nc 	c #D8A895",
"oc 	c #D7AB98",
"pc 	c #D6AC9A",
"qc 	c #D4AE9C",
"rc 	c #D7B2A2",
"sc 	c #D6B3A4",
"tc 	c #D4B2A6",
"uc 	c #D6B4AB",
"vc 	c #D7B5AC",
"wc 	c #D5B2AB",
"xc 	c #D3B0A9",
"yc 	c #D3B0AA",
"zc 	c #D3B0AB",
"Ac 	c #D2AEA9",
"Bc 	c #D1ADA9",
"Cc 	c #D2ADA9",
"Dc 	c #D0AFA9",
"Ec 	c #CEB1AB",
"Fc 	c #CAAFA8",
"Gc 	c #C9AEA7",
"Hc 	c #CBB0A9",
"Ic 	c #CDB2AB",
"Jc 	c #D2B7B0",
"Kc 	c #CFB4AC",
"Lc 	c #CDB3AA",
"Mc 	c #D2B8AE",
"Nc 	c #D1B8AE",
"Oc 	c #CBB5B0",
"Pc 	c #CAB3AE",
"Qc 	c #CCB4B0",
"Rc 	c #CDB5B2",
"Sc 	c #CDB5B1",
"Tc 	c #CDB4B1",
"Uc 	c #CBB2B0",
"Vc 	c #C9B0AE",
"Wc 	c #CAB0AE",
"Xc 	c #C7AFAB",
"Yc 	c #C9B5AD",
"Zc 	c #CBBAB3",
"`c 	c #C8BBB6",
" d 	c #CABFBD",
".d 	c #C8BFBF",
"+d 	c #CAC1BE",
"@d 	c #DBA891",
"#d 	c #DAA891",
"$d 	c #E1B6A0",
"%d 	c #E5BBA5",
"&d 	c #E1B7A0",
"*d 	c #DFB39C",
"=d 	c #E2B59D",
"-d 	c #E2B69E",
";d 	c #E3B79E",
">d 	c #E1B59C",
",d 	c #DAAE95",
"'d 	c #D4A88F",
")d 	c #D0A48A",
"!d 	c #D4A78F",
"~d 	c #D7AA93",
"{d 	c #DBAE97",
"]d 	c #DAAD97",
"^d 	c #D6A992",
"/d 	c #D5A891",
"(d 	c #CEA38C",
"_d 	c #CFA58D",
":d 	c #D4A891",
"<d 	c #D8AB94",
"[d 	c #D4A790",
"}d 	c #D9AB94",
"|d 	c #D9AA94",
"1d 	c #D8A892",
"2d 	c #D9AA93",
"3d 	c #DAA992",
"4d 	c #D8A68E",
"5d 	c #DCAA93",
"6d 	c #D7A58F",
"7d 	c #DAA791",
"8d 	c #DAA892",
"9d 	c #DBA894",
"0d 	c #DCAA96",
"ad 	c #DEB29F",
"bd 	c #DDB19F",
"cd 	c #DAAE9D",
"dd 	c #DEB2A1",
"ed 	c #DEB2A2",
"fd 	c #DBAFA0",
"gd 	c #DDAEA1",
"hd 	c #DDAFA1",
"id 	c #DCAE9E",
"jd 	c #DAAA9B",
"kd 	c #D9AA9A",
"ld 	c #D8A999",
"md 	c #D9AEA0",
"nd 	c #D5AD9F",
"od 	c #D6B0A3",
"pd 	c #D8B4A8",
"qd 	c #D6B3A9",
"rd 	c #D4B2AB",
"sd 	c #D4B1AA",
"td 	c #D1AFA8",
"ud 	c #D1B0A9",
"vd 	c #D2B2AC",
"wd 	c #D4B3AE",
"xd 	c #D6B6B2",
"yd 	c #D4B5B1",
"zd 	c #D2B3AF",
"Ad 	c #D5B6B2",
"Bd 	c #D6B6B4",
"Cd 	c #D2B3B0",
"Dd 	c #D3B5B1",
"Ed 	c #D3B5B0",
"Fd 	c #D4B7B1",
"Gd 	c #D6B8B2",
"Hd 	c #D3B5AE",
"Id 	c #CFB2AA",
"Jd 	c #CCAFA6",
"Kd 	c #CBAEA5",
"Ld 	c #D0B4AC",
"Md 	c #D0B6AD",
"Nd 	c #D0B5AD",
"Od 	c #D1B5AD",
"Pd 	c #D2B5AE",
"Qd 	c #D1B4AD",
"Rd 	c #CFB3AB",
"Sd 	c #CDB0A8",
"Td 	c #CAADA5",
"Ud 	c #CBADA6",
"Vd 	c #CEADA7",
"Wd 	c #CEAEA8",
"Xd 	c #CCB0AC",
"Yd 	c #CAB4B1",
"Zd 	c #CCB9B6",
"`d 	c #CBBCB9",
" e 	c #CBC1BE",
".e 	c #C9C1C1",
"+e 	c #C9C1C3",
"@e 	c #DCA993",
"#e 	c #E1AF98",
"$e 	c #E3B59E",
"%e 	c #DFB59F",
"&e 	c #DAB199",
"*e 	c #DCB094",
"=e 	c #E1B599",
"-e 	c #E0B498",
";e 	c #E1B59A",
">e 	c #DCB096",
",e 	c #D5A990",
"'e 	c #D8AC94",
")e 	c #DBAE98",
"!e 	c #D0A38C",
"~e 	c #D1A48D",
"{e 	c #D2A58E",
"]e 	c #CDA089",
"^e 	c #CEA18A",
"/e 	c #CFA48C",
"(e 	c #D0A68E",
"_e 	c #D4AA92",
":e 	c #D6AA93",
"<e 	c #D5A790",
"[e 	c #D2A48E",
"}e 	c #D2A38D",
"|e 	c #CE9E88",
"1e 	c #D19F89",
"2e 	c #D7A48E",
"3e 	c #D8A690",
"4e 	c #D3A08E",
"5e 	c #D4A18F",
"6e 	c #D8A593",
"7e 	c #DAA796",
"8e 	c #DAAA9A",
"9e 	c #DDAE9F",
"0e 	c #DDAEA0",
"ae 	c #DCAD9F",
"be 	c #DEAFA2",
"ce 	c #D9AA9E",
"de 	c #D9AA9F",
"ee 	c #DFAFA5",
"fe 	c #DCACA3",
"ge 	c #DAABA3",
"he 	c #D9AAA2",
"ie 	c #DBACA3",
"je 	c #DCADA2",
"ke 	c #DBABA0",
"le 	c #D8A99D",
"me 	c #D5A69A",
"ne 	c #D5A89C",
"oe 	c #DAAFA5",
"pe 	c #DCB3AA",
"qe 	c #D6B1AA",
"re 	c #D5B1AB",
"se 	c #D4B0AC",
"te 	c #D5B1AD",
"ue 	c #D8B7B3",
"ve 	c #D4B5B2",
"we 	c #CFB1AD",
"xe 	c #CEB1AE",
"ye 	c #D3B6B3",
"ze 	c #D2B6B3",
"Ae 	c #CCB2AE",
"Be 	c #D0B6B3",
"Ce 	c #CEB5B2",
"De 	c #CCB2AF",
"Ee 	c #CDB4B0",
"Fe 	c #D3BAB5",
"Ge 	c #D2BAB4",
"He 	c #D2B9B4",
"Ie 	c #D3BBB4",
"Je 	c #CEB6AE",
"Ke 	c #CBB3AC",
"Le 	c #CEB7B0",
"Me 	c #D0B8B3",
"Ne 	c #D3B9B5",
"Oe 	c #D5BBB6",
"Pe 	c #D5BBB7",
"Qe 	c #D6B9B6",
"Re 	c #D2B7B6",
"Se 	c #CFB9BB",
"Te 	c #D0BDBC",
"Ue 	c #D1C2BC",
"Ve 	c #CFC5BB",
"We 	c #CEC7BD",
"Xe 	c #CCC8BF",
"Ye 	c #DEA691",
"Ze 	c #DCA892",
"`e 	c #DCAB94",
" f 	c #D9AB93",
".f 	c #D8AC93",
"+f 	c #D6AA91",
"@f 	c #DEB29A",
"#f 	c #DDB098",
"$f 	c #D6A991",
"%f 	c #D7AB94",
"&f 	c #CB9E87",
"*f 	c #CFA28B",
"=f 	c #CDA08A",
"-f 	c #D4A993",
";f 	c #CFA48E",
">f 	c #CEA18C",
",f 	c #CB9D88",
"'f 	c #CE9F8B",
")f 	c #D0A18D",
"!f 	c #C99984",
"~f 	c #CE9E89",
"{f 	c #C99A85",
"]f 	c #CC9E89",
"^f 	c #CC9F8A",
"/f 	c #D2A690",
"(f 	c #D1A48B",
"_f 	c #C79A82",
":f 	c #C69980",
"<f 	c #C5977F",
"[f 	c #C2947C",
"}f 	c #C2937C",
"|f 	c #BF907A",
"1f 	c #BE907A",
"2f 	c #C2937D",
"3f 	c #C2937E",
"4f 	c #C3947F",
"5f 	c #C69680",
"6f 	c #CD9C85",
"7f 	c #C89780",
"8f 	c #CB9A83",
"9f 	c #CE9D87",
"0f 	c #D5A38E",
"af 	c #D6A490",
"bf 	c #D7A692",
"cf 	c #D3A28F",
"df 	c #D1A08E",
"ef 	c #CE9C8B",
"ff 	c #CE9E8D",
"gf 	c #D1A392",
"hf 	c #D3A595",
"if 	c #D0A193",
"jf 	c #D6A799",
"kf 	c #D5A79A",
"lf 	c #D4A599",
"mf 	c #D1A198",
"nf 	c #D1A199",
"of 	c #D4A49C",
"pf 	c #D7A7A0",
"qf 	c #D9A9A2",
"rf 	c #D9AAA1",
"sf 	c #D7A79E",
"tf 	c #D4A69A",
"uf 	c #D3A698",
"vf 	c #D0A496",
"wf 	c #D3A89B",
"xf 	c #D3A89D",
"yf 	c #D7ADA5",
"zf 	c #D5ACA5",
"Af 	c #D6ADA9",
"Bf 	c #D5AFAA",
"Cf 	c #DAB5B0",
"Df 	c #DBB7B2",
"Ef 	c #D6B3AE",
"Ff 	c #D7B6B1",
"Gf 	c #D7B7B4",
"Hf 	c #DDC0BC",
"If 	c #DCC0BD",
"Jf 	c #D9BEBB",
"Kf 	c #D0B7B6",
"Lf 	c #CFB6B5",
"Mf 	c #CFB7B5",
"Nf 	c #D0B9B6",
"Of 	c #CFB8B5",
"Pf 	c #D1BAB5",
"Qf 	c #D3BDB7",
"Rf 	c #D5BFB9",
"Sf 	c #D7C1BA",
"Tf 	c #D1BBB4",
"Uf 	c #CEB9B2",
"Vf 	c #D0BCB5",
"Wf 	c #D3BCB7",
"Xf 	c #D5B9B7",
"Yf 	c #D1B8B6",
"Zf 	c #CDB7B4",
"`f 	c #CAB5B5",
" g 	c #CBB9BB",
".g 	c #CEBEC0",
"+g 	c #CDC1C0",
"@g 	c #CEC4C2",
"#g 	c #CEC7C4",
"$g 	c #CAC6C2",
"%g 	c #DBA48F",
"&g 	c #DCA791",
"*g 	c #D9A891",
"=g 	c #D7A790",
"-g 	c #D4A48D",
";g 	c #D6A990",
">g 	c #CA9E85",
",g 	c #CCA087",
"'g 	c #CC9F88",
")g 	c #D3A790",
"!g 	c #CA9D86",
"~g 	c #C59982",
"{g 	c #C79A83",
"]g 	c #C69982",
"^g 	c #BF927B",
"/g 	c #B88C75",
"(g 	c #BA8F79",
"_g 	c #B58A75",
":g 	c #B58873",
"<g 	c #B88A76",
"[g 	c #BC8C79",
"}g 	c #C1927E",
"|g 	c #CB9C88",
"1g 	c #CD9F8B",
"2g 	c #CCA08B",
"3g 	c #C79D87",
"4g 	c #C09882",
"5g 	c #B8917B",
"6g 	c #AA836B",
"7g 	c #A77F65",
"8g 	c #AE866D",
"9g 	c #AA8269",
"0g 	c #A57D65",
"ag 	c #A87E68",
"bg 	c #A67D66",
"cg 	c #A57C65",
"dg 	c #A37A64",
"eg 	c #A77E69",
"fg 	c #AC836E",
"gg 	c #AD836F",
"hg 	c #AC836F",
"ig 	c #AF8672",
"jg 	c #AB816D",
"kg 	c #AF8571",
"lg 	c #B08572",
"mg 	c #AE8470",
"ng 	c #B18773",
"og 	c #AF8572",
"pg 	c #AD8370",
"qg 	c #AC8370",
"rg 	c #A87E6B",
"sg 	c #A77F6A",
"tg 	c #A9826D",
"ug 	c #AB836E",
"vg 	c #B28A76",
"wg 	c #B18976",
"xg 	c #B68F7D",
"yg 	c #B99180",
"zg 	c #BF9787",
"Ag 	c #BE9687",
"Bg 	c #BB9284",
"Cg 	c #C1988B",
"Dg 	c #C69C91",
"Eg 	c #BE948A",
"Fg 	c #BF958D",
"Gg 	c #C39992",
"Hg 	c #C99E97",
"Ig 	c #C89D96",
"Jg 	c #C69B94",
"Kg 	c #C99E96",
"Lg 	c #CA9F97",
"Mg 	c #D0A59E",
"Ng 	c #D9AEA8",
"Og 	c #D7ACA6",
"Pg 	c #D1A8A3",
"Qg 	c #D2AAA6",
"Rg 	c #D5AEA9",
"Sg 	c #D7B2AD",
"Tg 	c #D9B5B2",
"Ug 	c #D7B6B3",
"Vg 	c #D5B8B5",
"Wg 	c #D9BEBA",
"Xg 	c #D8BFBC",
"Yg 	c #D7C0BE",
"Zg 	c #D7C1BF",
"`g 	c #D5BFBD",
" h 	c #D1BCBB",
".h 	c #D2BEBC",
"+h 	c #D5C0BF",
"@h 	c #D4C0BE",
"#h 	c #D2BDBA",
"$h 	c #CFBAB6",
"%h 	c #D7C4BD",
"&h 	c #D9C5BE",
"*h 	c #D0BCB6",
"=h 	c #D4BBB7",
"-h 	c #D6BBB8",
";h 	c #D7BBB9",
">h 	c #DABEBD",
",h 	c #D9BFBE",
"'h 	c #D9C0C0",
")h 	c #D8C0C0",
"!h 	c #D5BFBE",
"~h 	c #D2BFBE",
"{h 	c #D4C3C2",
"]h 	c #CFC2BF",
"^h 	c #CDC1BF",
"/h 	c #CEC3C1",
"(h 	c #CEC5C2",
"_h 	c #D7A28C",
":h 	c #D39F89",
"<h 	c #D2A18A",
"[h 	c #D3A38C",
"}h 	c #D6A68F",
"|h 	c #D7A891",
"1h 	c #D6A890",
"2h 	c #CEA189",
"3h 	c #C3977E",
"4h 	c #D0A48C",
"5h 	c #C49780",
"6h 	c #C59881",
"7h 	c #C1947D",
"8h 	c #B98D76",
"9h 	c #9B705B",
"0h 	c #9D715A",
"ah 	c #A77A63",
"bh 	c #A87B66",
"ch 	c #B0836E",
"dh 	c #B68A75",
"eh 	c #BF917C",
"fh 	c #C39581",
"gh 	c #C0927D",
"hh 	c #B38772",
"ih 	c #A47A65",
"jh 	c #99715B",
"kh 	c #926D56",
"lh 	c #8E6B53",
"mh 	c #87664D",
"nh 	c #8E6C53",
"oh 	c #906F54",
"ph 	c #96745A",
"qh 	c #95735A",
"rh 	c #87654D",
"sh 	c #896851",
"th 	c #916F58",
"uh 	c #8D6B55",
"vh 	c #916F59",
"wh 	c #8C6954",
"xh 	c #886551",
"yh 	c #896653",
"zh 	c #886554",
"Ah 	c #876656",
"Bh 	c #866555",
"Ch 	c #846352",
"Dh 	c #81604F",
"Eh 	c #7E5D4B",
"Fh 	c #82604E",
"Gh 	c #846350",
"Hh 	c #81604D",
"Ih 	c #856450",
"Jh 	c #81604C",
"Kh 	c #7E5D4A",
"Lh 	c #856452",
"Mh 	c #91705E",
"Nh 	c #8C6B5A",
"Oh 	c #8F6D5E",
"Ph 	c #8F6D5F",
"Qh 	c #947265",
"Rh 	c #916F63",
"Sh 	c #8D6B61",
"Th 	c #8F6D63",
"Uh 	c #947269",
"Vh 	c #8D6961",
"Wh 	c #98726E",
"Xh 	c #A6807C",
"Yh 	c #B38C8A",
"Zh 	c #B99190",
"`h 	c #B68D8D",
" i 	c #B78E8E",
".i 	c #B78E8D",
"+i 	c #C29693",
"@i 	c #CFA49F",
"#i 	c #D2A7A0",
"$i 	c #CEA29C",
"%i 	c #CDA29E",
"&i 	c #CEA4A0",
"*i 	c #CCA4A0",
"=i 	c #CDA8A5",
"-i 	c #CFADAA",
";i 	c #CFB0AD",
">i 	c #D4B9B4",
",i 	c #CFBBB7",
"'i 	c #D0BDB9",
")i 	c #CCB9B7",
"!i 	c #C9B6B6",
"~i 	c #D2BFBF",
"{i 	c #D5C2C1",
"]i 	c #D5C3C2",
"^i 	c #D7C4C3",
"/i 	c #D3C0BE",
"(i 	c #D0BEBB",
"_i 	c #D3C1BE",
":i 	c #D1BFBB",
"<i 	c #D5C3BE",
"[i 	c #D7C5C0",
"}i 	c #D3BFBB",
"|i 	c #CEB9B5",
"1i 	c #CFB7B4",
"2i 	c #D0B8B5",
"3i 	c #D4B8B8",
"4i 	c #D4B7B8",
"5i 	c #D6B9BB",
"6i 	c #D8BDBF",
"7i 	c #D9BFC0",
"8i 	c #D6BDBF",
"9i 	c #D0BABB",
"0i 	c #CFBBBA",
"ai 	c #D1C0BC",
"bi 	c #D2C3BE",
"ci 	c #CFC0BD",
"di 	c #CCBEBC",
"ei 	c #CABDBC",
"fi 	c #D3A48D",
"gi 	c #D5A68E",
"hi 	c #D3A48B",
"ii 	c #D2A38A",
"ji 	c #CD9F87",
"ki 	c #CDA088",
"li 	c #C89B84",
"mi 	c #B98D75",
"ni 	c #B88C74",
"oi 	c #BA8F77",
"pi 	c #B88F76",
"qi 	c #B38B72",
"ri 	c #AB826A",
"si 	c #A97E67",
"ti 	c #A37760",
"ui 	c #AD816A",
"vi 	c #B68B73",
"wi 	c #AE846C",
"xi 	c #AB836A",
"yi 	c #A57E65",
"zi 	c #AE896F",
"Ai 	c #B18D74",
"Bi 	c #AD876E",
"Ci 	c #AB836B",
"Di 	c #A78169",
"Ei 	c #9C765F",
"Fi 	c #8E6A53",
"Gi 	c #826048",
"Hi 	c #805F47",
"Ii 	c #785941",
"Ji 	c #75563E",
"Ki 	c #74563E",
"Li 	c #7B5E46",
"Mi 	c #7C6045",
"Ni 	c #795C40",
"Oi 	c #8E7257",
"Pi 	c #876C52",
"Qi 	c #71553C",
"Ri 	c #745842",
"Si 	c #775B46",
"Ti 	c #735744",
"Ui 	c #775C49",
"Vi 	c #725748",
"Wi 	c #705546",
"Xi 	c #6C5243",
"Yi 	c #6C5244",
"Zi 	c #71584A",
"`i 	c #6D5447",
" j 	c #71584B",
".j 	c #70574A",
"+j 	c #775E51",
"@j 	c #6E5548",
"#j 	c #6A5244",
"$j 	c #6C5446",
"%j 	c #674F41",
"&j 	c #6D5446",
"*j 	c #765D4F",
"=j 	c #725A4C",
"-j 	c #755C4E",
";j 	c #785F52",
">j 	c #7A5F53",
",j 	c #7B6054",
"'j 	c #75584D",
")j 	c #7C5E53",
"!j 	c #806055",
"~j 	c #826157",
"{j 	c #805F55",
"]j 	c #836258",
"^j 	c #7F5D54",
"/j 	c #86635C",
"(j 	c #906B65",
"_j 	c #88635C",
":j 	c #906B64",
"<j 	c #A37C75",
"[j 	c #A57D77",
"}j 	c #AB827B",
"|j 	c #AC8179",
"1j 	c #B2877F",
"2j 	c #C1958D",
"3j 	c #C2968D",
"4j 	c #C89A91",
"5j 	c #D1A299",
"6j 	c #D3A49C",
"7j 	c #D2A59E",
"8j 	c #D0A8A2",
"9j 	c #D1ADA6",
"0j 	c #D0AFAA",
"aj 	c #D3B4B0",
"bj 	c #CCB4B1",
"cj 	c #C9AFB0",
"dj 	c #CFB3B7",
"ej 	c #CFB5B9",
"fj 	c #CDB5B8",
"gj 	c #CFBABC",
"hj 	c #D4C3C3",
"ij 	c #CFBFBE",
"jj 	c #CFBFBD",
"kj 	c #D4C4C1",
"lj 	c #D8C8C5",
"mj 	c #D5C3C1",
"nj 	c #D7C2BE",
"oj 	c #CFB2AD",
"pj 	c #D1B3AE",
"qj 	c #D4B4AE",
"rj 	c #D3B1AB",
"sj 	c #D2AFAA",
"tj 	c #D1B0AC",
"uj 	c #CFAFAC",
"vj 	c #CAACAA",
"wj 	c #C7AAA9",
"xj 	c #C5AAA8",
"yj 	c #C1A8A4",
"zj 	c #C0A9A5",
"Aj 	c #BCA7A3",
"Bj 	c #B3A19D",
"Cj 	c #A99997",
"Dj 	c #A19592",
"Ej 	c #BF937B",
"Fj 	c #BE9078",
"Gj 	c #BD8F75",
"Hj 	c #B98C72",
"Ij 	c #B6896F",
"Jj 	c #B2866C",
"Kj 	c #B0846C",
"Lj 	c #A97E65",
"Mj 	c #A77C64",
"Nj 	c #AF846C",
"Oj 	c #A77D65",
"Pj 	c #9F765E",
"Qj 	c #A27961",
"Rj 	c #A37961",
"Sj 	c #A0745D",
"Tj 	c #A47760",
"Uj 	c #A3765F",
"Vj 	c #AA7B65",
"Wj 	c #A87A64",
"Xj 	c #A2755E",
"Yj 	c #A0755E",
"Zj 	c #936B53",
"`j 	c #8B664D",
" k 	c #7D5940",
".k 	c #725038",
"+k 	c #6A4932",
"@k 	c #6C4C34",
"#k 	c #6D4E36",
"$k 	c #6A4B34",
"%k 	c #694934",
"&k 	c #6A4B36",
"*k 	c #664833",
"=k 	c #634732",
"-k 	c #5F432F",
";k 	c #654A35",
">k 	c #6C503B",
",k 	c #654A34",
"'k 	c #735942",
")k 	c #7F654E",
"!k 	c #684E38",
"~k 	c #5B412C",
"{k 	c #624835",
"]k 	c #5F4633",
"^k 	c #583F2C",
"/k 	c #5E4635",
"(k 	c #5B4333",
"_k 	c #644E40",
":k 	c #5E4739",
"<k 	c #5A4133",
"[k 	c #5F4638",
"}k 	c #5D4336",
"|k 	c #60473A",
"1k 	c #5D4437",
"2k 	c #674E41",
"3k 	c #654C3F",
"4k 	c #6B5144",
"5k 	c #6D5346",
"6k 	c #634A3C",
"7k 	c #70584A",
"8k 	c #644D3E",
"9k 	c #664E40",
"0k 	c #695042",
"ak 	c #6F5547",
"bk 	c #7A5E51",
"ck 	c #7B5E51",
"dk 	c #6F5044",
"ek 	c #6E4E42",
"fk 	c #704F43",
"gk 	c #755448",
"hk 	c #775448",
"ik 	c #795447",
"jk 	c #805A4E",
"kk 	c #896357",
"lk 	c #8D6659",
"mk 	c #90675B",
"nk 	c #93695C",
"ok 	c #92685A",
"pk 	c #956A5C",
"qk 	c #A17567",
"rk 	c #AC7E70",
"sk 	c #AA7B6E",
"tk 	c #B38376",
"uk 	c #BB897C",
"vk 	c #C19184",
"wk 	c #C8998D",
"xk 	c #C7998E",
"yk 	c #CCA297",
"zk 	c #D0A89F",
"Ak 	c #CDA79F",
"Bk 	c #CBA7A0",
"Ck 	c #CBA9A3",
"Dk 	c #CCABA6",
"Ek 	c #D1B1AD",
"Fk 	c #D1B0AF",
"Gk 	c #D1B0B2",
"Hk 	c #D0B0B2",
"Ik 	c #CBADAF",
"Jk 	c #C6ABAC",
"Kk 	c #C9B0AF",
"Lk 	c #D1BAB7",
"Mk 	c #D1B9B6",
"Nk 	c #D2BAB6",
"Ok 	c #D0B5B1",
"Pk 	c #D2B7B2",
"Qk 	c #CDB1AA",
"Rk 	c #C6A8A0",
"Sk 	c #C9A9A1",
"Tk 	c #CBA9A1",
"Uk 	c #CCA89F",
"Vk 	c #CCA69E",
"Wk 	c #C69E98",
"Xk 	c #BE9692",
"Yk 	c #BA9391",
"Zk 	c #B89291",
"`k 	c #B58F8F",
" l 	c #AE8C8C",
".l 	c #A38683",
"+l 	c #A08582",
"@l 	c #977E7B",
"#l 	c #8D7573",
"$l 	c #8C7776",
"%l 	c #8A7776",
"&l 	c #AA8068",
"*l 	c #A67B62",
"=l 	c #A77B61",
"-l 	c #A4795E",
";l 	c #A47A5F",
">l 	c #9F765B",
",l 	c #9D745B",
"'l 	c #966E55",
")l 	c #956D54",
"!l 	c #926A52",
"~l 	c #7D563D",
"{l 	c #8D674E",
"]l 	c #957057",
"^l 	c #957157",
"/l 	c #957158",
"(l 	c #916C54",
"_l 	c #876149",
":l 	c #7C553E",
"<l 	c #79523B",
"[l 	c #764F37",
"}l 	c #775139",
"|l 	c #745036",
"1l 	c #755338",
"2l 	c #725237",
"3l 	c #735439",
"4l 	c #6E5035",
"5l 	c #745439",
"6l 	c #7E5D42",
"7l 	c #846248",
"8l 	c #856349",
"9l 	c #85634A",
"0l 	c #7D5B42",
"al 	c #7D5B43",
"bl 	c #78553F",
"cl 	c #795741",
"dl 	c #77553F",
"el 	c #73513B",
"fl 	c #7A5840",
"gl 	c #8E6E55",
"hl 	c #8E6F55",
"il 	c #84654D",
"jl 	c #80624A",
"kl 	c #866750",
"ll 	c #72543D",
"ml 	c #745740",
"nl 	c #6F513A",
"ol 	c #6C4E37",
"pl 	c #694A34",
"ql 	c #694B33",
"rl 	c #71523B",
"sl 	c #6B4C35",
"tl 	c #6E4F39",
"ul 	c #6B4C36",
"vl 	c #674731",
"wl 	c #6F5039",
"xl 	c #684932",
"yl 	c #65452F",
"zl 	c #6D4E38",
"Al 	c #6A4C35",
"Bl 	c #64462F",
"Cl 	c #674831",
"Dl 	c #5D3D26",
"El 	c #5F3F28",
"Fl 	c #65432D",
"Gl 	c #67442F",
"Hl 	c #75513C",
"Il 	c #77513D",
"Jl 	c #744E3A",
"Kl 	c #754E3A",
"Ll 	c #734B38",
"Ml 	c #764F3D",
"Nl 	c #795341",
"Ol 	c #7A5340",
"Pl 	c #835C49",
"Ql 	c #8F6755",
"Rl 	c #8F6654",
"Sl 	c #916754",
"Tl 	c #916652",
"Ul 	c #976A56",
"Vl 	c #A27460",
"Wl 	c #A87965",
"Xl 	c #A37460",
"Yl 	c #AA7B68",
"Zl 	c #A77666",
"`l 	c #B58474",
" m 	c #BB8B7B",
".m 	c #CA9A8C",
"+m 	c #D1A496",
"@m 	c #D0A498",
"#m 	c #CFA499",
"$m 	c #CFA69D",
"%m 	c #D1A9A1",
"&m 	c #CFA7A0",
"*m 	c #D2ABA4",
"=m 	c #D3ACA9",
"-m 	c #CDA6A7",
";m 	c #CCA6A6",
">m 	c #C8A4A3",
",m 	c #C7A6A4",
"'m 	c #CBABA8",
")m 	c #CDAEAB",
"!m 	c #D6B5B1",
"~m 	c #D5B0AC",
"{m 	c #CAA4A0",
"]m 	c #C19A95",
"^m 	c #C89F9A",
"/m 	c #C59B95",
"(m 	c #C49993",
"_m 	c #C39891",
":m 	c #C0958D",
"<m 	c #C0968E",
"[m 	c #B99089",
"}m 	c #AE8780",
"|m 	c #A57F7A",
"1m 	c #9E7B77",
"2m 	c #997875",
"3m 	c #937673",
"4m 	c #8D7672",
"5m 	c #88726E",
"6m 	c #7C6763",
"7m 	c #776461",
"8m 	c #766462",
"9m 	c #786765",
"0m 	c #8D6652",
"am 	c #856149",
"bm 	c #87644B",
"cm 	c #87644A",
"dm 	c #89674E",
"em 	c #826047",
"fm 	c #7E5C42",
"gm 	c #76553B",
"hm 	c #745239",
"im 	c #715038",
"jm 	c #6C4C33",
"km 	c #6D4D34",
"lm 	c #6D4D35",
"mm 	c #6F5037",
"nm 	c #67462D",
"om 	c #6D4B32",
"pm 	c #7A573D",
"qm 	c #805D44",
"rm 	c #825E45",
"sm 	c #876248",
"tm 	c #8A6349",
"um 	c #916A50",
"vm 	c #976F56",
"wm 	c #9E775D",
"xm 	c #A47D63",
"ym 	c #A27B61",
"zm 	c #A0795E",
"Am 	c #9D765C",
"Bm 	c #966F55",
"Cm 	c #987157",
"Dm 	c #977157",
"Em 	c #997358",
"Fm 	c #9B755B",
"Gm 	c #956F55",
"Hm 	c #9A725B",
"Im 	c #976E58",
"Jm 	c #9A745C",
"Km 	c #99745B",
"Lm 	c #A37F66",
"Mm 	c #99755B",
"Nm 	c #986F56",
"Om 	c #9A6F56",
"Pm 	c #986B52",
"Qm 	c #996B52",
"Rm 	c #956A4E",
"Sm 	c #936B4C",
"Tm 	c #996F50",
"Um 	c #9B6F52",
"Vm 	c #9A6C51",
"Wm 	c #996950",
"Xm 	c #99674F",
"Ym 	c #95634B",
"Zm 	c #936249",
"`m 	c #95654C",
" n 	c #92624A",
".n 	c #8E5F46",
"+n 	c #8E6246",
"@n 	c #916647",
"#n 	c #8F6445",
"$n 	c #885D3F",
"%n 	c #885D41",
"&n 	c #875C41",
"*n 	c #82573E",
"=n 	c #855941",
"-n 	c #81553E",
";n 	c #80533E",
">n 	c #7C4F3A",
",n 	c #7C4F3C",
"'n 	c #815541",
")n 	c #7F533E",
"!n 	c #805640",
"~n 	c #8C634C",
"{n 	c #865E47",
"]n 	c #875F49",
"^n 	c #835B44",
"/n 	c #89604A",
"(n 	c #946953",
"_n 	c #986B55",
":n 	c #9E6F5A",
"<n 	c #A87863",
"[n 	c #A57260",
"}n 	c #AB7767",
"|n 	c #BD887A",
"1n 	c #C29181",
"2n 	c #CB9C8C",
"3n 	c #CC9F8F",
"4n 	c #CFA394",
"5n 	c #CDA193",
"6n 	c #D2A497",
"7n 	c #D2A398",
"8n 	c #CB9B92",
"9n 	c #C8958E",
"0n 	c #C69490",
"an 	c #C89696",
"bn 	c #CFA1A0",
"cn 	c #CFA6A4",
"dn 	c #C8A5A3",
"en 	c #C4A5A3",
"fn 	c #C3A6A3",
"gn 	c #C6A8A5",
"hn 	c #CAA9A6",
"in 	c #C9A5A0",
"jn 	c #CCA49E",
"kn 	c #C79A94",
"ln 	c #BD8E88",
"mn 	c #BE8C86",
"nn 	c #C2918B",
"on 	c #BF8F8A",
"pn 	c #B68983",
"qn 	c #B28781",
"rn 	c #A77F7B",
"sn 	c #9C7773",
"tn 	c #906D6A",
"un 	c #886764",
"vn 	c #826461",
"wn 	c #7D605D",
"xn 	c #785E5C",
"yn 	c #6F5A59",
"zn 	c #665252",
"An 	c #624E4E",
"Bn 	c #635050",
"Cn 	c #655353",
"Dn 	c #604F4F",
"En 	c #71503A",
"Fn 	c #735339",
"Gn 	c #7A5A3F",
"Hn 	c #79583C",
"In 	c #7C5C41",
"Jn 	c #79583E",
"Kn 	c #7B593F",
"Ln 	c #765339",
"Mn 	c #734F35",
"Nn 	c #765238",
"On 	c #78543A",
"Pn 	c #7C573D",
"Qn 	c #866046",
"Rn 	c #8E6749",
"Sn 	c #946D4C",
"Tn 	c #966F4E",
"Un 	c #9F7858",
"Vn 	c #9E7859",
"Wn 	c #9C7759",
"Xn 	c #9D795C",
"Yn 	c #9A785B",
"Zn 	c #977559",
"`n 	c #957459",
" o 	c #947359",
".o 	c #917057",
"+o 	c #8A6B57",
"@o 	c #836455",
"#o 	c #7D5F4F",
"$o 	c #785B4C",
"%o 	c #735748",
"&o 	c #6D5244",
"*o 	c #654C3D",
"=o 	c #584133",
"-o 	c #4D382A",
";o 	c #443022",
">o 	c #4A3628",
",o 	c #503E30",
"'o 	c #55443A",
")o 	c #52433A",
"!o 	c #493931",
"~o 	c #423028",
"{o 	c #3F2D24",
"]o 	c #4C3830",
"^o 	c #533C34",
"/o 	c #50372E",
"(o 	c #543931",
"_o 	c #533830",
":o 	c #4F3229",
"<o 	c #513328",
"[o 	c #5F3D2D",
"}o 	c #6E4934",
"|o 	c #764F38",
"1o 	c #7D523A",
"2o 	c #885A40",
"3o 	c #8E5D42",
"4o 	c #956144",
"5o 	c #9C6548",
"6o 	c #A16A4C",
"7o 	c #A36B4E",
"8o 	c #A26A4D",
"9o 	c #A36C4F",
"0o 	c #A16D4E",
"ao 	c #986847",
"bo 	c #956545",
"co 	c #976747",
"do 	c #976848",
"eo 	c #966748",
"fo 	c #926244",
"go 	c #8F5F43",
"ho 	c #8E5E42",
"io 	c #8A5A3E",
"jo 	c #89593F",
"ko 	c #895A41",
"lo 	c #8A5C44",
"mo 	c #865940",
"no 	c #875B41",
"oo 	c #8A5E45",
"po 	c #91654B",
"qo 	c #94684E",
"ro 	c #9A6B53",
"so 	c #95654D",
"to 	c #9E6C55",
"uo 	c #AE7963",
"vo 	c #B47C67",
"wo 	c #BE8471",
"xo 	c #C28876",
"yo 	c #C88F7E",
"zo 	c #CC9383",
"Ao 	c #CE9688",
"Bo 	c #CE978A",
"Co 	c #CB9589",
"Do 	c #C69186",
"Eo 	c #C59187",
"Fo 	c #C8958D",
"Go 	c #CC9992",
"Ho 	c #C99693",
"Io 	c #CB9A99",
"Jo 	c #CD9E9E",
"Ko 	c #C99E9E",
"Lo 	c #C9A2A1",
"Mo 	c #CBA6A6",
"No 	c #CAA7A7",
"Oo 	c #C9A7A5",
"Po 	c #C6A29F",
"Qo 	c #C09A95",
"Ro 	c #C09791",
"So 	c #BC918B",
"To 	c #B48A84",
"Uo 	c #AF8A84",
"Vo 	c #AB8681",
"Wo 	c #A07D78",
"Xo 	c #8F6D68",
"Yo 	c #957570",
"Zo 	c #92726D",
"`o 	c #81635E",
" p 	c #735652",
".p 	c #725652",
"+p 	c #705450",
"@p 	c #6C514D",
"#p 	c #674C49",
"$p 	c #644947",
"%p 	c #604545",
"&p 	c #654B4B",
"*p 	c #644A4B",
"=p 	c #674F52",
"-p 	c #6B5557",
";p 	c #866245",
">p 	c #8B6549",
",p 	c #8E674C",
"'p 	c #92694F",
")p 	c #986F55",
"!p 	c #946950",
"~p 	c #9A6D55",
"{p 	c #9F7159",
"]p 	c #A1725B",
"^p 	c #9C6C55",
"/p 	c #A06F58",
"(p 	c #A97761",
"_p 	c #A97862",
":p 	c #A4775E",
"<p 	c #A0765C",
"[p 	c #946C53",
"}p 	c #835E46",
"|p 	c #7C5943",
"1p 	c #70503C",
"2p 	c #674C3A",
"3p 	c #5C4434",
"4p 	c #533E2F",
"5p 	c #5A483C",
"6p 	c #5F4E43",
"7p 	c #625248",
"8p 	c #5A4D40",
"9p 	c #4C4132",
"0p 	c #423628",
"ap 	c #352A1C",
"bp 	c #2B1F12",
"cp 	c #261A0F",
"dp 	c #24180E",
"ep 	c #20150B",
"fp 	c #23170E",
"gp 	c #241810",
"hp 	c #24160F",
"ip 	c #24170F",
"jp 	c #2C2017",
"kp 	c #382C24",
"lp 	c #52443C",
"mp 	c #635149",
"np 	c #7D655C",
"op 	c #82655C",
"pp 	c #76564E",
"qp 	c #6C4A42",
"rp 	c #644139",
"sp 	c #5A3930",
"tp 	c #46251D",
"up 	c #3C1E19",
"vp 	c #3D211E",
"wp 	c #3C1E16",
"xp 	c #4D2B1F",
"yp 	c #643E2C",
"zp 	c #724731",
"Ap 	c #7E5036",
"Bp 	c #855437",
"Cp 	c #8E5A3D",
"Dp 	c #935D40",
"Ep 	c #965E44",
"Fp 	c #9C644A",
"Gp 	c #A0694F",
"Hp 	c #A06C51",
"Ip 	c #9F6B50",
"Jp 	c #98644A",
"Kp 	c #986449",
"Lp 	c #935F44",
"Mp 	c #915D42",
"Np 	c #925E43",
"Op 	c #966347",
"Pp 	c #99664A",
"Qp 	c #9A674A",
"Rp 	c #9B684B",
"Sp 	c #98664A",
"Tp 	c #946347",
"Up 	c #946448",
"Vp 	c #926347",
"Wp 	c #956549",
"Xp 	c #9B6B4F",
"Yp 	c #9E6E52",
"Zp 	c #A27055",
"`p 	c #A67257",
" q 	c #AC765C",
".q 	c #B37B62",
"+q 	c #B98168",
"@q 	c #BE866D",
"#q 	c #C48C74",
"$q 	c #CB927D",
"%q 	c #CD9380",
"&q 	c #CC9382",
"*q 	c #CD9486",
"=q 	c #CB9487",
"-q 	c #C69388",
";q 	c #CC9C92",
">q 	c #CA9D95",
",q 	c #C39890",
"'q 	c #C79E98",
")q 	c #C7A09C",
"!q 	c #C29C99",
"~q 	c #C39F9C",
"{q 	c #C9A6A4",
"]q 	c #C7A7A5",
"^q 	c #C0A19F",
"/q 	c #BC9E9B",
"(q 	c #BB9C98",
"_q 	c #B4948D",
":q 	c #AB8A82",
"<q 	c #A38279",
"[q 	c #9C7B74",
"}q 	c #90726F",
"|q 	c #876967",
"1q 	c #826462",
"2q 	c #856663",
"3q 	c #866765",
"4q 	c #896B68",
"5q 	c #8D6E6B",
"6q 	c #90706D",
"7q 	c #957472",
"8q 	c #977674",
"9q 	c #977573",
"0q 	c #9E7D7B",
"aq 	c #9E7C7A",
"bq 	c #A2807E",
"cq 	c #A38281",
"dq 	c #A58686",
"eq 	c #AA8C8F",
"fq 	c #AE9396",
"gq 	c #9E7657",
"hq 	c #9F7755",
"iq 	c #A07756",
"jq 	c #A67B5C",
"kq 	c #AB7E61",
"lq 	c #AB7E62",
"mq 	c #A87A61",
"nq 	c #A1735B",
"oq 	c #9D715B",
"pq 	c #8E6551",
"qq 	c #825B47",
"rq 	c #754F3C",
"sq 	c #6A4633",
"tq 	c #62422E",
"uq 	c #4E311E",
"vq 	c #5B3E2D",
"wq 	c #604437",
"xq 	c #65493F",
"yq 	c #6C524B",
"zq 	c #6C534F",
"Aq 	c #6F5855",
"Bq 	c #7A6562",
"Cq 	c #7D6866",
"Dq 	c #7C6966",
"Eq 	c #7D6A67",
"Fq 	c #5B4C45",
"Gq 	c #42352B",
"Hq 	c #413628",
"Iq 	c #484030",
"Jq 	c #444033",
"Kq 	c #848379",
"Lq 	c #74746E",
"Mq 	c #292725",
"Nq 	c #211F1E",
"Oq 	c #1F1D1C",
"Pq 	c #1F1C16",
"Qq 	c #25241D",
"Rq 	c #323530",
"Sq 	c #3D4343",
"Tq 	c #4C5251",
"Uq 	c #484A4A",
"Vq 	c #473C37",
"Wq 	c #745F56",
"Xq 	c #967D74",
"Yq 	c #8E7167",
"Zq 	c #835F55",
"`q 	c #764D41",
" r 	c #774A3E",
".r 	c #7A4B3E",
"+r 	c #6E4537",
"@r 	c #5E3A2A",
"#r 	c #593727",
"$r 	c #4F2D1D",
"%r 	c #4C2918",
"&r 	c #5C3723",
"*r 	c #6F4731",
"=r 	c #7F533B",
"-r 	c #8A5B43",
";r 	c #905D45",
">r 	c #945F46",
",r 	c #975F46",
"'r 	c #9B654A",
")r 	c #966245",
"!r 	c #936044",
"~r 	c #936045",
"{r 	c #8C5940",
"]r 	c #8A5840",
"^r 	c #8D5B43",
"/r 	c #8C5C42",
"(r 	c #8B5C40",
"_r 	c #8D5E40",
":r 	c #946546",
"<r 	c #9B6B4B",
"[r 	c #9F6D4E",
"}r 	c #A26F50",
"|r 	c #A46F52",
"1r 	c #A76F54",
"2r 	c #AD7459",
"3r 	c #AE755B",
"4r 	c #AF755B",
"5r 	c #B37961",
"6r 	c #B67D64",
"7r 	c #B88067",
"8r 	c #BB836A",
"9r 	c #C1886F",
"0r 	c #CA8F77",
"ar 	c #D0947F",
"br 	c #D49883",
"cr 	c #D79B8A",
"dr 	c #D69B8C",
"er 	c #D1998C",
"fr 	c #CF9A90",
"gr 	c #CE9D95",
"hr 	c #CFA29B",
"ir 	c #D1A6A1",
"jr 	c #D0A9A4",
"kr 	c #CEACA8",
"lr 	c #CDAFAD",
"mr 	c #C8ACAA",
"nr 	c #C3A8A5",
"or 	c #C3ABA7",
"pr 	c #C0AAA5",
"qr 	c #BAA59F",
"rr 	c #B7A19D",
"sr 	c #B29A96",
"tr 	c #A78E89",
"ur 	c #9B807C",
"vr 	c #977B76",
"wr 	c #967A77",
"xr 	c #967C7A",
"yr 	c #9C8280",
"zr 	c #A48988",
"Ar 	c #AC8F8F",
"Br 	c #B19492",
"Cr 	c #B29391",
"Dr 	c #B1908F",
"Er 	c #B59391",
"Fr 	c #B28E8C",
"Gr 	c #AE8988",
"Hr 	c #AE8887",
"Ir 	c #AD8784",
"Jr 	c #A4807A",
"Kr 	c #A27D78",
"Lr 	c #AC8682",
"Mr 	c #B08987",
"Nr 	c #AF8988",
"Or 	c #B49190",
"Pr 	c #B58A69",
"Qr 	c #B48867",
"Rr 	c #B38666",
"Sr 	c #AA7E5F",
"Tr 	c #9D7155",
"Ur 	c #885E44",
"Vr 	c #724C33",
"Wr 	c #68422A",
"Xr 	c #6C4730",
"Yr 	c #744F39",
"Zr 	c #734E39",
"`r 	c #6A4733",
" s 	c #6B4735",
".s 	c #6B4533",
"+s 	c #6E4839",
"@s 	c #7F594C",
"#s 	c #805A51",
"$s 	c #84605B",
"%s 	c #8B6867",
"&s 	c #8D6C6E",
"*s 	c #9E8085",
"=s 	c #B3979D",
"-s 	c #B59AA1",
";s 	c #B0969D",
">s 	c #A58E95",
",s 	c #8D7E82",
"'s 	c #6B6162",
")s 	c #5B504A",
"!s 	c #5C4F41",
"~s 	c #574837",
"{s 	c #5B4B38",
"]s 	c #655446",
"^s 	c #615245",
"/s 	c #4B3F33",
"(s 	c #4C4237",
"_s 	c #423C31",
":s 	c #454337",
"<s 	c #54584E",
"[s 	c #5D6762",
"}s 	c #6F7A78",
"|s 	c #909895",
"1s 	c #6C6F6B",
"2s 	c #4D4742",
"3s 	c #8E807C",
"4s 	c #A48D89",
"5s 	c #A07E7B",
"6s 	c #986C69",
"7s 	c #8A5551",
"8s 	c #945A55",
"9s 	c #8F594E",
"0s 	c #7E4F3D",
"as 	c #7A4D39",
"bs 	c #7B4F3A",
"cs 	c #784D37",
"ds 	c #623822",
"es 	c #5F331B",
"fs 	c #70432A",
"gs 	c #7A4B32",
"hs 	c #825037",
"is 	c #8E5A40",
"js 	c #8F5940",
"ks 	c #8E5A3F",
"ls 	c #925F43",
"ms 	c #915E44",
"ns 	c #87543B",
"os 	c #834F39",
"ps 	c #82503A",
"qs 	c #7F4D37",
"rs 	c #814F39",
"ss 	c #83533B",
"ts 	c #885940",
"us 	c #88593E",
"vs 	c #8E5F42",
"ws 	c #946345",
"xs 	c #9C694A",
"ys 	c #A57051",
"zs 	c #AD7659",
"As 	c #B2795E",
"Bs 	c #B77C61",
"Cs 	c #BA7E64",
"Ds 	c #BB7E65",
"Es 	c #BC8068",
"Fs 	c #C0856D",
"Gs 	c #C38971",
"Hs 	c #C88E76",
"Is 	c #CE937B",
"Js 	c #D3957F",
"Ks 	c #D69884",
"Ls 	c #DA9D8B",
"Ms 	c #DBA091",
"Ns 	c #D9A296",
"Os 	c #D7A49C",
"Ps 	c #D6A8A3",
"Qs 	c #D5ADAA",
"Rs 	c #D5B2B1",
"Ss 	c #D2B4B5",
"Ts 	c #D0B7B8",
"Us 	c #CFB9BA",
"Vs 	c #CCBABB",
"Ws 	c #CEBBBC",
"Xs 	c #CDBABA",
"Ys 	c #C8B6B4",
"Zs 	c #C9B7B4",
"`s 	c #C0AEAA",
" t 	c #AD9C96",
".t 	c #9E8D86",
"+t 	c #9B8A82",
"@t 	c #9B8B82",
"#t 	c #9A8A80",
"$t 	c #9D8B86",
"%t 	c #9E8B88",
"&t 	c #9A8683",
"*t 	c #937D7A",
"=t 	c #917976",
"-t 	c #8C7370",
";t 	c #866B68",
">t 	c #7F635F",
",t 	c #785A57",
"'t 	c #785957",
")t 	c #7E5E5C",
"!t 	c #825F5B",
"~t 	c #876058",
"{t 	c #8F665E",
"]t 	c #976C65",
"^t 	c #9B6F6A",
"/t 	c #A07471",
"(t 	c #A97E7D",
"_t 	c #B08463",
":t 	c #B28464",
"<t 	c #A57759",
"[t 	c #9C7053",
"}t 	c #A17458",
"|t 	c #9C7054",
"1t 	c #A1765B",
"2t 	c #A57960",
"3t 	c #9A6C56",
"4t 	c #A97A66",
"5t 	c #A57361",
"6t 	c #B88373",
"7t 	c #BA8376",
"8t 	c #AE7569",
"9t 	c #AD7469",
"0t 	c #AD756C",
"at 	c #B37C76",
"bt 	c #BB8683",
"ct 	c #C79494",
"dt 	c #C9999A",
"et 	c #D1A4A6",
"ft 	c #C59B9D",
"gt 	c #B99294",
"ht 	c #C19D9D",
"it 	c #C39FA0",
"jt 	c #BE9A9C",
"kt 	c #B48F90",
"lt 	c #A78380",
"mt 	c #987870",
"nt 	c #8A6F64",
"ot 	c #7F665A",
"pt 	c #7D685B",
"qt 	c #7E6A5C",
"rt 	c #6F5C4B",
"st 	c #64503A",
"tt 	c #665235",
"ut 	c #614E2D",
"vt 	c #5F4D36",
"wt 	c #5A4B3C",
"xt 	c #574A40",
"yt 	c #675D55",
"zt 	c #7E7672",
"At 	c #9B908F",
"Bt 	c #B8A8A8",
"Ct 	c #C0A8A9",
"Dt 	c #BB989A",
"Et 	c #B08184",
"Ft 	c #995F62",
"Gt 	c #985759",
"Ht 	c #864944",
"It 	c #763D30",
"Jt 	c #7B4334",
"Kt 	c #7D4838",
"Lt 	c #855241",
"Mt 	c #875644",
"Nt 	c #7C4D39",
"Ot 	c #764632",
"Pt 	c #7B4A36",
"Qt 	c #814F3C",
"Rt 	c #86523F",
"St 	c #8B5644",
"Tt 	c #89553F",
"Ut 	c #865239",
"Vt 	c #834F38",
"Wt 	c #79452F",
"Xt 	c #7A4531",
"Yt 	c #7F4C38",
"Zt 	c #814E3B",
"`t 	c #8B5945",
" u 	c #8D5D47",
".u 	c #92634B",
"+u 	c #976950",
"@u 	c #9E6F55",
"#u 	c #9D6C50",
"$u 	c #A06D4E",
"%u 	c #A36E50",
"&u 	c #A97155",
"*u 	c #B0755A",
"=u 	c #B5785F",
"-u 	c #BC7D64",
";u 	c #C2836A",
">u 	c #C78A72",
",u 	c #CF937B",
"'u 	c #D0957D",
")u 	c #CE947C",
"!u 	c #CE967F",
"~u 	c #D09B85",
"{u 	c #D7A28F",
"]u 	c #D9A796",
"^u 	c #DCAC9D",
"/u 	c #DDB2A5",
"(u 	c #DEBCB2",
"_u 	c #D7BAB2",
":u 	c #D4BBB3",
"<u 	c #D3BEB6",
"[u 	c #D0BFB9",
"}u 	c #CEBFBB",
"|u 	c #CDBDBA",
"1u 	c #D3C1BF",
"2u 	c #D7C2C1",
"3u 	c #CCB7B6",
"4u 	c #A89292",
"5u 	c #968080",
"6u 	c #958080",
"7u 	c #8F7D7B",
"8u 	c #80716E",
"9u 	c #736661",
"0u 	c #6A5E59",
"au 	c #5E534E",
"bu 	c #5A4E49",
"cu 	c #564845",
"du 	c #544441",
"eu 	c #564340",
"fu 	c #533F3A",
"gu 	c #533E3A",
"hu 	c #503934",
"iu 	c #4C332E",
"ju 	c #4A302C",
"ku 	c #4B302C",
"lu 	c #52342D",
"mu 	c #58362B",
"nu 	c #623E33",
"ou 	c #714A40",
"pu 	c #80564D",
"qu 	c #8B5E55",
"ru 	c #9A6C63",
"su 	c #B68466",
"tu 	c #B07C5D",
"uu 	c #B17C5E",
"vu 	c #AF795B",
"wu 	c #B57F61",
"xu 	c #B88365",
"yu 	c #B78065",
"zu 	c #BD876C",
"Au 	c #BC876D",
"Bu 	c #BE886F",
"Cu 	c #BD876E",
"Du 	c #BC866E",
"Eu 	c #C9927C",
"Fu 	c #CC9380",
"Gu 	c #CE9384",
"Hu 	c #CB9081",
"Iu 	c #C98F7F",
"Ju 	c #C98F80",
"Ku 	c #C68D7F",
"Lu 	c #C78E80",
"Mu 	c #C99083",
"Nu 	c #C48D80",
"Ou 	c #C38B7F",
"Pu 	c #BF887C",
"Qu 	c #BE867A",
"Ru 	c #BD8579",
"Su 	c #BF867B",
"Tu 	c #C68E84",
"Uu 	c #C79187",
"Vu 	c #C49186",
"Wu 	c #BA8A7F",
"Xu 	c #AF8175",
"Yu 	c #B3877B",
"Zu 	c #B78D80",
"`u 	c #AF877A",
" v 	c #A27C6E",
".v 	c #9F796C",
"+v 	c #936F65",
"@v 	c #977670",
"#v 	c #A98B86",
"$v 	c #B29895",
"%v 	c #B8A09E",
"&v 	c #B9A1A0",
"*v 	c #BA9F9F",
"=v 	c #BA9A9A",
"-v 	c #AE8686",
";v 	c #9F6F6D",
">v 	c #9D6763",
",v 	c #A26863",
"'v 	c #925850",
")v 	c #945C53",
"!v 	c #965F54",
"~v 	c #885244",
"{v 	c #7C4836",
"]v 	c #88543F",
"^v 	c #97634D",
"/v 	c #A06C55",
"(v 	c #A47159",
"_v 	c #A16D57",
":v 	c #9D6953",
"<v 	c #96624C",
"[v 	c #8D5944",
"}v 	c #8B5641",
"|v 	c #8A5540",
"1v 	c #8C5742",
"2v 	c #94604B",
"3v 	c #986451",
"4v 	c #996754",
"5v 	c #9D6E5B",
"6v 	c #A37864",
"7v 	c #AB8370",
"8v 	c #B18C78",
"9v 	c #B3907C",
"0v 	c #B4917A",
"av 	c #B38E74",
"bv 	c #B0886C",
"cv 	c #AD8165",
"dv 	c #B07E62",
"ev 	c #B78063",
"fv 	c #BC8265",
"gv 	c #BF8466",
"hv 	c #C5896C",
"iv 	c #CD9276",
"jv 	c #D49B7F",
"kv 	c #D7A085",
"lv 	c #DDAC97",
"mv 	c #DEB3A1",
"nv 	c #DDB6A5",
"ov 	c #DDB9AA",
"pv 	c #DEBEB0",
"qv 	c #DDBFB3",
"rv 	c #DABFB3",
"sv 	c #D8C0B5",
"tv 	c #D7C1B8",
"uv 	c #D9C4BE",
"vv 	c #D6C2BE",
"wv 	c #DAC6C4",
"xv 	c #C5B1B1",
"yv 	c #8B7878",
"zv 	c #715D5E",
"Av 	c #625050",
"Bv 	c #5B4947",
"Cv 	c #544440",
"Dv 	c #5A4B46",
"Ev 	c #5D514A",
"Fv 	c #615851",
"Gv 	c #685C58",
"Hv 	c #6E5E5F",
"Iv 	c #766265",
"Jv 	c #786163",
"Kv 	c #725857",
"Lv 	c #694D47",
"Mv 	c #60443C",
"Nv 	c #573B33",
"Ov 	c #523531",
"Pv 	c #523433",
"Qv 	c #543635",
"Rv 	c #52342E",
"Sv 	c #51322A",
"Tv 	c #5C3C33",
"Uv 	c #68453D",
"Vv 	c #805B51",
"Wv 	c #997165",
"Xv 	c #BB8C6C",
"Yv 	c #C28F71",
"Zv 	c #C38E71",
"`v 	c #C18C6E",
" w 	c #C58F71",
".w 	c #C69072",
"+w 	c #C89174",
"@w 	c #C48D70",
"#w 	c #C28A6D",
"$w 	c #C78F72",
"%w 	c #CD9478",
"&w 	c #C78D71",
"*w 	c #BD8367",
"=w 	c #C1876C",
"-w 	c #C68D72",
";w 	c #C88E74",
">w 	c #CB937A",
",w 	c #CC937B",
"'w 	c #CB947C",
")w 	c #CA947C",
"!w 	c #CC967F",
"~w 	c #CA947D",
"{w 	c #C9937C",
"]w 	c #C7907A",
"^w 	c #C48E77",
"/w 	c #C08A74",
"(w 	c #BB8570",
"_w 	c #B6806C",
":w 	c #BB8571",
"<w 	c #BD8875",
"[w 	c #BC8673",
"}w 	c #B7816F",
"|w 	c #B98471",
"1w 	c #B98472",
"2w 	c #A97866",
"3w 	c #A77969",
"4w 	c #AA7E6F",
"5w 	c #AA8273",
"6w 	c #B28D7F",
"7w 	c #AD887C",
"8w 	c #AA867B",
"9w 	c #AB867C",
"0w 	c #AD867C",
"aw 	c #B1877D",
"bw 	c #B2847B",
"cw 	c #AD7D75",
"dw 	c #AE7C78",
"ew 	c #AE7C7A",
"fw 	c #A77470",
"gw 	c #A7746C",
"hw 	c #A06E61",
"iw 	c #A37060",
"jw 	c #9F6C58",
"kw 	c #A16E57",
"lw 	c #AF7C62",
"mw 	c #B9866A",
"nw 	c #BE8B6F",
"ow 	c #C28F73",
"pw 	c #C09077",
"qw 	c #BC8E77",
"rw 	c #C0917B",
"sw 	c #C49581",
"tw 	c #BF907E",
"uw 	c #B08272",
"vw 	c #9B6E5F",
"ww 	c #8E6456",
"xw 	c #90695C",
"yw 	c #9E7B6F",
"zw 	c #AF8F83",
"Aw 	c #BFA094",
"Bw 	c #C7A89C",
"Cw 	c #CAA99C",
"Dw 	c #D0AB9B",
"Ew 	c #CFA692",
"Fw 	c #C79882",
"Gw 	c #C69277",
"Hw 	c #C89173",
"Iw 	c #C78E70",
"Jw 	c #C98E6F",
"Kw 	c #CA9072",
"Lw 	c #CF9679",
"Mw 	c #D19A7E",
"Nw 	c #D29B83",
"Ow 	c #DBA792",
"Pw 	c #DFAC97",
"Qw 	c #DBAB9A",
"Rw 	c #DCAF9E",
"Sw 	c #D9B1A3",
"Tw 	c #D9B3A7",
"Uw 	c #DAB5A8",
"Vw 	c #DAB6AC",
"Ww 	c #DDBAB3",
"Xw 	c #DABCB4",
"Yw 	c #D6BEB5",
"Zw 	c #D4C3B9",
"`w 	c #C6BAB1",
" x 	c #80796E",
".x 	c #4F493E",
"+x 	c #474033",
"@x 	c #403528",
"#x 	c #3E3023",
"$x 	c #433023",
"%x 	c #3E2B1D",
"&x 	c #3D2D1F",
"*x 	c #413329",
"=x 	c #463A37",
"-x 	c #544A4B",
";x 	c #695E60",
">x 	c #7F7373",
",x 	c #897C78",
"'x 	c #81716B",
")x 	c #715C53",
"!x 	c #72564F",
"~x 	c #72524D",
"{x 	c #70514F",
"]x 	c #694E4B",
"^x 	c #644A42",
"/x 	c #684C3B",
"(x 	c #7B583C",
"_x 	c #865F3C",
":x 	c #D1A483",
"<x 	c #CFA382",
"[x 	c #CDA281",
"}x 	c #C99D7D",
"|x 	c #C39675",
"1x 	c #C39574",
"2x 	c #CB9D7C",
"3x 	c #D09F7E",
"4x 	c #D09E7C",
"5x 	c #D29F7D",
"6x 	c #D29D7C",
"7x 	c #CC9775",
"8x 	c #C7916F",
"9x 	c #CF9779",
"0x 	c #D0977B",
"ax 	c #CF967A",
"bx 	c #CA9176",
"cx 	c #C99276",
"dx 	c #C48D72",
"ex 	c #C0886E",
"fx 	c #C28B71",
"gx 	c #C08B71",
"hx 	c #C48F75",
"ix 	c #C18C72",
"jx 	c #C79078",
"kx 	c #CA927B",
"lx 	c #CC957D",
"mx 	c #C6917A",
"nx 	c #C38E78",
"ox 	c #C08C76",
"px 	c #C5907B",
"qx 	c #BF8B76",
"rx 	c #BE8B76",
"sx 	c #C18E7A",
"tx 	c #C18F7B",
"ux 	c #BC8D78",
"vx 	c #B78B76",
"wx 	c #B38875",
"xx 	c #B88F7B",
"yx 	c #B48B79",
"zx 	c #B08877",
"Ax 	c #AC8476",
"Bx 	c #AF867B",
"Cx 	c #B48981",
"Dx 	c #AF837D",
"Ex 	c #AF827E",
"Fx 	c #AF817D",
"Gx 	c #AD7F7C",
"Hx 	c #AE807C",
"Ix 	c #A97A74",
"Jx 	c #A87A70",
"Kx 	c #A6786A",
"Lx 	c #9C6D5C",
"Mx 	c #9F6F5B",
"Nx 	c #AC7A65",
"Ox 	c #B17E68",
"Px 	c #B6816B",
"Qx 	c #B8836E",
"Rx 	c #C08D79",
"Sx 	c #CB9986",
"Tx 	c #D3A18F",
"Ux 	c #D09E8C",
"Vx 	c #C99887",
"Wx 	c #BB8C7B",
"Xx 	c #A27665",
"Yx 	c #8C6452",
"Zx 	c #8B6654",
"`x 	c #967461",
" y 	c #AE8D7B",
".y 	c #C0A193",
"+y 	c #C1A299",
"@y 	c #C5A397",
"#y 	c #CFA897",
"$y 	c #CC9A80",
"%y 	c #C89376",
"&y 	c #C99074",
"*y 	c #CC9176",
"=y 	c #D49A86",
"-y 	c #D49A89",
";y 	c #D49B89",
">y 	c #DBA593",
",y 	c #DDA795",
"'y 	c #DDA998",
")y 	c #DAA797",
"!y 	c #DCA99A",
"~y 	c #DFAD9E",
"{y 	c #DEAD9E",
"]y 	c #DBAB9D",
"^y 	c #D9AD9E",
"/y 	c #D6B2A4",
"(y 	c #DAB8AC",
"_y 	c #D9BAB1",
":y 	c #D7BCB4",
"<y 	c #D0BAB3",
"[y 	c #AD9C95",
"}y 	c #746961",
"|y 	c #484238",
"1y 	c #323025",
"2y 	c #1F2013",
"3y 	c #181D13",
"4y 	c #202721",
"5y 	c #313C3D",
"6y 	c #4E5F65",
"7y 	c #6E8690",
"8y 	c #8BA8B3",
"9y 	c #94B0BA",
"0y 	c #899FA6",
"ay 	c #919B9D",
"by 	c #94918F",
"cy 	c #786763",
"dy 	c #795D56",
"ey 	c #856254",
"fy 	c #8D694E",
"gy 	c #916D48",
"hy 	c #8F6B3C",
"iy 	c #8B672C",
"jy 	c #8C6723",
"ky 	c #916B20",
"ly 	c #D0A281",
"my 	c #C99D7B",
"ny 	c #CCA17D",
"oy 	c #CBA17C",
"py 	c #D1A682",
"qy 	c #D5A985",
"ry 	c #D7AB87",
"sy 	c #DCAF8B",
"ty 	c #D4A683",
"uy 	c #D5A683",
"vy 	c #D3A481",
"wy 	c #C99A77",
"xy 	c #C99977",
"yy 	c #CE9B7C",
"zy 	c #CF9A7D",
"Ay 	c #CE9A7D",
"By 	c #C69375",
"Cy 	c #C49173",
"Dy 	c #C28E70",
"Ey 	c #C39073",
"Fy 	c #C59274",
"Gy 	c #C18F71",
"Hy 	c #C59375",
"Iy 	c #C29072",
"Jy 	c #BD8A6D",
"Ky 	c #BD8A6F",
"Ly 	c #B58368",
"My 	c #B07D63",
"Ny 	c #AD7A5F",
"Oy 	c #B27F65",
"Py 	c #B48068",
"Qy 	c #B07C65",
"Ry 	c #B38068",
"Sy 	c #AF7C66",
"Ty 	c #B07D67",
"Uy 	c #B37F69",
"Vy 	c #B27F69",
"Wy 	c #AE7B67",
"Xy 	c #AE7B68",
"Yy 	c #B2806D",
"Zy 	c #B2816F",
"`y 	c #AE7E6D",
" z 	c #A97A6A",
".z 	c #AC7E6F",
"+z 	c #B28577",
"@z 	c #B38779",
"#z 	c #B4897C",
"$z 	c #B2887C",
"%z 	c #B48A7E",
"&z 	c #B5897F",
"*z 	c #B98B81",
"=z 	c #B8897E",
"-z 	c #B38577",
";z 	c #B48675",
">z 	c #AA7B69",
",z 	c #A47460",
"'z 	c #A4745F",
")z 	c #A57560",
"!z 	c #AD7C68",
"~z 	c #A97763",
"{z 	c #AD7B68",
"]z 	c #AB7865",
"^z 	c #B5816F",
"/z 	c #BB8975",
"(z 	c #C2917F",
"_z 	c #C19280",
":z 	c #B88A77",
"<z 	c #B28674",
"[z 	c #A97E6D",
"}z 	c #AB8270",
"|z 	c #B38D7B",
"1z 	c #BC9784",
"2z 	c #BF9A89",
"3z 	c #B9948A",
"4z 	c #BD9895",
"5z 	c #C8A09D",
"6z 	c #CEA49C",
"7z 	c #D3A599",
"8z 	c #D19C88",
"9z 	c #D29B85",
"0z 	c #D49B85",
"az 	c #D59C86",
"bz 	c #D69C89",
"cz 	c #DDA18F",
"dz 	c #DB9F8E",
"ez 	c #DDA191",
"fz 	c #DFA494",
"gz 	c #DEA393",
"hz 	c #DCA294",
"iz 	c #DDA496",
"jz 	c #DDA498",
"kz 	c #DCA497",
"lz 	c #DAA495",
"mz 	c #D5A392",
"nz 	c #D4A293",
"oz 	c #D5A497",
"pz 	c #D5A59A",
"qz 	c #D7A9A1",
"rz 	c #DCB0AA",
"sz 	c #DCB4AE",
"tz 	c #D0AEA7",
"uz 	c #A68880",
"vz 	c #755C53",
"wz 	c #594337",
"xz 	c #4F3A2E",
"yz 	c #513E31",
"zz 	c #524739",
"Az 	c #4D4E42",
"Bz 	c #515F58",
"Cz 	c #667E7F",
"Dz 	c #76919B",
"Ez 	c #879EAF",
"Fz 	c #AAB6C7",
"Gz 	c #BCB7C1",
"Hz 	c #A68F8E",
"Iz 	c #886051",
"Jz 	c #8E6241",
"Kz 	c #8B6632",
"Lz 	c #846124",
"Mz 	c #876421",
"Nz 	c #8D691F",
"Oz 	c #8C6718",
"Pz 	c #936E19",
"Qz 	c #DDB092",
"Rz 	c #DEB192",
"Sz 	c #DDB091",
"Tz 	c #D9AD8E",
"Uz 	c #D6AA8B",
"Vz 	c #CDA182",
"Wz 	c #C99D7E",
"Xz 	c #CFA484",
"Yz 	c #D4A989",
"Zz 	c #D7AC8D",
"`z 	c #D9AE8E",
" A 	c #D6AC8C",
".A 	c #D5AA8B",
"+A 	c #D7AA8C",
"@A 	c #D3A688",
"#A 	c #D6A88A",
"$A 	c #D5A588",
"%A 	c #D6A487",
"&A 	c #D8A488",
"*A 	c #D39E82",
"=A 	c #CF987D",
"-A 	c #CE967C",
";A 	c #C78F75",
">A 	c #B78469",
",A 	c #C18E73",
"'A 	c #C18E74",
")A 	c #BF8B73",
"!A 	c #BE8A72",
"~A 	c #C28E77",
"{A 	c #C39079",
"]A 	c #B98670",
"^A 	c #B7846F",
"/A 	c #B98571",
"(A 	c #B98672",
"_A 	c #B78470",
":A 	c #B27F6C",
"<A 	c #AD7A68",
"[A 	c #AE7C69",
"}A 	c #AF7E6B",
"|A 	c #B07F6D",
"1A 	c #B48371",
"2A 	c #AB7B69",
"3A 	c #AF7E6D",
"4A 	c #B18171",
"5A 	c #AF7F70",
"6A 	c #AB7B6C",
"7A 	c #A37364",
"8A 	c #A07160",
"9A 	c #9D6E5D",
"0A 	c #916252",
"aA 	c #936452",
"bA 	c #996A57",
"cA 	c #986956",
"dA 	c #9E705C",
"eA 	c #AF806C",
"fA 	c #B48571",
"gA 	c #BA8B78",
"hA 	c #BC8D7B",
"iA 	c #BC8F7C",
"jA 	c #BF9381",
"kA 	c #BF9483",
"lA 	c #C59B8A",
"mA 	c #CEA593",
"nA 	c #D0A896",
"oA 	c #D0A898",
"pA 	c #CDA699",
"qA 	c #CFA99F",
"rA 	c #D4ABA1",
"sA 	c #D0A497",
"tA 	c #CF9F91",
"uA 	c #D09D8E",
"vA 	c #D29B89",
"wA 	c #D69D8A",
"xA 	c #D69B87",
"yA 	c #D89C89",
"zA 	c #D69987",
"AA 	c #D99B8A",
"BA 	c #DE9F8E",
"CA 	c #DC9D8D",
"DA 	c #DC9E8F",
"EA 	c #DB9D8E",
"FA 	c #D89B8D",
"GA 	c #D99C8E",
"HA 	c #DA9E90",
"IA 	c #DA9E91",
"JA 	c #D89D92",
"KA 	c #D89E92",
"LA 	c #DBA396",
"MA 	c #DEA89A",
"NA 	c #DBA699",
"OA 	c #DAA597",
"PA 	c #DAA799",
"QA 	c #D8A79A",
"RA 	c #D4A699",
"SA 	c #D4AA9D",
"TA 	c #D7B1A4",
"UA 	c #CFAD9F",
"VA 	c #AF9285",
"WA 	c #806A5F",
"XA 	c #5F4E44",
"YA 	c #594C45",
"ZA 	c #5C5554",
"`A 	c #69686F",
" B 	c #838797",
".B 	c #9FA6BD",
"+B 	c #BCC2D9",
"@B 	c #D1D0DE",
"#B 	c #C9BCB7",
"$B 	c #B4987C",
"%B 	c #A17846",
"&B 	c #9E722C",
"*B 	c #9C7623",
"=B 	c #98731B",
"-B 	c #977318",
";B 	c #9B7619",
">B 	c #9D7717",
",B 	c #9F7917",
"'B 	c #DCAF93",
")B 	c #DBAE92",
"!B 	c #DEB196",
"~B 	c #DFB397",
"{B 	c #DDB195",
"]B 	c #D8AE91",
"^B 	c #DBB194",
"/B 	c #DEB597",
"(B 	c #DFB799",
"_B 	c #DBB395",
":B 	c #D7AC8E",
"<B 	c #D3A789",
"[B 	c #D4A78A",
"}B 	c #CA9D80",
"|B 	c #C6977B",
"1B 	c #CF9F83",
"2B 	c #CE9E82",
"3B 	c #CD9B80",
"4B 	c #CD9A80",
"5B 	c #CB987E",
"6B 	c #D09D83",
"7B 	c #D09C83",
"8B 	c #CE9A81",
"9B 	c #CC997F",
"0B 	c #CF9B82",
"aB 	c #CD9981",
"bB 	c #CB9780",
"cB 	c #C6927B",
"dB 	c #C8947E",
"eB 	c #C7937D",
"fB 	c #B5816B",
"gB 	c #B6816C",
"hB 	c #B5816C",
"iB 	c #B47F6B",
"jB 	c #B5806C",
"kB 	c #B7826D",
"lB 	c #B07B66",
"mB 	c #AA7560",
"nB 	c #AD7863",
"oB 	c #AA735F",
"pB 	c #AB745F",
"qB 	c #A36C56",
"rB 	c #9F6954",
"sB 	c #9C6953",
"tB 	c #9D6B56",
"uB 	c #9E6C5A",
"vB 	c #986756",
"wB 	c #966556",
"xB 	c #956455",
"yB 	c #956456",
"zB 	c #9C6C5E",
"AB 	c #A77868",
"BB 	c #AE806E",
"CB 	c #B28572",
"DB 	c #B88B76",
"EB 	c #BE917C",
"FB 	c #C49782",
"GB 	c #CB9E89",
"HB 	c #D0A28E",
"IB 	c #CEA08D",
"JB 	c #D1A391",
"KB 	c #D0A493",
"LB 	c #D3A796",
"MB 	c #D4A897",
"NB 	c #D2A797",
"OB 	c #D2A997",
"PB 	c #D6AA9A",
"QB 	c #D5A393",
"RB 	c #D59F90",
"SB 	c #D9A091",
"TB 	c #DA9F8F",
"UB 	c #DC9F8E",
"VB 	c #DB9D8B",
"WB 	c #D89A87",
"XB 	c #D79986",
"YB 	c #D99A87",
"ZB 	c #DE9E8D",
"`B 	c #DF9E8E",
" C 	c #DB9B8B",
".C 	c #DE9F90",
"+C 	c #E2A394",
"@C 	c #DEA092",
"#C 	c #D99B8E",
"$C 	c #D89B8E",
"%C 	c #D7998E",
"&C 	c #D99C91",
"*C 	c #DBA195",
"=C 	c #DBA497",
"-C 	c #DDA89A",
";C 	c #DDA798",
">C 	c #DEA998",
",C 	c #E1AD9B",
"'C 	c #DFAD99",
")C 	c #D8A894",
"!C 	c #D6A896",
"~C 	c #D5AA99",
"{C 	c #D7AD9D",
"]C 	c #D5AEA0",
"^C 	c #CDADA2",
"/C 	c #BEA7A1",
"(C 	c #B6A29F",
"_C 	c #B3A2A2",
":C 	c #B5AAAF",
"<C 	c #B8B3BD",
"[C 	c #B6B7C6",
"}C 	c #B3B5C6",
"|C 	c #B2B0BC",
"1C 	c #AAA19E",
"2C 	c #AE9B86",
"3C 	c #B1956E",
"4C 	c #A8864A",
"5C 	c #9F7827",
"6C 	c #A0781F",
"7C 	c #A57C1F",
"8C 	c #A47C1C",
"9C 	c #A27A17",
"0C 	c #A37C17",
"aC 	c #E5B89C",
"bC 	c #DFB299",
"cC 	c #E0B39B",
"dC 	c #E4B79E",
"eC 	c #E5B99D",
"fC 	c #E4B89B",
"gC 	c #DFB395",
"hC 	c #E0B496",
"iC 	c #D5A98B",
"jC 	c #D3A889",
"kC 	c #D6AA8C",
"lC 	c #D4A78B",
"mC 	c #D1A387",
"nC 	c #CFA085",
"oC 	c #CEA086",
"pC 	c #C6967E",
"qC 	c #BD8D75",
"rC 	c #BB8A73",
"sC 	c #BF8D76",
"tC 	c #C99680",
"uC 	c #C8947F",
"vC 	c #BF8C77",
"wC 	c #BE8A75",
"xC 	c #C18D78",
"yC 	c #BE8A74",
"zC 	c #BC8872",
"AC 	c #BB8771",
"BC 	c #BA876F",
"CC 	c #B9866E",
"DC 	c #B17E66",
"EC 	c #A6725A",
"FC 	c #A36F59",
"GC 	c #A46F5B",
"HC 	c #97624E",
"IC 	c #A26D59",
"JC 	c #A36E5A",
"KC 	c #A8735E",
"LC 	c #AC7763",
"MC 	c #A8735F",
"NC 	c #A7725D",
"OC 	c #A7735E",
"PC 	c #A4705B",
"QC 	c #A6725F",
"RC 	c #A67361",
"SC 	c #A87564",
"TC 	c #AC7967",
"UC 	c #B17E6C",
"VC 	c #BE8B79",
"WC 	c #C4917F",
"XC 	c #C99684",
"YC 	c #D09D8B",
"ZC 	c #D39F8E",
"`C 	c #D5A290",
" D 	c #D6A390",
".D 	c #DAA694",
"+D 	c #D7A392",
"@D 	c #DEAB9A",
"#D 	c #DBA797",
"$D 	c #DEAB99",
"%D 	c #DAA795",
"&D 	c #DAA695",
"*D 	c #DDA696",
"=D 	c #DEA696",
"-D 	c #DDA494",
";D 	c #DFA496",
">D 	c #DFA395",
",D 	c #DB9D8F",
"'D 	c #DA9C8E",
")D 	c #D99D8D",
"!D 	c #DAA08D",
"~D 	c #DDA190",
"{D 	c #DEA091",
"]D 	c #DE9F91",
"^D 	c #DC9C90",
"/D 	c #DA9B8E",
"(D 	c #DB9E91",
"_D 	c #D59A8F",
":D 	c #D3988C",
"<D 	c #D59B8D",
"[D 	c #D69E8E",
"}D 	c #E0AF9E",
"|D 	c #E8B8A8",
"1D 	c #E2B0A1",
"2D 	c #DAA598",
"3D 	c #DAA396",
"4D 	c #D6A391",
"5D 	c #D6A893",
"6D 	c #D1A59A",
"7D 	c #CDA2A1",
"8D 	c #C9A3A4",
"9D 	c #BC9F9C",
"0D 	c #AD9994",
"aD 	c #A39796",
"bD 	c #A1969D",
"cD 	c #A89CA2",
"dD 	c #B5A49E",
"eD 	c #B3A085",
"fD 	c #A98E5D",
"gD 	c #9F7C33",
"hD 	c #A37B26",
"iD 	c #AA7F23",
"jD 	c #AA7D1A",
"kD 	c #AD8118",
"lD 	c #AC8319",
"mD 	c #E4B399",
"nD 	c #E5B59D",
"oD 	c #E5B59F",
"pD 	c #E5B6A0",
"qD 	c #E7BBA4",
"rD 	c #E6BAA4",
"sD 	c #E5BAA4",
"tD 	c #E4B9A3",
"uD 	c #E2B7A1",
"vD 	c #E3BAA3",
"wD 	c #E2BAA3",
"xD 	c #DEB69F",
"yD 	c #DEB69E",
"zD 	c #D1A890",
"AD 	c #CFA48D",
"BD 	c #CEA28B",
"CD 	c #CEA089",
"DD 	c #CB9B85",
"ED 	c #CA9883",
"FD 	c #C4927D",
"GD 	c #BF8D78",
"HD 	c #C18F79",
"ID 	c #C3927B",
"JD 	c #C5947D",
"KD 	c #C19079",
"LD 	c #C29178",
"MD 	c #C39279",
"ND 	c #BB8A70",
"OD 	c #B38269",
"PD 	c #B8876F",
"QD 	c #BC8B74",
"RD 	c #B7876F",
"SD 	c #B8866F",
"TD 	c #BD8A73",
"UD 	c #BD8B73",
"VD 	c #BE8A73",
"WD 	c #C38F78",
"XD 	c #C18B75",
"YD 	c #C58F79",
"ZD 	c #C68E79",
"`D 	c #C28C76",
" E 	c #C9937D",
".E 	c #CF9883",
"+E 	c #D09A84",
"@E 	c #D19A85",
"#E 	c #D69F89",
"$E 	c #DAA28C",
"%E 	c #DBA28C",
"&E 	c #D89F89",
"*E 	c #E0A794",
"=E 	c #DCA390",
"-E 	c #DDA391",
";E 	c #D99F8E",
">E 	c #DBA190",
",E 	c #DAA18F",
"'E 	c #DDA592",
")E 	c #E0A996",
"!E 	c #DEA693",
"~E 	c #DFA694",
"{E 	c #E0A895",
"]E 	c #E2A997",
"^E 	c #DEA492",
"/E 	c #DCA290",
"(E 	c #D99F8D",
"_E 	c #D89E8C",
":E 	c #DBA08E",
"<E 	c #E0A493",
"[E 	c #E2A495",
"}E 	c #E1A293",
"|E 	c #E0A193",
"1E 	c #E0A094",
"2E 	c #E1A396",
"3E 	c #DFA296",
"4E 	c #DDA196",
"5E 	c #DEA496",
"6E 	c #E0A797",
"7E 	c #DBA394",
"8E 	c #DAA496",
"9E 	c #DDA89B",
"0E 	c #DBA79B",
"aE 	c #DDAA9E",
"bE 	c #E2AFA2",
"cE 	c #E2ADA0",
"dE 	c #DCA697",
"eE 	c #DBA492",
"fE 	c #D49C89",
"gE 	c #D19880",
"hE 	c #D4997D",
"iE 	c #D19584",
"jE 	c #D49890",
"kE 	c #D59F99",
"lE 	c #D6ACA0",
"mE 	c #CCAEA0",
"nE 	c #BDA9A1",
"oE 	c #BBAEAF",
"pE 	c #BEB4B7",
"qE 	c #C5BCB4",
"rE 	c #BFB59A",
"sE 	c #B19F6B",
"tE 	c #A78835",
"uE 	c #A78121",
"vE 	c #AA7E17",
"wE 	c #B07F13",
"xE 	c #B48213",
"yE 	c #B38213",
"zE 	c #E0AC93",
"AE 	c #E8B5A0",
"BE 	c #E9B7A3",
"CE 	c #EABAA6",
"DE 	c #EABAA7",
"EE 	c #E9BAA7",
"FE 	c #EABCAA",
"GE 	c #EABDAB",
"HE 	c #E6BAA9",
"IE 	c #E3B9A8",
"JE 	c #E4BAA9",
"KE 	c #E5BAA9",
"LE 	c #E3B8A6",
"ME 	c #E4B8A7",
"NE 	c #E5B9A7",
"OE 	c #E2B6A3",
"PE 	c #E2B5A2",
"QE 	c #E3B6A2",
"RE 	c #DFB19D",
"SE 	c #DAAC97",
"TE 	c #CFA089",
"UE 	c #CC9B84",
"VE 	c #C99881",
"WE 	c #CA9881",
"XE 	c #CE9D85",
"YE 	c #D3A18A",
"ZE 	c #D5A48B",
"`E 	c #D5A58B",
" F 	c #CC9D83",
".F 	c #CC9A81",
"+F 	c #D49E86",
"@F 	c #D49D85",
"#F 	c #D39C84",
"$F 	c #D59A84",
"%F 	c #CD917B",
"&F 	c #CB8E78",
"*F 	c #CD8E79",
"=F 	c #CE8E79",
"-F 	c #D49580",
";F 	c #D49680",
">F 	c #D0957E",
",F 	c #D49982",
"'F 	c #D69C85",
")F 	c #D29881",
"!F 	c #D0967F",
"~F 	c #CF957E",
"{F 	c #D19780",
"]F 	c #D69B84",
"^F 	c #D89D86",
"/F 	c #DA9F89",
"(F 	c #DB9F89",
"_F 	c #D39580",
":F 	c #D49681",
"<F 	c #D59783",
"[F 	c #DA9C89",
"}F 	c #DC9D8B",
"|F 	c #E1A290",
"1F 	c #E2A492",
"2F 	c #E3A493",
"3F 	c #E4A694",
"4F 	c #DFA391",
"5F 	c #E1A895",
"6F 	c #DEA591",
"7F 	c #E1A995",
"8F 	c #D79D8A",
"9F 	c #DEA290",
"0F 	c #DFA291",
"aF 	c #DFA192",
"bF 	c #DD9E91",
"cF 	c #D99A8D",
"dF 	c #DB9D90",
"eF 	c #DB9D91",
"fF 	c #D2968A",
"gF 	c #D69A8F",
"hF 	c #D89C8E",
"iF 	c #DEA192",
"jF 	c #DDA194",
"kF 	c #DBA095",
"lF 	c #DFA79D",
"mF 	c #DEA79F",
"nF 	c #DCA59E",
"oF 	c #D5A097",
"pF 	c #D49D91",
"qF 	c #D8A091",
"rF 	c #D29987",
"sF 	c #CE9480",
"tF 	c #CC917B",
"uF 	c #CD8F7D",
"vF 	c #CD8F85",
"wF 	c #D29692",
"xF 	c #CF9894",
"yF 	c #D0A398",
"zF 	c #CEAD9E",
"AF 	c #CDB5AA",
"BF 	c #C5B5B0",
"CF 	c #C0B5B3",
"DF 	c #C2BAB2",
"EF 	c #C5BDA9",
"FF 	c #C6B990",
"GF 	c #BAA361",
"HF 	c #AC8D3C",
"IF 	c #AB8324",
"JF 	c #B4841D",
"KF 	c #B58216",
"LF 	c #B38012",
"MF 	c #E4B19A",
"NF 	c #E2B09B",
"OF 	c #E3B29E",
"PF 	c #E6B5A1",
"QF 	c #E3B39F",
"RF 	c #E1B19E",
"SF 	c #E1B19F",
"TF 	c #E3B3A2",
"UF 	c #E2B3A2",
"VF 	c #E1B3A2",
"WF 	c #E3B5A4",
"XF 	c #E2B4A3",
"YF 	c #E1B5A2",
"ZF 	c #E3B7A2",
"`F 	c #E4B8A3",
" G 	c #E0B49F",
".G 	c #DDB29C",
"+G 	c #DDB19B",
"@G 	c #DEB29D",
"#G 	c #D7A791",
"$G 	c #D9A38D",
"%G 	c #DFA48F",
"&G 	c #D79C85",
"*G 	c #D59E84",
"=G 	c #D49A81",
"-G 	c #D3977F",
";G 	c #CE9179",
">G 	c #CA8D76",
",G 	c #CF927B",
"'G 	c #D4967F",
")G 	c #D3947E",
"!G 	c #D4947E",
"~G 	c #D2917B",
"{G 	c #CC8C76",
"]G 	c #CF8E79",
"^G 	c #D79680",
"/G 	c #D89782",
"(G 	c #D69682",
"_G 	c #D89A85",
":G 	c #D89B86",
"<G 	c #DFA48E",
"[G 	c #DE9E8A",
"}G 	c #DC9C88",
"|G 	c #DB9D88",
"1G 	c #DC9E8A",
"2G 	c #DB9C8A",
"3G 	c #DE9F8D",
"4G 	c #E1A291",
"5G 	c #E5A695",
"6G 	c #DD9F8E",
"7G 	c #E2A493",
"8G 	c #E3A594",
"9G 	c #DB9E8C",
"0G 	c #D89A89",
"aG 	c #D69886",
"bG 	c #D49685",
"cG 	c #D69887",
"dG 	c #D79A88",
"eG 	c #DA9C8B",
"fG 	c #DDA08E",
"gG 	c #DC9F8D",
"hG 	c #DB9D8D",
"iG 	c #E0A293",
"jG 	c #D89A8C",
"kG 	c #D49689",
"lG 	c #D5978A",
"mG 	c #D29488",
"nG 	c #D09287",
"oG 	c #D19388",
"pG 	c #D6968C",
"qG 	c #DB9A92",
"rG 	c #DC9C94",
"sG 	c #DC9E96",
"tG 	c #DC9F99",
"uG 	c #DCA19B",
"vG 	c #DBA29B",
"wG 	c #DCA49B",
"xG 	c #DEA59B",
"yG 	c #D9A094",
"zG 	c #D1978B",
"AG 	c #D09586",
"BG 	c #D49787",
"CG 	c #D59686",
"DG 	c #D7968B",
"EG 	c #D99A91",
"FG 	c #D79A93",
"GG 	c #D49B93",
"HG 	c #D2A095",
"IG 	c #D0A699",
"JG 	c #CDACA1",
"KG 	c #CCB4AE",
"LG 	c #CAB9B9",
"MG 	c #C3B6BC",
"NG 	c #CBBBB6",
"OG 	c #D6BE9D",
"PG 	c #CCAD77",
"QG 	c #B68E42",
"RG 	c #B58620",
"SG 	c #BA8812",
"TG 	c #BB890E",
"UG 	c #E8B49A",
"VG 	c #E4B199",
"WG 	c #E6B39D",
"XG 	c #E4B19B",
"YG 	c #E0AD97",
"ZG 	c #E3AF9B",
"`G 	c #E4AF9C",
" H 	c #E3AD9B",
".H 	c #E2AC9B",
"+H 	c #E4AF9D",
"@H 	c #E7B2A1",
"#H 	c #E4B19F",
"$H 	c #E5B4A1",
"%H 	c #E7B6A2",
"&H 	c #E9B8A4",
"*H 	c #E8B8A4",
"=H 	c #EAB9A5",
"-H 	c #E7B7A3",
";H 	c #E4B3A0",
">H 	c #DFAE9B",
",H 	c #E1B09C",
"'H 	c #E2B19D",
")H 	c #E3B19E",
"!H 	c #E3AE9C",
"~H 	c #E2AB9A",
"{H 	c #E4AB9B",
"]H 	c #E5AA9A",
"^H 	c #E4A595",
"/H 	c #E09F90",
"(H 	c #DF9D8E",
"_H 	c #E09E8E",
":H 	c #E09E8D",
"<H 	c #DC9C8A",
"[H 	c #DB9C89",
"}H 	c #DA9987",
"|H 	c #D99785",
"1H 	c #DB9886",
"2H 	c #DE9C89",
"3H 	c #E09F8C",
"4H 	c #E19F8C",
"5H 	c #E3A18F",
"6H 	c #E4A290",
"7H 	c #DF9E8B",
"8H 	c #DF9E8A",
"9H 	c #DD9C89",
"0H 	c #E09F8B",
"aH 	c #DFA18C",
"bH 	c #D99F89",
"cH 	c #DEA08B",
"dH 	c #DD9E8C",
"eH 	c #DFA08E",
"fH 	c #E2A392",
"gH 	c #DD9E8D",
"hH 	c #D79686",
"iH 	c #D59282",
"jH 	c #D39080",
"kH 	c #D08D7D",
"lH 	c #D89585",
"mH 	c #D49282",
"nH 	c #D28F7F",
"oH 	c #D18E7E",
"pH 	c #D49181",
"qH 	c #DA9787",
"rH 	c #DB9888",
"sH 	c #D69585",
"tH 	c #D59886",
"uH 	c #D89A8A",
"vH 	c #D69889",
"wH 	c #DA9C8D",
"xH 	c #D6988B",
"yH 	c #D89A8E",
"zH 	c #DB9D92",
"AH 	c #DEA095",
"BH 	c #DB9F95",
"CH 	c #D2988F",
"DH 	c #D29891",
"EH 	c #D19690",
"FH 	c #D99C99",
"GH 	c #DDA09E",
"HH 	c #DD9F9D",
"IH 	c #DB9D9A",
"JH 	c #DEA19B",
"KH 	c #DDA199",
"LH 	c #D69B8F",
"MH 	c #D69C8C",
"NH 	c #D19885",
"OH 	c #D09485",
"PH 	c #D5938A",
"QH 	c #DD9690",
"RH 	c #DE9791",
"SH 	c #DD9991",
"TH 	c #D89B93",
"UH 	c #D6A59D",
"VH 	c #D0B8B9",
"WH 	c #C7B9BE",
"XH 	c #C5B6B6",
"YH 	c #CCB6A7",
"ZH 	c #CDB493",
"`H 	c #C3A772",
" I 	c #B99A4C",
".I 	c #B7902B",
"+I 	c #BD8E17",
"@I 	c #E3AF95",
"#I 	c #E4B097",
"$I 	c #E6B199",
"%I 	c #E4AF98",
"&I 	c #E5AF9A",
"*I 	c #E6AE9A",
"=I 	c #E7AE9B",
"-I 	c #E8AF9C",
";I 	c #E9AF9D",
">I 	c #E8AE9C",
",I 	c #E8AF9D",
"'I 	c #E7B09E",
")I 	c #E6B19E",
"!I 	c #E7B29F",
"~I 	c #E9B4A1",
"{I 	c #E7B2A0",
"]I 	c #E2AD9B",
"^I 	c #E0AB99",
"/I 	c #DCA695",
"(I 	c #DCA796",
"_I 	c #E2AD9C",
":I 	c #E4AD9E",
"<I 	c #E5AC9F",
"[I 	c #E4A99D",
"}I 	c #E3A89B",
"|I 	c #E5A89B",
"1I 	c #E4A69A",
"2I 	c #E1A497",
"3I 	c #E0A496",
"4I 	c #E0A597",
"5I 	c #DCA393",
"6I 	c #DCA391",
"7I 	c #DBA28F",
"8I 	c #D79C89",
"9I 	c #DEA18E",
"0I 	c #DF9F8D",
"aI 	c #E0A08E",
"bI 	c #E3A291",
"cI 	c #E2A28E",
"dI 	c #E5A792",
"eI 	c #E3A690",
"fI 	c #E1A38E",
"gI 	c #E2A48F",
"hI 	c #E1A18D",
"iI 	c #E0A08B",
"jI 	c #E1A28B",
"kI 	c #E1A28C",
"lI 	c #DC9E87",
"mI 	c #D4957F",
"nI 	c #D2937F",
"oI 	c #D39581",
"pI 	c #D49683",
"qI 	c #D49583",
"rI 	c #CE907E",
"sI 	c #CD907E",
"tI 	c #CD8E7D",
"uI 	c #CE8E7E",
"vI 	c #D29181",
"wI 	c #DA9A8A",
"xI 	c #DB9A8A",
"yI 	c #DF9F8F",
"zI 	c #DA998A",
"AI 	c #D39182",
"BI 	c #D89988",
"CI 	c #D99C8A",
"DI 	c #E1A493",
"EI 	c #DDA090",
"FI 	c #DA9D8E",
"GI 	c #D49788",
"HI 	c #D39689",
"II 	c #DB9E92",
"JI 	c #DB9E94",
"KI 	c #DC9F96",
"LI 	c #DB9E95",
"MI 	c #D79D95",
"NI 	c #D6A098",
"OI 	c #D49D97",
"PI 	c #DAA09D",
"QI 	c #D99D9B",
"RI 	c #D69897",
"SI 	c #DC9C9C",
"TI 	c #DA9999",
"UI 	c #D1918E",
"VI 	c #DB9D97",
"WI 	c #DA9D95",
"XI 	c #D69A90",
"YI 	c #D6998E",
"ZI 	c #D5988D",
"`I 	c #DA9C93",
" J 	c #D99A92",
".J 	c #D7978F",
"+J 	c #D9998F",
"@J 	c #DA9B8F",
"#J 	c #D89C8F",
"$J 	c #D79F93",
"%J 	c #D5A39A",
"&J 	c #D6AAA7",
"*J 	c #D9B3B4",
"=J 	c #D7B7BA",
"-J 	c #CFB8B8",
";J 	c #D1BEB6",
">J 	c #D6C4AF",
",J 	c #D5C19B",
"'J 	c #CCB077",
")J 	c #C39C4E",
"!J 	c #DDA48D",
"~J 	c #E1AA91",
"{J 	c #E6AE96",
"]J 	c #E2AA93",
"^J 	c #DFA790",
"/J 	c #E0A792",
"(J 	c #E2A996",
"_J 	c #E6AD9A",
":J 	c #E7AE9A",
"<J 	c #E7AF9B",
"[J 	c #E3AB98",
"}J 	c #E0A796",
"|J 	c #DEA594",
"1J 	c #E3AA9A",
"2J 	c #E4AA9B",
"3J 	c #E1A89A",
"4J 	c #DAA194",
"5J 	c #D79E91",
"6J 	c #DCA395",
"7J 	c #E0A699",
"8J 	c #E1A699",
"9J 	c #E2A69A",
"0J 	c #E3A69A",
"aJ 	c #E1A397",
"bJ 	c #E0A397",
"cJ 	c #DEA094",
"dJ 	c #DC9F91",
"eJ 	c #E2A696",
"fJ 	c #E1A595",
"gJ 	c #DFA392",
"hJ 	c #DB9F8D",
"iJ 	c #DC9E8D",
"jJ 	c #E3A492",
"kJ 	c #E2A290",
"lJ 	c #E8A995",
"mJ 	c #E0A28D",
"nJ 	c #DB9C88",
"oJ 	c #D89985",
"pJ 	c #D79985",
"qJ 	c #CF917C",
"rJ 	c #C78974",
"sJ 	c #C48672",
"tJ 	c #C0816D",
"uJ 	c #C07F6A",
"vJ 	c #C4816B",
"wJ 	c #C17F69",
"xJ 	c #BC7A65",
"yJ 	c #BC7A67",
"zJ 	c #BD7C6A",
"AJ 	c #BF806F",
"BJ 	c #C48574",
"CJ 	c #C78A7A",
"DJ 	c #CA8D7D",
"EJ 	c #CA8E80",
"FJ 	c #CF9385",
"GJ 	c #D59789",
"HJ 	c #D9978A",
"IJ 	c #DB998C",
"JJ 	c #DE9C8F",
"KJ 	c #D39184",
"LJ 	c #D79588",
"MJ 	c #D89689",
"NJ 	c #DA988C",
"OJ 	c #D49285",
"PJ 	c #D19083",
"QJ 	c #D08E81",
"RJ 	c #D79689",
"SJ 	c #DC9B8F",
"TJ 	c #D6978B",
"UJ 	c #DFA195",
"VJ 	c #DFA196",
"WJ 	c #E1A49A",
"XJ 	c #D59A90",
"YJ 	c #D69C93",
"ZJ 	c #DAA199",
"`J 	c #DFA69F",
" K 	c #D7A09B",
".K 	c #D89F9A",
"+K 	c #DAA09B",
"@K 	c #D59A96",
"#K 	c #CC918F",
"$K 	c #D59A99",
"%K 	c #D79C9B",
"&K 	c #DFA4A3",
"*K 	c #DEA4A2",
"=K 	c #D39995",
"-K 	c #CF968F",
";K 	c #CF968E",
">K 	c #D69D92",
",K 	c #D99F95",
"'K 	c #E3A79D",
")K 	c #D49C8D",
"!K 	c #D39A89",
"~K 	c #D19684",
"{K 	c #D19180",
"]K 	c #D59184",
"^K 	c #D9948B",
"/K 	c #D99992",
"(K 	c #D59C97",
"_K 	c #D6A5A0",
":K 	c #D8B0AD",
"<K 	c #D7B7B7",
"[K 	c #D4BABB",
"}K 	c #D4BEBC",
"|K 	c #DAC5BB",
"1K 	c #DDC8AB",
"2K 	c #DABF8B",
"3K 	c #DA9E89",
"4K 	c #DCA289",
"5K 	c #DCA389",
"6K 	c #E2A991",
"7K 	c #DFA58E",
"8K 	c #DEA48E",
"9K 	c #E5AB96",
"0K 	c #E2A894",
"aK 	c #E4AA95",
"bK 	c #E5AB95",
"cK 	c #E3A994",
"dK 	c #E4AA96",
"eK 	c #E3A995",
"fK 	c #DDA390",
"gK 	c #E1A695",
"hK 	c #E2A896",
"iK 	c #E0A595",
"jK 	c #DFA595",
"kK 	c #E2A797",
"lK 	c #E0A494",
"mK 	c #E3A697",
"nK 	c #E1A395",
"oK 	c #E3A596",
"pK 	c #E1A294",
"qK 	c #DD9E8F",
"rK 	c #E0A192",
"sK 	c #E3A496",
"tK 	c #E3A495",
"uK 	c #DB9C8C",
"vK 	c #DC9D8C",
"wK 	c #DD9D8C",
"xK 	c #DE9D8C",
"yK 	c #DE9C8A",
"zK 	c #DC9A89",
"AK 	c #D89684",
"BK 	c #D79483",
"CK 	c #D49281",
"DK 	c #CE8C7B",
"EK 	c #C78574",
"FK 	c #C07E6D",
"GK 	c #BC7B6A",
"HK 	c #B57463",
"IK 	c #AC6B5A",
"JK 	c #A86655",
"KK 	c #A36251",
"LK 	c #A56352",
"MK 	c #AE6C5B",
"NK 	c #B57062",
"OK 	c #C27B6F",
"PK 	c #D28A80",
"QK 	c #D18B81",
"RK 	c #D18C82",
"SK 	c #D38F86",
"TK 	c #DB9890",
"UK 	c #D8958E",
"VK 	c #D3928C",
"WK 	c #C88782",
"XK 	c #CC8D87",
"YK 	c #D4958F",
"ZK 	c #D99690",
"`K 	c #DA958D",
" L 	c #E39F96",
".L 	c #D7938A",
"+L 	c #CC8980",
"@L 	c #C9867D",
"#L 	c #D18E85",
"$L 	c #C7867C",
"%L 	c #C38379",
"&L 	c #C18278",
"*L 	c #C3857A",
"=L 	c #D5968E",
"-L 	c #D69892",
";L 	c #D79A96",
">L 	c #DEA19C",
",L 	c #D59994",
"'L 	c #D59A95",
")L 	c #D89E9A",
"!L 	c #D19994",
"~L 	c #D49D98",
"{L 	c #E6B0AB",
"]L 	c #E0AAA4",
"^L 	c #E1A8A0",
"/L 	c #DEA298",
"(L 	c #D2968D",
"_L 	c #CE928A",
":L 	c #DBA09A",
"<L 	c #D99D99",
"[L 	c #D19592",
"}L 	c #DCA29E",
"|L 	c #E6ADA8",
"1L 	c #E2AAA3",
"2L 	c #E1AAA1",
"3L 	c #D8A196",
"4L 	c #D99F97",
"5L 	c #DEA29B",
"6L 	c #E9AFA5",
"7L 	c #DCA396",
"8L 	c #D49B8B",
"9L 	c #D69988",
"0L 	c #DA9888",
"aL 	c #D58F81",
"bL 	c #D48B82",
"cL 	c #D7938B",
"dL 	c #D79A92",
"eL 	c #D49E98",
"fL 	c #D5A5A4",
"gL 	c #D6AEB3",
"hL 	c #D7B7BE",
"iL 	c #D6BFC5",
"jL 	c #D1C1C3",
"kL 	c #D8C6B1",
"lL 	c #D1947D",
"mL 	c #D1957D",
"nL 	c #C88C73",
"oL 	c #CD9077",
"pL 	c #D1947B",
"qL 	c #D69981",
"rL 	c #DFA28C",
"sL 	c #E7AA94",
"tL 	c #E1A48E",
"uL 	c #E4A893",
"vL 	c #E5A894",
"wL 	c #E3A691",
"xL 	c #E2A590",
"yL 	c #E1A490",
"zL 	c #E1A491",
"AL 	c #E1A492",
"BL 	c #E3A693",
"CL 	c #E2A593",
"DL 	c #E3A694",
"EL 	c #E0A391",
"FL 	c #E4A695",
"GL 	c #E0A290",
"HL 	c #DD9F8D",
"IL 	c #E0A18F",
"JL 	c #DF9F8E",
"KL 	c #DD9C8B",
"LL 	c #DB9C8B",
"ML 	c #D89A88",
"NL 	c #DA9B89",
"OL 	c #DC9B89",
"PL 	c #D79784",
"QL 	c #D69583",
"RL 	c #D69482",
"SL 	c #CB8877",
"TL 	c #C2806E",
"UL 	c #C27F6E",
"VL 	c #BE7B6A",
"WL 	c #B47362",
"XL 	c #A66656",
"YL 	c #9B5B4B",
"ZL 	c #965545",
"`L 	c #955444",
" M 	c #975545",
".M 	c #9E5C4C",
"+M 	c #A66354",
"@M 	c #AF6B5B",
"#M 	c #B06B5C",
"$M 	c #B67162",
"%M 	c #B46E60",
"&M 	c #BB7366",
"*M 	c #C67C71",
"=M 	c #CF847A",
"-M 	c #D1867D",
";M 	c #D0857D",
">M 	c #CB817A",
",M 	c #D18881",
"'M 	c #CC847E",
")M 	c #C9837E",
"!M 	c #D5908C",
"~M 	c #D6938F",
"{M 	c #D99691",
"]M 	c #D7928C",
"^M 	c #CE8680",
"/M 	c #C67F78",
"(M 	c #CC877F",
"_M 	c #CB877F",
":M 	c #C38279",
"<M 	c #BF7E75",
"[M 	c #C88980",
"}M 	c #D09289",
"|M 	c #CB8D84",
"1M 	c #D2968E",
"2M 	c #D1948D",
"3M 	c #D59A94",
"4M 	c #E3ACA7",
"5M 	c #ECB6B2",
"6M 	c #E2ABA7",
"7M 	c #D6A19D",
"8M 	c #D9A4A0",
"9M 	c #D6A09D",
"0M 	c #D59E9B",
"aM 	c #CF9794",
"bM 	c #C88E8C",
"cM 	c #D49997",
"dM 	c #DB9E9C",
"eM 	c #DC9E98",
"fM 	c #D89A90",
"gM 	c #D7988E",
"hM 	c #D5968D",
"iM 	c #DA9992",
"jM 	c #D99892",
"kM 	c #D6948F",
"lM 	c #D4918D",
"mM 	c #D6938E",
"nM 	c #D4908B",
"oM 	c #D38E89",
"pM 	c #DB9690",
"qM 	c #DB9791",
"rM 	c #D7938E",
"sM 	c #D6938C",
"tM 	c #D6968B",
"uM 	c #D59486",
"vM 	c #DE9C8D",
"wM 	c #D59081",
"xM 	c #D79386",
"yM 	c #D6958A",
"zM 	c #D3998E",
"AM 	c #D19D93",
"BM 	c #D2A29B",
"CM 	c #D5AAA7",
"DM 	c #D4B2B5",
"EM 	c #D5BDC3",
"FM 	c #D5C6CE",
"GM 	c #CFC5CB",
"HM 	c #D1C6C7",
"IM 	c #D79B82",
"JM 	c #D79982",
"KM 	c #D59780",
"LM 	c #D4957E",
"MM 	c #D5967F",
"NM 	c #D79881",
"OM 	c #D99A84",
"PM 	c #DA9B84",
"QM 	c #DA9B85",
"RM 	c #E0A18B",
"SM 	c #DA9C88",
"TM 	c #D69885",
"UM 	c #D39582",
"VM 	c #DB9D8A",
"WM 	c #DC9E8B",
"XM 	c #E2A491",
"YM 	c #E2A391",
"ZM 	c #DFA08D",
"`M 	c #DA9B88",
" N 	c #D79885",
".N 	c #D79785",
"+N 	c #D59684",
"@N 	c #D59583",
"#N 	c #D69784",
"$N 	c #D69684",
"%N 	c #D89885",
"&N 	c #D4947F",
"*N 	c #D08F79",
"=N 	c #D0907B",
"-N 	c #C98975",
";N 	c #C3846F",
">N 	c #B97B67",
",N 	c #AC6F5C",
"'N 	c #9F6351",
")N 	c #8F5441",
"!N 	c #844835",
"~N 	c #814633",
"{N 	c #864B39",
"]N 	c #905543",
"^N 	c #995D4B",
"/N 	c #A16352",
"(N 	c #AA6858",
"_N 	c #A86555",
":N 	c #AD695A",
"<N 	c #B26C5E",
"[N 	c #B56C5F",
"}N 	c #B1675A",
"|N 	c #BA6F62",
"1N 	c #BE7064",
"2N 	c #C17166",
"3N 	c #C5766C",
"4N 	c #C3736B",
"5N 	c #C5746E",
"6N 	c #C47570",
"7N 	c #CB7E79",
"8N 	c #D78C88",
"9N 	c #D9918C",
"0N 	c #CB8580",
"aN 	c #CD8A84",
"bN 	c #CE8D86",
"cN 	c #CB8C85",
"dN 	c #D99B94",
"eN 	c #D99E98",
"fN 	c #D49B95",
"gN 	c #D09892",
"hN 	c #D59D98",
"iN 	c #D79E99",
"jN 	c #C98E8A",
"kN 	c #D19692",
"lN 	c #DB9F9B",
"mN 	c #D1948F",
"nN 	c #C78982",
"oN 	c #CF938D",
"pN 	c #DFA5A0",
"qN 	c #DBA5A1",
"rN 	c #D7A3A0",
"sN 	c #DFACAA",
"tN 	c #D5A19F",
"uN 	c #CF9A98",
"vN 	c #CA918F",
"wN 	c #D29694",
"xN 	c #D89998",
"yN 	c #DD9D99",
"zN 	c #DD9D94",
"AN 	c #D39389",
"BN 	c #D9988E",
"CN 	c #DA988E",
"DN 	c #DE9C91",
"EN 	c #DF9D91",
"FN 	c #D69488",
"GN 	c #D69387",
"HN 	c #E3A093",
"IN 	c #D99689",
"JN 	c #D49488",
"KN 	c #D79688",
"LN 	c #DA9889",
"MN 	c #D89686",
"NN 	c #E29F8F",
"ON 	c #DC9989",
"PN 	c #D29083",
"QN 	c #CF8F84",
"RN 	c #CE9186",
"SN 	c #D3988E",
"TN 	c #D6A197",
"UN 	c #D2A6A0",
"VN 	c #D4AFB3",
"WN 	c #D7BAC6",
"XN 	c #D8C5D3",
"YN 	c #D6CBD4",
"ZN 	c #CEC7CA",
"`N 	c #D3937C",
" O 	c #D3927C",
".O 	c #D5937D",
"+O 	c #D3917B",
"@O 	c #D7957F",
"#O 	c #DA9882",
"$O 	c #D99882",
"%O 	c #D89680",
"&O 	c #D89781",
"*O 	c #D89882",
"=O 	c #D89983",
"-O 	c #D59680",
";O 	c #DA9A85",
">O 	c #DB9B86",
",O 	c #DC9C87",
"'O 	c #DD9D88",
")O 	c #DD9E88",
"!O 	c #DA9984",
"~O 	c #D99782",
"{O 	c #D79681",
"]O 	c #D69480",
"^O 	c #D4937E",
"/O 	c #D08E79",
"(O 	c #CC8B76",
"_O 	c #CA8873",
":O 	c #C68470",
"<O 	c #C78570",
"[O 	c #CC8A75",
"}O 	c #CC8A76",
"|O 	c #C98673",
"1O 	c #C27E6B",
"2O 	c #C07D6B",
"3O 	c #B77563",
"4O 	c #B06E5C",
"5O 	c #A66654",
"6O 	c #935442",
"7O 	c #884A39",
"8O 	c #844836",
"9O 	c #844938",
"0O 	c #854A39",
"aO 	c #8E5444",
"bO 	c #995E4D",
"cO 	c #AA6D5C",
"dO 	c #AF7261",
"eO 	c #AE6F5E",
"fO 	c #B0705F",
"gO 	c #AC6A5A",
"hO 	c #A56353",
"iO 	c #9A5747",
"jO 	c #965343",
"kO 	c #9D594A",
"lO 	c #A25E4F",
"mO 	c #A35E4F",
"nO 	c #AC6254",
"oO 	c #B26456",
"pO 	c #B7695C",
"qO 	c #B96A5D",
"rO 	c #BE6F63",
"sO 	c #C37369",
"tO 	c #C7776E",
"uO 	c #CF8078",
"vO 	c #D68881",
"wO 	c #DA9089",
"xO 	c #D78F88",
"yO 	c #CE8981",
"zO 	c #D4948C",
"AO 	c #D79B94",
"BO 	c #D99F99",
"CO 	c #E3A9A5",
"DO 	c #E1A9A7",
"EO 	c #E7AFAF",
"FO 	c #E2ABAA",
"GO 	c #E1A8A7",
"HO 	c #E3AAA7",
"IO 	c #D4978F",
"JO 	c #D0928A",
"KO 	c #CF9187",
"LO 	c #C3857B",
"MO 	c #C08379",
"NO 	c #D4968F",
"OO 	c #DB9E99",
"PO 	c #DDA09D",
"QO 	c #D89B99",
"RO 	c #D99B99",
"SO 	c #DFA19F",
"TO 	c #D79996",
"UO 	c #DB9C99",
"VO 	c #DB9C98",
"WO 	c #E0A299",
"XO 	c #DA9C8F",
"YO 	c #D79A8E",
"ZO 	c #D89A8F",
"`O 	c #D99C90",
" P 	c #D79A8F",
".P 	c #D69A8E",
"+P 	c #D1968A",
"@P 	c #CF9388",
"#P 	c #CB8F84",
"$P 	c #CE9085",
"%P 	c #D39387",
"&P 	c #D99688",
"*P 	c #D99686",
"=P 	c #D08F82",
"-P 	c #D09085",
";P 	c #D19489",
">P 	c #D2968C",
",P 	c #D29C93",
"'P 	c #D0A29D",
")P 	c #D6AEB2",
"!P 	c #D6B8C3",
"~P 	c #D7C5D0",
"{P 	c #D6CED4",
"]P 	c #CCCACD",
"^P 	c #C98C70",
"/P 	c #C98972",
"(P 	c #C98872",
"_P 	c #CF8D77",
":P 	c #D08E78",
"<P 	c #D4927C",
"[P 	c #CD8B76",
"}P 	c #CE8C76",
"|P 	c #D4937D",
"1P 	c #D6947E",
"2P 	c #D6947D",
"3P 	c #D3927B",
"4P 	c #D6957E",
"5P 	c #D7967E",
"6P 	c #D7957E",
"7P 	c #D7957D",
"8P 	c #D5927B",
"9P 	c #D39079",
"0P 	c #D3917A",
"aP 	c #D7947D",
"bP 	c #D5937B",
"cP 	c #D18F77",
"dP 	c #CD8B73",
"eP 	c #CC8A72",
"fP 	c #CD8C75",
"gP 	c #CE8D75",
"hP 	c #C98871",
"iP 	c #C4836C",
"jP 	c #C18069",
"kP 	c #BA7962",
"lP 	c #B0725D",
"mP 	c #AA6E5B",
"nP 	c #9E614F",
"oP 	c #915442",
"pP 	c #8D503E",
"qP 	c #8F5140",
"rP 	c #945645",
"sP 	c #9C5E4D",
"tP 	c #AD6E5E",
"uP 	c #BB7B6C",
"vP 	c #C38273",
"wP 	c #CA897A",
"xP 	c #CD8C7C",
"yP 	c #CF8E7E",
"zP 	c #D18F7F",
"AP 	c #CE8D7D",
"BP 	c #C48272",
"CP 	c #BB7969",
"DP 	c #B97767",
"EP 	c #B06E5F",
"FP 	c #9C5B4C",
"GP 	c #7F3D2F",
"HP 	c #864435",
"IP 	c #9B584A",
"JP 	c #A76051",
"KP 	c #B16657",
"LP 	c #B96B5D",
"MP 	c #BF7164",
"NP 	c #C4756A",
"OP 	c #C6766B",
"PP 	c #CB7C72",
"QP 	c #CB7E75",
"RP 	c #CC8279",
"SP 	c #D28A81",
"TP 	c #D48F85",
"UP 	c #D59287",
"VP 	c #DE9E92",
"WP 	c #DFA096",
"XP 	c #DD9E96",
"YP 	c #D69791",
"ZP 	c #D79994",
"`P 	c #D89995",
" Q 	c #DC9D97",
".Q 	c #DD9C94",
"+Q 	c #DB998E",
"@Q 	c #DA978A",
"#Q 	c #D89586",
"$Q 	c #D59384",
"%Q 	c #D49484",
"&Q 	c #D19082",
"*Q 	c #CE8E80",
"=Q 	c #CD8D7F",
"-Q 	c #D59588",
";Q 	c #D8988A",
">Q 	c #D69688",
",Q 	c #D59587",
"'Q 	c #D69588",
")Q 	c #D8978A",
"!Q 	c #D9998B",
"~Q 	c #E0A194",
"{Q 	c #DA9D91",
"]Q 	c #DC9F93",
"^Q 	c #E1A59A",
"/Q 	c #DB9F96",
"(Q 	c #D69B94",
"_Q 	c #DEA39D",
":Q 	c #E4ABA5",
"<Q 	c #E7AEAB",
"[Q 	c #E9B1AF",
"}Q 	c #E6AEAC",
"|Q 	c #E4ADAC",
"1Q 	c #E1AAA6",
"2Q 	c #DAA299",
"3Q 	c #E6AB9F",
"4Q 	c #E6A89B",
"5Q 	c #D9998A",
"6Q 	c #D79484",
"7Q 	c #D99585",
"8Q 	c #DA9789",
"9Q 	c #D3998F",
"0Q 	c #D39F97",
"aQ 	c #D4A9A6",
"bQ 	c #D4B1B4",
"cQ 	c #D7BEC5",
"dQ 	c #DCCDD7",
"eQ 	c #D5CFD7",
"fQ 	c #CECDD2",
"gQ 	c #C28569",
"hQ 	c #C7866E",
"iQ 	c #CB8973",
"jQ 	c #CC8A74",
"kQ 	c #CD8B75",
"lQ 	c #CB8A74",
"mQ 	c #CC8B74",
"nQ 	c #D19077",
"oQ 	c #D19076",
"pQ 	c #D49278",
"qQ 	c #D08F75",
"rQ 	c #D18F76",
"sQ 	c #CF8D73",
"tQ 	c #D08D73",
"uQ 	c #D28E74",
"vQ 	c #D28D74",
"wQ 	c #CC876E",
"xQ 	c #CC886E",
"yQ 	c #CC896F",
"zQ 	c #CA896D",
"AQ 	c #C6846A",
"BQ 	c #C18066",
"CQ 	c #C07F65",
"DQ 	c #BD7D64",
"EQ 	c #BC7D63",
"FQ 	c #B5775E",
"GQ 	c #AF7159",
"HQ 	c #A96B54",
"IQ 	c #9E614A",
"JQ 	c #925642",
"KQ 	c #894E3C",
"LQ 	c #8E5442",
"MQ 	c #A26755",
"NQ 	c #B37765",
"OQ 	c #BF8371",
"PQ 	c #C68877",
"QQ 	c #CB8D7C",
"RQ 	c #CC8E7D",
"SQ 	c #D39483",
"TQ 	c #CF8F7E",
"UQ 	c #D19181",
"VQ 	c #CD8D7C",
"WQ 	c #D39380",
"XQ 	c #D59582",
"YQ 	c #D2927F",
"ZQ 	c #D08F7E",
"`Q 	c #CF8E7D",
" R 	c #C68575",
".R 	c #BD7C6D",
"+R 	c #AA6A5B",
"@R 	c #894C3E",
"#R 	c #783A2D",
"$R 	c #7B3C2D",
"%R 	c #854536",
"&R 	c #935142",
"*R 	c #9C5849",
"=R 	c #A65F50",
"-R 	c #B06658",
";R 	c #B66B5C",
">R 	c #BC6F60",
",R 	c #C27565",
"'R 	c #C67969",
")R 	c #C77A69",
"!R 	c #C87B69",
"~R 	c #CA7E6D",
"{R 	c #CB8171",
"]R 	c #CA8071",
"^R 	c #CB8071",
"/R 	c #CC8172",
"(R 	c #CA7F70",
"_R 	c #C97F6F",
":R 	c #CD8273",
"<R 	c #CE8374",
"[R 	c #CD8373",
"}R 	c #CE8574",
"|R 	c #D08875",
"1R 	c #CC8672",
"2R 	c #CA846F",
"3R 	c #C9836E",
"4R 	c #C77F6C",
"5R 	c #C9806E",
"6R 	c #CD8272",
"7R 	c #D18476",
"8R 	c #D08175",
"9R 	c #CC8175",
"0R 	c #CC8579",
"aR 	c #CD877C",
"bR 	c #CF8A7F",
"cR 	c #D29085",
"dR 	c #D5948A",
"eR 	c #D8998F",
"fR 	c #D79A90",
"gR 	c #DBA198",
"hR 	c #DCA39B",
"iR 	c #E3ACA3",
"jR 	c #E5AEA4",
"kR 	c #E2AB9F",
"lR 	c #D6998A",
"mR 	c #DD9B8B",
"nR 	c #DC9787",
"oR 	c #D79182",
"pR 	c #D99486",
"qR 	c #D6988D",
"rR 	c #D59C93",
"sR 	c #D19B94",
"tR 	c #CB9B97",
"uR 	c #CDA7A6",
"vR 	c #D3B4B8",
"wR 	c #D8C0C9",
"xR 	c #DBCBD9",
"yR 	c #DBD2E2",
"zR 	c #D2CFDE",
"AR 	c #C4876B",
"BR 	c #C18169",
"CR 	c #C3816C",
"DR 	c #C3826C",
"ER 	c #C88771",
"FR 	c #CF8E78",
"GR 	c #CF8D78",
"HR 	c #CA8872",
"IR 	c #C88671",
"JR 	c #C6846D",
"KR 	c #C8886E",
"LR 	c #C7886D",
"MR 	c #C88A6E",
"NR 	c #C9896E",
"OR 	c #CC8C71",
"PR 	c #C9886E",
"QR 	c #C6856B",
"RR 	c #C8876C",
"SR 	c #CB896F",
"TR 	c #CA886E",
"UR 	c #CC8A70",
"VR 	c #C8866C",
"WR 	c #BC7C62",
"XR 	c #BB7B61",
"YR 	c #BF8067",
"ZR 	c #B97A62",
"`R 	c #B4775F",
" S 	c #AC6F57",
".S 	c #A3664F",
"+S 	c #9A5E48",
"@S 	c #925640",
"#S 	c #894D38",
"$S 	c #8B503B",
"%S 	c #9A5D4B",
"&S 	c #AB6C5C",
"*S 	c #BC7C6C",
"=S 	c #C78877",
"-S 	c #D59987",
";S 	c #D49886",
">S 	c #CD9180",
",S 	c #CF9281",
"'S 	c #D79989",
")S 	c #D19382",
"!S 	c #D29484",
"~S 	c #D79889",
"{S 	c #D7988A",
"]S 	c #D49487",
"^S 	c #C7887B",
"/S 	c #C8887C",
"(S 	c #C18276",
"_S 	c #C5867B",
":S 	c #C7887E",
"<S 	c #B97F75",
"[S 	c #956057",
"}S 	c #7C4840",
"|S 	c #6E392F",
"1S 	c #683224",
"2S 	c #673122",
"3S 	c #743A2B",
"4S 	c #7F4433",
"5S 	c #894C3A",
"6S 	c #8F503E",
"7S 	c #985744",
"8S 	c #9D5A48",
"9S 	c #9C5948",
"0S 	c #9D5A4B",
"aS 	c #9F5D4E",
"bS 	c #A05D4E",
"cS 	c #9F5C4D",
"dS 	c #9E5B4C",
"eS 	c #9C5A4B",
"fS 	c #9D5A4C",
"gS 	c #A25F50",
"hS 	c #A56351",
"iS 	c #A3604D",
"jS 	c #A15F4C",
"kS 	c #A1614E",
"lS 	c #A66455",
"mS 	c #AB685B",
"nS 	c #AC685B",
"oS 	c #AD6559",
"pS 	c #B4695D",
"qS 	c #BB6D62",
"rS 	c #BD6D62",
"sS 	c #BC6D62",
"tS 	c #BE7266",
"uS 	c #C3776B",
"vS 	c #C3786C",
"wS 	c #C47B6D",
"xS 	c #C67E6E",
"yS 	c #C47E6C",
"zS 	c #C27F6A",
"AS 	c #C7846E",
"BS 	c #CB8B71",
"CS 	c #CB8C72",
"DS 	c #CD8C73",
"ES 	c #D08C77",
"FS 	c #D28B78",
"GS 	c #D28A78",
"HS 	c #CC8272",
"IS 	c #CB8172",
"JS 	c #CC8275",
"KS 	c #CA8277",
"LS 	c #CC867D",
"MS 	c #CB8880",
"NS 	c #C98A84",
"OS 	c #CA8E89",
"PS 	c #C8908C",
"QS 	c #C3928E",
"RS 	c #C59A9A",
"SS 	c #C6A2A7",
"TS 	c #C8ADB6",
"US 	c #D3C1CE",
"VS 	c #D2C6D5",
"WS 	c #C08069",
"XS 	c #C17F6A",
"YS 	c #C1806A",
"ZS 	c #C5846E",
"`S 	c #C4846D",
" T 	c #BE7E68",
".T 	c #C1816B",
"+T 	c #C2836C",
"@T 	c #BE8068",
"#T 	c #BD8066",
"$T 	c #B97B62",
"%T 	c #BF8268",
"&T 	c #BF8167",
"*T 	c #B87960",
"=T 	c #BB7C63",
"-T 	c #BC7C64",
";T 	c #BD7E65",
">T 	c #BA7B62",
",T 	c #B77A62",
"'T 	c #B57961",
")T 	c #AB7058",
"!T 	c #AA6E57",
"~T 	c #A36750",
"{T 	c #9B6049",
"]T 	c #955843",
"^T 	c #8C4F3A",
"/T 	c #874B37",
"(T 	c #985D48",
"_T 	c #AB705B",
":T 	c #BA7E6A",
"<T 	c #C98A79",
"[T 	c #D39282",
"}T 	c #D19081",
"|T 	c #D79787",
"1T 	c #DA9B8C",
"2T 	c #D39586",
"3T 	c #D59888",
"4T 	c #D99C8D",
"5T 	c #D19686",
"6T 	c #D69C90",
"7T 	c #D89E94",
"8T 	c #D4988F",
"9T 	c #D89A93",
"0T 	c #CD8E88",
"aT 	c #CF908C",
"bT 	c #CA8C88",
"cT 	c #C78986",
"dT 	c #C08380",
"eT 	c #CB8D8C",
"fT 	c #CD908E",
"gT 	c #C98E8B",
"hT 	c #C68C89",
"iT 	c #C38D89",
"jT 	c #B07D79",
"kT 	c #AA7B76",
"lT 	c #916560",
"mT 	c #754B45",
"nT 	c #5B312B",
"oT 	c #5A302A",
"pT 	c #552A24",
"qT 	c #562B24",
"rT 	c #552920",
"sT 	c #562A1F",
"tT 	c #592C21",
"uT 	c #5D3123",
"vT 	c #633729",
"wT 	c #5E3324",
"xT 	c #562B1B",
"yT 	c #552A19",
"zT 	c #542818",
"AT 	c #4F2314",
"BT 	c #4E2213",
"CT 	c #582B1D",
"DT 	c #613224",
"ET 	c #643423",
"FT 	c #6A3929",
"GT 	c #6A392C",
"HT 	c #5E2E23",
"IT 	c #53231B",
"JT 	c #53241D",
"KT 	c #582921",
"LT 	c #613128",
"MT 	c #713E33",
"NT 	c #834E42",
"OT 	c #955D50",
"PT 	c #9E6557",
"QT 	c #A46658",
"RT 	c #AC6C5D",
"ST 	c #AF6E5E",
"TT 	c #B06F5E",
"UT 	c #B4725F",
"VT 	c #B3715D",
"WT 	c #B26F59",
"XT 	c #B16C56",
"YT 	c #B46E58",
"ZT 	c #B56F59",
"`T 	c #B56F5B",
" U 	c #B77160",
".U 	c #BB7464",
"+U 	c #BE7667",
"@U 	c #BF7668",
"#U 	c #BD7467",
"$U 	c #C0776B",
"%U 	c #C27B6E",
"&U 	c #C07A6E",
"*U 	c #BC796C",
"=U 	c #C28072",
"-U 	c #C08274",
";U 	c #BC8576",
">U 	c #BA877B",
",U 	c #BB8F86",
"'U 	c #C09C98",
")U 	c #C6AAAA",
"!U 	c #D0BABF",
"~U 	c #BF836B",
"{U 	c #C2826C",
"]U 	c #BC7B65",
"^U 	c #BD7D67",
"/U 	c #BC7D66",
"(U 	c #BB7D66",
"_U 	c #B57760",
":U 	c #BA7E66",
"<U 	c #BD8169",
"[U 	c #BB7F67",
"}U 	c #BA7F67",
"|U 	c #B77C64",
"1U 	c #B87D66",
"2U 	c #B47861",
"3U 	c #B57962",
"4U 	c #AF735D",
"5U 	c #B87C65",
"6U 	c #B67A63",
"7U 	c #B37760",
"8U 	c #AF735C",
"9U 	c #AE725B",
"0U 	c #A96E57",
"aU 	c #A46A54",
"bU 	c #9D654F",
"cU 	c #975F49",
"dU 	c #975E48",
"eU 	c #8E543F",
"fU 	c #925844",
"gU 	c #9F634F",
"hU 	c #AE725E",
"iU 	c #BE826E",
"jU 	c #CB8D79",
"kU 	c #CD8F7B",
"lU 	c #D89986",
"mU 	c #E2A395",
"nU 	c #D8998B",
"oU 	c #D99A8E",
"pU 	c #D0938A",
"qU 	c #CF938A",
"rU 	c #D99D93",
"sU 	c #D59A91",
"tU 	c #D0998F",
"uU 	c #D09C91",
"vU 	c #D39E94",
"wU 	c #D29A92",
"xU 	c #D89D97",
"yU 	c #DA9D99",
"zU 	c #D19491",
"AU 	c #C48785",
"BU 	c #C08483",
"CU 	c #CF9292",
"DU 	c #C58A89",
"EU 	c #BE8483",
"FU 	c #C48C89",
"GU 	c #C7918E",
"HU 	c #CB9592",
"IU 	c #C18B87",
"JU 	c #BC8783",
"KU 	c #BD8A86",
"LU 	c #B5837F",
"MU 	c #B88783",
"NU 	c #9F6F6A",
"OU 	c #9C6D68",
"PU 	c #986A65",
"QU 	c #90635C",
"RU 	c #865951",
"SU 	c #82544B",
"TU 	c #7D5043",
"UU 	c #75493A",
"VU 	c #724635",
"WU 	c #774A38",
"XU 	c #794D39",
"YU 	c #734732",
"ZU 	c #6E422E",
"`U 	c #683B2A",
" V 	c #5D3020",
".V 	c #582B1C",
"+V 	c #592C1B",
"@V 	c #623622",
"#V 	c #6C412E",
"$V 	c #683D2D",
"%V 	c #623728",
"&V 	c #5B3024",
"*V 	c #532A20",
"=V 	c #4C251C",
"-V 	c #421C13",
";V 	c #3E1910",
">V 	c #3F1C13",
",V 	c #401C13",
"'V 	c #52271F",
")V 	c #733F35",
"!V 	c #864E43",
"~V 	c #905749",
"{V 	c #995E4E",
"]V 	c #9C614F",
"^V 	c #9E634F",
"/V 	c #A16550",
"(V 	c #A36651",
"_V 	c #A1624F",
":V 	c #A36351",
"<V 	c #A36352",
"[V 	c #A06150",
"}V 	c #9C5F4D",
"|V 	c #9B5D4B",
"1V 	c #A16251",
"2V 	c #A16151",
"3V 	c #9F5D4F",
"4V 	c #A15F51",
"5V 	c #A26255",
"6V 	c #A66659",
"7V 	c #A7695D",
"8V 	c #A2665A",
"9V 	c #A96F63",
"0V 	c #A66D62",
"aV 	c #A26B62",
"bV 	c #A47269",
"cV 	c #AB8077",
"dV 	c #BA958F",
"eV 	c #C7A9A9",
"fV 	c #CDB3B9",
"gV 	c #B2765F",
"hV 	c #BC7F68",
"iV 	c #BC7E67",
"jV 	c #BC7F67",
"kV 	c #B57861",
"lV 	c #B3765F",
"mV 	c #B67A62",
"nV 	c #BD826A",
"oV 	c #BB8169",
"pV 	c #B87E66",
"qV 	c #B67C64",
"rV 	c #B57C64",
"sV 	c #B07861",
"tV 	c #A7705A",
"uV 	c #AF7762",
"vV 	c #B27A65",
"wV 	c #AE7661",
"xV 	c #AC755F",
"yV 	c #AA735D",
"zV 	c #A56E58",
"AV 	c #A46D57",
"BV 	c #9E6751",
"CV 	c #965F49",
"DV 	c #945B47",
"EV 	c #915845",
"FV 	c #945B48",
"GV 	c #A56C59",
"HV 	c #B87E6C",
"IV 	c #BF8472",
"JV 	c #C48875",
"KV 	c #CA8D7B",
"LV 	c #CB8F7C",
"MV 	c #D09280",
"NV 	c #CD8E80",
"OV 	c #D49589",
"PV 	c #D19287",
"QV 	c #D29489",
"RV 	c #D2958B",
"SV 	c #D69B92",
"TV 	c #DAA098",
"UV 	c #D59D96",
"VV 	c #D39C97",
"WV 	c #D7A29D",
"XV 	c #D39F9B",
"YV 	c #DFABA7",
"ZV 	c #D7A5A0",
"`V 	c #C5948E",
" W 	c #CB9793",
".W 	c #D39C99",
"+W 	c #D19896",
"@W 	c #CA8F8E",
"#W 	c #CA8E8D",
"$W 	c #C58988",
"%W 	c #CE9391",
"&W 	c #C78C8B",
"*W 	c #C38A88",
"=W 	c #C18A87",
"-W 	c #B98380",
";W 	c #BE8986",
">W 	c #C08C88",
",W 	c #B7827E",
"'W 	c #B5807C",
")W 	c #BE8A86",
"!W 	c #B88480",
"~W 	c #BC8884",
"{W 	c #C89490",
"]W 	c #C6918D",
"^W 	c #B27E7A",
"/W 	c #B28079",
"(W 	c #AF7F75",
"_W 	c #A9796C",
":W 	c #A37365",
"<W 	c #A67768",
"[W 	c #9B6C5B",
"}W 	c #946553",
"|W 	c #895A47",
"1W 	c #825442",
"2W 	c #7A4B3A",
"3W 	c #784839",
"4W 	c #744537",
"5W 	c #6E3D30",
"6W 	c #6B392C",
"7W 	c #693729",
"8W 	c #663426",
"9W 	c #673627",
"0W 	c #693829",
"aW 	c #6C3A2C",
"bW 	c #703F31",
"cW 	c #724034",
"dW 	c #744238",
"eW 	c #76443C",
"fW 	c #77453E",
"gW 	c #78453E",
"hW 	c #7A443D",
"iW 	c #804A41",
"jW 	c #8A5449",
"kW 	c #8D564A",
"lW 	c #8C5548",
"mW 	c #8B5546",
"nW 	c #895344",
"oW 	c #875143",
"pW 	c #854F42",
"qW 	c #824C41",
"rW 	c #80483F",
"sW 	c #7E483D",
"tW 	c #7C4738",
"uW 	c #834E3F",
"vW 	c #824C3E",
"wW 	c #885044",
"xW 	c #894F45",
"yW 	c #884F46",
"zW 	c #8B534B",
"AW 	c #935C55",
"BW 	c #95615A",
"CW 	c #97655E",
"DW 	c #9C6D65",
"EW 	c #A37570",
"FW 	c #AE827F",
"GW 	c #B48B87",
"HW 	c #BF9A96",
"IW 	c #C7A7A4",
"JW 	c #CAAFAF",
"KW 	c #C9B3B7",
"LW 	c #B77D65",
"MW 	c #BD8269",
"NW 	c #BC8067",
"OW 	c #BB7F66",
"PW 	c #B87D64",
"QW 	c #BE846B",
"RW 	c #B77D66",
"SW 	c #B57B63",
"TW 	c #B57D64",
"UW 	c #AF775F",
"VW 	c #B57D66",
"WW 	c #B37C63",
"XW 	c #AD775E",
"YW 	c #A8745B",
"ZW 	c #A9755C",
"`W 	c #A57159",
" X 	c #A8745C",
".X 	c #A7735B",
"+X 	c #9C6751",
"@X 	c #97634C",
"#X 	c #935F49",
"$X 	c #95614B",
"%X 	c #A06C57",
"&X 	c #AA7561",
"*X 	c #B98470",
"=X 	c #C28C78",
"-X 	c #C48D7A",
";X 	c #C68E7C",
">X 	c #C48B7A",
",X 	c #D09686",
"'X 	c #CD9383",
")X 	c #CF9384",
"!X 	c #CC8F82",
"~X 	c #C6897C",
"{X 	c #CE9187",
"]X 	c #C38880",
"^X 	c #BD847D",
"/X 	c #C99089",
"(X 	c #CE9591",
"_X 	c #C7908D",
":X 	c #C28D8A",
"<X 	c #BF8B8A",
"[X 	c #C99596",
"}X 	c #C69395",
"|X 	c #C59394",
"1X 	c #CE9B9C",
"2X 	c #CD9999",
"3X 	c #C99694",
"4X 	c #CC9796",
"5X 	c #CF9998",
"6X 	c #C89191",
"7X 	c #CF9796",
"8X 	c #D59D9C",
"9X 	c #C68E8C",
"0X 	c #D09A98",
"aX 	c #CA9591",
"bX 	c #C7928E",
"cX 	c #CD9895",
"dX 	c #C18D8A",
"eX 	c #B98582",
"fX 	c #C08C89",
"gX 	c #BF8B88",
"hX 	c #C6928F",
"iX 	c #CA9592",
"jX 	c #CC9794",
"kX 	c #C38E8B",
"lX 	c #C99491",
"mX 	c #C5928D",
"nX 	c #BA8881",
"oX 	c #B28078",
"pX 	c #AE7C71",
"qX 	c #B28073",
"rX 	c #AA796B",
"sX 	c #AB7A6A",
"tX 	c #AD7C6C",
"uX 	c #A87868",
"vX 	c #9E7061",
"wX 	c #986B5D",
"xX 	c #926659",
"yX 	c #8C6357",
"zX 	c #866056",
"AX 	c #7E594E",
"BX 	c #785348",
"CX 	c #734E43",
"DX 	c #6E493D",
"EX 	c #6E493B",
"FX 	c #704B3E",
"GX 	c #744E42",
"HX 	c #7A5449",
"IX 	c #7B5349",
"JX 	c #785048",
"KX 	c #785047",
"LX 	c #784F45",
"MX 	c #7B5348",
"NX 	c #80584E",
"OX 	c #805950",
"PX 	c #7D5953",
"QX 	c #7F5E5C",
"RX 	c #846566",
"SX 	c #826365",
"TX 	c #866565",
"UX 	c #8C6866",
"VX 	c #875C58",
"WX 	c #845650",
"XX 	c #895A54",
"YX 	c #8E5C57",
"ZX 	c #8C5852",
"`X 	c #956058",
" Y 	c #986159",
".Y 	c #9E675D",
"+Y 	c #AB7368",
"@Y 	c #B47D71",
"#Y 	c #BB8477",
"$Y 	c #BE8A7C",
"%Y 	c #C08D80",
"&Y 	c #C29189",
"*Y 	c #CA9E9C",
"=Y 	c #D0A8A5",
"-Y 	c #CAA7A2",
";Y 	c #C1A39E",
">Y 	c #BFA7A3",
",Y 	c #C2AEAD",
"'Y 	c #C08870",
")Y 	c #BD836A",
"!Y 	c #B97F66",
"~Y 	c #BB8269",
"{Y 	c #B87F68",
"]Y 	c #B07760",
"^Y 	c #B77F68",
"/Y 	c #B47D66",
"(Y 	c #AD7760",
"_Y 	c #AA745D",
":Y 	c #A26D55",
"<Y 	c #A47157",
"[Y 	c #A37057",
"}Y 	c #A36F57",
"|Y 	c #9F6C54",
"1Y 	c #9D6951",
"2Y 	c #98654E",
"3Y 	c #925F49",
"4Y 	c #9A6751",
"5Y 	c #A26E59",
"6Y 	c #AE7A65",
"7Y 	c #BC8975",
"8Y 	c #BD8A77",
"9Y 	c #B98673",
"0Y 	c #BC8976",
"aY 	c #B68372",
"bY 	c #C08C7C",
"cY 	c #C59082",
"dY 	c #C28D80",
"eY 	c #C89186",
"fY 	c #BB847A",
"gY 	c #BA8279",
"hY 	c #BB837B",
"iY 	c #C7908A",
"jY 	c #CE9793",
"kY 	c #D39C98",
"lY 	c #CC9592",
"mY 	c #C28C89",
"nY 	c #C89290",
"oY 	c #D29D9C",
"pY 	c #D5A0A0",
"qY 	c #D29E9F",
"rY 	c #D4A1A2",
"sY 	c #C39093",
"tY 	c #C69295",
"uY 	c #C59293",
"vY 	c #CD9B9A",
"wY 	c #C3908F",
"xY 	c #CA9897",
"yY 	c #C99796",
"zY 	c #CA9795",
"AY 	c #CE9C99",
"BY 	c #D09D9A",
"CY 	c #C3918D",
"DY 	c #CA9793",
"EY 	c #CC9996",
"FY 	c #CE9B98",
"GY 	c #C69390",
"HY 	c #C28F8C",
"IY 	c #B5827F",
"JY 	c #BA8784",
"KY 	c #BC8A87",
"LY 	c #BD8A87",
"MY 	c #C5928F",
"NY 	c #C69491",
"OY 	c #D09E9A",
"PY 	c #C79691",
"QY 	c #CA9893",
"RY 	c #C18F89",
"SY 	c #BD8B85",
"TY 	c #B88780",
"UY 	c #B5867F",
"VY 	c #B38985",
"WY 	c #B48D8A",
"XY 	c #AE8A88",
"YY 	c #AC8B8B",
"ZY 	c #AB9392",
"`Y 	c #A59594",
" Z 	c #A19290",
".Z 	c #A19190",
"+Z 	c #A19291",
"@Z 	c #978786",
"#Z 	c #897A78",
"$Z 	c #847473",
"%Z 	c #857573",
"&Z 	c #837371",
"*Z 	c #7C6C69",
"=Z 	c #7C6C6A",
"-Z 	c #7C6D6E",
";Z 	c #76676B",
">Z 	c #78686E",
",Z 	c #7C6D73",
"'Z 	c #857881",
")Z 	c #8D838E",
"!Z 	c #938B9B",
"~Z 	c #9F98AB",
"{Z 	c #ACA2B6",
"]Z 	c #B1A1B1",
"^Z 	c #B79FA9",
"/Z 	c #88696E",
"(Z 	c #5C3232",
"_Z 	c #64332D",
":Z 	c #69342D",
"<Z 	c #6E382E",
"[Z 	c #7C4438",
"}Z 	c #804638",
"|Z 	c #894E3D",
"1Z 	c #965A48",
"2Z 	c #A66A57",
"3Z 	c #B07562",
"4Z 	c #B97E6C",
"5Z 	c #BE8473",
"6Z 	c #BD8576",
"7Z 	c #BE8A80",
"8Z 	c #BF918A",
"9Z 	c #C09B98",
"0Z 	c #C1A4A5",
"aZ 	c #BFAAAE",
"bZ 	c #BEADAF",
"cZ 	c #C89078",
"dZ 	c #C88F77",
"eZ 	c #C38A73",
"fZ 	c #C48B74",
"gZ 	c #BD856E",
"hZ 	c #BE866F",
"iZ 	c #BC856E",
"jZ 	c #B17B65",
"kZ 	c #B47F69",
"lZ 	c #B47F6A",
"mZ 	c #B27E69",
"nZ 	c #AF7B66",
"oZ 	c #9B6753",
"pZ 	c #9F6B57",
"qZ 	c #A36F5A",
"rZ 	c #A5715D",
"sZ 	c #A36E5B",
"tZ 	c #9D6856",
"uZ 	c #986351",
"vZ 	c #976250",
"wZ 	c #9F6B5A",
"xZ 	c #AD7868",
"yZ 	c #B17C6C",
"zZ 	c #B58070",
"AZ 	c #BD8979",
"BZ 	c #BC887A",
"CZ 	c #B58275",
"DZ 	c #BF8B7E",
"EZ 	c #BE8A7E",
"FZ 	c #BE8B80",
"GZ 	c #C8958C",
"HZ 	c #BB8981",
"IZ 	c #BF8C85",
"JZ 	c #B2807A",
"KZ 	c #B5837E",
"LZ 	c #B88681",
"MZ 	c #C99592",
"NZ 	c #B88482",
"OZ 	c #B88382",
"PZ 	c #CC9896",
"QZ 	c #C89492",
"RZ 	c #C18F8C",
"SZ 	c #BC8B88",
"TZ 	c #B88784",
"UZ 	c #B98885",
"VZ 	c #BE8D8B",
"WZ 	c #C59592",
"XZ 	c #CA9A99",
"YZ 	c #BF8E8E",
"ZZ 	c #CA9997",
"`Z 	c #D1A09E",
" ` 	c #CC9A99",
".` 	c #C08F8E",
"+` 	c #C08F8C",
"@` 	c #C3938F",
"#` 	c #D7A6A2",
"$` 	c #C99994",
"%` 	c #C1918B",
"&` 	c #CA9994",
"*` 	c #CB9996",
"=` 	c #BE8C89",
"-` 	c #B07D7A",
";` 	c #BF8D8A",
">` 	c #C08E8B",
",` 	c #A3716E",
"'` 	c #AE7B78",
")` 	c #BE8B88",
"!` 	c #CC9A97",
"~` 	c #C3908E",
"{` 	c #CA9796",
"]` 	c #CB9997",
"^` 	c #BB8A88",
"/` 	c #AE7F7C",
"(` 	c #BC908D",
"_` 	c #B9908E",
":` 	c #AF8A8A",
"<` 	c #B89798",
"[` 	c #B89C9F",
"}` 	c #B8A1A5",
"|` 	c #BCA8AD",
"1` 	c #BEACB3",
"2` 	c #AFA1A9",
"3` 	c #A99BA3",
"4` 	c #B2A3AA",
"5` 	c #B6A7AE",
"6` 	c #B9A9AF",
"7` 	c #B6A5AA",
"8` 	c #B2A0A4",
"9` 	c #A79397",
"0` 	c #978386",
"a` 	c #8A7679",
"b` 	c #897476",
"c` 	c #8A797C",
"d` 	c #8B7F82",
"e` 	c #8E8486",
"f` 	c #90898A",
"g` 	c #928F92",
"h` 	c #90949A",
"i` 	c #919AA5",
"j` 	c #929DAA",
"k` 	c #9EA5B2",
"l` 	c #A9A8B2",
"m` 	c #B0A4AA",
"n` 	c #8D797B",
"o` 	c #573632",
"p` 	c #603125",
"q` 	c #693528",
"r` 	c #6E392A",
"s` 	c #743C2B",
"t` 	c #79412E",
"u` 	c #864D39",
"v` 	c #905843",
"w` 	c #9B644F",
"x` 	c #A36D58",
"y` 	c #AA7661",
"z` 	c #B27E6B",
"A` 	c #B38371",
"B` 	c #B48879",
"C` 	c #B58D85",
"D` 	c #B79492",
"E` 	c #BA9C9C",
"F` 	c #C0A5A1",
"G` 	c #C5AD9B",
"H` 	c #CC977C",
"I` 	c #CB957D",
"J` 	c #C38D75",
"K` 	c #C9937A",
"L` 	c #C68F76",
"M` 	c #BF8870",
"N` 	c #C38C74",
"O` 	c #B9836B",
"P` 	c #BA856F",
"Q` 	c #B98570",
"R` 	c #B37F6B",
"S` 	c #9E6D5B",
"T` 	c #9F6C5B",
"U` 	c #A26E5E",
"V` 	c #9F6B5B",
"W` 	c #996656",
"X` 	c #976353",
"Y` 	c #9F6B5C",
"Z` 	c #A57263",
"`` 	c #B17D70",
"  .	c #B27E71",
". .	c #B27E72",
"+ .	c #AD796C",
"@ .	c #AB766B",
"# .	c #B68077",
"$ .	c #B07B73",
"% .	c #B78179",
"& .	c #BC877F",
"* .	c #BA867F",
"= .	c #B5827A",
"- .	c #B98781",
"; .	c #C1908A",
"> .	c #BA8984",
", .	c #BD8C87",
"' .	c #BB8B85",
") .	c #B1817C",
"! .	c #BF8D8B",
"~ .	c #C38E8F",
"{ .	c #CE999A",
"] .	c #B78485",
"^ .	c #BC8A8A",
"/ .	c #BC8B8A",
"( .	c #B98A88",
"_ .	c #C49695",
": .	c #B78A88",
"< .	c #BC8F8D",
"[ .	c #B88B89",
"} .	c #C49594",
"| .	c #C69594",
"1 .	c #C79794",
"2 .	c #C1918F",
"3 .	c #CE9D9B",
"4 .	c #CF9E9B",
"5 .	c #C99895",
"6 .	c #C89794",
"7 .	c #D2A29F",
"8 .	c #C69692",
"9 .	c #CA9A96",
"0 .	c #D1A09D",
"a .	c #CD9A98",
"b .	c #C3918F",
"c .	c #BC8987",
"d .	c #C2908D",
"e .	c #BD8A88",
"f .	c #C18E8C",
"g .	c #B27F7D",
"h .	c #C39292",
"i .	c #C69798",
"j .	c #B7898A",
"k .	c #AA7C7C",
"l .	c #A47978",
"m .	c #AA8380",
"n .	c #B5918E",
"o .	c #BD9F9C",
"p .	c #C5ACAA",
"q .	c #C5B2B1",
"r .	c #C8B9B8",
"s .	c #BAAEAE",
"t .	c #AA9FA2",
"u .	c #B0A6AB",
"v .	c #ACA1A6",
"w .	c #AFA3A7",
"x .	c #BBAEB2",
"y .	c #B4A5A7",
"z .	c #B6A7A7",
"A .	c #B8A7A6",
"B .	c #A99694",
"C .	c #9F8C88",
"D .	c #A28D88",
"E .	c #A08B85",
"F .	c #9B8583",
"G .	c #988385",
"H .	c #9D898B",
"I .	c #A39396",
"J .	c #9B9297",
"K .	c #8E8D95",
"L .	c #949BA7",
"M .	c #9FAABA",
"N .	c #9FA7B8",
"O .	c #A1A4B1",
"P .	c #AEA7B0",
"Q .	c #9A8A8F",
"R .	c #664B48",
"S .	c #5C3022",
"T .	c #673525",
"U .	c #683624",
"V .	c #703C29",
"W .	c #77432F",
"X .	c #7F4A36",
"Y .	c #8B5743",
"Z .	c #966350",
"` .	c #9D6B59",
" ..	c #A57565",
"...	c #AD7F70",
"+..	c #AB8676",
"@..	c #A88F7F",
"#..	c #AF968A",
"$..	c #BB9C93",
"%..	c #C19C8E",
"&..	c #C39A7A",
"*..	c #C49A61",
"=..	c #CE9A7E",
"-..	c #CC9880",
";..	c #CC9780",
">..	c #C99179",
",..	c #C18970",
"'..	c #BA8069",
")..	c #BA816B",
"!..	c #B67F69",
"~..	c #A6715D",
"{..	c #A67260",
"]..	c #A57262",
"^..	c #9F6F60",
"/..	c #9B6A5B",
"(..	c #996859",
"_..	c #9A695B",
":..	c #AC7B6D",
"<..	c #AF7F71",
"[..	c #B68678",
"}..	c #B48477",
"|..	c #AC7A6F",
"1..	c #B48378",
"2..	c #C08F84",
"3..	c #B5847A",
"4..	c #C99590",
"5..	c #D09B98",
"6..	c #CA9492",
"7..	c #B5817E",
"8..	c #B17D7A",
"9..	c #C4918E",
"0..	c #B58380",
"a..	c #BB8885",
"b..	c #C18F8B",
"c..	c #AE7C79",
"d..	c #BD8C88",
"e..	c #BC8786",
"f..	c #C99493",
"g..	c #B88483",
"h..	c #B68382",
"i..	c #B58482",
"j..	c #B98987",
"k..	c #BB8C89",
"l..	c #CA9B99",
"m..	c #C39593",
"n..	c #D0A29F",
"o..	c #C0908B",
"p..	c #CC9994",
"q..	c #C18E89",
"r..	c #BF8C86",
"s..	c #C18D88",
"t..	c #CB9893",
"u..	c #C6928D",
"v..	c #C89590",
"w..	c #C28F8A",
"x..	c #BD8A85",
"y..	c #C08D88",
"z..	c #B78680",
"A..	c #C2908B",
"B..	c #BD8C86",
"C..	c #BA8983",
"D..	c #B78580",
"E..	c #BE8C87",
"F..	c #BB8A84",
"G..	c #BE8D87",
"H..	c #C08F89",
"I..	c #C6948F",
"J..	c #CC9993",
"K..	c #CC9892",
"L..	c #C4908A",
"M..	c #BA8782",
"N..	c #AD7D78",
"O..	c #AF837E",
"P..	c #B48D89",
"Q..	c #B18F8D",
"R..	c #B29695",
"S..	c #C1ABAC",
"T..	c #C3B0B3",
"U..	c #BCADB2",
"V..	c #C1B5BB",
"W..	c #C3B8BD",
"X..	c #C0B4B8",
"Y..	c #B7A9AC",
"Z..	c #BBABAD",
"`..	c #C1AFB0",
" +.	c #BDA8A9",
".+.	c #BCA5A5",
"++.	c #B99F9E",
"@+.	c #AF9392",
"#+.	c #AF908E",
"$+.	c #A98D8E",
"%+.	c #A79093",
"&+.	c #A99597",
"*+.	c #AB999C",
"=+.	c #AA9DA3",
"-+.	c #A39FA8",
";+.	c #A4A7B4",
">+.	c #A4ACBC",
",+.	c #A5AEBC",
"'+.	c #A3A8B3",
")+.	c #A3A2A7",
"!+.	c #9A9293",
"~+.	c #644F4C",
"{+.	c #572F26",
"]+.	c #623629",
"^+.	c #673B2B",
"/+.	c #6C402B",
"(+.	c #73472F",
"_+.	c #7A4E35",
":+.	c #835841",
"<+.	c #9A7266",
"[+.	c #A37D76",
"}+.	c #A98482",
"|+.	c #AA8982",
"1+.	c #AB907B",
"2+.	c #B69A77",
"3+.	c #BD9D69",
"4+.	c #BE9952",
"5+.	c #BC9338",
"6+.	c #BB8F22",
"7+.	c #CD977F",
"8+.	c #CC9882",
"9+.	c #C7927D",
"0+.	c #CA937E",
"a+.	c #CC947E",
"b+.	c #C78F79",
"c+.	c #BC836D",
"d+.	c #B67D69",
"e+.	c #B77F6C",
"f+.	c #A56E5D",
"g+.	c #A67263",
"h+.	c #A16E60",
"i+.	c #A27163",
"j+.	c #A77768",
"k+.	c #A27464",
"l+.	c #A17262",
"m+.	c #A57767",
"n+.	c #BA8C7C",
"o+.	c #BB8C7D",
"p+.	c #B18273",
"q+.	c #B98A7C",
"r+.	c #C49589",
"s+.	c #B98A7E",
"t+.	c #BF8F83",
"u+.	c #B6877C",
"v+.	c #B7877F",
"w+.	c #BF8F89",
"x+.	c #C89691",
"y+.	c #BC8B85",
"z+.	c #C79590",
"A+.	c #CA9792",
"B+.	c #B98580",
"C+.	c #B9847F",
"D+.	c #B5807B",
"E+.	c #BC8A84",
"F+.	c #BF8D87",
"G+.	c #BE8C85",
"H+.	c #BD8C85",
"I+.	c #B2817A",
"J+.	c #A97771",
"K+.	c #9F6C66",
"L+.	c #A6746D",
"M+.	c #A5736C",
"N+.	c #AA756C",
"O+.	c #B37C71",
"P+.	c #B37D71",
"Q+.	c #B17B70",
"R+.	c #B07A6F",
"S+.	c #B98378",
"T+.	c #B78176",
"U+.	c #B57E73",
"V+.	c #AB7469",
"W+.	c #AF796E",
"X+.	c #BC867B",
"Y+.	c #BD877B",
"Z+.	c #B37D72",
"`+.	c #BB857A",
" @.	c #C08B7F",
".@.	c #BE887C",
"+@.	c #B68074",
"@@.	c #B78175",
"#@.	c #BA8478",
"$@.	c #BD877C",
"%@.	c #C0897E",
"&@.	c #BE867B",
"*@.	c #C58A80",
"=@.	c #C78C82",
"-@.	c #BE847A",
";@.	c #B37A70",
">@.	c #AF786F",
",@.	c #AC7971",
"'@.	c #AA7C76",
")@.	c #B88F8C",
"!@.	c #BD9897",
"~@.	c #C5A4A5",
"{@.	c #C8AAAD",
"]@.	c #CBB1B3",
"^@.	c #C6AFB1",
"/@.	c #BDA6A8",
"(@.	c #BDA5A7",
"_@.	c #BEA5A7",
":@.	c #B99EA0",
"<@.	c #BDA0A2",
"[@.	c #C0A2A3",
"}@.	c #BB9B9C",
"|@.	c #BB9A9B",
"1@.	c #C2A0A1",
"2@.	c #C4A2A3",
"3@.	c #BEA1A3",
"4@.	c #BBA3A6",
"5@.	c #BBA6A9",
"6@.	c #B9A5A8",
"7@.	c #B2A1A8",
"8@.	c #ADA4AF",
"9@.	c #AFAEBC",
"0@.	c #A7ABBD",
"a@.	c #A6ADBD",
"b@.	c #A7AEB9",
"c@.	c #ABAFB4",
"d@.	c #A9A8A6",
"e@.	c #81766F",
"f@.	c #513427",
"g@.	c #5A362A",
"h@.	c #603A2F",
"i@.	c #6C443B",
"j@.	c #7A5248",
"k@.	c #82594C",
"l@.	c #875F4F",
"m@.	c #936C58",
"n@.	c #9E795F",
"o@.	c #A58364",
"p@.	c #AC8C6A",
"q@.	c #B59464",
"r@.	c #BA9651",
"s@.	c #B9933C",
"t@.	c #B89228",
"u@.	c #BC931B",
"v@.	c #C09515",
"w@.	c #C29315",
"x@.	c #C38B75",
"y@.	c #D09882",
"z@.	c #C38C76",
"A@.	c #C48E78",
"B@.	c #C28A75",
"C@.	c #BA826E",
"D@.	c #B7806C",
"E@.	c #AC7663",
"F@.	c #AA7462",
"G@.	c #9C6858",
"H@.	c #9B695A",
"I@.	c #A16F61",
"J@.	c #99695B",
"K@.	c #9E7060",
"L@.	c #986C5B",
"M@.	c #A47968",
"N@.	c #AF8373",
"O@.	c #A87C6C",
"P@.	c #B28475",
"Q@.	c #B18274",
"R@.	c #AF8073",
"S@.	c #B48578",
"T@.	c #AA7C70",
"U@.	c #AF8074",
"V@.	c #B18275",
"W@.	c #A7786C",
"X@.	c #A97A6E",
"Y@.	c #AF7F73",
"Z@.	c #C09084",
"`@.	c #B7857A",
" #.	c #B58378",
".#.	c #B27F73",
"+#.	c #AD796E",
"@#.	c #A87369",
"##.	c #A77368",
"$#.	c #A26E62",
"%#.	c #966357",
"&#.	c #9D6C60",
"*#.	c #A27165",
"=#.	c #A57468",
"-#.	c #A9796D",
";#.	c #A37368",
">#.	c #A7756B",
",#.	c #A16E66",
"'#.	c #A16C64",
")#.	c #AB756D",
"!#.	c #AE7770",
"~#.	c #B17A6F",
"{#.	c #B98173",
"]#.	c #BC8476",
"^#.	c #BA8073",
"/#.	c #BA7F72",
"(#.	c #B2766A",
"_#.	c #B17569",
":#.	c #B07468",
"<#.	c #BE8377",
"[#.	c #B67C6F",
"}#.	c #B47C6E",
"|#.	c #B27A6C",
"1#.	c #B88174",
"2#.	c #B78073",
"3#.	c #B57C70",
"4#.	c #B67C70",
"5#.	c #B87D72",
"6#.	c #BD7F75",
"7#.	c #B97B71",
"8#.	c #B87A70",
"9#.	c #C18379",
"0#.	c #BC7F74",
"a#.	c #B77B70",
"b#.	c #BA7F74",
"c#.	c #BD8278",
"d#.	c #C2887F",
"e#.	c #C68B82",
"f#.	c #C78B82",
"g#.	c #C0837A",
"h#.	c #BC7D75",
"i#.	c #BB7E76",
"j#.	c #C38781",
"k#.	c #C78E87",
"l#.	c #D09893",
"m#.	c #D39D98",
"n#.	c #D19F9D",
"o#.	c #CC9F9E",
"p#.	c #C89C9C",
"q#.	c #C79E9E",
"r#.	c #C8A1A1",
"s#.	c #CDA9A9",
"t#.	c #CDACAB",
"u#.	c #C3A3A3",
"v#.	c #BA9B9B",
"w#.	c #BC9D9E",
"x#.	c #C2A2A4",
"y#.	c #C3A4A6",
"z#.	c #BEA1A5",
"A#.	c #B9A1A5",
"B#.	c #C0AAAC",
"C#.	c #C1ADB0",
"D#.	c #B8A9AD",
"E#.	c #B5ADB5",
"F#.	c #B1B1BD",
"G#.	c #A9B0BE",
"H#.	c #A9B2C0",
"I#.	c #ACB4BF",
"J#.	c #A7A4A4",
"K#.	c #8C7F7B",
"L#.	c #5B3F36",
"M#.	c #5C3C36",
"N#.	c #674846",
"O#.	c #725254",
"P#.	c #7D5B5F",
"Q#.	c #8B6767",
"R#.	c #997468",
"S#.	c #AA8265",
"T#.	c #B68C5A",
"U#.	c #BB9048",
"V#.	c #BD9037",
"W#.	c #BE9127",
"X#.	c #C09318",
"Y#.	c #C09215",
"Z#.	c #C09117",
"`#.	c #C08F19",
" $.	c #C18F78",
".$.	c #C28F78",
"+$.	c #C3917B",
"@$.	c #B4836C",
"#$.	c #AF7F69",
"$$.	c #A5765F",
"%$.	c #A97B66",
"&$.	c #A47763",
"*$.	c #8B604D",
"=$.	c #8D6250",
"-$.	c #A17866",
";$.	c #956B58",
">$.	c #A47966",
",$.	c #A97D6A",
"'$.	c #AD816E",
")$.	c #A67966",
"!$.	c #A87B69",
"~$.	c #A57868",
"{$.	c #A47566",
"]$.	c #AD7D6F",
"^$.	c #A87869",
"/$.	c #A47365",
"($.	c #9B6C5E",
"_$.	c #AC7D6E",
":$.	c #966658",
"<$.	c #9A6A5C",
"[$.	c #9A695A",
"}$.	c #936052",
"|$.	c #935F52",
"1$.	c #875345",
"2$.	c #8F5C4E",
"3$.	c #9A6458",
"4$.	c #945E53",
"5$.	c #966156",
"6$.	c #976256",
"7$.	c #9E6B5E",
"8$.	c #A97668",
"9$.	c #AA7768",
"0$.	c #A47062",
"a$.	c #B07A6C",
"b$.	c #B57D6F",
"c$.	c #B3786A",
"d$.	c #C28679",
"e$.	c #D29486",
"f$.	c #CB8B7D",
"g$.	c #D49385",
"h$.	c #D59285",
"i$.	c #D08D80",
"j$.	c #CD897C",
"k$.	c #CA887B",
"l$.	c #CB897B",
"m$.	c #CB897C",
"n$.	c #C68577",
"o$.	c #C18274",
"p$.	c #BF8272",
"q$.	c #BB8070",
"r$.	c #B37868",
"s$.	c #B87C6C",
"t$.	c #BD7F70",
"u$.	c #C48476",
"v$.	c #C58677",
"w$.	c #BF8071",
"x$.	c #BD7E6F",
"y$.	c #B97A6C",
"z$.	c #B57768",
"A$.	c #B17465",
"B$.	c #AE7464",
"C$.	c #B47C6B",
"D$.	c #B9806F",
"E$.	c #BE8273",
"F$.	c #C38476",
"G$.	c #C48275",
"H$.	c #BE796D",
"I$.	c #B46C61",
"J$.	c #B56C61",
"K$.	c #B86E63",
"L$.	c #B26B61",
"M$.	c #B56F66",
"N$.	c #B47167",
"O$.	c #B97A70",
"P$.	c #BF847B",
"Q$.	c #C59087",
"R$.	c #CF9E97",
"S$.	c #CFA39D",
"T$.	c #CFA7A2",
"U$.	c #CDA9A5",
"V$.	c #CAA9A7",
"W$.	c #C9AAAB",
"X$.	c #CAADB0",
"Y$.	c #CBB0B6",
"Z$.	c #CDB3B8",
"`$.	c #D1B9BD",
" %.	c #CFBCC0",
".%.	c #CBBFC6",
"+%.	c #C6C3CC",
"@%.	c #B9BDC9",
"#%.	c #AAB2BD",
"$%.	c #A9AFB8",
"%%.	c #ABADB1",
"&%.	c #ABA8A7",
"*%.	c #8D807C",
"=%.	c #634742",
"-%.	c #6A4B46",
";%.	c #765751",
">%.	c #86675D",
",%.	c #9B7C69",
"'%.	c #AF8E6E",
")%.	c #BA9665",
"!%.	c #BF9854",
"~%.	c #C2963D",
"{%.	c #C5952A",
"]%.	c #C7941D",
"^%.	c #C79316",
"/%.	c #C69415",
"(%.	c #C29013",
"_%.	c #C28F14",
":%.	c #C39017",
"<%.	c #C38F17",
"[%.	c #C18E17",
"}%.	c #C2937F",
"|%.	c #C3927E",
"1%.	c #C08F7B",
"2%.	c #C79782",
"3%.	c #C3937F",
"4%.	c #BE8F7A",
"5%.	c #BA8C77",
"6%.	c #B68974",
"7%.	c #A17660",
"8%.	c #976D56",
"9%.	c #8B614B",
"0%.	c #916952",
"a%.	c #9D745E",
"b%.	c #AB7D68",
"c%.	c #A87A66",
"d%.	c #AA7B67",
"e%.	c #8E5F4C",
"f%.	c #8A5A48",
"g%.	c #9A6858",
"h%.	c #A67463",
"i%.	c #9F6C5D",
"j%.	c #A16D5F",
"k%.	c #A0705E",
"l%.	c #9F715E",
"m%.	c #A0715E",
"n%.	c #A2735F",
"o%.	c #9B6B57",
"p%.	c #9A6A57",
"q%.	c #9A6A56",
"r%.	c #A57561",
"s%.	c #AC7966",
"t%.	c #B17E6B",
"u%.	c #BB8272",
"v%.	c #BC8071",
"w%.	c #C48779",
"x%.	c #C4897A",
"y%.	c #C08677",
"z%.	c #BE8574",
"A%.	c #CA9080",
"B%.	c #CF9584",
"C%.	c #D29685",
"D%.	c #D39484",
"E%.	c #CF8E7F",
"F%.	c #C68475",
"G%.	c #BF7E71",
"H%.	c #BA7B6F",
"I%.	c #B4766A",
"J%.	c #B07368",
"K%.	c #AE7467",
"L%.	c #AA7063",
"M%.	c #A76D60",
"N%.	c #A3695C",
"O%.	c #9E6356",
"P%.	c #995D51",
"Q%.	c #94564B",
"R%.	c #985A4E",
"S%.	c #915248",
"T%.	c #8E4F48",
"U%.	c #884A42",
"V%.	c #82463E",
"W%.	c #854941",
"X%.	c #8A5046",
"Y%.	c #834940",
"Z%.	c #81483E",
"`%.	c #81463D",
" &.	c #7E4239",
".&.	c #7E433A",
"+&.	c #7F443A",
"@&.	c #793E33",
"#&.	c #7A3E33",
"$&.	c #7B3E34",
"%&.	c #7D3F34",
"&&.	c #7D3F35",
"*&.	c #763A2F",
"=&.	c #7A3F33",
"-&.	c #81473B",
";&.	c #80473B",
">&.	c #7C4639",
",&.	c #7F4A3D",
"'&.	c #80483C",
")&.	c #7D4037",
"!&.	c #7F4037",
"~&.	c #86453B",
"{&.	c #935147",
"]&.	c #925147",
"^&.	c #9A5B52",
"/&.	c #975C55",
"(&.	c #94605C",
"_&.	c #9F7271",
":&.	c #B28A8C",
"<&.	c #B89498",
"[&.	c #B38F96",
"}&.	c #B38D97",
"|&.	c #B38C96",
"1&.	c #B18B94",
"2&.	c #AF8D95",
"3&.	c #AF949E",
"4&.	c #B7A5B1",
"5&.	c #BEB3C0",
"6&.	c #B9B4BF",
"7&.	c #B3B0B7",
"8&.	c #A9A4A5",
"9&.	c #958C87",
"0&.	c #72645B",
"a&.	c #6E554B",
"b&.	c #816459",
"c&.	c #957564",
"d&.	c #A78365",
"e&.	c #B6905D",
"f&.	c #C1984D",
"g&.	c #C49A36",
"h&.	c #C59720",
"i&.	c #C99819",
"j&.	c #C99616",
"k&.	c #C89218",
"l&.	c #CA921B",
"m&.	c #C8921B",
"n&.	c #C79119",
"o&.	c #C79118",
"p&.	c #C69117",
"q&.	c #C69015",
"r&.	c #C69014",
"s&.	c #C6947F",
"t&.	c #C08C79",
"u&.	c #C5907C",
"v&.	c #CA9682",
"w&.	c #C3907C",
"x&.	c #BA8974",
"y&.	c #C3947E",
"z&.	c #C3957F",
"A&.	c #B38770",
"B&.	c #997259",
"C&.	c #9A735B",
"D&.	c #936D55",
"E&.	c #946A53",
"F&.	c #9A6D58",
"G&.	c #9B6D59",
"H&.	c #A0725E",
"I&.	c #9C6D5A",
"J&.	c #AF7C6A",
"K&.	c #B78271",
"L&.	c #AF7969",
"M&.	c #A97262",
"N&.	c #AA7263",
"O&.	c #AF7666",
"P&.	c #B7816C",
"Q&.	c #BE8B73",
"R&.	c #BD8971",
"S&.	c #C49078",
"T&.	c #BF8C76",
"U&.	c #C6937E",
"V&.	c #BE8B77",
"W&.	c #BD8977",
"X&.	c #C08D7C",
"Y&.	c #B88574",
"Z&.	c #B68373",
"`&.	c #B17C6D",
" *.	c #A46E60",
".*.	c #A36D5F",
"+*.	c #9A6557",
"@*.	c #966255",
"#*.	c #905C4F",
"$*.	c #8B574B",
"%*.	c #8A564C",
"&*.	c #855047",
"**.	c #834C45",
"=*.	c #814943",
"-*.	c #7B433E",
";*.	c #753F3A",
">*.	c #713D37",
",*.	c #73403B",
"'*.	c #794742",
")*.	c #764541",
"!*.	c #794845",
"~*.	c #70403D",
"{*.	c #72413E",
"]*.	c #794643",
"^*.	c #804F4C",
"/*.	c #83514F",
"(*.	c #875755",
"_*.	c #7A5352",
":*.	c #725452",
"<*.	c #634747",
"[*.	c #492E2D",
"}*.	c #3D2421",
"|*.	c #3D2622",
"1*.	c #402C27",
"2*.	c #483631",
"3*.	c #4F3C36",
"4*.	c #47322C",
"5*.	c #49332C",
"6*.	c #523C35",
"7*.	c #593F36",
"8*.	c #62433A",
"9*.	c #6A4A41",
"0*.	c #65463D",
"a*.	c #5B3B32",
"b*.	c #5A362E",
"c*.	c #583028",
"d*.	c #5B2E28",
"e*.	c #63302B",
"f*.	c #6A322F",
"g*.	c #6E3130",
"h*.	c #723232",
"i*.	c #703535",
"j*.	c #6D3837",
"k*.	c #6F3837",
"l*.	c #6B322F",
"m*.	c #6E332D",
"n*.	c #70332E",
"o*.	c #733732",
"p*.	c #7A413F",
"q*.	c #7C4646",
"r*.	c #87565A",
"s*.	c #8A5D65",
"t*.	c #845964",
"u*.	c #9B717C",
"v*.	c #976E78",
"w*.	c #865D66",
"x*.	c #835B64",
"y*.	c #86616A",
"z*.	c #83626C",
"A*.	c #846872",
"B*.	c #917A83",
"C*.	c #AD9A9F",
"D*.	c #B19E9C",
"E*.	c #8F7D77",
"F*.	c #77655F",
"G*.	c #837069",
"H*.	c #9C8271",
"I*.	c #B3916F",
"J*.	c #C1975F",
"K*.	c #C69748",
"L*.	c #C89631",
"M*.	c #C89620",
"N*.	c #CA9718",
"O*.	c #CB9717",
"P*.	c #CC9519",
"Q*.	c #CD941C",
"R*.	c #CD931D",
"S*.	c #CC941C",
"T*.	c #CC951B",
"U*.	c #CB9419",
"V*.	c #CA9318",
"W*.	c #CA9317",
"X*.	c #CB9418",
"Y*.	c #C28F7A",
"Z*.	c #C5917C",
"`*.	c #C18F7A",
" =.	c #C89782",
".=.	c #C59680",
"+=.	c #C2947D",
"@=.	c #B68972",
"#=.	c #9C735B",
"$=.	c #A87F67",
"%=.	c #AC846C",
"&=.	c #AC846A",
"*=.	c #AF866A",
"==.	c #B68A6F",
"-=.	c #B0836A",
";=.	c #B6886F",
">=.	c #AF8067",
",=.	c #C5937A",
"'=.	c #C7937C",
")=.	c #C69079",
"!=.	c #C8907A",
"~=.	c #C58B76",
"{=.	c #BE856F",
"]=.	c #B57E68",
"^=.	c #B17A64",
"/=.	c #A7705C",
"(=.	c #A06B57",
"_=.	c #9B6654",
":=.	c #9C6756",
"<=.	c #9D6A59",
"[=.	c #9B6857",
"}=.	c #9F6C5C",
"|=.	c #9E6D5D",
"1=.	c #9E6E5F",
"2=.	c #A17162",
"3=.	c #9E6C5F",
"4=.	c #9F6B5F",
"5=.	c #A16B62",
"6=.	c #AB736E",
"7=.	c #B17774",
"8=.	c #B47878",
"9=.	c #BA7E7F",
"0=.	c #C08285",
"a=.	c #AC6E72",
"b=.	c #A96D6E",
"c=.	c #B07473",
"d=.	c #B37775",
"e=.	c #BA7E7D",
"f=.	c #C38685",
"g=.	c #C98B8B",
"h=.	c #C78889",
"i=.	c #BB7C7E",
"j=.	c #C6878A",
"k=.	c #CC8D90",
"l=.	c #C38488",
"m=.	c #C9898E",
"n=.	c #C38389",
"o=.	c #C5868D",
"p=.	c #C48891",
"q=.	c #BD838D",
"r=.	c #B57F89",
"s=.	c #A97680",
"t=.	c #A0717B",
"u=.	c #91666F",
"v=.	c #896067",
"w=.	c #865F64",
"x=.	c #805B5E",
"y=.	c #7C585A",
"z=.	c #795A58",
"A=.	c #775B56",
"B=.	c #775D57",
"C=.	c #705851",
"D=.	c #634D46",
"E=.	c #624D46",
"F=.	c #644E48",
"G=.	c #654C48",
"H=.	c #634947",
"I=.	c #503231",
"J=.	c #513131",
"K=.	c #522E2F",
"L=.	c #613D3F",
"M=.	c #643E3F",
"N=.	c #5D3233",
"O=.	c #623333",
"P=.	c #6D3D3C",
"Q=.	c #774444",
"R=.	c #774243",
"S=.	c #7B4548",
"T=.	c #7C444B",
"U=.	c #814752",
"V=.	c #864B59",
"W=.	c #874C5D",
"X=.	c #875462",
"Y=.	c #865C66",
"Z=.	c #88636C",
"`=.	c #88666F",
" -.	c #8A6B73",
".-.	c #84676E",
"+-.	c #7E6469",
"@-.	c #7F676A",
"#-.	c #947E7E",
"$-.	c #AA9491",
"%-.	c #8D7671",
"&-.	c #7E6860",
"*-.	c #8A7973",
"=-.	c #978C82",
"--.	c #AF9C82",
";-.	c #C2A573",
">-.	c #C9A054",
",-.	c #C89835",
"'-.	c #C99621",
")-.	c #C99516",
"!-.	c #C99613",
"~-.	c #C99514",
"{-.	c #CA9516",
"]-.	c #CB9417",
"^-.	c #C99117",
"/-.	c #CA9218",
"(-.	c #CB9319",
"_-.	c #CB931A",
":-.	c #B68570",
"<-.	c #C0907A",
"[-.	c #BA8B75",
"}-.	c #B78872",
"|-.	c #B4856E",
"1-.	c #B68871",
"2-.	c #B2846D",
"3-.	c #A4785F",
"4-.	c #A1775C",
"5-.	c #B1866C",
"6-.	c #AA7D64",
"7-.	c #B1836A",
"8-.	c #B6836B",
"9-.	c #B6826A",
"0-.	c #BE8670",
"a-.	c #B77F69",
"b-.	c #BD826E",
"c-.	c #B87C67",
"d-.	c #AD6F5C",
"e-.	c #B1725E",
"f-.	c #BA7C68",
"g-.	c #BF826E",
"h-.	c #C78B76",
"i-.	c #CB8F7A",
"j-.	c #C88D77",
"k-.	c #CD927C",
"l-.	c #CA8F79",
"m-.	c #BE846E",
"n-.	c #B97E68",
"o-.	c #BB816B",
"p-.	c #B67C67",
"q-.	c #AF7460",
"r-.	c #AC715E",
"s-.	c #AC7260",
"t-.	c #AC7261",
"u-.	c #AA705F",
"v-.	c #AA7162",
"w-.	c #AB7263",
"x-.	c #AC7364",
"y-.	c #A96F60",
"z-.	c #AE7266",
"A-.	c #B1746A",
"B-.	c #B4756C",
"C-.	c #BE7E75",
"D-.	c #BD7C75",
"E-.	c #BF7C76",
"F-.	c #C37F7B",
"G-.	c #C07A77",
"H-.	c #C47D7B",
"I-.	c #C37B7A",
"J-.	c #BD7675",
"K-.	c #AE6D69",
"L-.	c #B97D78",
"M-.	c #BE807D",
"N-.	c #BE7E7F",
"O-.	c #BE7B7F",
"P-.	c #BD777E",
"Q-.	c #C77F89",
"R-.	c #B86F7A",
"S-.	c #C37984",
"T-.	c #C67C87",
"U-.	c #C77E87",
"V-.	c #C78087",
"W-.	c #C07C80",
"X-.	c #BF7D80",
"Y-.	c #C68588",
"Z-.	c #C38689",
"`-.	c #B67C80",
" ;.	c #B37C81",
".;.	c #AC797F",
"+;.	c #A4747C",
"@;.	c #9E717B",
"#;.	c #936974",
"$;.	c #8C636E",
"%;.	c #88616D",
"&;.	c #886771",
"*;.	c #7D606A",
"=;.	c #72565F",
"-;.	c #634751",
";;.	c #583D47",
">;.	c #4B313A",
",;.	c #4A2E36",
"';.	c #593A42",
");.	c #66444D",
"!;.	c #664049",
"~;.	c #5E343D",
"{;.	c #5D2F3A",
"];.	c #613742",
"^;.	c #78505D",
"/;.	c #916C78",
"(;.	c #987681",
"_;.	c #92747E",
":;.	c #82656D",
"<;.	c #7C6267",
"[;.	c #887072",
"};.	c #836E6C",
"|;.	c #77625C",
"1;.	c #7B645B",
"2;.	c #877266",
"3;.	c #94887E",
"4;.	c #A19F92",
"5;.	c #B1A88C",
"6;.	c #C0A974",
"7;.	c #C39E4D",
"8;.	c #C6972D",
"9;.	c #CD991D",
"0;.	c #CC9712",
"a;.	c #CA960F",
"b;.	c #CB9812",
"c;.	c #C89513",
"d;.	c #C79315",
"e;.	c #CA9519",
"f;.	c #CB931B",
"g;.	c #CB931C",
"h;.	c #C99119",
"i;.	c #C89018",
"j;.	c #C78F18",
"k;.	c #B17F68",
"l;.	c #B5826D",
"m;.	c #BA8772",
"n;.	c #C08D78",
"o;.	c #BC8974",
"p;.	c #C3917C",
"q;.	c #BA8873",
"r;.	c #B6846F",
"s;.	c #B88671",
"t;.	c #B2806B",
"u;.	c #B78670",
"v;.	c #B2816C",
"w;.	c #A7765F",
"x;.	c #A8775F",
"y;.	c #BD8A72",
"z;.	c #BB876F",
"A;.	c #B37E67",
"B;.	c #B17B64",
"C;.	c #AF7661",
"D;.	c #A96F5A",
"E;.	c #A86D59",
"F;.	c #B0735F",
"G;.	c #AF735F",
"H;.	c #B77B66",
"I;.	c #C0826E",
"J;.	c #C38571",
"K;.	c #C2846F",
"L;.	c #C58772",
"M;.	c #C58873",
"N;.	c #C88B76",
"O;.	c #CA8D78",
"P;.	c #D0947E",
"Q;.	c #CE927C",
"R;.	c #CB8F79",
"S;.	c #C88C76",
"T;.	c #C68973",
"U;.	c #C0836E",
"V;.	c #B87D67",
"W;.	c #B27962",
"X;.	c #AB735C",
"Y;.	c #A66F56",
"Z;.	c #A06C53",
"`;.	c #946248",
" >.	c #936247",
".>.	c #8C5C40",
"+>.	c #8D5D41",
"@>.	c #905C44",
"#>.	c #8F5844",
"$>.	c #8E5643",
"%>.	c #965D4A",
"&>.	c #A16655",
"*>.	c #A96E5D",
"=>.	c #A96C5D",
"->.	c #AB6D5E",
";>.	c #AD6D5F",
">>.	c #AD6D60",
",>.	c #B27064",
"'>.	c #AB685C",
")>.	c #A9675A",
"!>.	c #AC6B5D",
"~>.	c #B77567",
"{>.	c #B77467",
"]>.	c #B26F64",
"^>.	c #B57166",
"/>.	c #B77267",
"(>.	c #B67166",
"_>.	c #B87367",
":>.	c #BB7769",
"<>.	c #B97567",
"[>.	c #B26E61",
"}>.	c #B47168",
"|>.	c #BA7570",
"1>.	c #BB7571",
"2>.	c #BF7A76",
"3>.	c #BB7673",
"4>.	c #B87472",
"5>.	c #B87575",
"6>.	c #BB797C",
"7>.	c #C07E84",
"8>.	c #BC7A83",
"9>.	c #C5838E",
"0>.	c #C48390",
"a>.	c #C38897",
"b>.	c #BE8A9A",
"c>.	c #BF8D9E",
"d>.	c #BD8B9E",
"e>.	c #BB899E",
"f>.	c #BF8CA3",
"g>.	c #C490A7",
"h>.	c #C08CA0",
"i>.	c #BB8699",
"j>.	c #B78190",
"k>.	c #B8838E",
"l>.	c #B27D86",
"m>.	c #AF7985",
"n>.	c #AA7686",
"o>.	c #B07E8F",
"p>.	c #B18393",
"q>.	c #AF8695",
"r>.	c #B08C9A",
"s>.	c #B1929E",
"t>.	c #B297A1",
"u>.	c #9F8990",
"v>.	c #806C6F",
"w>.	c #776362",
"x>.	c #877572",
"y>.	c #968D8B",
"z>.	c #A3A29C",
"A>.	c #B6AE94",
"B>.	c #C1AB75",
"C>.	c #C4A04C",
"D>.	c #C8992C",
"E>.	c #CC9619",
"F>.	c #CD9611",
"G>.	c #CB9410",
"H>.	c #CA9413",
"I>.	c #CB9517",
"J>.	c #C99316",
"K>.	c #C89116",
"L>.	c #C89019",
"M>.	c #B5846E",
"N>.	c #B2816B",
"O>.	c #AC7B65",
"P>.	c #B98772",
"Q>.	c #B6836F",
"R>.	c #B88570",
"S>.	c #AA7763",
"T>.	c #B6836E",
"U>.	c #AC7963",
"V>.	c #AE7A62",
"W>.	c #B9846C",
"X>.	c #BF8971",
"Y>.	c #C79179",
"Z>.	c #C89079",
"`>.	c #C68C76",
" ,.	c #C98F79",
".,.	c #CC8F7A",
"+,.	c #C98B76",
"@,.	c #C38671",
"#,.	c #C78A75",
"$,.	c #CB8E79",
"%,.	c #CF927D",
"&,.	c #CF937E",
"*,.	c #D39681",
"=,.	c #CE917C",
"-,.	c #D1947F",
";,.	c #C78D77",
">,.	c #C08770",
",,.	c #B67E68",
"',.	c #AE7761",
"),.	c #A56F58",
"!,.	c #A26D56",
"~,.	c #97644D",
"{,.	c #93624C",
"],.	c #8F5E48",
"^,.	c #895942",
"/,.	c #895841",
"(,.	c #804F3A",
"_,.	c #7C4B35",
":,.	c #7E4C37",
"<,.	c #774731",
"[,.	c #7E4D39",
"},.	c #855441",
"|,.	c #875542",
"1,.	c #8F5846",
"2,.	c #995F4C",
"3,.	c #A16453",
"4,.	c #A46655",
"5,.	c #AA6A5A",
"6,.	c #AB6A5A",
"7,.	c #AF6D5C",
"8,.	c #B36F5E",
"9,.	c #B67060",
"0,.	c #B6705F",
"a,.	c #B26A5A",
"b,.	c #B77363",
"c,.	c #B87867",
"d,.	c #B47463",
"e,.	c #B67664",
"f,.	c #B67665",
"g,.	c #AF6D5F",
"h,.	c #B16D62",
"i,.	c #AF6B62",
"j,.	c #B36E69",
"k,.	c #B46F6D",
"l,.	c #B06E73",
"m,.	c #B47783",
"n,.	c #BC818F",
"o,.	c #C18696",
"p,.	c #C0879A",
"q,.	c #C892A7",
"r,.	c #CD98AE",
"s,.	c #C694A9",
"t,.	c #C495A8",
"u,.	c #C397A8",
"v,.	c #C79DAB",
"w,.	c #C299A6",
"x,.	c #BD95A2",
"y,.	c #BD96A4",
"z,.	c #BA94A4",
"A,.	c #BA97A8",
"B,.	c #B898A9",
"C,.	c #B79BAD",
"D,.	c #BDA5B7",
"E,.	c #BCA8BA",
"F,.	c #B5A5B5",
"G,.	c #AA9DAB",
"H,.	c #948995",
"I,.	c #908791",
"J,.	c #9A979D",
"K,.	c #A6A6A3",
"L,.	c #B4AB92",
"M,.	c #BDA66F",
"N,.	c #C19D47",
"O,.	c #C79728",
"P,.	c #CA9416",
"Q,.	c #CA920E",
"R,.	c #CA9311",
"S,.	c #CA9313",
"T,.	c #C99214",
"U,.	c #CA9316",
"V,.	c #C89017",
"W,.	c #C68E15",
"X,.	c #C78F16",
"Y,.	c #C68E17",
"Z,.	c #B2836F",
"`,.	c #B2846E",
" '.	c #A77A64",
".'.	c #AC7F69",
"+'.	c #B2836D",
"@'.	c #AA7A65",
"#'.	c #A06E59",
"$'.	c #A5725E",
"%'.	c #B07C67",
"&'.	c #AF7965",
"*'.	c #B17A67",
"='.	c #B07966",
"-'.	c #B47C68",
";'.	c #B7826C",
">'.	c #B6826B",
",'.	c #BA846C",
"''.	c #C58F77",
")'.	c #D29983",
"!'.	c #C68974",
"~'.	c #C68874",
"{'.	c #CD8F7A",
"]'.	c #C98D78",
"^'.	c #D29681",
"/'.	c #DB9F8A",
"('.	c #DFA28D",
"_'.	c #DD9F8A",
":'.	c #D59782",
"<'.	c #D3947F",
"['.	c #D0917C",
"}'.	c #D39480",
"|'.	c #D0917D",
"1'.	c #D2937E",
"2'.	c #D49582",
"3'.	c #CC8E7C",
"4'.	c #C88C79",
"5'.	c #C58977",
"6'.	c #BD8370",
"7'.	c #BD8572",
"8'.	c #AE7865",
"9'.	c #9A6753",
"0'.	c #8E5D49",
"a'.	c #865744",
"b'.	c #7D4E3A",
"c'.	c #794B34",
"d'.	c #784933",
"e'.	c #74452F",
"f'.	c #774831",
"g'.	c #794A34",
"h'.	c #794A35",
"i'.	c #7B4C39",
"j'.	c #7C4E3A",
"k'.	c #7F4F3C",
"l'.	c #80503D",
"m'.	c #855542",
"n'.	c #8F5F4E",
"o'.	c #8F5D4D",
"p'.	c #8C5A49",
"q'.	c #905D4B",
"r'.	c #94614E",
"s'.	c #915D4A",
"t'.	c #8F5C49",
"u'.	c #935E4C",
"v'.	c #935D4D",
"w'.	c #955E51",
"x'.	c #975F54",
"y'.	c #925A50",
"z'.	c #8C5249",
"A'.	c #90554D",
"B'.	c #935751",
"C'.	c #935953",
"D'.	c #935A54",
"E'.	c #8D5551",
"F'.	c #8A5450",
"G'.	c #905B59",
"H'.	c #945F5E",
"I'.	c #966363",
"J'.	c #9D6C6B",
"K'.	c #A67575",
"L'.	c #A87C7C",
"M'.	c #A98284",
"N'.	c #A68185",
"O'.	c #A58189",
"P'.	c #A7858F",
"Q'.	c #AC8E99",
"R'.	c #B79DA9",
"S'.	c #B7A2AF",
"T'.	c #B5A7B2",
"U'.	c #B8B0BB",
"V'.	c #AEACB4",
"W'.	c #9E9FA6",
"X'.	c #A3A6AB",
"Y'.	c #AEAFAC",
"Z'.	c #B5AC94",
"`'.	c #B6A069",
" ).	c #BC9842",
".).	c #C59526",
"+).	c #C89214",
"@).	c #CA930E",
"#).	c #CA9211",
"$).	c #CC9515",
"%).	c #CA9315",
"&).	c #C89113",
"*).	c #C99115",
"=).	c #9E705B",
"-).	c #9B6D57",
";).	c #A47660",
">).	c #AB7C66",
",).	c #A87861",
"').	c #A4725D",
")).	c #AC7863",
"!).	c #A97560",
"~).	c #B17A66",
"{).	c #B07763",
"]).	c #BA816D",
"^).	c #BF8672",
"/).	c #BF8872",
"().	c #BD8770",
"_).	c #C18B73",
":).	c #C08971",
"<).	c #BE876F",
"[).	c #C58E76",
"}).	c #C48C75",
"|).	c #BC846D",
"1).	c #C78E77",
"2).	c #CE957F",
"3).	c #D19681",
"4).	c #D69984",
"5).	c #D0937E",
"6).	c #C58974",
"7).	c #CA8E79",
"8).	c #D59883",
"9).	c #D29480",
"0).	c #CD907B",
"a).	c #D2927E",
"b).	c #D99884",
"c).	c #D08E7B",
"d).	c #CD8A77",
"e).	c #CB8875",
"f).	c #D3907D",
"g).	c #DB9885",
"h).	c #DF9D8A",
"i).	c #DA9986",
"j).	c #D79783",
"k).	c #D49581",
"l).	c #D0927E",
"m).	c #CF927E",
"n).	c #C98E7A",
"o).	c #C48975",
"p).	c #C68C78",
"q).	c #C28974",
"r).	c #B07A61",
"s).	c #AD795D",
"t).	c #A77356",
"u).	c #A57156",
"v).	c #9B674F",
"w).	c #8F5B47",
"x).	c #83523F",
"y).	c #744634",
"z).	c #724534",
"A).	c #714737",
"B).	c #6B4333",
"C).	c #6B4534",
"D).	c #674131",
"E).	c #623B2B",
"F).	c #663F30",
"G).	c #6F483A",
"H).	c #714B3D",
"I).	c #744D40",
"J).	c #764E43",
"K).	c #774F45",
"L).	c #7E564D",
"M).	c #7E554E",
"N).	c #765047",
"O).	c #724E44",
"P).	c #714E43",
"Q).	c #78544A",
"R).	c #745046",
"S).	c #6F4B41",
"T).	c #7C584E",
"U).	c #78544B",
"V).	c #734F45",
"W).	c #755147",
"X).	c #724E45",
"Y).	c #735148",
"Z).	c #73514A",
"`).	c #73524D",
" !.	c #7B5B5A",
".!.	c #846769",
"+!.	c #876D70",
"@!.	c #887378",
"#!.	c #95858C",
"$!.	c #9D949A",
"%!.	c #9E9A9F",
"&!.	c #9F9FA3",
"*!.	c #A5A9AA",
"=!.	c #ADB2A8",
"-!.	c #B4B08D",
";!.	c #BAA663",
">!.	c #BD9A37",
",!.	c #C5951C",
"'!.	c #CD9414",
")!.	c #CE9215",
"!!.	c #CE921C",
"~!.	c #CD9420",
"{!.	c #CA941E",
"]!.	c #C79417",
"^!.	c #C89215",
"/!.	c #CB9118",
"(!.	c #CC9118",
"_!.	c #C88D13",
":!.	c #C98E14",
"<!.	c #C78C13",
"[!.	c #A1715B",
"}!.	c #9E6F58",
"|!.	c #A67760",
"1!.	c #A6755E",
"2!.	c #986751",
"3!.	c #A8755F",
"4!.	c #AF7B65",
"5!.	c #BA846F",
"6!.	c #B47B68",
"7!.	c #B87F6C",
"8!.	c #BC836F",
"9!.	c #BA826C",
"0!.	c #B47B65",
"a!.	c #B88069",
"b!.	c #C08872",
"c!.	c #BD846E",
"d!.	c #BC836C",
"e!.	c #C08771",
"f!.	c #C08871",
"g!.	c #C48974",
"h!.	c #C48772",
"i!.	c #C1846F",
"j!.	c #C38672",
"k!.	c #BD806B",
"l!.	c #B87B67",
"m!.	c #B77A65",
"n!.	c #B97D68",
"o!.	c #CE907B",
"p!.	c #CA8B76",
"q!.	c #CE8E7A",
"r!.	c #CB8A76",
"s!.	c #CC8B77",
"t!.	c #CA8874",
"u!.	c #CE8C78",
"v!.	c #D28F7C",
"w!.	c #D18E7B",
"x!.	c #D5927F",
"y!.	c #D99683",
"z!.	c #DA9784",
"A!.	c #D2907D",
"B!.	c #CD8B78",
"C!.	c #D2917D",
"D!.	c #CF8F7B",
"E!.	c #D49480",
"F!.	c #CF947B",
"G!.	c #C78D73",
"H!.	c #C38870",
"I!.	c #C28773",
"J!.	c #BD8372",
"K!.	c #B57C6D",
"L!.	c #A97466",
"M!.	c #9C695C",
"N!.	c #966659",
"O!.	c #8B5D51",
"P!.	c #80554B",
"Q!.	c #7B534A",
"R!.	c #764E46",
"S!.	c #744D46",
"T!.	c #704942",
"U!.	c #6D4641",
"V!.	c #6C4540",
"W!.	c #69423E",
"X!.	c #68413F",
"Y!.	c #694241",
"Z!.	c #6B4444",
"`!.	c #6F4848",
" ~.	c #76504F",
".~.	c #825C5C",
"+~.	c #85605F",
"@~.	c #815C5B",
"#~.	c #7D5A58",
"$~.	c #7E5C5A",
"%~.	c #82615E",
"&~.	c #7C5C59",
"*~.	c #735350",
"=~.	c #6B4D4A",
"-~.	c #6D4F4C",
";~.	c #705350",
">~.	c #705653",
",~.	c #725B58",
"'~.	c #76605D",
")~.	c #7D6764",
"!~.	c #846F6C",
"~~.	c #857271",
"{~.	c #8A7A7A",
"]~.	c #948688",
"^~.	c #999094",
"/~.	c #9E989E",
"(~.	c #A1A0A7",
"_~.	c #A4A4AC",
":~.	c #AAAAAC",
"<~.	c #B1ADA1",
"[~.	c #B6A986",
"}~.	c #B69F60",
"|~.	c #B79438",
"1~.	c #BF9424",
"2~.	c #C5941D",
"3~.	c #C6931C",
"4~.	c #C5931F",
"5~.	c #C59423",
"6~.	c #C69424",
"7~.	c #C69423",
"8~.	c #C79424",
"9~.	c #C69326",
"0~.	c #C59122",
"a~.	c #C28F1F",
"b~.	c #C28F1E",
"c~.	c #C28F1B",
"d~.	c #A6785E",
"e~.	c #9F705A",
"f~.	c #A77862",
"g~.	c #AD7C65",
"h~.	c #A7755E",
"i~.	c #A8745F",
"j~.	c #A8745E",
"k~.	c #AD7661",
"l~.	c #B37B67",
"m~.	c #BC816C",
"n~.	c #BA7E69",
"o~.	c #AF735E",
"p~.	c #B27761",
"q~.	c #B67A65",
"r~.	c #BA7F69",
"s~.	c #BC816B",
"t~.	c #BB806A",
"u~.	c #BD816C",
"v~.	c #C0846F",
"w~.	c #B67964",
"x~.	c #B47762",
"y~.	c #B37661",
"z~.	c #B27560",
"A~.	c #B0735E",
"B~.	c #B57A64",
"C~.	c #B77C66",
"D~.	c #BE816C",
"E~.	c #BD7F6B",
"F~.	c #C28570",
"G~.	c #BD7E69",
"H~.	c #C0816C",
"I~.	c #C1816D",
"J~.	c #BC7B67",
"K~.	c #BF7E6A",
"L~.	c #C3826E",
"M~.	c #C48370",
"N~.	c #C48571",
"O~.	c #C98A76",
"P~.	c #CD8E7A",
"Q~.	c #C38570",
"R~.	c #BE806B",
"S~.	c #C18570",
"T~.	c #BD836C",
"U~.	c #BD846B",
"V~.	c #C18770",
"W~.	c #BF8576",
"X~.	c #BA8275",
"Y~.	c #B68174",
"Z~.	c #B38075",
"`~.	c #B28277",
" {.	c #AD7F76",
".{.	c #A2756E",
"+{.	c #9C6F69",
"@{.	c #9B6F69",
"#{.	c #936863",
"${.	c #8D625D",
"%{.	c #8B625F",
"&{.	c #845C5A",
"*{.	c #7B5352",
"={.	c #7D5756",
"-{.	c #825D5D",
";{.	c #7A5757",
">{.	c #785555",
",{.	c #825D5F",
"'{.	c #8C6468",
"){.	c #8F686C",
"!{.	c #8D676B",
"~{.	c #876466",
"{{.	c #856365",
"]{.	c #846466",
"^{.	c #826566",
"/{.	c #826666",
"({.	c #816766",
"_{.	c #856C6C",
":{.	c #8A7271",
"<{.	c #887778",
"[{.	c #83787C",
"}{.	c #8F8588",
"|{.	c #9A9091",
"1{.	c #89807F",
"2{.	c #746C69",
"3{.	c #7D7673",
"4{.	c #8C8887",
"5{.	c #969496",
"6{.	c #999A9F",
"7{.	c #9DA1AA",
"8{.	c #9FA4AF",
"9{.	c #A3A9B2",
"0{.	c #A1A3A9",
"a{.	c #979393",
"b{.	c #8C827D",
"c{.	c #87796F",
"d{.	c #8A796B",
"e{.	c #8B7C6E",
"f{.	c #8A7D70",
"g{.	c #887D70",
"h{.	c #8B8074",
"i{.	c #8C7F73",
"j{.	c #8C7C70",
"k{.	c #8F7A71",
"l{.	c #927872",
"m{.	c #927871",
"n{.	c #957B71",
"o{.	c #997E70",
"p{.	c #987D6C",
"q{.	c #987C67",
"r{.	c #A97961",
"s{.	c #9C6E56",
"t{.	c #A07259",
"u{.	c #A5765D",
"v{.	c #A17259",
"w{.	c #A5745B",
"x{.	c #A5725A",
"y{.	c #AF7B64",
"z{.	c #B27C65",
"A{.	c #B57E67",
"B{.	c #B17963",
"C{.	c #B87F69",
"D{.	c #C18771",
"E{.	c #C1836E",
"F{.	c #CA8C77",
"G{.	c #C48671",
"H{.	c #C68A75",
"I{.	c #C08570",
"J{.	c #C78C77",
"K{.	c #B97F69",
"L{.	c #BA806A",
"M{.	c #C48A74",
"N{.	c #BD836D",
"O{.	c #B77C67",
"P{.	c #B37963",
"Q{.	c #B27862",
"R{.	c #BF8570",
"S{.	c #BF846E",
"T{.	c #BE836E",
"U{.	c #BC826C",
"V{.	c #C18670",
"W{.	c #B67B65",
"X{.	c #BC7F6A",
"Y{.	c #B97A67",
"Z{.	c #BC7D6B",
"`{.	c #C38572",
" ].	c #C58975",
".].	c #BF8571",
"+].	c #B77E69",
"@].	c #B8806A",
"#].	c #B68069",
"$].	c #B6816A",
"%].	c #B7826B",
"&].	c #B57D68",
"*].	c #B37864",
"=].	c #B47966",
"-].	c #B77F6E",
";].	c #B98273",
">].	c #B88376",
",].	c #B48176",
"'].	c #B18076",
")].	c #AE7F77",
"!].	c #AA7D76",
"~].	c #A97D77",
"{].	c #A87C77",
"]].	c #A57874",
"^].	c #A47875",
"/].	c #9E7371",
"(].	c #966C6C",
"_].	c #966D6E",
":].	c #8F6869",
"<].	c #8F686A",
"[].	c #946E71",
"}].	c #957174",
"|].	c #967277",
"1].	c #967178",
"2].	c #916C74",
"3].	c #98737A",
"4].	c #9B767D",
"5].	c #99757B",
"6].	c #9B787B",
"7].	c #977577",
"8].	c #8D6E70",
"9].	c #8B6F70",
"0].	c #9F8587",
"a].	c #A68F91",
"b].	c #A08C8E",
"c].	c #A79A9D",
"d].	c #A8A3A8",
"e].	c #B4AFB3",
"f].	c #ACA6A9",
"g].	c #8D8788",
"h].	c #7F7979",
"i].	c #898484",
"j].	c #929092",
"k].	c #999CA0",
"l].	c #969EA5",
"m].	c #919EA8",
"n].	c #8E9EAB",
"o].	c #8398A9",
"p].	c #617B93",
"q].	c #3B5570",
"r].	c #2D4666",
"s].	c #2E486C",
"t].	c #2C4871",
"u].	c #2C4A76",
"v].	c #2F4E7D",
"w].	c #2B4D7B",
"x].	c #2C4F7D",
"y].	c #2E4F7D",
"z].	c #2E4E7C",
"A].	c #2F5281",
"B].	c #325585",
"C].	c #305383",
"D].	c #325484",
"E].	c #355788",
"F].	c #355889",
"G].	c #A3725A",
"H].	c #A8785F",
"I].	c #AA7960",
"J].	c #B38168",
"K].	c #AC7961",
"L].	c #A9755D",
"M].	c #AF7B63",
"N].	c #AA755E",
"O].	c #A9735C",
"P].	c #B07A62",
"Q].	c #BE836D",
"R].	c #BF836E",
"S].	c #CE927D",
"T].	c #D79B85",
"U].	c #DCA08B",
"V].	c #CE947E",
"W].	c #D59B85",
"X].	c #C88E78",
"Y].	c #C68D77",
"Z].	c #C08670",
"`].	c #C28873",
" ^.	c #C58B75",
".^.	c #C38973",
"+^.	c #B47A64",
"@^.	c #B87E68",
"#^.	c #BF856F",
"$^.	c #C28872",
"%^.	c #C68B74",
"&^.	c #C58970",
"*^.	c #C0846C",
"=^.	c #C0846D",
"-^.	c #BE846C",
";^.	c #BB826B",
">^.	c #BE866E",
",^.	c #BB846C",
"'^.	c #B9826B",
")^.	c #B8826B",
"!^.	c #BB846D",
"~^.	c #C38A74",
"{^.	c #BF8673",
"]^.	c #BE8776",
"^^.	c #C38E7F",
"/^.	c #C39185",
"(^.	c #B98880",
"_^.	c #AF7F7B",
":^.	c #AB7D7B",
"<^.	c #B08484",
"[^.	c #B48889",
"}^.	c #B28788",
"|^.	c #AD8383",
"1^.	c #AC8383",
"2^.	c #AD8485",
"3^.	c #A88082",
"4^.	c #A78082",
"5^.	c #A58082",
"6^.	c #9A7778",
"7^.	c #967475",
"8^.	c #997779",
"9^.	c #99787B",
"0^.	c #9C7B7F",
"a^.	c #9D7C82",
"b^.	c #A17F88",
"c^.	c #A38289",
"d^.	c #9E7D83",
"e^.	c #9D7C81",
"f^.	c #A28286",
"g^.	c #9D7E81",
"h^.	c #94777B",
"i^.	c #92787C",
"j^.	c #9D858B",
"k^.	c #A08B91",
"l^.	c #A08E95",
"m^.	c #9F949C",
"n^.	c #9F9AA4",
"o^.	c #A09DA5",
"p^.	c #9B989E",
"q^.	c #888689",
"r^.	c #818082",
"s^.	c #8B8D8F",
"t^.	c #95999D",
"u^.	c #98A0A6",
"v^.	c #95A1AB",
"w^.	c #91A1AD",
"x^.	c #8293A3",
"y^.	c #62778A",
"z^.	c #314A5F",
"A^.	c #18344D",
"B^.	c #18334F",
"C^.	c #1B3555",
"D^.	c #20395C",
"E^.	c #233C62",
"F^.	c #253F66",
"G^.	c #243F67",
"H^.	c #223F66",
"I^.	c #203F66",
"J^.	c #1F3F66",
"K^.	c #1F4166",
"L^.	c #204369",
"M^.	c #1B3F65",
"N^.	c #20436C",
"O^.	c #224571",
"P^.	c #214471",
"Q^.	c #234675",
"R^.	c #AA7860",
"S^.	c #AA775F",
"T^.	c #AD7961",
"U^.	c #A3715A",
"V^.	c #9E6B54",
"W^.	c #9E6A52",
"X^.	c #9C6850",
"Y^.	c #A16E56",
"Z^.	c #B07D65",
"`^.	c #B27D66",
" /.	c #AF7861",
"./.	c #AD755E",
"+/.	c #A86F59",
"@/.	c #B47C66",
"#/.	c #B9806A",
"$/.	c #C88F78",
"%/.	c #CA917B",
"&/.	c #C78E78",
"*/.	c #C88F79",
"=/.	c #CA917A",
"-/.	c #CC927C",
";/.	c #C98F7A",
">/.	c #B77E68",
",/.	c #C28973",
"'/.	c #BC826D",
")/.	c #BF8670",
"!/.	c #C38B74",
"~/.	c #C18872",
"{/.	c #C38A75",
"]/.	c #C38975",
"^/.	c #C48A76",
"//.	c #C88E7B",
"(/.	c #CD9382",
"_/.	c #C28777",
":/.	c #C4897B",
"</.	c #C58A7D",
"[/.	c #C4897C",
"}/.	c #BD8374",
"|/.	c #B27867",
"1/.	c #B98272",
"2/.	c #C38E81",
"3/.	c #C49185",
"4/.	c #C8978D",
"5/.	c #CA9B94",
"6/.	c #C69893",
"7/.	c #BE9490",
"8/.	c #C19896",
"9/.	c #C59D9C",
"0/.	c #BD9596",
"a/.	c #B79094",
"b/.	c #BC969B",
"c/.	c #BB969A",
"d/.	c #BB979B",
"e/.	c #B59396",
"f/.	c #B89799",
"g/.	c #B39395",
"h/.	c #AC8D8F",
"i/.	c #B09293",
"j/.	c #B19494",
"k/.	c #B19394",
"l/.	c #B09396",
"m/.	c #AC9195",
"n/.	c #A78B90",
"o/.	c #A3878B",
"p/.	c #A58A8D",
"q/.	c #A48A8E",
"r/.	c #A48C91",
"s/.	c #A18B92",
"t/.	c #9F8B94",
"u/.	c #9F8F99",
"v/.	c #A1939E",
"w/.	c #9F95A2",
"x/.	c #9995A2",
"y/.	c #9694A0",
"z/.	c #8D8D96",
"A/.	c #808289",
"B/.	c #81878B",
"C/.	c #8B9599",
"D/.	c #8E9AA0",
"E/.	c #8B99A2",
"F/.	c #8697A3",
"G/.	c #768797",
"H/.	c #506173",
"I/.	c #273A4D",
"J/.	c #0D273A",
"K/.	c #0F283D",
"L/.	c #132840",
"M/.	c #1B2C47",
"N/.	c #1E2C4B",
"O/.	c #212D4E",
"P/.	c #232F51",
"Q/.	c #1E2D4F",
"R/.	c #203252",
"S/.	c #1A2F4D",
"T/.	c #162E4A",
"U/.	c #16334D",
"V/.	c #13354E",
"W/.	c #123550",
"X/.	c #173957",
"Y/.	c #1A3B5C",
"Z/.	c #1A3B5F",
"`/.	c #1C3D63",
" (.	c #A8755B",
".(.	c #B17E64",
"+(.	c #AA775D",
"@(.	c #A67359",
"#(.	c #A57359",
"$(.	c #9B694F",
"%(.	c #97654B",
"&(.	c #AA765C",
"*(.	c #B47F66",
"=(.	c #B57F66",
"-(.	c #B37D63",
";(.	c #BA836A",
">(.	c #B78067",
",(.	c #BA826A",
"'(.	c #BD846C",
")(.	c #B37962",
"!(.	c #C28871",
"~(.	c #BD836E",
"{(.	c #B27863",
"](.	c #B97F6A",
"^(.	c #C58D76",
"/(.	c #C9917A",
"((.	c #C68D79",
"_(.	c #CB917D",
":(.	c #CA907C",
"<(.	c #C98E7B",
"[(.	c #CF9482",
"}(.	c #C68C79",
"|(.	c #C48977",
"1(.	c #C18775",
"2(.	c #C58B7A",
"3(.	c #CA907F",
"4(.	c #C58D7B",
"5(.	c #C28A79",
"6(.	c #C99180",
"7(.	c #C58D7C",
"8(.	c #C38B7A",
"9(.	c #C99181",
"0(.	c #C68D7D",
"a(.	c #CC9484",
"b(.	c #CF9787",
"c(.	c #D09788",
"d(.	c #CA9184",
"e(.	c #C78D82",
"f(.	c #C3897F",
"g(.	c #BF877E",
"h(.	c #C18B83",
"i(.	c #CB9790",
"j(.	c #C3928B",
"k(.	c #C1928C",
"l(.	c #BE918D",
"m(.	c #B98E8B",
"n(.	c #B78D8B",
"o(.	c #BF9694",
"p(.	c #BF9898",
"q(.	c #BB9597",
"r(.	c #B48F92",
"s(.	c #B59294",
"t(.	c #B9989A",
"u(.	c #B9999C",
"v(.	c #B49698",
"w(.	c #B99B9D",
"x(.	c #B89A9D",
"y(.	c #BA9B9E",
"z(.	c #BA9B9F",
"A(.	c #B19094",
"B(.	c #B19398",
"C(.	c #B69B9F",
"D(.	c #B89DA2",
"E(.	c #B9A0A6",
"F(.	c #B79FA7",
"G(.	c #B49EA8",
"H(.	c #B4A0AA",
"I(.	c #B3A1AC",
"J(.	c #AA9AA4",
"K(.	c #A496A0",
"L(.	c #A2969E",
"M(.	c #A69CA3",
"N(.	c #A29DA2",
"O(.	c #9EA0A3",
"P(.	c #989DA0",
"Q(.	c #8B9295",
"R(.	c #868F93",
"S(.	c #859095",
"T(.	c #828E95",
"U(.	c #828F98",
"V(.	c #808D99",
"W(.	c #697583",
"X(.	c #434D5D",
"Y(.	c #182234",
"Z(.	c #152036",
"`(.	c #14243C",
" _.	c #182741",
"._.	c #192842",
"+_.	c #192741",
"@_.	c #18253F",
"#_.	c #1A2540",
"$_.	c #17223E",
"%_.	c #1D2843",
"&_.	c #1B2641",
"*_.	c #19243F",
"=_.	c #17223D",
"-_.	c #172640",
";_.	c #172A44",
">_.	c #152A44",
",_.	c #182E49",
"'_.	c #1C344F",
")_.	c #17324D",
"!_.	c #193451",
"~_.	c #9C6C52",
"{_.	c #A26E56",
"]_.	c #A8755D",
"^_.	c #A27057",
"/_.	c #97674D",
"(_.	c #96694E",
"__.	c #96694F",
":_.	c #966B4F",
"<_.	c #855C41",
"[_.	c #8F674C",
"}_.	c #966C50",
"|_.	c #94654C",
"1_.	c #925E46",
"2_.	c #956149",
"3_.	c #935F47",
"4_.	c #99654D",
"5_.	c #AA755D",
"6_.	c #AC755E",
"7_.	c #AB745D",
"8_.	c #AF7760",
"9_.	c #B57D65",
"0_.	c #BA826B",
"a_.	c #B9816B",
"b_.	c #B47C65",
"c_.	c #B07862",
"d_.	c #C38772",
"e_.	c #CF947E",
"f_.	c #CB917C",
"g_.	c #C98F7B",
"h_.	c #D49A87",
"i_.	c #D39985",
"j_.	c #D29785",
"k_.	c #CF9583",
"l_.	c #C08574",
"m_.	c #C48A78",
"n_.	c #BD8272",
"o_.	c #BE8373",
"p_.	c #C18777",
"q_.	c #BA8170",
"r_.	c #B67E6D",
"s_.	c #BC8473",
"t_.	c #C48C7C",
"u_.	c #BD8675",
"v_.	c #BD8574",
"w_.	c #BF8878",
"x_.	c #C28A7C",
"y_.	c #C2897E",
"z_.	c #C28A81",
"A_.	c #C18B82",
"B_.	c #C18C84",
"C_.	c #C8968F",
"D_.	c #C0928D",
"E_.	c #C19592",
"F_.	c #BD9391",
"G_.	c #C49B99",
"H_.	c #C59D9B",
"I_.	c #C29C9A",
"J_.	c #BB9494",
"K_.	c #B99594",
"L_.	c #B18F8E",
"M_.	c #B89897",
"N_.	c #B99A99",
"O_.	c #AD8F8F",
"P_.	c #B29494",
"Q_.	c #B59798",
"R_.	c #B7999B",
"S_.	c #B69498",
"T_.	c #B8989B",
"U_.	c #BB9D9F",
"V_.	c #C1A4A8",
"W_.	c #BDA3A8",
"X_.	c #BCA4AC",
"Y_.	c #C1AAB5",
"Z_.	c #C2AFBA",
"`_.	c #C4B3BE",
" :.	c #B9AAB6",
".:.	c #AFA3AD",
"+:.	c #A99FA8",
"@:.	c #A69FA7",
"#:.	c #9E9CA2",
"$:.	c #949A9C",
"%:.	c #878F92",
"&:.	c #7D8689",
"*:.	c #7D888C",
"=:.	c #7F8B91",
"-:.	c #79858D",
";:.	c #67737C",
">:.	c #4A5560",
",:.	c #272F3C",
"':.	c #101727",
"):.	c #0C1123",
"!:.	c #0F1629",
"~:.	c #0D182B",
"{:.	c #101C30",
"]:.	c #101B2F",
"^:.	c #0C182D",
"/:.	c #111C31",
"(:.	c #121C32",
"_:.	c #111C32",
"::.	c #131E34",
"<:.	c #141E36",
"[:.	c #131D35",
"}:.	c #1A253F",
"|:.	c #1E2A48",
"1:.	c #192745",
"2:.	c #162644",
"3:.	c #172946",
"4:.	c #142944",
"5:.	c #152D46",
"6:.	c #A1735A",
"7:.	c #9A6E55",
"8:.	c #946850",
"9:.	c #9F725A",
"0:.	c #A1755D",
"a:.	c #9B7058",
"b:.	c #986D55",
"c:.	c #956B52",
"d:.	c #936950",
"e:.	c #9A7057",
"f:.	c #9C7259",
"g:.	c #986E55",
"h:.	c #90654C",
"i:.	c #986A53",
"j:.	c #93624B",
"k:.	c #905E48",
"l:.	c #96644D",
"m:.	c #95634D",
"n:.	c #8F5C46",
"o:.	c #915E48",
"p:.	c #9B6752",
"q:.	c #A26C57",
"r:.	c #AA735E",
"s:.	c #B07964",
"t:.	c #B7806B",
"u:.	c #B37F67",
"v:.	c #AC7760",
"w:.	c #B07A63",
"x:.	c #B8816A",
"y:.	c #BB826C",
"z:.	c #AD735E",
"A:.	c #B0745F",
"B:.	c #B47662",
"C:.	c #C08470",
"D:.	c #C28874",
"E:.	c #C28975",
"F:.	c #C18875",
"G:.	c #BF8573",
"H:.	c #C38876",
"I:.	c #C88D7B",
"J:.	c #C98E7C",
"K:.	c #C88D7C",
"L:.	c #BA7F70",
"M:.	c #C28878",
"N:.	c #C48C7B",
"O:.	c #B67E6E",
"P:.	c #C08877",
"Q:.	c #C18978",
"R:.	c #BB8372",
"S:.	c #B17A69",
"T:.	c #B57E6D",
"U:.	c #C38C7B",
"V:.	c #C08A80",
"W:.	c #BC877E",
"X:.	c #BD8B83",
"Y:.	c #C1938C",
"Z:.	c #BF938D",
"`:.	c #BF9591",
" <.	c #C69E9B",
".<.	c #C59E9C",
"+<.	c #C49E9B",
"@<.	c #C29D9A",
"#<.	c #BE9897",
"$<.	c #BB9795",
"%<.	c #B4918F",
"&<.	c #B0908E",
"*<.	c #AE8F8C",
"=<.	c #A98C89",
"-<.	c #AD8F8D",
";<.	c #AA8C8A",
"><.	c #AB8C8C",
",<.	c #B19091",
"'<.	c #B69495",
")<.	c #B99898",
"!<.	c #B79796",
"~<.	c #B69799",
"{<.	c #B29599",
"]<.	c #B3989F",
"^<.	c #BBA4AD",
"/<.	c #B9A6B1",
"(<.	c #B8A9B5",
"_<.	c #B9ADBA",
":<.	c #B2A9B6",
"<<.	c #ADA6B2",
"[<.	c #AAA6B1",
"}<.	c #A4A5AD",
"|<.	c #959DA3",
"1<.	c #838D92",
"2<.	c #798489",
"3<.	c #78858B",
"4<.	c #707D84",
"5<.	c #58646C",
"6<.	c #2D3840",
"7<.	c #0D1720",
"8<.	c #080F1B",
"9<.	c #0C111F",
"0<.	c #111423",
"a<.	c #0E1220",
"b<.	c #0B111D",
"c<.	c #0A121E",
"d<.	c #09121E",
"e<.	c #09121F",
"f<.	c #0C1524",
"g<.	c #0E1727",
"h<.	c #0E1828",
"i<.	c #0D1829",
"j<.	c #0D182A",
"k<.	c #121D30",
"l<.	c #142033",
"m<.	c #162135",
"n<.	c #172036",
"o<.	c #121D34",
"p<.	c #111E34",
"q<.	c #122138",
"r<.	c #112239",
"s<.	c #102239",
"t<.	c #8A6147",
"u<.	c #876047",
"v<.	c #87614A",
"w<.	c #866048",
"x<.	c #87634B",
"y<.	c #8A644C",
"z<.	c #845C45",
"A<.	c #9D705B",
"B<.	c #AC7D69",
"C<.	c #A67662",
"D<.	c #A2725E",
"E<.	c #9D6C58",
"F<.	c #A3715C",
"G<.	c #A16F5A",
"H<.	c #AB7863",
"I<.	c #9E6B57",
"J<.	c #955F4B",
"K<.	c #A26A56",
"L<.	c #9C6450",
"M<.	c #9A624F",
"N<.	c #A46B57",
"O<.	c #B37C66",
"P<.	c #B67F68",
"Q<.	c #BD856F",
"R<.	c #AF7761",
"S<.	c #B37B65",
"T<.	c #C18972",
"U<.	c #BE8571",
"V<.	c #C38A76",
"W<.	c #BD8471",
"X<.	c #BB8270",
"Y<.	c #B17865",
"Z<.	c #BC8371",
"`<.	c #BF8775",
" [.	c #BF8977",
".[.	c #C6917F",
"+[.	c #C28D7B",
"@[.	c #CA9583",
"#[.	c #C08B7A",
"$[.	c #BE8977",
"%[.	c #B88371",
"&[.	c #B6816F",
"*[.	c #AF7A68",
"=[.	c #B27E6D",
"-[.	c #B68072",
";[.	c #BC8379",
">[.	c #C48C82",
",[.	c #C08A82",
"'[.	c #BA877E",
")[.	c #C18F88",
"![.	c #BD8E87",
"~[.	c #BF928D",
"{[.	c #BF9390",
"][.	c #C29996",
"^[.	c #C39B99",
"/[.	c #C69E9C",
"([.	c #BD9695",
"_[.	c #C19A9B",
":[.	c #BE9898",
"<[.	c #B99595",
"[[.	c #BA9897",
"}[.	c #B89896",
"|[.	c #B89A98",
"1[.	c #B69896",
"2[.	c #B0918F",
"3[.	c #B39392",
"4[.	c #B29190",
"5[.	c #B29090",
"6[.	c #B49394",
"7[.	c #B8989A",
"8[.	c #B09498",
"9[.	c #B59BA2",
"0[.	c #BCA6AE",
"a[.	c #B9A9B2",
"b[.	c #B9AFB8",
"c[.	c #B4B0B9",
"d[.	c #B1B1B9",
"e[.	c #ADB0B9",
"f[.	c #A2AAB2",
"g[.	c #8D989E",
"h[.	c #808B91",
"i[.	c #7F8A90",
"j[.	c #6C767C",
"k[.	c #444B52",
"l[.	c #1A2128",
"m[.	c #090E17",
"n[.	c #0A0E17",
"o[.	c #0B0E18",
"p[.	c #0C0D17",
"q[.	c #0C0C17",
"r[.	c #0A0C16",
"s[.	c #080D16",
"t[.	c #070F18",
"u[.	c #07101A",
"v[.	c #07121D",
"w[.	c #081423",
"x[.	c #091626",
"y[.	c #0A1828",
"z[.	c #0B1828",
"A[.	c #0D192A",
"B[.	c #111C2C",
"C[.	c #101A2A",
"D[.	c #121D2D",
"E[.	c #101C2C",
"F[.	c #101D2E",
"G[.	c #132032",
"H[.	c #121E34",
"I[.	c #1C2036",
"J[.	c #4A3938",
"K[.	c #8B654A",
"L[.	c #7D583E",
"M[.	c #7E5A42",
"N[.	c #825F47",
"O[.	c #7F5D45",
"P[.	c #7E5D44",
"Q[.	c #7E5C44",
"R[.	c #846149",
"S[.	c #88634C",
"T[.	c #8E6650",
"U[.	c #895F4A",
"V[.	c #8F624E",
"W[.	c #9A6B57",
"X[.	c #A16E5C",
"Y[.	c #AA7362",
"Z[.	c #AC7564",
"`[.	c #AD7763",
" }.	c #B6806D",
".}.	c #AA7460",
"+}.	c #A06C56",
"@}.	c #9D6A54",
"#}.	c #AB7862",
"$}.	c #A8735C",
"%}.	c #A77059",
"&}.	c #B37B64",
"*}.	c #AE7660",
"=}.	c #B9816A",
"-}.	c #BB836C",
";}.	c #C18A73",
">}.	c #BE8572",
",}.	c #BB826E",
"'}.	c #C08775",
")}.	c #C28976",
"!}.	c #C38A77",
"~}.	c #B9816E",
"{}.	c #BC8573",
"]}.	c #AD7866",
"^}.	c #B37E6C",
"/}.	c #C18C7A",
"(}.	c #BF8B79",
"_}.	c #A46F5D",
":}.	c #B07B69",
"<}.	c #C08C7A",
"[}.	c #C08B79",
"}}.	c #B17C6A",
"|}.	c #AF7A69",
"1}.	c #BB8575",
"2}.	c #BB8475",
"3}.	c #B37C6E",
"4}.	c #BB8679",
"5}.	c #BB897D",
"6}.	c #B38278",
"7}.	c #B08179",
"8}.	c #B58882",
"9}.	c #C49894",
"0}.	c #BC9390",
"a}.	c #B8908E",
"b}.	c #BB9392",
"c}.	c #BB9695",
"d}.	c #BC9C9B",
"e}.	c #BEA19E",
"f}.	c #C0A5A2",
"g}.	c #C2A8A5",
"h}.	c #B8A09C",
"i}.	c #B39B97",
"j}.	c #B59C98",
"k}.	c #B59A97",
"l}.	c #B49895",
"m}.	c #B29693",
"n}.	c #B89C9A",
"o}.	c #BCA1A0",
"p}.	c #B69A9B",
"q}.	c #B69C9E",
"r}.	c #B9A0A3",
"s}.	c #B9A2A7",
"t}.	c #BCA9AF",
"u}.	c #BBADB4",
"v}.	c #BEB5BD",
"w}.	c #B8B4BC",
"x}.	c #B2B3BB",
"y}.	c #AAAEB7",
"z}.	c #A2A8B0",
"A}.	c #8B929A",
"B}.	c #70767E",
"C}.	c #525960",
"D}.	c #2C3238",
"E}.	c #0C1219",
"F}.	c #080D15",
"G}.	c #050811",
"H}.	c #040710",
"I}.	c #060812",
"J}.	c #090B14",
"K}.	c #0A0C15",
"L}.	c #0A0D16",
"M}.	c #0A0F19",
"N}.	c #0A101B",
"O}.	c #0E1324",
"P}.	c #0E1527",
"Q}.	c #12192B",
"R}.	c #11182B",
"S}.	c #0D1527",
"T}.	c #0C1526",
"U}.	c #0D1526",
"V}.	c #101A28",
"W}.	c #101C27",
"X}.	c #212328",
"Y}.	c #503B27",
"Z}.	c #805A22",
"`}.	c #A5741D",
" |.	c #B88115",
".|.	c #856145",
"+|.	c #846147",
"@|.	c #7F5D44",
"#|.	c #7F5E45",
"$|.	c #7A5B42",
"%|.	c #7B5C44",
"&|.	c #84654C",
"*|.	c #8C6B52",
"=|.	c #8F6C54",
"-|.	c #89644D",
";|.	c #946B55",
">|.	c #946954",
",|.	c #966A55",
"'|.	c #916752",
")|.	c #8D624D",
"!|.	c #976C57",
"~|.	c #956A54",
"{|.	c #92664F",
"]|.	c #936750",
"^|.	c #93654F",
"/|.	c #9D6E57",
"(|.	c #96664F",
"_|.	c #9F6B53",
":|.	c #A8715A",
"<|.	c #B07962",
"[|.	c #B17A63",
"}|.	c #B37C65",
"||.	c #BC846E",
"1|.	c #A9725B",
"2|.	c #B17962",
"3|.	c #A26B55",
"4|.	c #9F6852",
"5|.	c #B27B64",
"6|.	c #BA836C",
"7|.	c #B17965",
"8|.	c #AD7461",
"9|.	c #A36B58",
"0|.	c #9B6350",
"a|.	c #A26A57",
"b|.	c #B37C69",
"c|.	c #AD7765",
"d|.	c #AE7A68",
"e|.	c #A36E5C",
"f|.	c #A67160",
"g|.	c #AA7664",
"h|.	c #A5705F",
"i|.	c #B68271",
"j|.	c #B47F6D",
"k|.	c #BB8672",
"l|.	c #C08975",
"m|.	c #B98370",
"n|.	c #BC8775",
"o|.	c #B38071",
"p|.	c #B28173",
"q|.	c #B9897E",
"r|.	c #B1837B",
"s|.	c #B48882",
"t|.	c #B68D89",
"u|.	c #B18987",
"v|.	c #B18A89",
"w|.	c #B79594",
"x|.	c #B09491",
"y|.	c #B09592",
"z|.	c #B79F9B",
"A|.	c #BAA5A0",
"B|.	c #C0ACA7",
"C|.	c #B8A6A0",
"D|.	c #B6A49E",
"E|.	c #B09D98",
"F|.	c #B19D98",
"G|.	c #B6A09C",
"H|.	c #AB9591",
"I|.	c #AD9793",
"J|.	c #AB9593",
"K|.	c #A89291",
"L|.	c #B29D9D",
"M|.	c #B7A2A4",
"N|.	c #B09DA1",
"O|.	c #B2A2A7",
"P|.	c #B0A3AA",
"Q|.	c #B3AAB2",
"R|.	c #AAA6AD",
"S|.	c #A5A5AD",
"T|.	c #A7AAB2",
"U|.	c #8E919A",
"V|.	c #62646D",
"W|.	c #33353D",
"X|.	c #11121B",
"Y|.	c #080912",
"Z|.	c #080A13",
"`|.	c #050711",
" 1.	c #03060F",
".1.	c #070A13",
"+1.	c #080B14",
"@1.	c #0A0E16",
"#1.	c #0B0E17",
"$1.	c #090C18",
"%1.	c #0F111E",
"&1.	c #101020",
"*1.	c #0E0C20",
"=1.	c #100D22",
"-1.	c #100E24",
";1.	c #0E0F24",
">1.	c #16192D",
",1.	c #111628",
"'1.	c #2C252A",
")1.	c #5A4329",
"!1.	c #856122",
"~1.	c #A77618",
"{1.	c #B5821A",
"]1.	c #BB8414",
"^1.	c #BD8616",
"/1.	c #BD8415",
"(1.	c #77583D",
"_1.	c #6E4E34",
":1.	c #6F4D35",
"<1.	c #6E4D34",
"[1.	c #6F4E35",
"}1.	c #77553C",
"|1.	c #76533A",
"11.	c #735036",
"21.	c #79563C",
"31.	c #7D5941",
"41.	c #7B5842",
"51.	c #7A5742",
"61.	c #7A5640",
"71.	c #7E5943",
"81.	c #7F5943",
"91.	c #7D553F",
"01.	c #845B45",
"a1.	c #8B614A",
"b1.	c #946852",
"c1.	c #946751",
"d1.	c #8D6049",
"e1.	c #936751",
"f1.	c #8A5F4A",
"g1.	c #845641",
"h1.	c #92634E",
"i1.	c #9A6854",
"j1.	c #95604D",
"k1.	c #97604D",
"l1.	c #9D6552",
"m1.	c #AD7460",
"n1.	c #AA715E",
"o1.	c #A86F5B",
"p1.	c #AD7660",
"q1.	c #B17C63",
"r1.	c #B07B62",
"s1.	c #AC785F",
"t1.	c #AA765E",
"u1.	c #A36F58",
"v1.	c #AE7A63",
"w1.	c #B27C67",
"x1.	c #A16C57",
"y1.	c #9C6854",
"z1.	c #B27D69",
"A1.	c #A6705C",
"B1.	c #B37D6B",
"C1.	c #AC7665",
"D1.	c #BC8574",
"E1.	c #B88271",
"F1.	c #BD8677",
"G1.	c #B27B6C",
"H1.	c #B78072",
"I1.	c #B78173",
"J1.	c #AB7566",
"K1.	c #B47F6E",
"L1.	c #B78171",
"M1.	c #B37D6C",
"N1.	c #B37F6D",
"O1.	c #B58271",
"P1.	c #B48373",
"Q1.	c #AE8377",
"R1.	c #A57E73",
"S1.	c #AF8A81",
"T1.	c #AF8C85",
"U1.	c #B3938D",
"V1.	c #AF918E",
"W1.	c #AB908E",
"X1.	c #B19898",
"Y1.	c #B0999A",
"Z1.	c #AF9A9C",
"`1.	c #B29FA2",
" 2.	c #B6A3A7",
".2.	c #BBA7AC",
"+2.	c #B6A2A7",
"@2.	c #A89397",
"#2.	c #9D878A",
"$2.	c #A59092",
"%2.	c #A99596",
"&2.	c #AA969A",
"*2.	c #AB989C",
"=2.	c #AE9CA2",
"-2.	c #A49499",
";2.	c #A19398",
">2.	c #A3979E",
",2.	c #9C9199",
"'2.	c #A89FA7",
")2.	c #A49CA5",
"!2.	c #8E888F",
"~2.	c #57555C",
"{2.	c #21222A",
"]2.	c #090C14",
"^2.	c #02040D",
"/2.	c #04070F",
"(2.	c #050810",
"_2.	c #060912",
":2.	c #070A12",
"<2.	c #080911",
"[2.	c #080B16",
"}2.	c #0A0B19",
"|2.	c #0B0B1C",
"12.	c #0C0E20",
"22.	c #111529",
"32.	c #162742",
"42.	c #274464",
"52.	c #475E7F",
"62.	c #707382",
"72.	c #92806F",
"82.	c #A6864F",
"92.	c #BD8321",
"02.	c #BD8718",
"a2.	c #BD8813",
"b2.	c #BC8514",
"c2.	c #BF8518",
"d2.	c #7D5A41",
"e2.	c #8B684E",
"f2.	c #8B684F",
"g2.	c #836147",
"h2.	c #7A5940",
"i2.	c #74533A",
"j2.	c #6F4F37",
"k2.	c #72533C",
"l2.	c #70513B",
"m2.	c #6F503A",
"n2.	c #6E4F38",
"o2.	c #73543E",
"p2.	c #72503C",
"q2.	c #704C39",
"r2.	c #805D4A",
"s2.	c #84604C",
"t2.	c #805B48",
"u2.	c #7E5945",
"v2.	c #7B5541",
"w2.	c #79523D",
"x2.	c #815944",
"y2.	c #7D5640",
"z2.	c #7F5742",
"A2.	c #82614A",
"B2.	c #825B43",
"C2.	c #875D47",
"D2.	c #865944",
"E2.	c #895A45",
"F2.	c #93634D",
"G2.	c #9A6952",
"H2.	c #9D6D55",
"I2.	c #9E6E56",
"J2.	c #9E6D57",
"K2.	c #9B6A56",
"L2.	c #9E6C59",
"M2.	c #A3715D",
"N2.	c #A57460",
"O2.	c #A2705C",
"P2.	c #A06F5A",
"Q2.	c #A87762",
"R2.	c #AA7965",
"S2.	c #AC7B67",
"T2.	c #AD7A66",
"U2.	c #A06A58",
"V2.	c #AA7465",
"W2.	c #B57F70",
"X2.	c #B98375",
"Y2.	c #B98376",
"Z2.	c #B07B6D",
"`2.	c #AB796A",
" 3.	c #AD7D6E",
".3.	c #A97969",
"+3.	c #A37161",
"@3.	c #A17060",
"#3.	c #B58475",
"$3.	c #A77869",
"%3.	c #AC7F71",
"&3.	c #A57B6F",
"*3.	c #9E766D",
"=3.	c #A37D75",
"-3.	c #AE8984",
";3.	c #B08D8A",
">3.	c #AC8C8A",
",3.	c #A88A88",
"'3.	c #A38786",
")3.	c #A08887",
"!3.	c #A69090",
"~3.	c #A69392",
"{3.	c #AB9899",
"]3.	c #AE9C9D",
"^3.	c #B4A1A4",
"/3.	c #B4A1A5",
"(3.	c #B7A4A8",
"_3.	c #B3A1A4",
":3.	c #A9999A",
"<3.	c #A39496",
"[3.	c #A8999D",
"}3.	c #A79A9F",
"|3.	c #A3989C",
"13.	c #9D9397",
"23.	c #9E979C",
"33.	c #9C969C",
"43.	c #9D979E",
"53.	c #7F7B81",
"63.	c #38353B",
"73.	c #0A0A10",
"83.	c #05070D",
"93.	c #070A10",
"03.	c #04070D",
"a3.	c #03060C",
"b3.	c #06090F",
"c3.	c #05080E",
"d3.	c #05080F",
"e3.	c #05070E",
"f3.	c #06060E",
"g3.	c #060A15",
"h3.	c #091222",
"i3.	c #0D2039",
"j3.	c #0E2F50",
"k3.	c #1A4C7C",
"l3.	c #2A639B",
"m3.	c #29649C",
"n3.	c #266297",
"o3.	c #2E6AA1",
"p3.	c #3D6BA1",
"q3.	c #59739A",
"r3.	c #827F83",
"s3.	c #A4865C",
"t3.	c #BA872D",
"u3.	c #BE8718",
"v3.	c #C08814",
"w3.	c #8D644C",
"x3.	c #8C664D",
"y3.	c #8B674E",
"z3.	c #8A664D",
"A3.	c #805E47",
"B3.	c #70503A",
"C3.	c #684933",
"D3.	c #634530",
"E3.	c #563A25",
"F3.	c #5A3F2C",
"G3.	c #684D3A",
"H3.	c #654B38",
"I3.	c #6B503E",
"J3.	c #634735",
"K3.	c #5E412F",
"L3.	c #5F422F",
"M3.	c #5A3E2A",
"N3.	c #5C402B",
"O3.	c #604530",
"P3.	c #664B35",
"Q3.	c #654A33",
"R3.	c #644A33",
"S3.	c #5D432B",
"T3.	c #5C422A",
"U3.	c #624934",
"V3.	c #614734",
"W3.	c #664A39",
"X3.	c #6B4C3B",
"Y3.	c #6C4B3A",
"Z3.	c #6A4636",
"`3.	c #76503F",
" 4.	c #805848",
".4.	c #805747",
"+4.	c #8C6352",
"@4.	c #8B6251",
"#4.	c #875F4E",
"$4.	c #8E6353",
"%4.	c #8D6051",
"&4.	c #926556",
"*4.	c #9A6D5E",
"=4.	c #986B5B",
"-4.	c #906353",
";4.	c #9F7362",
">4.	c #A27563",
",4.	c #966957",
"'4.	c #996C59",
")4.	c #A37662",
"!4.	c #9E715D",
"~4.	c #A0735E",
"{4.	c #986C56",
"]4.	c #946851",
"^4.	c #8D614C",
"/4.	c #AA7D68",
"(4.	c #9C6F5D",
"_4.	c #9C6F5E",
":4.	c #9B6E5E",
"<4.	c #A17464",
"[4.	c #966A5A",
"}4.	c #946959",
"|4.	c #9D7161",
"14.	c #9E7161",
"24.	c #996C5B",
"34.	c #A17263",
"44.	c #A37567",
"54.	c #9E7165",
"64.	c #986E65",
"74.	c #9B736C",
"84.	c #A07973",
"94.	c #A37E7A",
"04.	c #A5807F",
"a4.	c #967274",
"b4.	c #957473",
"c4.	c #9E807D",
"d4.	c #9F8480",
"e4.	c #9E8882",
"f4.	c #A8958F",
"g4.	c #9E8C87",
"h4.	c #9A8A87",
"i4.	c #AE9E9E",
"j4.	c #B5A6A7",
"k4.	c #AD9DA1",
"l4.	c #A59699",
"m4.	c #A79A9B",
"n4.	c #A19697",
"o4.	c #968C8E",
"p4.	c #948B8E",
"q4.	c #90898B",
"r4.	c #989295",
"s4.	c #9A969A",
"t4.	c #7B797E",
"u4.	c #504F53",
"v4.	c #232227",
"w4.	c #0A0B11",
"x4.	c #06090E",
"y4.	c #04080C",
"z4.	c #060A0E",
"A4.	c #080C0F",
"B4.	c #05080C",
"C4.	c #03060A",
"D4.	c #04080B",
"E4.	c #03070B",
"F4.	c #050A15",
"G4.	c #0B1A2E",
"H4.	c #16304F",
"I4.	c #1D4164",
"J4.	c #184062",
"K4.	c #103A5E",
"L4.	c #0A345A",
"M4.	c #1B4670",
"N4.	c #205183",
"O4.	c #23588E",
"P4.	c #25588E",
"Q4.	c #1D5B8E",
"R4.	c #206194",
"S4.	c #246095",
"T4.	c #356AA1",
"U4.	c #5775A0",
"V4.	c #807F8B",
"W4.	c #A1845B",
"X4.	c #BA883C",
"Y4.	c #946A56",
"Z4.	c #956A56",
"`4.	c #986E59",
" 5.	c #956C57",
".5.	c #926B55",
"+5.	c #916C56",
"@5.	c #8B6752",
"#5.	c #8A6952",
"$5.	c #86674F",
"%5.	c #775B43",
"&5.	c #6D523A",
"*5.	c #644A31",
"=5.	c #5B3F2B",
"-5.	c #573A29",
";5.	c #593B2A",
">5.	c #5B3D2D",
",5.	c #5A3E2C",
"'5.	c #563B29",
")5.	c #553B2A",
"!5.	c #553D2C",
"~5.	c #563E2E",
"{5.	c #503929",
"]5.	c #503A2A",
"^5.	c #4D3728",
"/5.	c #523B2D",
"(5.	c #533B2D",
"_5.	c #50382B",
":5.	c #5E4738",
"<5.	c #543D2F",
"[5.	c #4F3728",
"}5.	c #5A4032",
"|5.	c #63483B",
"15.	c #684A3E",
"25.	c #644337",
"35.	c #654237",
"45.	c #674238",
"55.	c #6C483C",
"65.	c #704B3F",
"75.	c #755144",
"85.	c #765144",
"95.	c #724C3F",
"05.	c #886456",
"a5.	c #886254",
"b5.	c #7D5646",
"c5.	c #865E4F",
"d5.	c #845C4D",
"e5.	c #7E5747",
"f5.	c #865F50",
"g5.	c #835C4C",
"h5.	c #845D4D",
"i5.	c #815A4A",
"j5.	c #805949",
"k5.	c #835C4D",
"l5.	c #896253",
"m5.	c #8C6455",
"n5.	c #896151",
"o5.	c #8D6556",
"p5.	c #8E6858",
"q5.	c #866050",
"r5.	c #936C5D",
"s5.	c #8E6859",
"t5.	c #8B6558",
"u5.	c #946E62",
"v5.	c #8F6A5F",
"w5.	c #8F6A61",
"x5.	c #8E6961",
"y5.	c #937068",
"z5.	c #906C66",
"A5.	c #8E6A67",
"B5.	c #906C6C",
"C5.	c #9D7B7A",
"D5.	c #9A7A77",
"E5.	c #9A7D79",
"F5.	c #997D78",
"G5.	c #947A75",
"H5.	c #9E8682",
"I5.	c #9B8683",
"J5.	c #8E7A7A",
"K5.	c #907D7E",
"L5.	c #928082",
"M5.	c #948586",
"N5.	c #928787",
"O5.	c #928988",
"P5.	c #958F8E",
"Q5.	c #8F8C8C",
"R5.	c #828081",
"S5.	c #6C6C6D",
"T5.	c #4B4B4D",
"U5.	c #1D1E20",
"V5.	c #07090D",
"W5.	c #06070D",
"X5.	c #08070E",
"Y5.	c #06070C",
"Z5.	c #060A0D",
"`5.	c #06090D",
" 6.	c #05080D",
".6.	c #04070C",
"+6.	c #04070E",
"@6.	c #040912",
"#6.	c #071220",
"$6.	c #0B192A",
"%6.	c #15273A",
"&6.	c #142740",
"*6.	c #193458",
"=6.	c #264672",
"-6.	c #20436B",
";6.	c #163B5E",
">6.	c #16395B",
",6.	c #072849",
"'6.	c #183A61",
")6.	c #1E4A79",
"!6.	c #235380",
"~6.	c #255483",
"{6.	c #205585",
"]6.	c #1F5685",
"^6.	c #245986",
"/6.	c #265F92",
"(6.	c #356AA5",
"_6.	c #3D71AC",
":6.	c #49729C",
"<6.	c #767D92",
"[6.	c #A37960",
"}6.	c #A3775C",
"|6.	c #A2765B",
"16.	c #A0755A",
"26.	c #9F7459",
"36.	c #A0765A",
"46.	c #976E52",
"56.	c #9C7558",
"66.	c #9E795B",
"76.	c #957153",
"86.	c #977355",
"96.	c #927051",
"06.	c #8F6C4D",
"a6.	c #886444",
"b6.	c #835F3F",
"c6.	c #7F5B3D",
"d6.	c #7D5A3D",
"e6.	c #7B583D",
"f6.	c #735138",
"g6.	c #6E4D37",
"h6.	c #61402D",
"i6.	c #5A3A29",
"j6.	c #553627",
"k6.	c #57392C",
"l6.	c #523327",
"m6.	c #513425",
"n6.	c #523725",
"o6.	c #4F3523",
"p6.	c #4D3423",
"q6.	c #4A3422",
"r6.	c #412C1B",
"s6.	c #402B1B",
"t6.	c #432D1E",
"u6.	c #4D3526",
"v6.	c #553B2E",
"w6.	c #563A2E",
"x6.	c #66493D",
"y6.	c #67493E",
"z6.	c #66473D",
"A6.	c #694A3F",
"B6.	c #644438",
"C6.	c #6B4A3E",
"D6.	c #725145",
"E6.	c #725144",
"F6.	c #6D4B3E",
"G6.	c #704E40",
"H6.	c #714E3F",
"I6.	c #6A4637",
"J6.	c #755243",
"K6.	c #745143",
"L6.	c #735144",
"M6.	c #785649",
"N6.	c #775548",
"O6.	c #765447",
"P6.	c #7E5C4F",
"Q6.	c #775447",
"R6.	c #775547",
"S6.	c #7F5D50",
"T6.	c #7F5C4F",
"U6.	c #7D5B4E",
"V6.	c #87655A",
"W6.	c #815E56",
"X6.	c #835F57",
"Y6.	c #825E57",
"Z6.	c #805E56",
"`6.	c #7B5952",
" 7.	c #8B6A64",
".7.	c #84645E",
"+7.	c #7B5B55",
"@7.	c #755650",
"#7.	c #82625D",
"$7.	c #8E6F69",
"%7.	c #896965",
"&7.	c #866664",
"*7.	c #8A6B68",
"=7.	c #7D615D",
"-7.	c #826964",
";7.	c #8D7771",
">7.	c #87736E",
",7.	c #8A7975",
"'7.	c #8B7C7A",
")7.	c #887C7C",
"!7.	c #8C8284",
"~7.	c #8B8186",
"{7.	c #827C7F",
"]7.	c #7B787A",
"^7.	c #737172",
"/7.	c #69686A",
"(7.	c #515052",
"_7.	c #272729",
":7.	c #0B0A0E",
"<7.	c #050409",
"[7.	c #040409",
"}7.	c #05060B",
"|7.	c #05090C",
"17.	c #080B0F",
"27.	c #070B12",
"37.	c #09101C",
"47.	c #101A29",
"57.	c #111D31",
"67.	c #172941",
"77.	c #1A2C46",
"87.	c #1D3046",
"97.	c #182A42",
"07.	c #1C3557",
"a7.	c #29446E",
"b7.	c #1A385F",
"c7.	c #163557",
"d7.	c #163352",
"e7.	c #0C243F",
"f7.	c #122E4B",
"g7.	c #183E65",
"h7.	c #1E4874",
"i7.	c #234E7B",
"j7.	c #24517D",
"k7.	c #224E7A",
"l7.	c #234C7A",
"m7.	c #214E80",
"n7.	c #285E96",
"o7.	c #2C699E",
"p7.	c #346DAC",
"q7.	c #316AA5",
"r7.	c #AD8366",
"s7.	c #A97C60",
"t7.	c #AE8065",
"u7.	c #AB7D62",
"v7.	c #A87B5F",
"w7.	c #AC7F64",
"x7.	c #AD7F64",
"y7.	c #AC7F63",
"z7.	c #A2755A",
"A7.	c #986C50",
"B7.	c #996D52",
"C7.	c #A1755A",
"D7.	c #A77C5E",
"E7.	c #A47858",
"F7.	c #A27654",
"G7.	c #A77C5C",
"H7.	c #9F7556",
"I7.	c #91684B",
"J7.	c #875F44",
"K7.	c #815A40",
"L7.	c #7C553D",
"M7.	c #76523A",
"N7.	c #6F4B35",
"O7.	c #6A4630",
"P7.	c #5E3C26",
"Q7.	c #5C3D27",
"R7.	c #5A3D26",
"S7.	c #543923",
"T7.	c #4D351F",
"U7.	c #462F1A",
"V7.	c #47331F",
"W7.	c #45321F",
"X7.	c #3F2C1A",
"Y7.	c #3F2C1D",
"Z7.	c #3C291A",
"`7.	c #3E2A1D",
" 8.	c #402C1F",
".8.	c #402D20",
"+8.	c #473326",
"@8.	c #4F3B2E",
"#8.	c #533F31",
"$8.	c #4C3829",
"%8.	c #543F30",
"&8.	c #543E2F",
"*8.	c #5C4536",
"=8.	c #594232",
"-8.	c #56402F",
";8.	c #5D4436",
">8.	c #5C4035",
",8.	c #583C31",
"'8.	c #5A3F34",
")8.	c #63483D",
"!8.	c #765B51",
"~8.	c #62463B",
"{8.	c #61453A",
"]8.	c #5F4338",
"^8.	c #5B3F34",
"/8.	c #593D32",
"(8.	c #5E4036",
"_8.	c #684A40",
":8.	c #684A41",
"<8.	c #66483F",
"[8.	c #73564C",
"}8.	c #75584E",
"|8.	c #664A3F",
"18.	c #62473C",
"28.	c #694E43",
"38.	c #674C41",
"48.	c #694F44",
"58.	c #6A4F46",
"68.	c #694D48",
"78.	c #6E524E",
"88.	c #775E59",
"98.	c #77635D",
"08.	c #7B6963",
"a8.	c #746762",
"b8.	c #706563",
"c8.	c #797271",
"d8.	c #848082",
"e8.	c #858388",
"f8.	c #78787E",
"g8.	c #73757B",
"h8.	c #62666B",
"i8.	c #3C3F43",
"j8.	c #16171B",
"k8.	c #05050B",
"l8.	c #05030A",
"m8.	c #050308",
"n8.	c #050309",
"o8.	c #06050A",
"p8.	c #07070C",
"q8.	c #0C0C0F",
"r8.	c #221C1F",
"s8.	c #494245",
"t8.	c #68696E",
"u8.	c #5C6469",
"v8.	c #161A20",
"w8.	c #070F1A",
"x8.	c #0F1A2A",
"y8.	c #0F1C2F",
"z8.	c #16213B",
"A8.	c #14213A",
"B8.	c #142239",
"C8.	c #142237",
"D8.	c #284166",
"E8.	c #233E5D",
"F8.	c #14324F",
"G8.	c #142F4A",
"H8.	c #0F2136",
"I8.	c #0E2336",
"J8.	c #143A57",
"K8.	c #1D436B",
"L8.	c #234876",
"M8.	c #19416B",
"N8.	c #1D426C",
"O8.	c #254674",
"P8.	c #255384",
"Q8.	c #2E669C",
"R8.	c #2C649B",
"S8.	c #286196",
"T8.	c #205C90",
"U8.	c #A97D63",
"V8.	c #A97D62",
"W8.	c #B08469",
"X8.	c #B1846A",
"Y8.	c #B1856A",
"Z8.	c #AF8368",
"`8.	c #AE8267",
" 9.	c #AB7F65",
".9.	c #B0856A",
"+9.	c #AA7E63",
"@9.	c #A77C61",
"#9.	c #A5795E",
"$9.	c #A77B60",
"%9.	c #9D7156",
"&9.	c #9C7055",
"*9.	c #A3785D",
"=9.	c #A67C61",
"-9.	c #A27A5E",
";9.	c #936C4F",
">9.	c #8A6447",
",9.	c #896347",
"'9.	c #8A6448",
")9.	c #835D41",
"!9.	c #795338",
"~9.	c #754F35",
"{9.	c #714D32",
"]9.	c #704C31",
"^9.	c #6A472E",
"/9.	c #6D4A31",
"(9.	c #6B4A31",
"_9.	c #63432B",
":9.	c #60412A",
"<9.	c #5B3E27",
"[9.	c #553921",
"}9.	c #533621",
"|9.	c #472F20",
"19.	c #432B1C",
"29.	c #442C1E",
"39.	c #422A1C",
"49.	c #3F2719",
"59.	c #422B1E",
"69.	c #462F22",
"79.	c #452D20",
"89.	c #493023",
"99.	c #4B3225",
"09.	c #472F22",
"a9.	c #462F21",
"b9.	c #463021",
"c9.	c #422D1D",
"d9.	c #493325",
"e9.	c #463023",
"f9.	c #452E21",
"g9.	c #483124",
"h9.	c #4C3529",
"i9.	c #4F372C",
"j9.	c #543C30",
"k9.	c #5A4337",
"l9.	c #564135",
"m9.	c #564234",
"n9.	c #513C2F",
"o9.	c #4E372B",
"p9.	c #543C31",
"q9.	c #654B41",
"r9.	c #644B42",
"s9.	c #523B31",
"t9.	c #503A31",
"u9.	c #574339",
"v9.	c #57453B",
"w9.	c #5C4B40",
"x9.	c #5E4B43",
"y9.	c #5A4641",
"z9.	c #614D49",
"A9.	c #6D5C59",
"B9.	c #6D5F5D",
"C9.	c #7C7170",
"D9.	c #807878",
"E9.	c #807C7D",
"F9.	c #817F83",
"G9.	c #818186",
"H9.	c #77797E",
"I9.	c #5F6167",
"J9.	c #3F4146",
"K9.	c #191B1F",
"L9.	c #07080D",
"M9.	c #040509",
"N9.	c #020307",
"O9.	c #1C1314",
"P9.	c #443434",
"Q9.	c #675555",
"R9.	c #867572",
"S9.	c #988380",
"T9.	c #AD9595",
"U9.	c #B9A8AE",
"V9.	c #ADAEB6",
"W9.	c #5E6269",
"X9.	c #090C15",
"Y9.	c #0B0F1C",
"Z9.	c #101428",
"`9.	c #0F1828",
" 0.	c #131E2C",
".0.	c #101A2C",
"+0.	c #152131",
"@0.	c #0F1B2D",
"#0.	c #0F1C30",
"$0.	c #172A47",
"%0.	c #22395A",
"&0.	c #1A3250",
"*0.	c #183251",
"=0.	c #132A46",
"-0.	c #0A1B31",
";0.	c #0B1D33",
">0.	c #142E4A",
",0.	c #1B385D",
"'0.	c #213F69",
")0.	c #1B3C62",
"!0.	c #1C3D65",
"~0.	c #1D3C6A",
"{0.	c #1F4B7C",
"]0.	c #255C92",
"^0.	c #235990",
"/0.	c #255A8F",
"(0.	c #205586",
"_0.	c #A57A5F",
":0.	c #A97E63",
"<0.	c #A5795F",
"[0.	c #A0765B",
"}0.	c #9C7256",
"|0.	c #976C51",
"10.	c #9F7358",
"20.	c #9D7358",
"30.	c #996F54",
"40.	c #986D53",
"50.	c #946853",
"60.	c #8E604F",
"70.	c #885B49",
"80.	c #875B48",
"90.	c #825844",
"00.	c #764D38",
"a0.	c #6E472F",
"b0.	c #6E492F",
"c0.	c #6B472D",
"d0.	c #684529",
"e0.	c #6C4A2E",
"f0.	c #704F33",
"g0.	c #704F35",
"h0.	c #694A31",
"i0.	c #604129",
"j0.	c #5B3D27",
"k0.	c #5C3D29",
"l0.	c #5B3D2B",
"m0.	c #593C2B",
"n0.	c #563A2C",
"o0.	c #523629",
"p0.	c #51362B",
"q0.	c #54382F",
"r0.	c #52372E",
"s0.	c #50382E",
"t0.	c #4F392F",
"u0.	c #523E34",
"v0.	c #523F34",
"w0.	c #4E3C31",
"x0.	c #544237",
"y0.	c #524238",
"z0.	c #57463E",
"A0.	c #58473E",
"B0.	c #503F37",
"C0.	c #514139",
"D0.	c #50423C",
"E0.	c #4F413C",
"F0.	c #544641",
"G0.	c #554541",
"H0.	c #584744",
"I0.	c #5A4947",
"J0.	c #665553",
"K0.	c #726260",
"L0.	c #776866",
"M0.	c #776A68",
"N0.	c #786D6B",
"O0.	c #807574",
"P0.	c #877D7B",
"Q0.	c #88807C",
"R0.	c #8B8480",
"S0.	c #918A88",
"T0.	c #908B89",
"U0.	c #928E8E",
"V0.	c #8C8B8C",
"W0.	c #858688",
"X0.	c #75787B",
"Y0.	c #606568",
"Z0.	c #40474A",
"`0.	c #171E21",
" a.	c #0C0E10",
".a.	c #1C1212",
"+a.	c #3F2A24",
"@a.	c #604037",
"#a.	c #815A4E",
"$a.	c #9D6F60",
"%a.	c #A87C6F",
"&a.	c #A8807C",
"*a.	c #B49996",
"=a.	c #B6A39F",
"-a.	c #AC9894",
";a.	c #AF9A9A",
">a.	c #AE9FA5",
",a.	c #9F9DA5",
"'a.	c #2B2C34",
")a.	c #0D0E1B",
"!a.	c #100F24",
"~a.	c #111829",
"{a.	c #121B2D",
"]a.	c #121A2D",
"^a.	c #0F1A29",
"/a.	c #111B2B",
"(a.	c #0E182C",
"_a.	c #12223E",
":a.	c #1F3452",
"<a.	c #152C4B",
"[a.	c #182E4D",
"}a.	c #1B2F4C",
"|a.	c #0B1C33",
"1a.	c #0A192D",
"2a.	c #102135",
"3a.	c #192F48",
"4a.	c #1B3357",
"5a.	c #1A3458",
"6a.	c #19355C",
"7a.	c #1B3866",
"8a.	c #224C7D",
"9a.	c #2C6098",
"0a.	c #2D679E",
"aa.	c #286092",
"ba.	c #194E7C",
"ca.	c #AC8367",
"da.	c #B3876C",
"ea.	c #B78B71",
"fa.	c #AF8369",
"ga.	c #AB7F64",
"ha.	c #A87C61",
"ia.	c #9B7257",
"ja.	c #A67D61",
"ka.	c #AC8166",
"la.	c #A4785E",
"ma.	c #AD7F65",
"na.	c #B6876D",
"oa.	c #B4866C",
"pa.	c #B8896F",
"qa.	c #B6866D",
"ra.	c #B2856E",
"sa.	c #A77D66",
"ta.	c #9A705A",
"ua.	c #8A624B",
"va.	c #865F48",
"wa.	c #825C45",
"xa.	c #7E5A41",
"ya.	c #7B5940",
"za.	c #7E5C43",
"Aa.	c #805F45",
"Ba.	c #7C5C42",
"Ca.	c #816248",
"Da.	c #82634A",
"Ea.	c #806049",
"Fa.	c #7E5F48",
"Ga.	c #765841",
"Ha.	c #70533C",
"Ia.	c #785D48",
"Ja.	c #7D624D",
"Ka.	c #7E6451",
"La.	c #7E6553",
"Ma.	c #7A6351",
"Na.	c #7E6857",
"Oa.	c #816C5C",
"Pa.	c #806B5F",
"Qa.	c #806C63",
"Ra.	c #806B63",
"Sa.	c #7E6A62",
"Ta.	c #7B6861",
"Ua.	c #806E67",
"Va.	c #87766F",
"Wa.	c #81736B",
"Xa.	c #7D7069",
"Ya.	c #80746D",
"Za.	c #827770",
"`a.	c #817670",
" b.	c #7B716D",
".b.	c #786E6C",
"+b.	c #847979",
"@b.	c #887D7D",
"#b.	c #8E8183",
"$b.	c #928487",
"%b.	c #98898D",
"&b.	c #998B8F",
"*b.	c #96898D",
"=b.	c #908589",
"-b.	c #8F878A",
";b.	c #928B8D",
">b.	c #928B8C",
",b.	c #8E8787",
"'b.	c #898585",
")b.	c #858283",
"!b.	c #838183",
"~b.	c #7B7A7D",
"{b.	c #68696B",
"]b.	c #504C4D",
"^b.	c #493530",
"/b.	c #674438",
"(b.	c #855D4A",
"_b.	c #8E614D",
":b.	c #A0705C",
"<b.	c #B17C68",
"[b.	c #B78070",
"}b.	c #B88073",
"|b.	c #AE7969",
"1b.	c #B38271",
"2b.	c #AD877D",
"3b.	c #AF9290",
"4b.	c #B19DA0",
"5b.	c #AE999E",
"6b.	c #A89699",
"7b.	c #A09399",
"8b.	c #8B848B",
"9b.	c #080B13",
"0b.	c #04060F",
"ab.	c #060810",
"bb.	c #080A15",
"cb.	c #101325",
"db.	c #0F1B2B",
"eb.	c #141F2F",
"fb.	c #101C2A",
"gb.	c #0B1724",
"hb.	c #0C172A",
"ib.	c #131F38",
"jb.	c #213352",
"kb.	c #192E4D",
"lb.	c #192E49",
"mb.	c #172B47",
"nb.	c #0C1B34",
"ob.	c #0C1729",
"pb.	c #101C2B",
"qb.	c #14263B",
"rb.	c #1D304F",
"sb.	c #1B3051",
"tb.	c #162D50",
"ub.	c #1B3A62",
"vb.	c #214A7A",
"wb.	c #265990",
"xb.	c #255D95",
"yb.	c #245A89",
"zb.	c #1E4F7C",
"Ab.	c #A57C60",
"Bb.	c #A97F64",
"Cb.	c #A87D62",
"Db.	c #A87D63",
"Eb.	c #A2775C",
"Fb.	c #A97F63",
"Gb.	c #AB8166",
"Hb.	c #AD8267",
"Ib.	c #A57B60",
"Jb.	c #A6795E",
"Kb.	c #9F7257",
"Lb.	c #9C7155",
"Mb.	c #A37A5D",
"Nb.	c #A77F62",
"Ob.	c #B48C6F",
"Pb.	c #B88F73",
"Qb.	c #B0876A",
"Rb.	c #B18368",
"Sb.	c #B38368",
"Tb.	c #B5836A",
"Ub.	c #B08169",
"Vb.	c #AD8069",
"Wb.	c #B2866F",
"Xb.	c #A47962",
"Yb.	c #9D735B",
"Zb.	c #9E775E",
"`b.	c #9D775E",
" c.	c #987359",
".c.	c #957056",
"+c.	c #967258",
"@c.	c #957258",
"#c.	c #967760",
"$c.	c #8D6E5A",
"%c.	c #876854",
"&c.	c #886A57",
"*c.	c #8E715F",
"=c.	c #937866",
"-c.	c #8D7262",
";c.	c #856C5C",
">c.	c #826A5B",
",c.	c #856E5F",
"'c.	c #8F796B",
")c.	c #927B6E",
"!c.	c #8B7469",
"~c.	c #8B736B",
"{c.	c #8E756E",
"]c.	c #8F7871",
"^c.	c #907973",
"/c.	c #8E7974",
"(c.	c #907C77",
"_c.	c #8F7D78",
":c.	c #8F7D7A",
"<c.	c #8F7E7B",
"[c.	c #8A7B78",
"}c.	c #877B79",
"|c.	c #837B78",
"1c.	c #898180",
"2c.	c #857C7E",
"3c.	c #948B8F",
"4c.	c #9A9096",
"5c.	c #958B92",
"6c.	c #938A90",
"7c.	c #91868D",
"8c.	c #93898E",
"9c.	c #8D8387",
"0c.	c #92898B",
"ac.	c #908A8B",
"bc.	c #878584",
"cc.	c #817F7C",
"dc.	c #797672",
"ec.	c #706A65",
"fc.	c #6C5F57",
"gc.	c #6D5549",
"hc.	c #6E4E3C",
"ic.	c #73533C",
"jc.	c #7E5641",
"kc.	c #90624D",
"lc.	c #9B6C58",
"mc.	c #A06F5D",
"nc.	c #AB7866",
"oc.	c #B17D6E",
"pc.	c #A67767",
"qc.	c #A37465",
"rc.	c #A78079",
"sc.	c #A18180",
"tc.	c #A4908E",
"uc.	c #B4A3A6",
"vc.	c #A6989A",
"wc.	c #9D9499",
"xc.	c #625F64",
"yc.	c #070914",
"zc.	c #111326",
"Ac.	c #111728",
"Bc.	c #121E2D",
"Cc.	c #0F1B2A",
"Dc.	c #101927",
"Ec.	c #0D1529",
"Fc.	c #141D37",
"Gc.	c #1F2F4F",
"Hc.	c #1A2D43",
"Ic.	c #13253F",
"Jc.	c #0B1930",
"Kc.	c #0E182B",
"Lc.	c #0E1829",
"Mc.	c #0C1A2E",
"Nc.	c #13223F",
"Oc.	c #1A2B49",
"Pc.	c #1B2E4F",
"Qc.	c #1E3B5B",
"Rc.	c #1E4571",
"Sc.	c #1D4F80",
"Tc.	c #235786",
"Uc.	c #184C74",
"Vc.	c #13466E",
"Wc.	c #7F593F",
"Xc.	c #846046",
"Yc.	c #916D53",
"Zc.	c #957156",
"`c.	c #967156",
" d.	c #946F54",
".d.	c #A47C63",
"+d.	c #A67E65",
"@d.	c #A37A61",
"#d.	c #A57C63",
"$d.	c #AA8067",
"%d.	c #AA8064",
"&d.	c #A97E60",
"*d.	c #A47B5D",
"=d.	c #AB8264",
"-d.	c #AB8365",
";d.	c #A78162",
">d.	c #AC8567",
",d.	c #AB8465",
"'d.	c #9F7658",
")d.	c #A77C5F",
"!d.	c #A7795D",
"~d.	c #A17257",
"{d.	c #A97B63",
"]d.	c #AC7F68",
"^d.	c #AD806A",
"/d.	c #AB8069",
"(d.	c #AA8169",
"_d.	c #A78067",
":d.	c #A17B61",
"<d.	c #A07B62",
"[d.	c #A07B61",
"}d.	c #A48066",
"|d.	c #A68369",
"1d.	c #A28066",
"2d.	c #9D7C64",
"3d.	c #967660",
"4d.	c #9B7B65",
"5d.	c #92725D",
"6d.	c #937560",
"7d.	c #947763",
"8d.	c #907461",
"9d.	c #997D6C",
"0d.	c #977C6C",
"ad.	c #8D7464",
"bd.	c #856C5D",
"cd.	c #82695B",
"dd.	c #826A5D",
"ed.	c #81695E",
"fd.	c #8B7368",
"gd.	c #937D73",
"hd.	c #917B71",
"id.	c #968279",
"jd.	c #98857E",
"kd.	c #97847D",
"ld.	c #91807A",
"md.	c #867671",
"nd.	c #867771",
"od.	c #92837F",
"pd.	c #958784",
"qd.	c #897E7B",
"rd.	c #8B817E",
"sd.	c #8E8482",
"td.	c #8B817F",
"ud.	c #8A807F",
"vd.	c #8D8484",
"wd.	c #867D7E",
"xd.	c #817677",
"yd.	c #897877",
"zd.	c #8B7571",
"Ad.	c #8A6F68",
"Bd.	c #917163",
"Cd.	c #8F6B59",
"Dd.	c #8C6651",
"Ed.	c #825F4A",
"Fd.	c #614531",
"Gd.	c #604533",
"Hd.	c #593E2C",
"Id.	c #5D452F",
"Jd.	c #5D4432",
"Kd.	c #664737",
"Ld.	c #7B5547",
"Md.	c #7F5547",
"Nd.	c #956B5C",
"Od.	c #976C5A",
"Pd.	c #926753",
"Qd.	c #986D5A",
"Rd.	c #946857",
"Sd.	c #956B5B",
"Td.	c #9D7264",
"Ud.	c #9A736D",
"Vd.	c #9D8782",
"Wd.	c #A69596",
"Xd.	c #9E9394",
"Yd.	c #898689",
"Zd.	c #1A1B1F",
"`d.	c #0D1020",
" e.	c #0C1827",
".e.	c #111929",
"+e.	c #0D1427",
"@e.	c #101832",
"#e.	c #1B2848",
"$e.	c #15273D",
"%e.	c #182942",
"&e.	c #0B182E",
"*e.	c #0B1628",
"=e.	c #0F1A2D",
"-e.	c #16223C",
";e.	c #1A2A45",
">e.	c #192A46",
",e.	c #173251",
"'e.	c #1F4674",
")e.	c #1F4E80",
"!e.	c #1A4B75",
"~e.	c #194B6F",
"{e.	c #15476C",
"]e.	c #76553E",
"^e.	c #7C5E45",
"/e.	c #7B5E43",
"(e.	c #7B5D42",
"_e.	c #83644A",
":e.	c #826248",
"<e.	c #826046",
"[e.	c #88654C",
"}e.	c #947056",
"|e.	c #936E55",
"1e.	c #8F674E",
"2e.	c #8C644B",
"3e.	c #8E644C",
"4e.	c #997059",
"5e.	c #9D745D",
"6e.	c #946D55",
"7e.	c #916B53",
"8e.	c #8E6950",
"9e.	c #88634A",
"0e.	c #8C674E",
"ae.	c #916A52",
"be.	c #936A52",
"ce.	c #946952",
"de.	c #9A6E57",
"ee.	c #A57761",
"fe.	c #A47961",
"ge.	c #A37B62",
"he.	c #9C775E",
"ie.	c #A37D64",
"je.	c #9F7A61",
"ke.	c #9A765C",
"le.	c #98755B",
"me.	c #947259",
"ne.	c #95735B",
"oe.	c #94715B",
"pe.	c #92715B",
"qe.	c #977761",
"re.	c #91735D",
"se.	c #977A65",
"te.	c #9A7D69",
"ue.	c #967A68",
"ve.	c #917564",
"we.	c #8E7263",
"xe.	c #8C7163",
"ye.	c #8B7264",
"ze.	c #8C7367",
"Ae.	c #92796D",
"Be.	c #947C72",
"Ce.	c #8F796F",
"De.	c #8B776D",
"Ee.	c #8A766C",
"Fe.	c #87756C",
"Ge.	c #86746C",
"He.	c #82726A",
"Ie.	c #81726B",
"Je.	c #84756E",
"Ke.	c #847570",
"Le.	c #85756F",
"Me.	c #88766E",
"Ne.	c #887569",
"Oe.	c #846D5F",
"Pe.	c #876B5B",
"Qe.	c #916F5C",
"Re.	c #8B654E",
"Se.	c #966C52",
"Te.	c #9E6F57",
"Ue.	c #A9785E",
"Ve.	c #A27155",
"We.	c #A6785D",
"Xe.	c #996D56",
"Ye.	c #9C725C",
"Ze.	c #966F58",
"`e.	c #87684E",
" f.	c #654830",
".f.	c #5E412D",
"+f.	c #543A2B",
"@f.	c #4B3325",
"#f.	c #533C2D",
"$f.	c #604236",
"%f.	c #6E4B40",
"&f.	c #755043",
"*f.	c #7B5546",
"=f.	c #835D4E",
"-f.	c #886353",
";f.	c #896456",
">f.	c #8A665B",
",f.	c #88655E",
"'f.	c #8F6E6C",
")f.	c #9B827D",
"!f.	c #8E7D7E",
"~f.	c #8A8383",
"{f.	c #4E4E4F",
"]f.	c #080C17",
"^f.	c #0C1222",
"/f.	c #101B2C",
"(f.	c #0F1B29",
"_f.	c #0E1927",
":f.	c #0C1525",
"<f.	c #0C1627",
"[f.	c #1A263E",
"}f.	c #122039",
"|f.	c #14253D",
"1f.	c #101D32",
"2f.	c #0A1624",
"3f.	c #0E1A28",
"4f.	c #0D1929",
"5f.	c #0E1B2F",
"6f.	c #102138",
"7f.	c #12233F",
"8f.	c #153F67",
"9f.	c #215080",
"0f.	c #1C4B75",
"af.	c #134168",
"bf.	c #0E3C61",
"cf.	c #72553C",
"df.	c #6F5139",
"ef.	c #74553D",
"ff.	c #795A42",
"gf.	c #785841",
"hf.	c #7D5C46",
"if.	c #83614A",
"jf.	c #7D5A44",
"kf.	c #7B5740",
"lf.	c #7F5B45",
"mf.	c #7D5942",
"nf.	c #7E5942",
"of.	c #7F5A43",
"pf.	c #7D5841",
"qf.	c #7B5640",
"rf.	c #78543D",
"sf.	c #815D46",
"tf.	c #86614B",
"uf.	c #825D47",
"vf.	c #825D46",
"wf.	c #88634D",
"xf.	c #8A654F",
"yf.	c #89644B",
"zf.	c #906B51",
"Af.	c #8F6A50",
"Bf.	c #916C52",
"Cf.	c #8F6A52",
"Df.	c #866149",
"Ef.	c #89634C",
"Ff.	c #8C6650",
"Gf.	c #8D6751",
"Hf.	c #8C6751",
"If.	c #89644F",
"Jf.	c #896550",
"Kf.	c #85624B",
"Lf.	c #86634C",
"Mf.	c #86654D",
"Nf.	c #7E5E46",
"Of.	c #80614A",
"Pf.	c #80624C",
"Qf.	c #836652",
"Rf.	c #866A58",
"Sf.	c #846859",
"Tf.	c #856A5C",
"Uf.	c #84695D",
"Vf.	c #83695D",
"Wf.	c #846B5F",
"Xf.	c #81685E",
"Yf.	c #7D675D",
"Zf.	c #7A655D",
"`f.	c #7A645C",
" g.	c #7B6659",
".g.	c #806959",
"+g.	c #876A58",
"@g.	c #8C6C58",
"#g.	c #8E6D56",
"$g.	c #87674D",
"%g.	c #8B6A4F",
"&g.	c #8F6E53",
"*g.	c #8A6A4F",
"=g.	c #825D44",
"-g.	c #956B51",
";g.	c #9F765A",
">g.	c #9F7357",
",g.	c #9A6A52",
"'g.	c #AD7A61",
")g.	c #B07E64",
"!g.	c #AD8064",
"~g.	c #A67C60",
"{g.	c #A07558",
"]g.	c #9F7759",
"^g.	c #956E4E",
"/g.	c #845F41",
"(g.	c #654331",
"_g.	c #563827",
":g.	c #452E1C",
"<g.	c #483223",
"[g.	c #5B4034",
"}g.	c #674A3E",
"|g.	c #67483A",
"1g.	c #6C4C3F",
"2g.	c #76564B",
"3g.	c #705044",
"4g.	c #78564F",
"5g.	c #7A5A53",
"6g.	c #7A5C56",
"7g.	c #7D605C",
"8g.	c #806E69",
"9g.	c #827B7E",
"0g.	c #636265",
"ag.	c #07060B",
"bg.	c #05070C",
"cg.	c #070B0E",
"dg.	c #04070B",
"eg.	c #060914",
"fg.	c #0C1322",
"gg.	c #0C1724",
"hg.	c #0E1825",
"ig.	c #0B1522",
"jg.	c #0A1421",
"kg.	c #162033",
"lg.	c #17233A",
"mg.	c #162538",
"ng.	c #1A293F",
"og.	c #101B2E",
"pg.	c #0B1622",
"qg.	c #0B1725",
"rg.	c #0C1828",
"sg.	c #0E1B2C",
"tg.	c #0E1B31",
"ug.	c #14223F",
"vg.	c #1A3454",
"wg.	c #1E456D",
"xg.	c #27547F",
"yg.	c #1D4672",
"zg.	c #153E65",
"Ag.	c #153E5F",
"Bg.	c #5E4931",
"Cg.	c #634935",
"Dg.	c #654734",
"Eg.	c #684A37",
"Fg.	c #674937",
"Gg.	c #654735",
"Hg.	c #694B38",
"Ig.	c #6C4E3C",
"Jg.	c #6A4E3B",
"Kg.	c #705340",
"Lg.	c #6F5240",
"Mg.	c #6E513F",
"Ng.	c #6B4F3C",
"Og.	c #6C4F3A",
"Pg.	c #6A4C36",
"Qg.	c #70523C",
"Rg.	c #72543E",
"Sg.	c #6E513B",
"Tg.	c #6E503A",
"Ug.	c #71533D",
"Vg.	c #73553F",
"Wg.	c #745640",
"Xg.	c #785A43",
"Yg.	c #785943",
"Zg.	c #765740",
"`g.	c #75553E",
" h.	c #72533B",
".h.	c #80604B",
"+h.	c #795944",
"@h.	c #775742",
"#h.	c #775743",
"$h.	c #7A5A47",
"%h.	c #795946",
"&h.	c #775644",
"*h.	c #775645",
"=h.	c #7D5B4C",
"-h.	c #7F5E4E",
";h.	c #7D5E4D",
">h.	c #785B47",
",h.	c #775C46",
"'h.	c #79604A",
")h.	c #826D59",
"!h.	c #8E7C6B",
"~h.	c #9E8B7C",
"{h.	c #B09E8F",
"]h.	c #B9A899",
"^h.	c #B5A797",
"/h.	c #8D7F72",
"(h.	c #4A413D",
"_h.	c #322C33",
":h.	c #242530",
"<h.	c #20212E",
"[h.	c #28242B",
"}h.	c #4B4038",
"|h.	c #715945",
"1h.	c #805C41",
"2h.	c #86654A",
"3h.	c #8A694E",
"4h.	c #967559",
"5h.	c #8D6A50",
"6h.	c #8F6951",
"7h.	c #8D634D",
"8h.	c #9F765D",
"9h.	c #A87F64",
"0h.	c #9F755B",
"ah.	c #A07257",
"bh.	c #AA7D62",
"ch.	c #AF8167",
"dh.	c #A77B5D",
"eh.	c #A57A5D",
"fh.	c #825C42",
"gh.	c #68462D",
"hh.	c #573C24",
"ih.	c #46301D",
"jh.	c #3F2B1E",
"kh.	c #493628",
"lh.	c #523D2D",
"mh.	c #543C2E",
"nh.	c #583E32",
"oh.	c #5C4136",
"ph.	c #62473B",
"qh.	c #6A4F44",
"rh.	c #654E41",
"sh.	c #6C544F",
"th.	c #6F625F",
"uh.	c #7F7E83",
"vh.	c #34363A",
"wh.	c #040309",
"xh.	c #06080C",
"yh.	c #0A0D12",
"zh.	c #080B11",
"Ah.	c #05070F",
"Bh.	c #070B15",
"Ch.	c #080F1E",
"Dh.	c #0E1A27",
"Eh.	c #0D1623",
"Fh.	c #0D1625",
"Gh.	c #192337",
"Hh.	c #141E39",
"Ih.	c #19263E",
"Jh.	c #172437",
"Kh.	c #0F1929",
"Lh.	c #0F1927",
"Mh.	c #091524",
"Nh.	c #0A1627",
"Oh.	c #0B1729",
"Ph.	c #151E33",
"Qh.	c #121E35",
"Rh.	c #162F4D",
"Sh.	c #1B3E66",
"Th.	c #1F4871",
"Uh.	c #193E68",
"Vh.	c #12365C",
"Wh.	c #153A5A",
"Xh.	c #302622",
"Yh.	c #2F241F",
"Zh.	c #31241E",
"`h.	c #382A25",
" i.	c #3C2D27",
".i.	c #42322B",
"+i.	c #44332B",
"@i.	c #45342A",
"#i.	c #49372B",
"$i.	c #4F3D30",
"%i.	c #503D2F",
"&i.	c #523F31",
"*i.	c #503D2D",
"=i.	c #564230",
"-i.	c #58422F",
";i.	c #5D4734",
">i.	c #5C4633",
",i.	c #584330",
"'i.	c #594331",
")i.	c #5F4936",
"!i.	c #614B38",
"~i.	c #5E4836",
"{i.	c #614C39",
"]i.	c #5C4632",
"^i.	c #604935",
"/i.	c #624A36",
"(i.	c #5C4431",
"_i.	c #5D4532",
":i.	c #5F4735",
"<i.	c #644C3A",
"[i.	c #6B5341",
"}i.	c #705845",
"|i.	c #7E6552",
"1i.	c #8A705E",
"2i.	c #977F71",
"3i.	c #A79185",
"4i.	c #B29C90",
"5i.	c #BEA998",
"6i.	c #CBB8A3",
"7i.	c #D7BEA9",
"8i.	c #DDC0AA",
"9i.	c #E3C7B2",
"0i.	c #E7D2C6",
"ai.	c #EEDED2",
"bi.	c #F4E2D4",
"ci.	c #F0DED0",
"di.	c #DDCEBC",
"ei.	c #978B7E",
"fi.	c #343232",
"gi.	c #151825",
"hi.	c #161A26",
"ii.	c #181C26",
"ji.	c #1B1E2C",
"ki.	c #141A26",
"li.	c #38312E",
"mi.	c #604C3C",
"ni.	c #6D503E",
"oi.	c #8B694E",
"pi.	c #856348",
"qi.	c #8B6A50",
"ri.	c #927055",
"si.	c #8E6B51",
"ti.	c #956F56",
"ui.	c #90684F",
"vi.	c #956E53",
"wi.	c #976F53",
"xi.	c #986D52",
"yi.	c #AC8066",
"zi.	c #9E7358",
"Ai.	c #936B4F",
"Bi.	c #845D43",
"Ci.	c #734D36",
"Di.	c #634229",
"Ei.	c #573B26",
"Fi.	c #462C1D",
"Gi.	c #462B20",
"Hi.	c #432C1F",
"Ii.	c #432E21",
"Ji.	c #4C362B",
"Ki.	c #49362B",
"Li.	c #543D35",
"Mi.	c #4D3C34",
"Ni.	c #6C5F5B",
"Oi.	c #888383",
"Pi.	c #65676B",
"Qi.	c #07080C",
"Ri.	c #030408",
"Si.	c #05060A",
"Ti.	c #080F1D",
"Ui.	c #0B1423",
"Vi.	c #0B1624",
"Wi.	c #0A1724",
"Xi.	c #081422",
"Yi.	c #0A1625",
"Zi.	c #141F32",
"`i.	c #17203A",
" j.	c #192437",
".j.	c #0D1826",
"+j.	c #0B1727",
"@j.	c #081425",
"#j.	c #101828",
"$j.	c #111D32",
"%j.	c #172C4B",
"&j.	c #1B3A61",
"*j.	c #1D4168",
"=j.	c #173A5F",
"-j.	c #15365A",
";j.	c #1C3D5E",
">j.	c #060609",
",j.	c #050406",
"'j.	c #040305",
")j.	c #040406",
"!j.	c #030305",
"~j.	c #050506",
"{j.	c #080809",
"]j.	c #0A0809",
"^j.	c #0C0806",
"/j.	c #160F0A",
"(j.	c #1C1410",
"_j.	c #221915",
":j.	c #362923",
"<j.	c #45352E",
"[j.	c #4C3B33",
"}j.	c #46352F",
"|j.	c #332B2C",
"1j.	c #282529",
"2j.	c #2B282C",
"3j.	c #2A2627",
"4j.	c #2D2826",
"5j.	c #312B2A",
"6j.	c #58443F",
"7j.	c #926B57",
"8j.	c #BA8E72",
"9j.	c #CCA084",
"0j.	c #D4AD92",
"aj.	c #DBB79D",
"bj.	c #E2BFA3",
"cj.	c #E4BFA4",
"dj.	c #E6C3AA",
"ej.	c #E1C8B3",
"fj.	c #E3D0BF",
"gj.	c #E5D1C1",
"hj.	c #EED6C4",
"ij.	c #F3DECB",
"jj.	c #F1E0CB",
"kj.	c #F0D9C3",
"lj.	c #EED4C0",
"mj.	c #EDDBCE",
"nj.	c #EFE2D6",
"oj.	c #F3E2D4",
"pj.	c #F3E1D3",
"qj.	c #DDCFBE",
"rj.	c #A19486",
"sj.	c #3F3A36",
"tj.	c #0F1318",
"uj.	c #0C1118",
"vj.	c #0E121A",
"wj.	c #161925",
"xj.	c #131A29",
"yj.	c #121A29",
"zj.	c #1C1F2A",
"Aj.	c #363030",
"Bj.	c #514038",
"Cj.	c #664D3E",
"Dj.	c #755840",
"Ej.	c #785843",
"Fj.	c #785C42",
"Gj.	c #856147",
"Hj.	c #937054",
"Ij.	c #9E795C",
"Jj.	c #997054",
"Kj.	c #A87F63",
"Lj.	c #A2795E",
"Mj.	c #A67A5F",
"Nj.	c #A2775D",
"Oj.	c #A87B61",
"Pj.	c #9B6E59",
"Qj.	c #7F5642",
"Rj.	c #6F4C31",
"Sj.	c #6F4F35",
"Tj.	c #664834",
"Uj.	c #62473A",
"Vj.	c #624D44",
"Wj.	c #66554C",
"Xj.	c #665951",
"Yj.	c #685B58",
"Zj.	c #7A6B6A",
"`j.	c #8D8282",
" k.	c #938D8B",
".k.	c #878687",
"+k.	c #393D40",
"@k.	c #030509",
"#k.	c #080C11",
"$k.	c #0A0D13",
"%k.	c #090C12",
"&k.	c #070A17",
"*k.	c #090E1E",
"=k.	c #0C1121",
"-k.	c #0E1424",
";k.	c #091422",
">k.	c #0A1523",
",k.	c #081322",
"'k.	c #0E192A",
")k.	c #131D33",
"!k.	c #151F37",
"~k.	c #1A243B",
"{k.	c #0E1A29",
"]k.	c #0F1827",
"^k.	c #152135",
"/k.	c #122644",
"(k.	c #163459",
"_k.	c #113254",
":k.	c #0C2D4B",
"<k.	c #163653",
"[k.	c #263D55",
"}k.	c #1B3C5C",
"|k.	c #183C5C",
"1k.	c #163C60",
"2k.	c #123858",
"3k.	c #15395A",
"4k.	c #143C5D",
"5k.	c #153B5F",
"6k.	c #173D64",
"7k.	c #204266",
"8k.	c #1B3556",
"9k.	c #3E4157",
"0k.	c #7F6062",
"ak.	c #AC7B6A",
"bk.	c #BE8470",
"ck.	c #D09581",
"dk.	c #CEA18E",
"ek.	c #AE8474",
"fk.	c #685658",
"gk.	c #1D2430",
"hk.	c #192233",
"ik.	c #222E3B",
"jk.	c #151F2B",
"kk.	c #101422",
"lk.	c #584142",
"mk.	c #A2745F",
"nk.	c #DEAC8D",
"ok.	c #DFB596",
"pk.	c #E2BA9E",
"qk.	c #E4BEA2",
"rk.	c #E6BEA4",
"sk.	c #E3C1A7",
"tk.	c #E0C9B2",
"uk.	c #E3D1BD",
"vk.	c #E6D3C1",
"wk.	c #ECD4C4",
"xk.	c #F3DECD",
"yk.	c #F3E4D3",
"zk.	c #F0DECC",
"Ak.	c #EFD9C5",
"Bk.	c #EEDFCF",
"Ck.	c #EFE3D6",
"Dk.	c #EFE0D1",
"Ek.	c #EFDECF",
"Fk.	c #EFDED0",
"Gk.	c #E4D5C6",
"Hk.	c #B5A293",
"Ik.	c #574B45",
"Jk.	c #101016",
"Kk.	c #080E10",
"Lk.	c #0B1017",
"Mk.	c #111521",
"Nk.	c #121624",
"Ok.	c #181D2D",
"Pk.	c #1C1D2D",
"Qk.	c #151B29",
"Rk.	c #1B1E2A",
"Sk.	c #342E2D",
"Tk.	c #524133",
"Uk.	c #6A4C3B",
"Vk.	c #6C5037",
"Wk.	c #785B40",
"Xk.	c #77583F",
"Yk.	c #8F6F53",
"Zk.	c #8B6C4D",
"`k.	c #88674A",
" l.	c #967356",
".l.	c #997355",
"+l.	c #A37C5E",
"@l.	c #A57D60",
"#l.	c #AE8468",
"$l.	c #9B7056",
"%l.	c #B2846A",
"&l.	c #AD7F68",
"*l.	c #8B644C",
"=l.	c #89664D",
"-l.	c #876850",
";l.	c #7F6450",
">l.	c #87705F",
",l.	c #8A746B",
"'l.	c #87756E",
")l.	c #867974",
"!l.	c #837978",
"~l.	c #988B91",
"{l.	c #878383",
"]l.	c #676768",
"^l.	c #0C0D12",
"/l.	c #040408",
"(l.	c #030308",
"_l.	c #07080E",
":l.	c #0C0E1A",
"<l.	c #0B0D1A",
"[l.	c #0B0C1A",
"}l.	c #090B18",
"|l.	c #0B0E1D",
"1l.	c #0B1020",
"2l.	c #0E1122",
"3l.	c #101525",
"4l.	c #0A0E1F",
"5l.	c #091321",
"6l.	c #0E1C29",
"7l.	c #131E31",
"8l.	c #172137",
"9l.	c #1D2740",
"0l.	c #0F1A2E",
"al.	c #0D1927",
"bl.	c #0D1928",
"cl.	c #0D1A29",
"dl.	c #101C31",
"el.	c #152643",
"fl.	c #1C365A",
"gl.	c #18395D",
"hl.	c #143553",
"il.	c #10304E",
"jl.	c #183550",
"kl.	c #225C8F",
"ll.	c #266095",
"ml.	c #215C89",
"nl.	c #1E5A8C",
"ol.	c #19517F",
"pl.	c #255983",
"ql.	c #1F517B",
"rl.	c #1D4771",
"sl.	c #1D486F",
"tl.	c #1F3D63",
"ul.	c #253C5D",
"vl.	c #545166",
"wl.	c #926D6D",
"xl.	c #B37D68",
"yl.	c #BE8069",
"zl.	c #C2846D",
"Al.	c #C98B74",
"Bl.	c #D49E85",
"Cl.	c #BC927E",
"Dl.	c #7C655C",
"El.	c #2A2A32",
"Fl.	c #101626",
"Gl.	c #192533",
"Hl.	c #1B2433",
"Il.	c #1C2031",
"Jl.	c #4D383B",
"Kl.	c #9A6C5B",
"Ll.	c #CA9478",
"Ml.	c #DCA787",
"Nl.	c #DDB090",
"Ol.	c #E0B797",
"Pl.	c #E3BA9D",
"Ql.	c #E4BBA0",
"Rl.	c #DFBDA2",
"Sl.	c #DFC2AA",
"Tl.	c #E6CBB8",
"Ul.	c #E9D0BF",
"Vl.	c #EED3C5",
"Wl.	c #F1DACC",
"Xl.	c #F2E2D7",
"Yl.	c #F2E4D7",
"Zl.	c #EFDECE",
"`l.	c #EEDECF",
" m.	c #EBDBD0",
".m.	c #E7D7C7",
"+m.	c #E9D8C9",
"@m.	c #EFDDD0",
"#m.	c #EAD8CA",
"$m.	c #CEB7A7",
"%m.	c #746459",
"&m.	c #140E14",
"*m.	c #0A1010",
"=m.	c #070D11",
"-m.	c #10131D",
";m.	c #111420",
">m.	c #101221",
",m.	c #161626",
"'m.	c #141827",
")m.	c #141B29",
"!m.	c #131D27",
"~m.	c #151A24",
"{m.	c #312827",
"]m.	c #4E3D32",
"^m.	c #5F4731",
"/m.	c #725339",
"(m.	c #75553B",
"_m.	c #7D6144",
":m.	c #7B6041",
"<m.	c #836545",
"[m.	c #8E6B4E",
"}m.	c #957155",
"|m.	c #916D51",
"1m.	c #997256",
"2m.	c #9D755A",
"3m.	c #A87E63",
"4m.	c #A77C60",
"5m.	c #B0886A",
"6m.	c #B08467",
"7m.	c #B08269",
"8m.	c #A47B63",
"9m.	c #9B765C",
"0m.	c #95755E",
"am.	c #927664",
"bm.	c #8C7465",
"cm.	c #887066",
"dm.	c #947F78",
"em.	c #8C7C78",
"fm.	c #887E7C",
"gm.	c #948A8E",
"hm.	c #8B8286",
"im.	c #777676",
"jm.	c #252929",
"km.	c #06070A",
"lm.	c #050307",
"mm.	c #0C0E1B",
"nm.	c #101121",
"om.	c #0A0B1C",
"pm.	c #090A1A",
"qm.	c #0A0D1C",
"rm.	c #0D1221",
"sm.	c #090F1F",
"tm.	c #0F1424",
"um.	c #0E1021",
"vm.	c #091320",
"wm.	c #0D1C27",
"xm.	c #0F1A2C",
"ym.	c #1C263E",
"zm.	c #091523",
"Am.	c #0A1524",
"Bm.	c #0D172C",
"Cm.	c #121E3A",
"Dm.	c #1B2C4E",
"Em.	c #173152",
"Fm.	c #183450",
"Gm.	c #112F4D",
"Hm.	c #1B3550",
"Im.	c #285E90",
"Jm.	c #295C8C",
"Km.	c #235783",
"Lm.	c #20557F",
"Mm.	c #1F4C77",
"Nm.	c #1E476E",
"Om.	c #1F4568",
"Pm.	c #1A3B5A",
"Qm.	c #13314A",
"Rm.	c #213450",
"Sm.	c #544E60",
"Tm.	c #8E6868",
"Um.	c #AC7866",
"Vm.	c #AF765E",
"Wm.	c #B17960",
"Xm.	c #C3856B",
"Ym.	c #CB9476",
"Zm.	c #CC9F87",
"`m.	c #967A65",
" n.	c #484041",
".n.	c #131727",
"+n.	c #161E2D",
"@n.	c #19202F",
"#n.	c #131828",
"$n.	c #4E393C",
"%n.	c #C89075",
"&n.	c #D69F80",
"*n.	c #D9AA8A",
"=n.	c #DDB290",
"-n.	c #E0B495",
";n.	c #E1B697",
">n.	c #DEB396",
",n.	c #DDB79D",
"'n.	c #E1C2AE",
")n.	c #EACEBE",
"!n.	c #F2DACB",
"~n.	c #F3E1D4",
"{n.	c #F1E1D2",
"]n.	c #EFDDCB",
"^n.	c #EBD7C6",
"/n.	c #E4CFBF",
"(n.	c #E1CDBC",
"_n.	c #E8D5C6",
":n.	c #F1DDD1",
"<n.	c #F0DCCE",
"[n.	c #D9C7B5",
"}n.	c #8D7E69",
"|n.	c #2B241E",
"1n.	c #070A0A",
"2n.	c #070A0C",
"3n.	c #08090F",
"4n.	c #0B0D14",
"5n.	c #0A0B15",
"6n.	c #0E111C",
"7n.	c #10121E",
"8n.	c #111928",
"9n.	c #0F1C2D",
"0n.	c #0F1A27",
"an.	c #181A23",
"bn.	c #2D2524",
"cn.	c #46372A",
"dn.	c #5B4831",
"en.	c #634E31",
"fn.	c #6A5037",
"gn.	c #77583C",
"hn.	c #7D5D44",
"in.	c #816148",
"jn.	c #87674E",
"kn.	c #89674F",
"ln.	c #815F45",
"mn.	c #89674C",
"nn.	c #9B745A",
"on.	c #A67D63",
"pn.	c #A07A5D",
"qn.	c #A77962",
"rn.	c #A98168",
"sn.	c #A37F65",
"tn.	c #987760",
"un.	c #967863",
"vn.	c #8F7463",
"wn.	c #897165",
"xn.	c #948077",
"yn.	c #897973",
"zn.	c #8E827E",
"An.	c #847A78",
"Bn.	c #767175",
"Cn.	c #383639",
"Dn.	c #030909",
"En.	c #050505",
"Fn.	c #030106",
"Gn.	c #030207",
"Hn.	c #0B0E1A",
"In.	c #0E0F1F",
"Jn.	c #0C0D1E",
"Kn.	c #0C0D1C",
"Ln.	c #0B111F",
"Mn.	c #0B1121",
"Nn.	c #141829",
"On.	c #131627",
"Pn.	c #0D1323",
"Qn.	c #091120",
"Rn.	c #0E1627",
"Sn.	c #0F192E",
"Tn.	c #101B32",
"Un.	c #19233B",
"Vn.	c #0C1625",
"Wn.	c #101424",
"Xn.	c #0E1522",
"Yn.	c #0F162A",
"Zn.	c #101A34",
"`n.	c #192747",
" o.	c #1A2E4A",
".o.	c #1D3049",
"+o.	c #162E4B",
"@o.	c #1E3551",
"#o.	c #255683",
"$o.	c #194B71",
"%o.	c #19486F",
"&o.	c #15426A",
"*o.	c #193B64",
"=o.	c #1A395C",
"-o.	c #22405F",
";o.	c #1B3654",
">o.	c #1D3350",
",o.	c #182B47",
"'o.	c #23354F",
")o.	c #534B5B",
"!o.	c #8D6567",
"~o.	c #AC745C",
"{o.	c #A97258",
"]o.	c #AF785A",
"^o.	c #BC8062",
"/o.	c #C89171",
"(o.	c #D6A486",
"_o.	c #D8AB90",
":o.	c #B29178",
"<o.	c #6E5D56",
"[o.	c #1E1E2A",
"}o.	c #101728",
"|o.	c #121524",
"1o.	c #121525",
"2o.	c #513C3F",
"3o.	c #A06F5F",
"4o.	c #D69C7F",
"5o.	c #D7A685",
"6o.	c #DBAE8D",
"7o.	c #DCAE8D",
"8o.	c #DFAD8F",
"9o.	c #E1AE91",
"0o.	c #DFB69A",
"ao.	c #DFC2AB",
"bo.	c #E6CDBC",
"co.	c #ECD5C5",
"do.	c #F1D5C3",
"eo.	c #F3D8C5",
"fo.	c #F2D8C2",
"go.	c #EED4BD",
"ho.	c #E8CFB6",
"io.	c #E3C8B1",
"jo.	c #E1CABA",
"ko.	c #ECD7C9",
"lo.	c #F4E0D3",
"mo.	c #F2DDD1",
"no.	c #E2D0BD",
"oo.	c #AB9B81",
"po.	c #5B4F3F",
"qo.	c #110D0C",
"ro.	c #050706",
"so.	c #07050A",
"to.	c #08070D",
"uo.	c #0C0C12",
"vo.	c #07090F",
"wo.	c #090C11",
"xo.	c #0F1217",
"yo.	c #0F141B",
"zo.	c #0D151D",
"Ao.	c #141922",
"Bo.	c #191C29",
"Co.	c #151727",
"Do.	c #131622",
"Eo.	c #1A1916",
"Fo.	c #3E3321",
"Go.	c #574031",
"Ho.	c #5E4231",
"Io.	c #6C4F39",
"Jo.	c #6B4F36",
"Ko.	c #74573E",
"Lo.	c #775842",
"Mo.	c #775941",
"No.	c #83644B",
"Oo.	c #886049",
"Po.	c #8C644D",
"Qo.	c #9A7159",
"Ro.	c #9D755C",
"So.	c #926F57",
"To.	c #8E6F58",
"Uo.	c #8F7363",
"Vo.	c #8F7469",
"Wo.	c #856F66",
"Xo.	c #817169",
"Yo.	c #7C726B",
"Zo.	c #726C68",
"`o.	c #373537",
" p.	c #07060C",
".p.	c #020406",
"+p.	c #060607",
"@p.	c #040307",
"#p.	c #07070F",
"$p.	c #0D0D1A",
"%p.	c #0F101F",
"&p.	c #101222",
"*p.	c #0C101F",
"=p.	c #0A0F1E",
"-p.	c #0D1322",
";p.	c #131526",
">p.	c #0E1323",
",p.	c #0F1528",
"'p.	c #101930",
")p.	c #1C263F",
"!p.	c #101B29",
"~p.	c #0D1725",
"{p.	c #121828",
"]p.	c #0F1323",
"^p.	c #0F1627",
"/p.	c #0F1C31",
"(p.	c #1C2B47",
"_p.	c #233552",
":p.	c #1E3048",
"<p.	c #1B314E",
"[p.	c #224E78",
"}p.	c #1B4165",
"|p.	c #1A4061",
"1p.	c #183B5C",
"2p.	c #163353",
"3p.	c #142F49",
"4p.	c #18324A",
"5p.	c #142B45",
"6p.	c #1C2E49",
"7p.	c #16253F",
"8p.	c #1A2840",
"9p.	c #4D4452",
"0p.	c #875F62",
"ap.	c #A77362",
"bp.	c #AE755D",
"cp.	c #AA7354",
"dp.	c #AD7655",
"ep.	c #B97F5E",
"fp.	c #C48F6E",
"gp.	c #D1A080",
"hp.	c #DBB092",
"ip.	c #C9A48B",
"jp.	c #907868",
"kp.	c #3E373A",
"lp.	c #0F1426",
"mp.	c #111321",
"np.	c #131421",
"op.	c #5A4445",
"pp.	c #A77665",
"qp.	c #CF9379",
"rp.	c #D9A786",
"sp.	c #DBAF8D",
"tp.	c #DBAD8C",
"up.	c #DEA88B",
"vp.	c #E2AD8E",
"wp.	c #E2B79A",
"xp.	c #E2C2AA",
"yp.	c #E4CCBA",
"zp.	c #EDD4C4",
"Ap.	c #F2D3C0",
"Bp.	c #F2D2BC",
"Cp.	c #F1D1B9",
"Dp.	c #EFCEB7",
"Ep.	c #E8CAB0",
"Fp.	c #E1C6AF",
"Gp.	c #E4CCBD",
"Hp.	c #F0DACD",
"Ip.	c #F5E2D4",
"Jp.	c #F2DFD1",
"Kp.	c #E9D6C4",
"Lp.	c #CCBBA2",
"Mp.	c #887766",
"Np.	c #2F2825",
"Op.	c #080309",
"Pp.	c #0B080E",
"Qp.	c #05050A",
"Rp.	c #06080D",
"Sp.	c #0C0F14",
"Tp.	c #0E1219",
"Up.	c #0F131F",
"Vp.	c #141828",
"Wp.	c #161B29",
"Xp.	c #191C27",
"Yp.	c #131117",
"Zp.	c #2C211C",
"`p.	c #453428",
" q.	c #594432",
".q.	c #5B452F",
"+q.	c #5C4329",
"@q.	c #6B4E34",
"#q.	c #73513A",
"$q.	c #775640",
"%q.	c #785640",
"&q.	c #77543E",
"*q.	c #805D47",
"=q.	c #87644C",
"-q.	c #835F49",
";q.	c #85614E",
">q.	c #7A6454",
",q.	c #78665C",
"'q.	c #6F6360",
")q.	c #5D5756",
"!q.	c #272526",
"~q.	c #08090E",
"{q.	c #040308",
"]q.	c #020206",
"^q.	c #020306",
"/q.	c #05050D",
"(q.	c #0C0D19",
"_q.	c #0E111E",
":q.	c #0A0F1D",
"<q.	c #0A1120",
"[q.	c #0F1524",
"}q.	c #121727",
"|q.	c #101324",
"1q.	c #0C0F1F",
"2q.	c #0D1127",
"3q.	c #101932",
"4q.	c #141F35",
"5q.	c #131E36",
"6q.	c #151E32",
"7q.	c #0D1624",
"8q.	c #0E1725",
"9q.	c #0F1626",
"0q.	c #0E1525",
"aq.	c #0B1829",
"bq.	c #15233B",
"cq.	c #13233A",
"dq.	c #0C1F35",
"eq.	c #132B47",
"fq.	c #19304D",
"gq.	c #1E3E64",
"hq.	c #163152",
"iq.	c #18324F",
"jq.	c #213B56",
"kq.	c #162A45",
"lq.	c #1A2D44",
"mq.	c #122539",
"nq.	c #19293C",
"oq.	c #122034",
"pq.	c #162236",
"qq.	c #151E31",
"rq.	c #403643",
"sq.	c #81595C",
"tq.	c #A36F5E",
"uq.	c #AD755D",
"vq.	c #AB7550",
"wq.	c #AF7957",
"xq.	c #B57E5C",
"yq.	c #BB8967",
"zq.	c #C79978",
"Aq.	c #DAB08F",
"Bq.	c #D8B193",
"Cq.	c #AE917B",
"Dq.	c #645552",
"Eq.	c #181A29",
"Fq.	c #131625",
"Gq.	c #161520",
"Hq.	c #5F4847",
"Iq.	c #AB7967",
"Jq.	c #D2957C",
"Kq.	c #DAA888",
"Lq.	c #DCB491",
"Mq.	c #DDB18F",
"Nq.	c #DCA788",
"Oq.	c #DDA686",
"Pq.	c #DEB091",
"Qq.	c #DEBCA3",
"Rq.	c #E3C9B5",
"Sq.	c #ECD1BF",
"Tq.	c #F3D1BE",
"Uq.	c #F2CFBB",
"Vq.	c #F1CEB7",
"Wq.	c #EFCCB6",
"Xq.	c #E9CAB0",
"Yq.	c #E3CAB1",
"Zq.	c #E6CFC0",
"`q.	c #F1DBCE",
" r.	c #F5E3D5",
".r.	c #F2E0CC",
"+r.	c #ECDAC6",
"@r.	c #DCC9B7",
"#r.	c #A49084",
"$r.	c #453C36",
"%r.	c #070508",
"&r.	c #07040A",
"*r.	c #06040B",
"=r.	c #0B0C12",
"-r.	c #080A12",
";r.	c #0C101A",
">r.	c #0D111D",
",r.	c #0F1321",
"'r.	c #121626",
")r.	c #161D2D",
"!r.	c #111B29",
"~r.	c #0F1823",
"{r.	c #130E10",
"]r.	c #2A221A",
"^r.	c #403426",
"/r.	c #604739",
"(r.	c #634939",
"_r.	c #624834",
":r.	c #684D37",
"<r.	c #6C513B",
"[r.	c #6D513B",
"}r.	c #6E513C",
"|r.	c #6D503D",
"1r.	c #705243",
"2r.	c #6B5441",
"3r.	c #665848",
"4r.	c #61554C",
"5r.	c #554E4B",
"6r.	c #333035",
"7r.	c #080713",
"8r.	c #0A0A11",
"9r.	c #030407",
"0r.	c #070915",
"ar.	c #0D121E",
"br.	c #0E1422",
"cr.	c #0F1525",
"dr.	c #111626",
"er.	c #141728",
"fr.	c #0B0E1E",
"gr.	c #0A0F25",
"hr.	c #0E162F",
"ir.	c #0F1A31",
"jr.	c #162139",
"kr.	c #182135",
"lr.	c #0E1726",
"mr.	c #0C1624",
"nr.	c #081523",
"or.	c #091527",
"pr.	c #111C35",
"qr.	c #112034",
"rr.	c #102338",
"sr.	c #112A45",
"tr.	c #19304E",
"ur.	c #173156",
"vr.	c #162C4C",
"wr.	c #1B3652",
"xr.	c #192C48",
"yr.	c #0F223D",
"zr.	c #1D2942",
"Ar.	c #212D43",
"Br.	c #172539",
"Cr.	c #162337",
"Dr.	c #141F33",
"Er.	c #151D2F",
"Fr.	c #312C38",
"Gr.	c #765250",
"Hr.	c #A16D5C",
"Ir.	c #AF775E",
"Jr.	c #AB7551",
"Kr.	c #AC7655",
"Lr.	c #B17C5A",
"Mr.	c #B78563",
"Nr.	c #C59676",
"Or.	c #DBB18F",
"Pr.	c #E0B897",
"Qr.	c #C5A386",
"Rr.	c #846D63",
"Sr.	c #312833",
"Tr.	c #131723",
"Ur.	c #161723",
"Vr.	c #5E4647",
"Wr.	c #D4977C",
"Xr.	c #D69C7E",
"Yr.	c #D6A482",
"Zr.	c #DBB08E",
"`r.	c #DCB18E",
" s.	c #D7A887",
".s.	c #D4A081",
"+s.	c #D9AA8C",
"@s.	c #DAB79B",
"#s.	c #DFC4AF",
"$s.	c #E9CCB9",
"%s.	c #F3CFBC",
"&s.	c #F4CFBC",
"*s.	c #F2CEB7",
"=s.	c #EFCBB6",
"-s.	c #E9CAB2",
";s.	c #E5CBB5",
">s.	c #E6D1C3",
",s.	c #F0DBCF",
"'s.	c #F5E2D6",
")s.	c #F3E1CC",
"!s.	c #EDDBC8",
"~s.	c #E3D0C2",
"{s.	c #B8A598",
"]s.	c #5A4F49",
"^s.	c #0B060B",
"/s.	c #060409",
"(s.	c #05040A",
"_s.	c #040208",
":s.	c #06060B",
"<s.	c #06090C",
"[s.	c #04070A",
"}s.	c #050710",
"|s.	c #090B15",
"1s.	c #0B0D17",
"2s.	c #0E121B",
"3s.	c #0E141E",
"4s.	c #0D1523",
"5s.	c #151C2B",
"6s.	c #0D121F",
"7s.	c #070B10",
"8s.	c #040407",
"9s.	c #090505",
"0s.	c #1D1410",
"as.	c #30251C",
"bs.	c #3F3025",
"cs.	c #46362A",
"ds.	c #4F3F33",
"es.	c #504033",
"fs.	c #4E3D31",
"gs.	c #503E32",
"hs.	c #4B3D34",
"is.	c #433931",
"js.	c #2E2925",
"ks.	c #171418",
"ls.	c #0A0A14",
"ms.	c #0A0C19",
"ns.	c #080812",
"os.	c #04040A",
"ps.	c #020205",
"qs.	c #020407",
"rs.	c #02040A",
"ss.	c #070B16",
"ts.	c #0A121F",
"us.	c #0D1122",
"vs.	c #0C1221",
"ws.	c #0E1423",
"xs.	c #111526",
"ys.	c #0B1023",
"zs.	c #121B30",
"As.	c #101B31",
"Bs.	c #141E37",
"Cs.	c #0C1725",
"Ds.	c #111A29",
"Es.	c #0B1627",
"Fs.	c #101C32",
"Gs.	c #131F36",
"Hs.	c #17253A",
"Is.	c #142C49",
"Js.	c #19314F",
"Ks.	c #1D3958",
"Ls.	c #19324F",
"Ms.	c #1A344F",
"Ns.	c #202E4D",
"Os.	c #172944",
"Ps.	c #0F1B32",
"Qs.	c #121E32",
"Rs.	c #1D293D",
"Ss.	c #131E32",
"Ts.	c #131C30",
"Us.	c #272B34",
"Vs.	c #654C47",
"Ws.	c #996C58",
"Xs.	c #AE785D",
"Ys.	c #AB7455",
"Zs.	c #B07959",
"`s.	c #B6815E",
" t.	c #BD8B69",
".t.	c #CA9A79",
"+t.	c #D9AE8B",
"@t.	c #E3BA99",
"#t.	c #D6AE8F",
"$t.	c #A3816C",
"%t.	c #564444",
"&t.	c #131823",
"*t.	c #171927",
"=t.	c #5C4548",
"-t.	c #AD7966",
";t.	c #D59A7D",
">t.	c #D59C7C",
",t.	c #D8A484",
"'t.	c #DCB08E",
")t.	c #DBB290",
"!t.	c #D9AC8D",
"~t.	c #D9B295",
"{t.	c #DCBCA6",
"]t.	c #E8C8B5",
"^t.	c #F2CDBA",
"/t.	c #F3CEBA",
"(t.	c #EECBB6",
"_t.	c #EACBB3",
":t.	c #E6CBB6",
"<t.	c #E5D0C3",
"[t.	c #EEDACF",
"}t.	c #F5E1D6",
"|t.	c #F4E1D1",
"1t.	c #EFDCCD",
"2t.	c #E6D3C6",
"3t.	c #C2B0A1",
"4t.	c #6B5F57",
"5t.	c #100B0E",
"6t.	c #060509",
"7t.	c #020408",
"8t.	c #030609",
"9t.	c #0D0E12",
"0t.	c #050A0F",
"at.	c #0A0C17",
"bt.	c #0E101D",
"ct.	c #131522",
"dt.	c #10121C",
"et.	c #10131A",
"ft.	c #080A10",
"gt.	c #050507",
"ht.	c #040404",
"it.	c #040506",
"jt.	c #050609",
"kt.	c #05070A",
"lt.	c #090A12",
"mt.	c #070811",
"nt.	c #030208",
"ot.	c #020106",
"pt.	c #020509",
"qt.	c #090C17",
"rt.	c #0B101C",
"st.	c #0C1020",
"tt.	c #111726",
"ut.	c #101625",
"vt.	c #0B1120",
"wt.	c #060D18",
"xt.	c #0E1925",
"yt.	c #131D36",
"zt.	c #0C1826",
"At.	c #0E1826",
"Bt.	c #0F1726",
"Ct.	c #0E1625",
"Dt.	c #0E1A2A",
"Et.	c #0C192A",
"Ft.	c #101E31",
"Gt.	c #0F2745",
"Ht.	c #193250",
"It.	c #152D47",
"Jt.	c #1D334E",
"Kt.	c #253D59",
"Lt.	c #212D4C",
"Mt.	c #1D2C47",
"Nt.	c #142136",
"Ot.	c #101D2F",
"Pt.	c #131D30",
"Qt.	c #131C2F",
"Rt.	c #162034",
"St.	c #181C2B",
"Tt.	c #574348",
"Ut.	c #906557",
"Vt.	c #AE775E",
"Wt.	c #B37C5E",
"Xt.	c #BA8563",
"Yt.	c #C2906E",
"Zt.	c #CB9A7A",
"`t.	c #D3A684",
" u.	c #DFB393",
".u.	c #DDB494",
"+u.	c #BD9578",
"@u.	c #795D4F",
"#u.	c #232028",
"$u.	c #171829",
"%u.	c #584045",
"&u.	c #A97663",
"*u.	c #D3967B",
"=u.	c #D99A7E",
"-u.	c #D49575",
";u.	c #D49A7A",
">u.	c #DAA98A",
",u.	c #E0B596",
"'u.	c #DBB191",
")u.	c #DAAC8E",
"!u.	c #DBB59E",
"~u.	c #E7C4B1",
"{u.	c #F2CDBB",
"]u.	c #F3CFB8",
"^u.	c #EFCBB7",
"/u.	c #ECCDB5",
"(u.	c #E7CCB7",
"_u.	c #E2CCBF",
":u.	c #ECD8CD",
"<u.	c #F4E0D5",
"[u.	c #F5E2D5",
"}u.	c #F1DDD0",
"|u.	c #E9D6C8",
"1u.	c #CDBBAA",
"2u.	c #7A6F65",
"3u.	c #1B1616",
"4u.	c #030307",
"5u.	c #050509",
"6u.	c #060B0D",
"7u.	c #04090B",
"8u.	c #05070B",
"9u.	c #090B11",
"0u.	c #0F1019",
"au.	c #0D1018",
"bu.	c #080B10",
"cu.	c #04080A",
"du.	c #050A0C",
"eu.	c #020707",
"fu.	c #020606",
"gu.	c #060B0B",
"hu.	c #03050A",
"iu.	c #08090D",
"ju.	c #08080C",
"ku.	c #020204",
"lu.	c #010408",
"mu.	c #0A111F",
"nu.	c #0F1223",
"ou.	c #0F1222",
"pu.	c #0D1021",
"qu.	c #111727",
"ru.	c #070D1C",
"su.	c #060C18",
"tu.	c #111B26",
"uu.	c #0E192C",
"vu.	c #172139",
"wu.	c #152033",
"xu.	c #071321",
"yu.	c #081321",
"zu.	c #091221",
"Au.	c #091624",
"Bu.	c #0D1A2B",
"Cu.	c #101D30",
"Du.	c #122A48",
"Eu.	c #11233D",
"Fu.	c #172741",
"Gu.	c #1D314D",
"Hu.	c #1E2E46",
"Iu.	c #162639",
"Ju.	c #131E30",
"Ku.	c #131E33",
"Lu.	c #191C2F",
"Mu.	c #4C3B49",
"Nu.	c #896058",
"Ou.	c #AB7760",
"Pu.	c #B17B63",
"Qu.	c #B47D5F",
"Ru.	c #B78365",
"Su.	c #BC896A",
"Tu.	c #C29070",
"Uu.	c #CC9A79",
"Vu.	c #D2A588",
"Wu.	c #9C7861",
"Xu.	c #45373A",
"Yu.	c #10121F",
"Zu.	c #533B3F",
"`u.	c #A77464",
" v.	c #D09477",
".v.	c #D69876",
"+v.	c #D29373",
"@v.	c #CF9575",
"#v.	c #D29F7F",
"$v.	c #DBAD90",
"%v.	c #DFB498",
"&v.	c #D9AE90",
"*v.	c #D7A98C",
"=v.	c #D8AF98",
"-v.	c #E5C1AE",
";v.	c #F2CDB8",
">v.	c #F4D0BC",
",v.	c #F3CFBB",
"'v.	c #EFCCB8",
")v.	c #E9CAB5",
"!v.	c #E5CAB6",
"~v.	c #E1CDBF",
"{v.	c #EBD8CC",
"]v.	c #F4E1D6",
"^v.	c #F6E1D6",
"/v.	c #F2DED3",
"(v.	c #EBDACD",
"_v.	c #D4C6B5",
":v.	c #8C8074",
"<v.	c #25201F",
"[v.	c #04060A",
"}v.	c #060B0E",
"|v.	c #080D10",
"1v.	c #03080A",
"2v.	c #03070A",
"3v.	c #02060A",
"4v.	c #02050A",
"5v.	c #03060B",
"6v.	c #040609",
"7v.	c #040508",
"8v.	c #040405",
"9v.	c #030303",
"0v.	c #010104",
"av.	c #050713",
"bv.	c #0B0C18",
"cv.	c #0B0F1B",
"dv.	c #0B101F",
"ev.	c #0C1021",
"fv.	c #101726",
"gv.	c #0D1121",
"hv.	c #111425",
"iv.	c #0F1324",
"jv.	c #050B19",
"kv.	c #08131F",
"lv.	c #0D192B",
"mv.	c #111B34",
"nv.	c #162036",
"ov.	c #0C1626",
"pv.	c #0A1424",
"qv.	c #0B1524",
"rv.	c #0E1827",
"sv.	c #0D192C",
"tv.	c #203B59",
"uv.	c #1C334F",
"vv.	c #192944",
"wv.	c #182441",
"xv.	c #122743",
"yv.	c #19324C",
"zv.	c #182C46",
"Av.	c #15263D",
"Bv.	c #0E1E30",
"Cv.	c #122131",
"Dv.	c #132131",
"Ev.	c #141F30",
"Fv.	c #171E30",
"Gv.	c #3D3441",
"Hv.	c #7F5B57",
"Iv.	c #A87562",
"Jv.	c #B17D63",
"Kv.	c #B37D61",
"Lv.	c #B17E62",
"Mv.	c #B58264",
"Nv.	c #BB8868",
"Ov.	c #C49070",
"Pv.	c #D3A082",
"Qv.	c #DDB292",
"Rv.	c #DEB596",
"Sv.	c #B99676",
"Tv.	c #6F5A4F",
"Uv.	c #281F29",
"Vv.	c #604449",
"Wv.	c #B07A70",
"Xv.	c #D09478",
"Yv.	c #D19470",
"Zv.	c #CE906E",
"`v.	c #CB916F",
" w.	c #C89372",
".w.	c #CD9B7B",
"+w.	c #D5A184",
"@w.	c #D29E82",
"#w.	c #CF9C80",
"$w.	c #D0A58F",
"%w.	c #E1BEAD",
"&w.	c #F3D0BC",
"*w.	c #F5D3BD",
"=w.	c #F3D1BC",
"-w.	c #F0CEBB",
";w.	c #EBCCB9",
">w.	c #E7CDBA",
",w.	c #E2CFC1",
"'w.	c #EAD8CC",
")w.	c #F3E1D5",
"!w.	c #F6E1D5",
"~w.	c #EDDDD0",
"{w.	c #DCCFBF",
"]w.	c #9A8E82",
"^w.	c #030304",
"/w.	c #010508",
"(w.	c #020609",
"_w.	c #020202",
":w.	c #020203",
"<w.	c #010004",
"[w.	c #020107",
"}w.	c #06070B",
"|w.	c #02050D",
"1w.	c #070815",
"2w.	c #080915",
"3w.	c #080B18",
"4w.	c #0B0E1F",
"5w.	c #0D1222",
"6w.	c #0C0F20",
"7w.	c #090D1C",
"8w.	c #0D1622",
"9w.	c #151F36",
"0w.	c #0E1929",
"aw.	c #0B1425",
"bw.	c #101827",
"cw.	c #141E33",
"dw.	c #142C4A",
"ew.	c #162F52",
"fw.	c #1D334F",
"gw.	c #152742",
"hw.	c #112844",
"iw.	c #152C47",
"jw.	c #182A45",
"kw.	c #1D2E46",
"lw.	c #1A2D40",
"mw.	c #17273B",
"nw.	c #162338",
"ow.	c #172234",
"pw.	c #282937",
"qw.	c #A27263",
"rw.	c #B17F62",
"sw.	c #B07C63",
"tw.	c #AE7B5F",
"uw.	c #B27F61",
"vw.	c #B68363",
"ww.	c #BF8B6B",
"xw.	c #CD9B7C",
"yw.	c #DBB292",
"zw.	c #E5C3A2",
"Aw.	c #D4B393",
"Bw.	c #B29082",
"Cw.	c #A48789",
"Dw.	c #BB9D9D",
"Ew.	c #D8A89C",
"Fw.	c #DA9D83",
"Gw.	c #D0936E",
"Hw.	c #CB8E68",
"Iw.	c #C78D69",
"Jw.	c #C68D6B",
"Kw.	c #C7916E",
"Lw.	c #C99375",
"Mw.	c #CA9477",
"Nw.	c #CDA18C",
"Ow.	c #E2BFB3",
"Pw.	c #F5D4C8",
"Qw.	c #F7D6C8",
"Rw.	c #F3D3C2",
"Sw.	c #F0D0BE",
"Tw.	c #ECD0BE",
"Uw.	c #E8D0BF",
"Vw.	c #E4D1C3",
"Ww.	c #EBD9CD",
"Xw.	c #F7E2D6",
"Yw.	c #F4E1D5",
"Zw.	c #F0DFD3",
"`w.	c #E1D4C4",
" x.	c #A4988B",
".x.	c #35302E",
"+x.	c #030206",
"@x.	c #020207",
"#x.	c #030508",
"$x.	c #020304",
"%x.	c #010103",
"&x.	c #010509",
"*x.	c #03050E",
"=x.	c #060714",
"-x.	c #080A16",
";x.	c #0C0F1C",
">x.	c #080E1C",
",x.	c #0D0F20",
"'x.	c #0F1122",
")x.	c #111324",
"!x.	c #0B0D1F",
"~x.	c #080A19",
"{x.	c #09111D",
"]x.	c #111B2E",
"^x.	c #0E1831",
"/x.	c #1A243A",
"(x.	c #131D2D",
"_x.	c #071121",
":x.	c #0E1728",
"<x.	c #0D1626",
"[x.	c #0A1525",
"}x.	c #0C1924",
"|x.	c #101A30",
"1x.	c #18304E",
"2x.	c #16314B",
"   .  +  @  #  $  %  &  *  =  -  ;  >  ,  '  )  !  ~  {  ]  ^  /  (  _  :  <  [  }  |  1  1  }  :  1  2  3  :  }  :  4  4  5  6  7  8  9  0  a  a  b  c  d  e  f  g  h  h  i  9  j  k  l  m  n  o  p  q  r  r  s  t  u  v  w  x  y  z  A  B  C  D  E  F  G  H  I  J  K  L  M  N  O  P  Q  R  S  T  U  V  W  X  Y  Z  `   . .. +. @. #. `  $. $. %. &. *. =. -. ;. >. ,. ,. '. ). !. ~. {. ]. ^. ",
"/. (. _. :. <. [. }. |. 1. 2. 3. 4. 5. 6. 7. 8. 9. 0. a. b. c. d. e. f. g. h. i. j. k. l. m. n. o. p. q. r. s. :  t. u. v. w. c  x. y. i  z. s  s  A. B. C. D. E. F. c  G. c  H. I. J. K. L. M. N. K. N. O. O. P. z. z. i  B. Q. R. S. T. U. V. W. X. Y. Z. `.  + .+ ++ @+ #+ $+ %+ &+ *+ =+ -+ ;+ >+ ,+ '+ )+ !+ ~+ {+ ]+ ^+ /+ (+ _+ :+ <+ [+ }+ |+ 1+ 2+ 3+ ;. 4+ >. 5+ 6+ 7+ 8+ 9+ 0+ a+ b+ ",
"c+ d+ e+ f+ g+ h+ i+ j+ k+ l+ m+ n+ o+ p+ q+ r+ s+ t+ u+ v+ w+ x+ y+ z+ A+ B+ C+ C+ D+ E+ F+ G+ H+ I+ J+ K+ L+ M+ N+ O+ P+ Q+ R+ S+ T+ U+ V+ W+ X+ Y+ Z+ `+  @ .@ +@ c  @@ #@ $@ h  r  %@ &@ *@ =@ -@ ;@ >@ ,@ N. '@ )@ )@ !@ ~@ {@ ]@ ^@ /@ 4+ (@ _@ :@ <@ [@ }@ |@ 1@ 2@ 3@ 4@ 5@ 6@ 7@ 8@ 9@ 0@ a@ b@ c@ d@ e@ (+ f@ g@ h@ i@ j@ k@ l@ m@ n@ o@ p@ ;+ q@ r@ s@ 4+ t@ ,. 6+ u@ v@ w@ x@ y@ z@ ",
"A@ B@ C@ D@ E@ F@ G@ H@ I@ J@ K@ L@ M@ N@ O@ P@ Q@ R@ S@ T@ U@ V@ W@ X@ Y@ Z@ `@  # .# +# @# ## $# %# &# *# =# -# ;# ># ,# '# )# !# ~# {# ]# ^# /# (# _# :# <# [# }# |# 1# 2# 3# 4# 3# 5# 6# 7# 8# 9# 0# a# b# c# X+ d# e# f# g# h# i# j# k# l# m# n# o# p# q# r# q# s# t# u# v# w# 2@ x# y# z# A# B# C# C# D# C# E# F# G# H# H# I# J# K# L# M# N# O# P# Q# R# '. S# T# U# 4+ V# W# X# Y# Z# `# ",
" $ .$ +$ @$ #$ $$ %$ &$ *$ =$ -$ ;$ >$ ,$ '$ )$ !$ ~$ {$ {$ ]$ ^$ /$ ($ _$ :$ <$ [$ }$ |$ 1$ 2$ 3$ 4$ 5$ 6$ 7$ 8$ 9$ 0$ a$ b$ c$ d$ e$ f$ g$ h$ i$ j$ k$ ># l$ m$ n$ o$ p$ q$ r$ s$ t$ u$ v$ w$ x$ x$ x$ y$ z$ A$ B$ C$ D$ E$ F$ G$ H$ I$ J$ K$ L$ L$ M$ M$ N$ O$ P$ Q$ R$ S$ v# T$ 2@ U$ V$ W$ X$ Y$ Z$ `$  % .% +% @% #% $% $% %% &% *% =% -% ;% >% ,% '% )% !% ++ ~% {% ]% ^% /% !. (% _% :% ",
"<% [% }% |% 1% 2% 3% 4% 5% 6% 7% 8% 9% 0% a% b% c% d% e% f% g% h% i% j% k% l% m% n% o% p% q% r% s% t% u% v% v% w% x% y% z% A% B% C% D% E% F% G% H% I% J% K% L% M% N% O% P% Q% R% S% T% U% V% W% X% Y% Z% `%  & .& +& @& #& $& %& && *& =& -& ;& >& ,& '& )& !& ~& {& ]& ^& /& (& _& 3@ :& <& [& }& |& 1& 2& 3& 4& 5& 6& 7& 8& 9& 0& 5& a& b& c& d& e& f& g& h& i& j& k& l& m& n& o& p& q& r& s& ",
"t& u& v& w& x& y& z& A& B& C& D& E& F& G& H& I& J& K& L& M& N& O& P& Q& R& S& T& U& V& T& W& X& Y& Z& `&  * .* +* @* #* $* %* &* ** =* -* ;* >* ,* '* )* !* ~* {* ]* ^* ^* /* (* _* :* <* [* }* |* 1* 2* 3* 4* 5* 6* 7* 8* 9* 0* a* @& b* c* d* e* f* g* h* i* j* k* c# l* m* n* =@ K. o* p* q* r* s* t* u* v* w* 1& x* y* z* A* B* C* D* E* F* G* H* I* J* K* j& L* M* N* O* P* Q* R* S* T* U* ",
"V* W* X* Y* Z* `*  = .= += @= #= $= %= &= *= == -= ;= >= ,= '= )= != ~= {= ]= ^= /= U& (= _= := <= [= }= |= 1= 2= 3= 4= 5= 6= 7= 8= 9= 0= a= b= c= d= e= f= g= h= i= j= k= l= m= n= o= p= q= r= s= t= u= v= w= x= y= z= A= B= C= D= E= F= G= H= I= J= K= L= M= N= O= P= Q= R= S= T= O. U= O. p* V= r* W= X= b* Y= Z= `=  - .- +- @- #- 1@ $- %- &- *- =- ]% -- j& ;- &+ >- ,- *+ '- )- !- ~- {- ",
"]- ^- /- (- _- :- <- [- }- |- 1- 2- 3- 4- 5- 6- 7- 8- 9- 0- a- b- c- d- e- f- g- h- h- i- j- k- l- m- n- o- p- q- r- s- t- u- v- w- x- y- z- z- A- B- C- D- E- F- G- H- I- J- K- L- M- N- O- P- Q- R- S- T- U- V- W- X- Y- Z- `-  ; .; +; @; #; $; %; &; G. *; =; -; ;; >; J. ,; '; ); !; ~; {; ]; ^; /; (; 2@ v# _; :; <; [; }; |; 1; 2; 3; 4; 5; 6; 7; 8; 9; 0; a; b; c; d; e; f; g; Y  h; i; ",
"j; k; l; m; n; o; p; q; r; s; t; u; v; w; x; y; z; A; B; C; B; (- A; D; E; F; G; H; I; J; K; L; M; N; O; P; Q; R; S; T; U; V; W; X; Y; Z; `;  > .> +> @> #> $> %> &> *> => -> ;> >> ,> '> )> !> ~> {> ]> ^> /> (> _> :> <> [> }> |> 1> 2> 3> 4> 5> 6> 7> 8> 9> 0> a> b> c> d> e> f> g> h> i> i  j> k> l> m> m> m> n> N  o> p> p> q> r> a; s> t> Y. u> !% v> w> x> y> z> A> B> C> D> E> F> G> H> ",
"I> J> K> k; m; L> M> N> O> P> Q> R> S> T> U> V> W> X> Y> Z> `>  , ., +, `> @, #, $, %, &, $, *, *, %, $, =, -, ;, >, ,, ', ), !, ~, {, ], ^, /, (, _, :, <, [, }, |, 1, 2, 3, 4, s% 5, 6, 7, 8, 9, 0, a, b, c, d, e, f, g, h, i, j, k, l, m, n, o, p, q, r, s, t, u, v, w, x, y, z, v. A, B, C, D, E, F, G, H, D, I, J, K, L, M, N, O, P, Q, R, S, T, U, V, W, X, Y, Z, `,  ' .' +' @' #' $' %' ",
"&' *' =' -' ;' >' ,' '' )' !' ~' {' ]' ^' /' (' _' :' <' [' }' |' 1' 2' 3' 4' 5' 6' 7' 8' 9' 0' a' b' c' d' e' f' g' h' i' j' k' l' m' n' o' p' p' q' r' s' t' u' v' w' x' y' z' A' B' C' D' E' F' G' H' I' J' K' L' M' N' O' P' Q' R' S' T' U' V' W' X' Y' Z' `'  ) ~  .) d  +) @) +) #) $) %) &) *) =) -) ;) >) ,) ') )) !) ~) ~) {) y  ]) ^) /) () _) :) <) [) }) |) 1) 2) 3) 4) 5) 6) 7) 8) ",
"9) 0) a) b) c) d) e) f) g) h) i) j) k) l) m) l) n) o) p) q) r) s) t) u) v) w) x) y) z) A) B) C) D) E) F) G) c' H) I) J) K) K) L) M) N) M) O) P) Q) R) S) T) U) V) W) X) Y) Z) `)  ! .! +! @! #! $! %! &! *! =! -! ;! >! ,! '! )! !! ~! {! ]! ^! /! (! _! :! <! [! }! |! 1! 2! |! 3! L* 4! 5! 5! 6! 6! 5! 5! 4! O  7! 8! 9! 0! a! b! c! d! e! f! () g! h! i! j! k! l! m! n! o! p! q! r! s! t! u! ",
"v! w! x! y! z! A! B! C! D! E! F! G! H! I! J! K! L! M! N! O! P! Q! R! S! w) T! U! V! W! X! Y! Z! `!  ~ .~ +~ @~ 5' #~ $~ %~ &~ *~ =~ -~ ;~ >~ ,~ '~ )~ B) !~ ~~ {~ ]~ ^~ /~ (~ _~ :~ <~ [~ }~ |~ 1~ 2~ 3~ 4~ 5~ 6~ 7~ 8~ 9~ 0~ a~ b~ c~ d~ e~ f~ g~ h~ i~ j~ k~ Y+ '@ r  r  l~ m~ n~ n  o~ p~ q~ r~ s~ 5! L* ;- ;- ;- ;- j& t~ u~ v~ w~ x~ y~ z~ A~ B~ C~ D~ E~ F~ G~ H~ I~ J~ K~ L~ M~ s! N~ O~ ",
"P~ Q~ R~ S~ T~ U~ &' V~ W~ X~ Y~ Z~ `~  { .{ +{ @{ #{ ${ %{ &{ *{ ={ -{ ;{ T! >{ ,{ ,{ '{ ){ !{ ~{ {{ ]{ Z! ^{ /{ ({ _{ :{ <{ [{ }{ |{ 1{ 2{ 3{ 4{ 5{ 6{ 7{ 8{ 9{ 0{ a{ b{ c{ d{ e{ f{ g{ h{ i{ j{ k{ l{ m{ n{ o{ p{ q{ r{ s{ t{ u{ v{ w{ x{ y{ z{ A{ B{ C{ D{ E{ F{ G{ H{ I{ J{ K{ L{ M{ N{ O{ P{ Q{ R{ S{ T{ S{ U{ V{ W{ 9; 9; -- X{ C  Y{ Z{ `{  ] .] +] @] #] $] %] &] *] =] -] ;] >] ,] '] ",
")] !] ~] {] ]] ^] /] (] _] :] <] [] }] |] 1] 2] 3] 4] 5] 6] 7] 8] 9] 0] a] b] c] d] e] :{ :{ f] :{ g] h] i] j] k] k] '{ l] m] n] n] o] p] q] r] s] t] u] v] w] x] y] z] A] B] C] D] @~ E] F] G] H] I] J] K] L] M] N] O] P] Q] R] S] T] U] V] W] X] Y] Z] `]  ^ .^ +^ @^ #^ $^ %^ &^ *^ =^ -^ ;^ >^ ,^ =^ }; '^ )^ )^ !^ ~^ %+ i& {^ C  ]^ ^^ >- #+ /^ (^ _^ :^ <^ [^ }^ |^ 1^ 2^ 3^ 4^ 5^ 6^ 7^ ",
"8^ Y~ 9^ 0^ a^ b^ c^ d^ e^ f^ g^ h^ i^ j^ k^ l^ m^ n^ o^ o^ p^ q^ r^ s^ t^ u^ v^ w^ w^ :{ x^ j] j] w^ y^ z^ z^ i] g] '{ A^ m] m] B^ C^ D^ E^ F^ G^ H^ I^ J^ K^ L^ M^ N^ O^ P^ Q^ R^ S^ T^ U^ V^ W^ X^ Y^ R^ Z^ `^  / ./ +/ @/ #/ $/ %/ &/ */ =/ -/ ;/ >/ ,/ '/ )/ !/ ~/ {/ ]/ ^/ // (/ _/ (/ 3@ :/ </ [/ }/ |/ )^ )^ 1/ ~^ i& H  C  2/ 2/ ;- 4! 3/ ;- 4/ j& i& 5/ 6/ 7/ 8/ 9/ 0/ a/ b/ c/ ,] d/ ",
"e/ f/ g/ h/ i/ j/ k/ l/ m/ n/ o/ p/ q/ r/ s/ t/ u/ v/ w/ x/ y/ z/ A/ B/ C^ k] C/ ~{ D/ x^ E/ F/ G/ H/ I/ J/ K/ L/ M/ N/ O/ O/ P/ Q/ R/ S/ S/ T/ U/ V/ W/ X/ Y/ Z/ `/  ( .( +( @( #( $( %( &( *( =( -( ;( >( ,( '( )( !(  / ~( {( ]( ^( /( (( _( :( <( [( }( |( 1( 2( 3( 4( 5( 6( 7( 8( 9( 0( a( b( c( d( e( f( g( h( U{ L* i( 5! j( k( &+ 9; s~ 0; 4/ l( 4/ l( 0; 0; l( m( n( o( p( q( r( s( t( ",
"u( v( w( b^ x( y( z( A( B( C( D( E( F( G( H( I( J( K( L( M( N( O( P( Q( R( S( T( U( V( W( X( Y( Z( `(  _ ._ +_ @_ #_ $_ %_ &_ *_ =_ -_ ;_ >_ ,_ ._ '_ )_ !_ ~_ {_ ]_ ^_ /_ (_ __ :_ T^ <_ [_ }_ |_ 1_ 2_ 3_ 4_ 5_ 6_ 7_ 8_ 9_ 0_ a_ /( b_ c_ d_ e_ f_ g_ h_ i_ j_ k_ l_ m_ n_ o_ p_ q_ r_ s_ t_ u_ v_ o* K{ w_ X{ x_ y_ z_ A_ /) B_ C_ D_ 4! 5! j& j& ;- j& W{ 4! j& L* 4! X{ E_ F_ G_ H_ I_ J_ ",
"K_ L_ M_ N_ O_ P_ Q_ R_ S_ T_ U_ V_ W_ X_ Y_ Z_ `_  : .: +: @: #: $: %: &: *: ._ =: =: -: ;: >: ,: ': ): !: ~: {: ]: ^: /: (: _: :: <: [: }: |: 1: 2: 3: 4: 5: 6: 7: 8: 9: 0: a: 9{ b: [{ V! V! c: d: e: f: g: h: i: j: k: l: m: n: o: p: q: r: s: t: u: v: w: x: y: z: A: B: C: D: E: F: G: H: I: J: K: L: M: N: 4/ O: P: Q: R: U{ S: T: U: L* j& j& ;- N* 4! 4! ;- ;- a; N* 1! V: l( L* L* H  ",
"W: X: Y: Z: `:  < .< +< @< #< $< %< &< *< X^ =< -< ;< >< ,< '< )< !< ~< {< ;_ ]< +_ ^< /< (< _< _< :< :< << [< }< |< 1< 2< |< 3< 4< 5< 6< 7< 8< 9< 0< a< b< c< 4: d< e< f< 6: g< h< i< j< k< l< m< n< o< p< 9{ q< r< s< t< u< v< w< x< y< z< A< B< C< D< E< F< G< H< I< J< K< L< M< N< O< P< Q< R< S< T< U< V< W< X< Y< Z< `< O: %+ 1/ M*  [ .[ >- +[ >- v~ +[ +[ .[ v~ @[ >- #[ #[ r> q> .[ +[ ",
"$[ %[ &[ *[ +/ =[ -[ ;[ >[ ,[ '[ )[ ![ ~[ {[ ][ ^[ /[ ([ _[ :[ <[ [[ }[ |[ 1[ 2[ 3[ !_ 4[ 5[ 6[ +_ [< [< :< 7[ 8[ 9[ 0[ a[ b[ c[ d[ e[ f[ g[ f[ h[ i[ j[ k[ 4: l[ m[ n[ f< o[ p[ q[ r[ s[ -< t[ u[ o< v[ w[ 1_ 8{ x[ y[ z[ A[ B[ 0{ C[ D[ E[ F[ G[ H[ I[ J[ K[ L[ M[ N[ O[ P[ Q[ R[ S[ T[ U[ V[ W[ X[ Y[ Z[ `[  } .} +} @} #} $} %} &} *} Q, =} =} w~ -} d! ;} >} ,} >} ,} w~ '} )} '} !} w~ ~} ",
"{} ]} ^} /} (} _} :} :} <} [} }} |} 1} 2} z< 3} 4} 5} 6} 7} 8} 9} ;( 0} `( a} b} c} b} d} !< e} f} g} h} i} j} k} l} a[ 0[ c[ b[ e[ m} m} a[ b[ f[ n} o} o} p} n[ q} f< f< f< r} s} t} u} v} -< -< w} x} y} z} A} B} z[ C} D} E} F} G} H} I} J} E[ K} L} M} N} O} P} Q} R} S} T} U} V} W} X} Y} Z} `}  | .| +| @| #| $| %| &| *| =| -| ;| >| !} ,} !} w~ =} !} ;} d! d! ;} ,| '| )| )| !| ~| '| ",
"{| ]| ^| /| (| _| :| J( <| [| }| || 1| 2| 3| 4| 5| 6| 7| L^ 8| 9| 0| 0| a| b| b| c| .( d| e| f| f| g| h| i| l[ j| k| m} l| m| n| o| p| q| q| r| p| s| t| u| v| w| {: x| y| z| A| B| f| d| C| D| E| F| G| 8} G| H| I| J| K| L| W/ M| W/ V/ V/ N| O| P| Q| R| S| T| U| V| W| X| Y| Z| `|  1 R[ .1 +1 @1 #1 $1 %1 &1 *1 =1 -1 ;1 >1 ,1 '1 )1 !1 ~1 {1 p> u~ q> ]1 ^1 /1 (1 _1 :1 <1 [1 }1 |1 |1 11 ",
"21 31 41 51 Z^ 61 p< 71 81 91 01 01 a1 b1 c1 {_ d1 e1 f1 g1 h1 i1 j1 k1 k1 l1 m1 n1 o1 p1 q1 r1 s1 t1 u1 u1 v1 w1 x1 y1 z1 A1 B1 C1 D1 E1 E1 F1 G1 H1 I1 J1 K1 L1 M1 N1 O1 P1 Q1 Q1 Q1 R1 S1 T1 T1 U1 *( V1 W1 X1 Y1 Z1 `1  2 v} .2 +2 @2 #2 h: $2 %2 &2 *2 =2 -2 ;2 >2 ,2 '2 )2 !2 ~2 {2 ]2 ^2 /2 (2 .1 _2 :2 <2 [2 }2 |2 12 22 32 42 52 62 72 82 92 02 a2 b2 c2 d2 e2 Z{ f2 g2 h2 i2 j2 k2 l2 ",
"m2 n2 o2 p2 q2 r2 r2 s2 t2 u2 v2 w2 x2 y2 z2 A2 B2 C2 D2 E2 F2 G2 H2 I2 J2 K2 L2 M2 N2 O2 M2 P2 Q2 R2 S2 T2 U2 V2 W2 X2 Y2 Z2 `2 Y2  3 .3 +3 @3 #3 $3 %3 &3 *3 =3 l| f[ g[ -3 ;3 >3 ,3 y| '3 )3 !3 ~3 {3 E2 ]3 ^3 =( /3 /3 (3 _3 :3 <3 [3 )( }3 |3 13 I] 13 23 33 43 >2 53 63 73 83 93 03 a3 b3 c3 (2 d3 e3 f3 g3 h3 i3 j3 k3 12 l3 m3 n3 o3 p3 q3 r3 s3 t3 u3 v3 w3 x3 () y3 z3 A3 B3 B3 C3 D3 ",
"E3 F3 G3 H3 E2 0} I3 x] J3 y] K3 L3 M3 N3 O3 P3 Q3 R3 S3 X/ T3 ]_ S( U3 V3 W3 X3 Y3 X3 Z3 `3  4 .4 +4 @4 #4 .4 O1 $4 %4 g[ &4 k1 *4 m| =4 -4 ;4 >4 ,4 '4 ;4 r| )4 !4 ~4 ~4 {4 ]4 ^4 /4 (4 _4 :4 '3 ~3 <4 [4 c} }4 |4 |4 14 24 34 44 54 64 74 84 }3 94 04  / a4 b4 c4 d4 e4 f4 g4 h4 i4 j4 V} k4 l4 m4 n4 o4 p4 q4 r4 s4 t4 u4 v4 w4 x4 y4 z4 A4 B4 C4 D4 E4 F4 G4 H4 I4 x> J4 K4 L4 M4 N4 O4 P4 ",
"<4 Q4 R4 O^ b} b} Q4 S4 [4 T4 U4 V4 !3 W4 X4 C2 C2 Y4 Z4 `4  5 `4 `4 .5 +5 .( @5 #5 @5 $5 %5 &5 *5 =5 -5 J2 ;5 >5 O1 O1 8< ,5 k| '5 m| m| m| )5 !5 ~5 {5 m| ]5 ^5 /5 (5 (5 _5 :5 <5 [5 }5 |5 15 ~: 25 35 d} 45 I3 55 =( 65 75 85 95 05 a5 b5 c5 d5 e5 f5 g5  / h5 i5 j5 k5 l5 m5 n5 o5 p5 q5 r5 s5 t5 u5 o4 v5 w5 x5 y5 z5 A5 B5 C5 D5 E5 x4 F5 G5 H5 I5 J5 K5 L5 M5 N5 O5 P5 Q5 R5 ^@ S5 T5 U5 ",
"E2 V5 3[ W5 E2 X5 Y5 Y5 Z5 `5  6 .6 +6 m2 @6 #6 $6 %6 &6 *6 %6 =6 -6 ;6 >6 ,6 '6 #5 B| )6 !6 %5 ~6 {6 ]6 ^6 /6 (6 _6 M1 8< :6 ,5 l| ]5 m| <6 ^5 ~5 [6 }6 |6 16 26 36 46 46 56 66 76 86 96 06 06 a6 b6 '6 c6 d6 e6 f6 g6 h6 i6 j6 k6 l6 m6 n6 o6 p6 q6 r6 s6 t6 u6 v6 w6 x6 y6 z6 A6 B6 C6 D6 E6 F6 s5 G6 H6 <( I6 J6 K6 L6 M6 N6 O6 P6 Q6 R6 R6 S6 T6 U6 V6 W6 X6 Y6 Z6 `6  7 .7 +7 @7 #7 $7 %7 ",
"&7 *7 =7 -7 ;7 >7 ,7 '7 )7 !7 ~7 ): ~7 {7 ]7 ^7 /7 (7 _7 :7 <7 [7 }7 |7 17 27 37 47 I2 I2 57 67 I2 77 87 ;5 97 07 a7 b7 c7 !5 !5 {5 >4 d7 d7 e7 e7 f7 g7 h7 i7 !4 36 j7 n} k7 l7 m7 n7 o7 p7 p7 o7 q7 c6 r7 g} s7 s7 t7 f} u7 v7 w7 x7 y7 z7 A7 B7 C7 }3 D7 D7 E7 F7 G7 H7 I7 J7 K7 L7 M7 N7 O7 P7 Q7 R7 S7 T7 V} U7 V7 W7 X7 M6 Y7 Z7 `7  8 .8 +8 @8 #8 $8 %8 &8 *8 =8 -8 ;8 >8 ,8 '8 )8 !8 ~8 ",
"87 {8 ]8 ^8 87 s1 87 /8 (8 {8 87 ;5 >7 *7 _8 :8 <8 <8 [8 <8 }8 |8 18 28 |8 38 {7 48 58 `5 68 78 48 88 98 78 08 a8 b8 h[ m} c8 d8 e8 f8 g8 h8 '4 ,4 i8 j8 k8 l8 m8 n8 h7 o8 p8 q8 /5 r8 s8 t8 u8 u8 #5 t8 u8 c6 @5 [5 #5 q7 v8 w8 x8 y8 y] z8 A8 A] B8 B] C8 D8 j: R| E8 F8 G8 H8 I8 J8 K8 L8 M8 N8 O8 P8 Q8 R8 S8 T8 U8 V8 W8 X8 Y8 Z8 `8  9 .9 +9 @9 #9 $9 @8 %9 &9 *9 =9 -9 V< ;9 >9 ,9 '9 )9 ",
"!9 ~9 87 s1 s1 ;5 s1 ]8 ]8 -7 -5 J2 {9 *7 ]9 |8 |8 <8 ^9 ^9 /9 58 ^9 <8 |8 (9 _9 :9 <9 [9 }9 |9 19 29 39 49 :7 59 69 /6 /6 79 (6 %4 (6 89 99 09 f[ a9 b9 c9 i[ ;3 /: d9 06 k} Q1 x| h1 e9 f9 g} g} f9 g} r7 g} r7 c6 t8 g9 h9 i9 j9 k9 R4 l9 m9 n9 o9 p9 q9 r9 s9 t9 u9 v9 N} O} w9 x9 y9 z9 A9 B9 C9 D9 E9 F9 G9 H9 I9 J9 K9 r5 L9 M9 N9 O9 O9 z5 M6 P9 Q9 R9 S9 T9 U9 V9 W9 X9 Y9 Z9 `9  0 .0 ",
"+0 @0 F3 #0 $0 %0 &0 *0 =0 -0 =0 ;0 >0 ,0 '0 (9 )0 58 [8 ]9 78 !0 ~0 {0 ]0 ^0 /0 (0 _0 :0 <0 ,: [0 }0 ~6 |0 h1 10 20 g1 30 40 50 60 70 ~3 80 90 00 ): a0 b0 |0 c0 d0 ,: y| e0 A| f0 g0 )6 h0 i0 g6 g6 e6 i0 j0 k0 k0 l0 m0 n0 o0 f6 p0 q0 q0 )6 r0 6| s0 t0 u0 v0 w0 x0 y0 z0 A0 B0 C0 D0 E0 F0 G0 H0 I0 J0 K0 L0 M0 N0 O0 V} P0 p4 Q0 R0 S0 K6 T0 U0 V0 W0 X0 Y0 Z0 `0  a .a +a @a #a $a %a &a ",
"*a c} =a -a m2 ;a >a ,a 'a >a )a )a )a !a 19 ~a {a ]a ^a 28 /a (a 68 _a :a <a [a )3 }a |a F2 |a ._ =: 30 :0 1a >: 2a 3a 70 4a 'a 'a 5a 6a 7a 8a 25 9a 0a aa ba ba ca da >: ^< _< e| ^< ea fa L^  ( 7: k0 $( 7: ga ha j0 r0 *( ia /3 h6 d6 *a r0 V1 ja ka x< la ma na oa pa qa ra sa ta ua va wa xa ya 43 za Aa Ba Ca Da Ea Fa H< Ga Ha Ia Ja Ka La Ma Na Oa Pa Qa Ra X0 Sa Ta Ua Va Wa Xa Ya Za ",
"`a Q4  b .b m2 +b =6 @b @6 #b $b %b &b *b =b -b ;b >b ,b 'b )b !b <7 ~b !b {b ]b -a ^b d1 /b ;6 (b _b :b <b [b }b |b =6 1b 2b 3b 4b 5b 6b 7b 8b 9b 0b ~b ab ^9 ab /0 bb cb `( 2[ !_ !_ db eb fb gb hb gb gb }_ X/ ib z2 I} -< jb 24 kb lb 14 l< mb nb ob pb qb rb sb tb ub vb tb wb tb wb ta xb ta yb zb za Ab Bb Cb Db `| Eb R7 Fb Ha u5 Gb Hb Ga Ib Jb Kb Lb Mb Nb Ob Pb Qb Rb Sb Tb Ub Vb Wb ",
"Q4 Xb Yb Zb `b W4 X4  c .c G} +c +c @c #c S^ [_ $c %c &c *c =c -c ;c >c ,c 'c )c !c !c ~c A2 {c {c %c [_ G} %c 21 ]c ^c 3{ /c (c 91 91 _c :c <c [c Zb }c |c 1c [7 2c 3c 4c 5c 6c 7c 8c 91 9c 0c ac bc cc dc dc ec fc gc hc ic jc kc lc mc nc mc oc pc qc rc sc tc uc vc uc uc wc xc yc zc Ac Bc Cc Dc Ec Fc Gc Fc Hc Ic Jc Kc Lc Mc Nc f_ S7 Oc Pc Qc Rc Sc Tc Uc Vc Wc Wc Xc Yc Zc `c  d .d +d ",
"c} b} @d ~_ #d 6c U3 hb eb C^ $d %d &d *d =d -d 4{ ;d F^ F^ >d p] ,d 'd )d !d ~d o] {d ]d ^d /d ^d ^d (c ^d ^d (d _d _d :d <d /d [d A2 }d |d 1d 2d 3d 4d |c 5d Zb 6d 7d 8d D| 9d y] 0d v[ B[ g: ad ad bd cd Q| dd ed fd fd X_ gd hd id jd kd ld !( md nd od pd qd rd sd td ud vd wd xd yd zd Ad Bd Cd R} F< Dd Dd Ed Fd Gd Hd Id Jd Kd Ld Md Nd Od Pd Qd Rd Sd Td Ud Vd Wd Xd Yd Zd `d  e .e +e ",
"[4 0} @e `b 5c #e ]_ S( $e B^ T^ %e &e q] *e =e -e ;e >e >e ,e /c 'e ^d )e o] n] (c ^d ~d /d !e ~e /d {e ]e ^e /e (e _e :e (c (c /d <e [e }e Z4 |e 1e 2e 3e 8c x] >( 9d (3 4e 5e 6e 7e 8e 9e 0e ae be be ce de 2} ee fe fe ge he ie je ke le me ne oe pe C< qe re se te V| ue ve we xe ye ze Ae Be Be Ce De Ee I< Fe Ge He Ie Ie Je Ke Le I9 Me Ne Oe Pe Oe L8 M[ Qe Bb n5 Re Se Te Ue Ve We Xe ",
"Ye Ze `e C2 u] V3  5 B2  f _c .f +f 3{ %c 5{ @f #f $f %f ^d &f ~e *f &f =f -f ;f >f ,f 'f )f !f ~f {f ]f ^f /f <d (f _f :f <f [f }f |f 1f 2f 3f 4f 5f 6f 7f 8f 9f 0f af bf cf df :3 ef ff gf hf 84 if jf kf lf mf nf of pf qf rf sf tf kf uf vf wf xf yf zf Af Bf Cf Df Ef Ff Gf K8 Hf If Jf Ea Kf Lf Mf Nf Of O7 d3 Pf Qf Rf Sf h_ Tf Uf Vf Qf Wf Fe Z| Cb Xf {2 Yf Yf Zf `f  g .g +g @g #g $g ",
"%g &g *g V3 =g -g  5 a1 _c H} ;g >g ,g 'g {e )g (c ^d [d !g ~g {g ]g ^g /g (g _g :g <g [g }g |g 1g 2g 3g 4g 5g 6g 7g 8g 9g 0g ag bg cg dg eg fg gg hg ig jg gg kg lg mg ng og pg qg rg sg tg ug vg wg xg yg zg Ag Bg Cg Dg Eg Fg Gg Hg Ig Jg Kg Lg Mg Ng Og Og Pg Qg Rg Sg Tg Ug ve Vg Wg Xg Yg Zg `g  h .h +h @h #h U7 $h H6 H6 %h &h Ib *h S7 I< =h -h ;h >h ,h 'h )h !h ~h {h `7 ]h ^h /h (h ",
"_h :h <h [h }h u] :c |h t] 1h 2h 3h >g 4h ^e )g *f ]g 5h 6h 7h 8h 9h 0h ah bh ch dh eh fh gh hh ih jh kh lh mh nh oh ph qh rh sh th uh vh wh xh yh zh Ah Bh Bh Ch Dh Eh Fh Gh Hh Ih Jh Kh Lh Mh Nh Nh Oh Ph Qh Rh Sh Th Uh Vh Wh Xh Yh Zh `h  i .i +i @i #i w0 $i %i &i *i =i -i ;i >i U} T7 ,i 'i )i !i ~i {i ]i ^i /i (i _i :i <i [i }i |i 1i 2i i4 3i 4i 5i 6i 7i 8i 9i 0i ai bi bi ci di ei ",
"fi gi hi =6 ii w2 x2 ji ki li mi ni oi pi qi ri si ti ui vi wi xi yi zi Ai Bi Ci 6g Di Ei Fi Gi Hi Ii Ji Ki Li Mi Ni Oi Pi Qi Ri Si Ti Ui Vi Wi Xi Yi Zi `i  j  j .j +j @j #j $j %j &j *j =j -j ;j >j ,j 'j )j !j ~j {j ]j ^j /j (j _j :j <j [j }j |j 1j 2j 3j 4j 5j 6j 7j x0 8j 9j 0j aj )2 Ee bj cj dj ej fj gj ~i hj ij jj kj lj mj nj Ne oj pj qj rj ud sj tj uj vj wj xj yj zj Aj Bj Cj Dj ",
"Ej Fj Gj Hj Ij Jj Kj Lj Mj Nj Oj Pj Qj Qj Rj Sj Tj Uj Vj Wj Xj Yj Zj `j  k .k +k @k #k $k %k &k *k =k -k ;k >k ,k 'k )k !k ~k {k ]k ^k /k (k _k :k <k [k }k |k 1k 2k  j 3k 4k 5k 6k &j 7k 8k 8k 9k 0k ak bk ck dk ek fk gk hk ik jk kk lk mk nk ok pk qk rk sk tk uk vk wk xk yk zk Ak Bk Ck Dk Ek Fk Gk Hk Ik Jk Kk Lk Lk Mk Nk Q[ Ok Pk Qk Rk Sk Tk Uk Vk Wk Xk Yk Zk `k  l .l +l @l #l $l %l ",
"&l *l =l -l ;l >l ,l 'l )l !l ~l {l ]l ^l /l (l _l :l <l [l }l |l 1l 2l 3l 4l 5l 6l 7l 8l 9l 0l al bl cl dl el fl Gi mh mh gl hl il jl kl ll ml nl ol pl ql rl sl tl ul vl wl xl yl zl Al Bl Cl Dl El Fl Gl Hl Il Jl Kl Ll Ml Nl Ol Pl Ql Rl Sl Tl Ul Vl Wl Xl Yl Zl `l  m .m +m @m #m $m %m &m *m =m -m ;m >m ,m 'm )m Ek !m w9 ~m {m ]m ^m /m (m _m :m <m [m }m |m 1m 2m 3m 4m 5m 6m 7m 8m 9m ",
"0m am bm cm dm em fm gm hm im jm km lm mm mm nm om pm qm rm sm tm tm um vm vm wm xm ym zm Am Bm Cm Dm Em Fm Gm Hm Im Hm Jm Km Lm Mm Gm Nm Om Pm Qm Rm Sm Tm Um Vm Wm Xm Ym Zm `m  n .n +n @n #n $n %n &n *n =n -n ;n >n ,n 'n )n !n ~n {n ]n ^n /n (n _n :n <n [n }n |n 1n 2n 3n 4n 5n 6n 7n 8n 9n 0n an bn cn dn en fn gn hn in jn kn ln mn nn on pn qn rn sn tn un vn wn xn yn zn An Bn Cn Dn ",
"En Fn Gn Hn In Jn Kn Ln Mn Nn On Pn Qn Rn Sn Tn Un Vn Wn Xn Yn Zn `n  o .o +o @o #o $o %o &o *o =o -o ;o >o ,o 'o )o !o ~o {o ]o ^o /o (o _o :o <o [o }o |o 1o 2o 3o 4o 5o 6o 7o 8o 9o 0o ao bo co do do eo fo go ho io io jo ko lo mo no oo po qo ro so to uo vo wo xo yo zo Ao Bo Co Do Eo Fo Go Ho Io Jo Ko Lo Mo No Oo Po Qo Ro So To Uo Vo Wo Xo Yo Zo `o  p .p +p @p #p $p %p &p *p =p -p ",
";p >p ,p 'p )p !p ~p {p ]p ^p /p (p _p :p <p [p }p |p 1p 2p 3p 4p 5p 6p 7p 8p 9p 0p ap bp cp dp ep fp gp hp ip jp kp lp mp np op pp qp rp rp sp tp up vp wp xp yp zp Ap Bp Cp Dp Ep Fp Gp Hp Ip Jp Kp Jp Lp Mp Np Op Pp Qp Rp Sp Tp Up Vp Wp Xp Yp Zp `p  q .q +q @q #q $q %q &q *q =q -q ;q >q ,q 'q )q !q ~q {q ]q ^q /q (q _q :q <q [q }q |q 1q 2q 3q 4q 5q 6q 7q 8q 9q 0q aq bq cq dq eq fq ",
"gq hq iq jq kq lq mq nq oq pq qq rq sq tq uq vq wq xq yq zq Aq Bq Cq Dq Eq Fq Gq Hq Iq Jq Kq Lq Mq Nq Oq Pq Qq Rq Sq Tq Uq Vq Wq Xq Yq Zq `q  r .r +r @r #r $r %r &r *r =r -r ;r >r ,r 'r )r !r ~r {r ]r ^r ^r /r (r _r :r <r [r }r |r 1r 2r 3r 4r 5r 6r 7r 8r 9r 0r ar br cr dr er fr gr hr ir jr kr lr mr nr or pr qr rr sr tr ur vr wr xr yr zr Ar Br Cr Dr Er Fr Gr Hr Ir Jr Kr Lr Mr Nr Or ",
"Pr Qr Rr Sr Tr Ur Vr Wr Xr Yr Zr `r  s .s +s @s #s $s %s &s *s =s -s ;s >s ,s 's )s !s ~s {s ]s ^s /s (s _s :s <s [s }s |s 1s 2s 3s 4s 5s 6s 7s 8s 9s 0s as bs cs ds es fs gs hs is js ks ls ms ns os ps qs rs ss ts us vs ws xs ys zs As Bs Cs Ds Es Fs Gs Hs Is Js Ks Ls Ms Ns Os Ps Qs Rs Ss Ts Us Vs Ws Xs Ys Zs `s  t .t +t @t #t +t $t %t &t *t =t -t ;t >t ,t 't )t !t ~t {t ]t ^t /t (t ",
"_t :t <t [t }t |t 1t 2t 3t 4t 5t 6t 7t 8t 9t 0t at bt ct dt et ft gt ht it jt kt lt mt nt ot pt qt rt st tt ut vt wt xt yt zt At Bt Ct Dt Et Ft Gt Ht It Jt Kt Lt Mt Nt Ot Pt Qt Rt St Tt Ut Vt Wt Xt Yt Zt `t  u .u +u @u #u $u %u &u *u =u -u ;u >u ,u 'u )u !u ~u m0 {u ]u ^u /u :} (u _u :u <u [u }u |u 1u 2u 3u 4u 5u 6u 7u 8u 9u 0u au bu cu du eu fu gu hu iu ju ku lu mu nu ou pu qu ru ",
"su tu uu vu wu xu yu zu Au Bu Cu Du Eu Fu Gu Hu Iu Ju Ku Lu Mu Nu Ou Pu Qu Ru Su Tu Uu Vu Wu Xu Yu Zu `u  v .v +v @v #v $v %v &v *v =v -v ;v >v ,v 'v )v !v ~v {v ]v ^v /v (v _v :v <v [v }v |v 1v 2v 3v 4v 5v 6v 7v 8v 9v 0v av bv cv dv ev fv gv hv iv jv kv ~9 35 I3 lv x} mv nv ov pv qv rv sv tv uv [( vv wv xv yv zv Av Bv Cv Dv Ev Fv Gv Hv Iv Jv Kv Lv Mv Nv Ov Pv Qv Rv Sv Tv Uv Vv Wv ",
"Xv Yv Zv `v  w .w +w @w #w $w %w &w *w =w -w ;w >w {8 ]8 ,w 'w )w !w ~w {w ]w ]w ^w /w (w _w :w <w [w }w |w 1w 2w 3w 4w 5w 6w 7w 8w 9w 0w aw bw cw dw ew fw gw hw iw jw kw lw mw nw ow pw qw rw sw tw uw vw ww xw yw zw Aw Bw Cw Dw Ew Fw Gw Hw Iw Jw Kw Lw Mw Nw m0 Ow Pw 8} Qw Rw )[ K] Sw Tw Uw Vw Ww Xw Yw Zw `w  x .x +x @x #x $x %x &x *x =x -x ;x >x ,x 'x )x !x ~x {x ]x ^x /x wl (x _x ",
":x <x [x }x |x 1x 2x 3x 4x 5x 6x 7x 8x 9x 0x ax bx cx dx ex fx gx hx ix ix jx kx lx )w mx nx ox px qx rx sx tx ux vx wx xx yx zx Ax Bx Cx Dx Ex Fx Gx Hx Ix Jx Kx Lx Mx Nx Ox Px Px Qx Rx Sx Tx Ux ef Vx Wx Xx Yx Zx `x  y .y +y @y #y /f $y %y &y *y v1 =y -y ;y k9 W1 >y ,y 'y 34 )y !y ~y {y ]y ^y rc /y (y _y :y <y [y }y |y 1y 2y 3y 4y 5y 6y 7y 8y 9y 0y ay by cy dy ey fy gy hy iy jy ky ",
"ly my ny oy py qy ry sy ty uy vy wy xy yy zy Ay By Cy Dy Ey Fy Gy Hy Iy Jy Ky Ly My Ny Oy Py Qy Ry Sy Ty Uy Vy Wy Xy Yy Zy `y  z .z +z @z #z $z %z &z *z =z -z ;z >z ,z 'z )z !z ~z {z ]z ^z /z (z _z :z <z [z }z |z 1z 2z 3z 4z 5z 6z 7z :3 8z 9z 0z az 76 bz cr p} cz dz ez fz gz hz hz iz jz kz lz mz nz oz pz qz rz sz tz uz vz wz xz yz zz Az Bz Cz Dz Ez Fz Gz Hz Iz Jz Kz Lz Mz Nz Oz Pz ",
"Qz Rz Sz Rz Tz Uz Vz Wz Vz Xz Yz Zz `z  A .A +A @A #A $A %A &A *A =A -A ;A Au >A Ky ,A 'A )A !A ~A {A ox ox ]A ^A /A (A _A :A <A [A }A |A 1A 2A 3A 4A 4A 5A 6A 7A 8A 9A 0A aA bA cA dA 4t eA fA gA hA iA jA kA lA mA nA oA pA qA rA sA tA uA vA wA /4 xA yA yA zA AA BA CA DA EA FA GA HA IA JA KA LA MA NA OA OA PA QA RA SA TA UA VA WA XA YA ZA `A  B .B +B @B #B $B %B &B *B =B -B ;B >B ,B ",
">c 'B )B !B =e ~B {B ]B ^B /B (B _B (B :B <B [B }B |B |B 1B 2B 3B 4B 5B 6B 7B 8B 9B 9B 0B aB bB cB dB eB ox fB gB hB iB jB kB lB mB nB oB pB qB rB sB tB uB vB wB xB yB zB AB BB CB DB EB FB GB HB IB IB JB KB LB LB MB MB NB OB PB C8 QB RB SB TB UB VB WB XB YB ZB `B  C .C +C @C #C #C $C %C &C *C =C -C ;C >C ,C 'C )C !C ~C {C ]C ^C /C (C _C :C <C [C }C |C 1C 2C 3C 4C 5C 6C 7C 8C 9C 0C ",
"aC bC G^ cC D^ dC *c ;e eC aC fC gC hC iC jC kC lC mC nC oC pC qC rC rC sC tC uC vC wC xC yC zC AC BC CC DC EC FC GC HC IC IC JC KC LC MC NC OC PC QC RC SC TC UC VC WC WC XC YC ZC `C >( @e x] Pw Pw 9d m9  D .D +D @D #D 95 $D %D &D 2| *D =D -D ;D >D ,D 'D )D wA !D ~D {D {D ]D ^D /D (D _D :D <D [D X1 .D ;< }D N/ |D 1D PA 2D 3D 4D 5D 6D 7D 8D 9D 0D aD bD cD dD eD fD gD hD iD jD kD lD ",
"mD nD oD oD pD ^_ /_ (_ qD rD sD tD uD vD wD xD yD ac zD (e AD BD ~e (c CD DD ED FD GD HD ID JD KD LD MD ND OD PD QD RD SD TD UD VD nx WD XD YD ZD `D /w /w YD  E .E +E @E #E ,_ !< 35 $E %E (4 &E Y3 h| *E =E e< -E ;E >E ,E 'E )E )E !E ~E {E ]E ]E e< ^E /E (E _E :E <E [E }E |E 1E 2E 3E 4E *C 5E 6E 7E 8E 9E 0E aE bE cE dE eE fE gE hE iE jE kE lE mE nE oE pE qE rE sE tE uE vE wE xE yE ",
"zE }[ AE BE CE DE EE FE GE HE IE JE t/ KE LE ME NE OE PE QE RE w} SE a: [e TE 9f UE VE WE XE YE ZE `E !a nC  F .F 7B +F @F #F |5 $F %F &F *F =F -F ;F >F ,F 'F )F !F ~F {F $F ]F ^F /F (F q8 _F :F <F Ks [F }F |F 1F 2F 3F 4F n[ 5F o[ g| f< 6F f< f| 7F 7F f| v8 8F 9F 0F aF aF bF cF dF eF fF gF hF iF jF kF lF mF nF oF pF qF rF sF tF uF vF wF xF yF zF AF BF CF DF EF FF GF HF IF JF KF LF ",
"50 MF NF OF PF QF RF SF TF UF VF WF XF YF tD $d ZF `F v^ $d  G .G +G @G 8{ #G 2e _h $G Y3 %G ^: /F &G u| ;5 *G =G -G ;G >G ,G 'G )G !G ~G {G ]G ^G /G (G _G j7 :G P1 06 <G i[ j7 c9 [G }G 36 |G _G 1G YB 2G 3G 4G 5G 2F BA 6G 7G 8G 9G 0G aG bG cG cG dG eG BA fG 9G gG hG DA iG jG kG lG mG nG oG pG qG rG sG tG uG vG wG xG yG zG AG BG CG DG EG FG GG HG IG JG KG LG MG NG OG PG QG RG SG TG ",
"UG VG WG XG YG J^ ZG `G  H .H +H @H @H #H $H %H &H *H =H -H ;H >H .2 ,H 'H )H !H ~H {H ]H ^H /H (H _H :H <H [H }H |H 1H 2H 3H 4H 5H 6H 7H 8H 7H 9H 7H 0H aH ,3 ,3 %G 06 bH n} i[ cH 8H [G c9 aH aH cH dH 3G eH 5G 5G fH gH hH iH jH kH jH lH mH nH oH pH qH rH sH tH zA uH vH wH jG xH kG yH zH AH BH CH DH EH FH GH HH IH JH KH _D LH MH NH OH PH QH RH SH TH UH yc VH WH XH YH ZH `H  I .I +I ",
"@I #I $I %I T4 c| &I *I =I -I ;I >I ,I 'I )I !I ~I ~I {I !H ]I ^I /I (I _I :I <I <I [I }I |I 1I 2I 3I 4I -D 5I 6I f< 7I 86 8I 4: 9I j[ 0I aI bI 5H 7H cI dI >3 eI <G ^: ]: ;3 fI gI hI iI jI kI lI mI nI oI pI qI rI sI sI tI uI vI wI xI xI /H yI  C zI AI sH BI CI DI EI FI GI HI yH II JI KI LI MI NI OI PI QI RI SI TI UI VI WI XI YI ZI `I  J .J +J @J #J $J %J &J *J =J -J ;J >J ,J 'J )J ",
"20 !J ~J {J ]J ^J /J [< h} (J =I =I _J *I :J <J _J [J r} ]E }J |J 6E 1J 2J 3J 4J 5J 6J 7J }I 8J 9J 0J aJ bJ cJ dJ eJ fJ gJ hJ VB eG iJ 3G jJ kJ kJ lJ mJ |G b9 nJ oJ pJ q8 qJ rJ sJ tJ uJ vJ wJ xJ yJ zJ AJ BJ CJ DJ EJ FJ GJ HJ IJ HJ JJ KJ LJ MJ NJ OJ PJ QJ RJ SJ TJ UJ VJ WJ XJ YJ ZJ `J nF  K .K +K @K #K $K %K &K *K =K -K ;K >K ,K 'K *C )K !K ~K {K ]K ^K /K (K _K :K <K [K }K |K 1K 2K ",
"3K %4 4K 5K 6K 7K h1 8K !J Z3 }< 9K 0K aK bK cK cK dK eK n[ fK d< -E gK hK iK jK kK lK eJ mK nK oK pK qK rK sK tK rK {D uK vK xI wK xK yK zK AK BK CK DK EK FK GK HK IK JK JK KK LK MK NK OK PK QK RK SK TK UK VK WK XK YK ZK `K ^K  L .L +L @L #L $L %L &L *L =L -L ;L >L ,L 'L +K )L !L ~L {L ]L ^L /L (L _L :L <L [L }L |L 1L 2L 3L 4L 5L 6L 7L 8L 9L 0L aL bL cL dL eL fL gL hL iL jL Ue kL ",
"lL mL nL oL pL qL n| h[ h[ '5 rL sL tL ;3 uL vL wL xL yL zL 9I 9I AL AL BL CL DL DL EL FL GL HL IL |F JL KL wK LL ML eG NL OL PL QL RL SL TL UL VL WL XL YL ZL `L  M .M +M @M #M $M %M &M *M =M -M ;M >M ,M 'M )M !M ~M {M ]M ^M /M (M _M :M <M [M }M |M 1M 2M 3M 4M 5M 6M 7M 8M 9M 0M aM bM cM dM eM fM gM hM iM jM kM lM mM nM oM pM qM rM sM tM uM vM lH wM xM yM zM AM BM CM DM EM FM GM HM ",
"IM JM KM LM MM NM c7 OM PM QM RM m| lI SM TM UM TM [F VM [F VM WM WM b< XM YM kJ ZM <H `M  N .N +N @N #N $N %N &N *N *N =N =F -N ;N >N ,N 'N )N !N ~N {N ]N ^N /N XL (N _N :N <N [N }N |N 1N 2N 3N 3N 4N 5N 6N 7N 8N 9N 0N aN bN cN dN eN fN gN hN iN jN kN lN mN nN oN pN qN rN sN tN uN vN wN xN yN zN pG AN BN CN DN EN FN GN HN IN LJ JN KN LN MN NN ON oH PN QN RN SN TN UN VN WN XN YN ZN ",
"pL `N  O .O +O @O #O $O d7 %O  O ~G &O *O =O h7 -O g7 ;O ;O >O ,O 'O )O 'O !O ~O {O ]O ^O /O (O _O :O <O [O }O |O 1O 2O 3O 4O 5O 6O 7O 8O 9O 0O aO bO cO dO eO fO gO hO iO jO kO lO mO nO oO pO qO rO sO tO uO vO wO xO yO zO AO BO CO DO EO FO GO HO :L IO JO KO LO MO NO OO PO QO RO SO TO UO VO WO eF XO %C YO ZO `O  P .P +P @P #P $P %P MJ &P *P rH iH pH =P -P ;P >P ,P 'P )P !P ~P {P ]P ",
"^P /P (P _P :P :P +O <P [P }P :P |P 1P 2P 3P 4P 5P 6P 2P 6P 7P 8P 9P 0P 8P aP 7P bP cP dP eP fP gP hP iP jP kP lP mP nP oP pP qP rP sP tP uP vP wP xP yP zP AP BP CP DP EP FP GP HP IP JP KP LP MP NP OP tO PP QP RP SP TP UP VP WP XP YP ZP `P  Q .Q +Q @Q #Q $Q %Q &Q *Q =Q -Q ;Q >Q ,Q 'Q )Q !Q ~Q {Q ]Q ^Q /Q (Q _Q :Q <Q [Q }Q |Q 1Q 2Q 3Q 4Q 5Q 6Q 7Q 7Q 8Q cF  P 9Q 0Q aQ bQ cQ dQ eQ fQ ",
"gQ hQ iQ jQ jQ kQ kQ lQ }P jQ :P jQ mQ nQ oQ pQ qQ rQ sQ sQ tQ uQ vQ wQ xQ yQ zQ AQ BQ BQ CQ DQ EQ FQ GQ HQ IQ JQ KQ LQ MQ NQ OQ PQ QQ RQ SQ TQ UQ VQ WQ XQ YQ ZQ ZQ `Q  R .R +R @R #R $R %R &R *R =R -R ;R >R ,R 'R )R !R ~R {R ]R ^R {R /R {R ^R (R _R :R <R :R [R }R |R 1R 2R 3R 4R 5R 6R 7R 8R 9R 0R aR bR cR dR eR fR XJ gR hR iR jR kR 6J lR mR nR oR pR OJ qR rR sR tR uR vR wR xR yR zR ",
"AR BR CR DR ER FR iQ GR FR _P HR IR JR KR LR MR NR OR PR QR RR SR TR UR VR CQ WR XR YR ZR `R  S .S +S @S #S $S %S &S *S =S rI bG AA CI -S ;S >S ,S 'S )S !S ~S {S ]S ^S /S ^S (S _S :S <S [S }S |S 1S 2S 3S 4S 5S 6S 7S 8S 9S 0S aS bS cS dS dS eS fS bS cS gS hS iS jS kS KK lS mS nS oS pS qS rS sS tS uS vS wS xS yS zS AS eP BS CS DS ES FS GS HS IS JS KS LS MS NS OS PS QS RS SS TS US VS ",
"Ds WS wJ IR XS YS ZS ZS `S DR  T .T +T @T #T $T %T &T *T *T *T =T -T ;T >T ,T 'T )T !T ~T {T ]T ^T /T (T _T :T <T [T }T |T CG 1T 2T 3T 4T GI DJ 5T <D 6T 7T 8T dL 9T 0T aT bT cT dT eT fT gT hT iT jT kT lT mT nT oT pT qT rT sT tT uT vT wT xT yT zT AT BT CT DT ET FT GT HT IT JT KT LT MT NT OT PT QT RT ST TT UT VT WT XT XT YT ZT `T  U .U +U @U #U #U $U %U &U *U =U -U ;U >U ,U 'U )U !U ",
"~U {U YS ]U ^U /U (U _U :U <U [U }U |U 1U 2U 3U 4U 2U 5U 2U 6U 7U 8U 9U 0U aU bU cU dU eU fU gU hU iU jU kU lU CA mU nU ^D oU kG %C  P pU qU rU sU tU uU vU wU xU yU zU AU BU CU DU EU FU GU HU IU JU KU LU MU NU OU PU QU RU SU TU UU VU WU XU YU ZU `U  V .V +V @V #V $V %V &V *V =V -V ;V >V ,V 'V )V !V ~V {V ]V ^V /V (V _V :V <V [V }V |V 1V 2V 3V 4V 5V 6V 7V 8V 9V 0V aV bV cV dV eV fV ",
"gV hV iV jV kV lV mV |U nV oV pV qV rV sV tV uV vV wV xV yV zV AV AV BV CV DV EV FV GV HV IV JV KV LV QQ tI MV NV OV PV QV RV SV TV UV VV WV XV YV ZV `V  W .W +W @W #W $W %W &W *W =W -W ;W >W ,W 'W )W !W ~W {W ]W !W ^W /W (W _W :W <W [W }W |W 1W 2W 3W 4W 5W 6W 7W 8W 9W 0W aW bW cW dW eW fW gW hW iW jW kW lW mW nW oW pW qW rW sW tW uW vW wW xW yW zW AW BW CW DW EW FW GW HW IW JW KW ",
"LW MW NW OW PW QW RW 5r SW TW UW VW WW XW YW ZW `W  X .X /v +X @X #X ^v $X %X &X *X =X -X ;X >X ,X 'X )X !X ~X {X (L ]X ^X /X (X _X :X <X [X }X |X 1X 2X 3X 4X 5X 6X 7X 8X 9X 0X aX bX cX dX eX fX gX fX >W hX iX jX kX lX mX nX oX pX qX rX sX tX uX vX wX xX yX zX AX BX CX DX EX FX GX HX IX JX KX LX MX NX OX PX QX RX SX TX UX VX WX XX YX ZX `X  Y .Y +Y @Y #Y $Y %Y &Y *Y =Y -Y ;Y >Y ,Y ",
"'Y oV )Y !Y oV ~Y {Y ]Y ^Y /Y (Y _Y tV :Y <Y [Y }Y |Y 1Y 2Y <v 3Y 4Y 5Y 6Y 7Y 8Y 9Y 0Y aY bY cY dY eY fY gY hY iY jY kY lY mY nY oY pY qY rY }X sY tY uY vY wY xY yY zY AY BY CY DY 0n EY FY GY HY IY JY KY LY IY MY NY Ho OY PY QY RY SY TY UY pn VY WY XY YY ZY `Y  Z .Z +Z @Z #Z $Z %Z &Z *Z =Z -Z ;Z >Z ,Z 'Z )Z !Z ~Z {Z ]Z ^Z /Z (Z _Z :Z <Z [Z }Z |Z 1Z 2Z 3Z 4Z 5Z 6Z 7Z 8Z 9Z 0Z aZ bZ ",
"cZ dZ eZ fZ gZ hZ iZ jZ kZ lZ mZ nZ PC oZ pZ qZ rZ sZ tZ uZ vZ wZ xZ yZ zZ AZ BZ CZ DZ EZ FZ GZ HZ IZ JZ KZ LZ MZ NZ OZ PZ QZ RZ SZ TZ UZ VZ WZ WZ XZ YZ ZZ `Z  ` .` +` @` #` $` %` &` OY *` =` -` ;` >` ,` '` )` !` =` MY ~` {` ]` ^` /` (` _` :` <` [` }` |` 1` 2` 3` 4` 5` 6` 7` 8` 9` 0` a` b` c` d` e` f` g` h` i` j` k` l` m` n` o` p` q` r` s` t` u` v` w` x` y` z` A` B` C` D` E` F` G` ",
"H` I` J` K` L` M` N` O` P` Q` R` Xy S` T` U` V` W` X` Y` Z` ``   .. .+ .@ .# .$ .% .& .* .= .- .; .> ., .' .) .! .~ .{ .[X ] .^ ./ .( ._ .: .< .[ .} .Io | .1 .2 .3 .4 .5 .6 .7 .8 .9 .0 .a .;` b .c .d .e .f .g .c .~` b .h .i .j .k .l .m .n .o .p .q .r .s .t .u .v .w .x .y .z .A .B .C .D .E .F .G .H .I .J .K .L .M .N .O .P .Q .R .S .T .U .V .W .X .Y .Z .` . .....+..@..#..$..%..&..*..",
"=..-..;..)w >..,..'..)..!..~..{..]..^../../..(.._..:..<..[..}..|..1..2..3..4..5..6..7..8..9..0n 0..a..b..c..d..e .e..f..g..h..i..j..k..l..m..n..n..o..mX p..q..r..s..t..u..v..w..x..y..z..A..B..C..D..E..F..G..; .H..nn I..J..K..L..M..N..O..P..Q..R..S..T..U..V..W..X..Y..Z..`.. +..+.++.@+.Cr #+.$+.%+.&+.*+.=+.-+.;+.>+.,+.'+.)+.!+.~+.{+.]+.^+./+.(+._+.:+.Rl <+.[+.}+.|+.1+.2+.3+.4+.5+.6+.",
"7+.8+.9+.0+.a+.b+.c+.d+.e+.f+.g+.h+.i+.j+.k+.l+.m+.n+.o+.p+.q+.r+.s+.t+.u+.v+.G..w+.x+.y+.z+.A+.y..B+.C+.C+.D+.E+.F+.G+.H+.- .I+.J+./W /W K+.L+.M+.N+.O+.P+.Q+.R+.Q+.S+.T+.Q+.U+.V+.W+.X+.Y+.Z+.`+. @..@.+@.@@.#@.#@.$@.%@.&@.*@.=@.-@.;@.>@.,@.'@.)@.!@.~@.{@.]@.^@./@.(@._@.:@.<@.[@.}@.|@.1@.2@.3@.4@.5@.6@.7@.8@.9@.0@.a@.b@.c@.d@.e@.f@.g@.h@.i@.j@.k@.l@.m@.n@.o@.p@.q@.r@.s@.t@.u@.v@.w@.",
"x@.y@.z@.A@.B@.C@.D@.E@.F@.G@.H@.I@.J@.K@.L@.M@.N@.O@..z P@.Q@.R@.S@.T@.U@.V@.W@.X@.Y@.Z@.`@. #..#.+#.+#.@#.##.$#.%#.&#.*#.=#.-#.;#.>#.,#.'#.)#.!#.~#.{#.]#.^#./#.(#._#.:#.<#.[#.}#.|#.1#.2#.3#.4#.5#.6#.7#.8#.9#.0#.a#.b#.c#.d#.e#.f#.g#.h#.h#.i#.j#.k#.l#.m#.n#.o#.p#.q#.r#.s#.t#.u#.v#.w#.x#.y#.z#.A#.B#.C#.D#.E#.F#.G#.H#.I#.c@.J#.K#.L#.M#.N#.O#.P#.Q#.R#.S#.T#.U#.V#.W#.X#.Y#.Z#.`#.}1 }1 ",
" $..$.sC +$.@$.#$.$$.%$.&$.*$.=$.-$.;$.>$.,$.'$.)$.!$.k+.~$.{$.]$.^$./$.i+.($.{$._$.zB :$.J@.<$.[$.}$.|$.1$.2$.3$.4$.5$.6$.7$.8$.9$.0$.a$.b$.c$.d$.e$.*Q f$.g$.h$.i$.j$.k$.l$.m$.n$.o$.p$.q$.r$.s$.t$.u$.v$.w$.x$.y$.z$.A$.B$.C$.D$.E$.F$.G$.H$.I$.J$.K$.J$.J$.L$.M$.N$.O$.P$.Q$.R$.S$.T$.U$.V$.W$.X$.Y$.Z$.`$. %..%.+%.@%.#%.$%.%%.&%.*%.=%.-%.;%.>%.,%.'%.)%.!%.~%.{%.]%.^%./%.(%._%.:%.<%.[%.",
"}%.|%.1%.2%.3%.4%.5%.6%.7%.8%.9%.0%.a%.oq b%.c%.d%.Yl e%.f%.g%.h%.]..i%.j%.k%.l%.m%.n%.o%.p%.q%.r%.s%.t%.:A ^z u%.v%.w%.x%.y%.z%.A%.B%.C%.D%.E%.F%.G%.H%.I%.J%.K%.L%.M%.N%.O%.P%.Q%.R%.S%.T%.U%.V%.W%.X%.yW Y%.Z%.`%. &..&.+&.@&.#&.$&.%&.&&.*&.=&.-&.;&.>&.,&.'&.)&.!&.~&.{&.]&.^&./&.(&._&.:&.<&.[&.}&.|&.1&.2&.3&.4&.5&.6&.7&.8&.9&.0&.a&.b&.c&.d&.e&.f&.g&.h&.i&.j&.k&.l&.m&.n&.o&.p&.q&.r&.",
"s&.t&.u&.v&.w&.x&.y&.z&.A&.ri B&.C&.D&.E&.F&.G&.H&.I&.k%.J&.K&.L&.M&.N&.O&.P&.Q&.R&.S&.zC T&.U&.V&.W&.X&.Y&.Z&.`&. *..*.+*.@*.#*.$*.%*.&*.**.=*.-*.;*.>*.,*.'*.)*.!*.~*.{*.]*.^*./*.(*._*.:*.<*.[*.}*.|*.1*.2*.3*.4*.5*.6*.7*.8*.9*.0*.a*.b*.c*.d*.e*.f*.g*.h*.i*.j*.k*.l*.m*.n*.o*.p*.q*.r*.s*.t*.u*.v*.w*.x*.y*.z*.A*.B*.C*.`..D*.E*.F*.G*.H*.I*.J*.K*.L*.M*.N*.O*.P*.Q*.R*.S*.T*.U*.V*.W*.X*.",
"KD Y*.U&.Z*.`*. =..=.+=.@=.Nj #=.$=.%=.&=.*=.==.-=.;=.>=.,=.'=.)=.!=.b+.~=.{=.)..hZ ]=.^=./=.(=._=.:=.<=.[=.}=.|=.1=.2=.3=.4=.5=.6=.7=.8=.9=.0=.a=.b=.c=.d=.e=.f=.g=.h=.i=.j=.k=.l=.m=.n=.o=.p=.q=.r=.s=.t=.u=.v=.w=.x=.y=.z=.A=.B=.C=.D=.E=.F=.G=.H=.I=.J=.K=.L=.M=.N=.O=.P=.Q=.R=.S=.T=.U=.V=.W=.X=.Y=.Z=.`=. -..-.+-.@-.#-.$-.%-.&-.*-.=-.--.;-.>-.,-.'-.)-.!-.!-.~-.{-.]-.^-./-./-.(-._-.(-.",
" $.vC rx vC Y*.GD :-.<-.[-.}-.|-.1-.2-.3-.4-.5-.6-.7-.>=.8-.9-.O` 0-.a-.b-.c-.d-.e-.f-.g-.h-.ar i-.j-.k-.l-.m-.n-.o-.p-.q-.r-.s-.t-.u-.v-.w-.x-.y-.z-.J%.A-.B-.C-.D-.E-.F-.G-.H-.I-.J-.K-.L-.M-.N-.O-.P-.Q-.R-.S-.T-.U-.V-.W-.X-.Y-.Z-.`-. ;..;.+;.@;.#;.$;.%;.&;.*;.=;.-;.;;.>;.,;.';.);.!;.~;.{;.];.^;./;.(;._;.:;.<;.[;.};.|;.1;.2;.3;.4;.5;.6;.7;.8;.9;.0;.a;.b;.c;.d;.e;.f;.g;.l&.h;.i;.j;.",
"k;.Vy l;.m;.n;.o;.p;.q;.r;.s;.t;.u;.v;.w;.x;.CC y;.z;.A;.B;.C;.D;.E;.F;.G;.H;.I;.J;.K;.L;.M;.N;.O;.N;.P;.Q;.R;.S;.T;.U;.V;.W;.X;.Y;.Z;.`;. >..>.+>.@>.#>.$>.%>.&>.*>.=>.->.;>.>>.,>.'>.)>.!>.~>.{>.]>.^>./>.(>._>.:>.<>.[>.}>.|>.1>.2>.3>.4>.5>.6>.7>.8>.9>.0>.a>.b>.c>.d>.e>.f>.g>.h>.i>.j>.k>.l>.m>.n>.o>.p>.q>.r>.s>.t>.u>.v>.w>.x>.y>.z>.A>.B>.C>.D>.E>.F>.G>.H>.I>.J>.K>._-.i;.i;.h;.L>.j;.",
"M>.N>.O>.M>.P>.Q>.R>.Q>.S>.T>.(A o;.mZ U>.V>.W>.X>.Y>.Z>.`>. ,.h-..,.+,..,.rJ @,.#,.$,..,.%,.i-.O;.&,.*,.3K n} =,.-,.:G br ar k-.;,.>,.,,.',.),.!,.~,.{,.],.^,./,.(,._,.:,.<,.[,.},.|,.1,.2,.'N 3,.4,.5,.6,.7,.8,.9,.0,.a,.b,.c,.d,.d,.e,.f,.WL g,.h,.i,.j,.k,.l,.m,.n,.o,.p,.q,.r,.s,.t,.u,.v,.w,.x,.y,.z,.A,.B,.C,.D,.E,.F,.G,.H,.I,.J,.K,.L,.M,.N,.O,.P,.Q,.R,.S,.T,.T,.U,.V,.W,.X,.V,.j;.Y,.",
"Z,.`,. '..'.+'.@'.#'.$'.%'.&'.*'.='.-'.;'.>'.,'.J` ''.kx )'.;,.!'.#,.~'.+,.{'.]'.^'.:G 46 /'.n} ,3 ('.46 n} n} |G _'.q8 :'.:F :'.<'.-F ['.}'.|'.1'.2'.3'.4'.5'.6'.7'.8'.PC 9'.0'.a'.b'.c'.d'.e'.f'.d'.g'.h'.i'.j'.k'.l'.m'.n'.o'.p'.q'.r'.s'.t'.u'.v'.w'.x'.y'.z'.A'.B'.C'.D'.E'.F'.G'.H'.I'.J'.K'.L'.M'.N'.O'.P'.Q'.R'.S'.T'.U'.V'.W'.X'.Y'.Z'.`'. )..).+).@).#).$).%).&).*).X,.W,.X,.V,.j;.Y,.",
"=).-).;).>).,).').%'.)).!).~).{).]).^)./).()._).:).<).[).}).|).{=.gZ 1).2).3).%,.r8 4).*,.5).=,.6).7).-,.*,.8).(5 9).0).a).b).m8 c).d).|O e).f).g).2H h).i).j).k).l).m).n).o).p).q).,,.r).s).t).u).v).<v w).x).y).z).A).B).C).D).E).F).F).G).H).I).J).K).L).M).N).O).P).Q).R).S).Q).T).U).V).W).O).X).Y).Z).`). !..!.+!.@!.#!.$!.%!.&!.*!.=!.-!.;!.>!.,!.'!.)!.!!.~!.{!.]!.^!./!.(!._!._!.:!.<!.",
"[!.}!.$$.|!.1!.2!.3!.4!.lZ 5!.6!.7!.8!.9!.0!.a!.b!.gZ |).c!.d!.e!.|).f!.|).g!.h!.i!.h!.j!.k!.l!.m!.n!.i!.M;.g-.j!.i!.h!.rJ o!.p!.q!.r!.s!.t!.u!.v!.v!.w!.x!.y!.z!.A!.B!.C!.a).D!.E!.-F F!.bx G!.H!.6).I!.J!.K!.L!.M!.N!.O!.P!.Q!.R!.S!.T!.U!.V!.W!.X!.Y!.Z!.`!. ~..~.+~.@~.#~.$~.%~.&~.*~.=~.-~.;~.>~.,~.'~.)~.!~.~~.{~.]~.^~./~.(~._~.:~.<~.[~.}~.|~.1~.2~.3~.4~.5~.6~.7~.8~.9~.0~.a~.b~.c~.)| ",
"d~.|!.e~.f~.g~.h~.i~.U>.j~.k~.l~.-'.d+.m~.n~.o~.p~.q~.H;.r~.s~.n-.c-.t~.u~.v~.k!.m!.w~.x~.y~.o~.z~.l!.A~.c-.m!.B~.C~.B~.q~.D~.g-.E~.F~.L;.G~.H~.I~.J~.K~.L~.M~.N~.O~.P~.Q~.R~.D~.D~.S~.T~.U~.V~.v~.b-.IV W~.X~.Y~.Z~.`~. {..{.+{.@{.#{.${.%{.&{.*{.={.-{.;{.>{.,{.'{.){.!{.~{.{{.]{.^{./{.({._{.:{.<{.[{.}{.|{.1{.2{.3{.4{.5{.6{.7{.8{.9{.0{.a{.b{.c{.d{.e{.f{.g{.h{.i{.j{.k{.l{.m{.n{.o{.p{.q{.",
"r{.s{.t{.u{.v{.w{.x{.y{.z{.A{.B{.C{.D{.6).E{.R~.#,.F{.Q~.L;.E~.w~.G{.K;.F~.H{.I{.g!.J{.K{.L{.M{.D{.m~.N{.o-.O{.P{.Q{.K{.R{.o-.S{.T{.U{.g!.V{.W{.n~.X{.Y{.Z{.`{. ]..].+].a-.@].#].$].%].&].*].=].HV -].;].>].,].'].)].!].~].{].]].]].^]./].(]._].:].<].[].}].|].1].2].3].4].5].6].7].8].9].0].a].b].c].d].e].f].g].h].i].j].k].l].m].n].o].p].q].r].s].t].u].v].w].x].y].z].y].A].B].C].D].E].F].",
"G].H].H].I].J].K].L].M].Py N].O].P].a!.U{.Q].n~.Q].6).6).R].H{.S].T].k7 U].^4 V].W].W].V].X].Y].Z].`]. ^..^.R{.+^.Q{.K{.@^.#^.D{.`>.$^.m-.L{.U{.#^.%^.&^.*^.*^.=^.-^.;^.>^.,^.'^.)^.!^.>^.V~.~^.{^.]^.^^./^.(^._^.:^.<^.[^.}^.|^.1^.2^.3^.4^.5^.6^.7^.8^.9^.0^.a^.b^.c^.d^.e^.f^.g^.h^.i^.j^.k^.l^.m^.n^.o^.p^.q^.r^.s^.t^.u^.v^.w^.x^.y^.z^.A^.B^.C^.D^.E^.F^.G^.H^.I^.J^.K^.L^.M^.N^.O^.P^.Q^.",
"R^.S^..X V>.T^.U^.V^.W^.X^.Y^.1Y Z^.`^. /../.+/.@/.C{.#/.>,.$/.%/.&/.*/.=/.-/.;/.>/.#/.{=.,/. ^.-/.X].$^.`>. ,.N{.'/.m-.)..)/..^.Y].;,.V].M{.,/.D{.c!.!/.~/.{/.]/.^/.//.(/._/.:/.</.[/.}/.|/.C$.1/.2/.3/.4/.5/.6/.7/.8/.9/.0/.a/.b/.c/.d/.e/.f/.g/.h/.i/.j/.k/.l/.m/.n/.o/.o/.p/.q/.r/.s/.t/.u/.v/.w/.x/.y/.z/.A/.B/.C/.D/.E/.F/.G/.H/.I/.J/.K/.L/.M/.N/.O/.P/.Q/.R/.S/.T/.U/.V/.W/.X/.Y/.Z/.`/.",
"L].<Y  (.Oy .(.+(.@(.#(.$(.$(.%(.%(.@(.&(.*(.=(.-(.;(.>(.>(.,(.'(.)(.T~.!(. ^.~(.0!.{(.](.N{.C{.)/.^(.Z>./(.%/.q).((._(.:(._(.<(.[(.}(.|(.1(.2(.xo 3(.4(.5(.6(.7(.7(.8(.9(.0(.a(.b(.c(.d(.e(.f(.g(.h(.i(.j(.k(.l(.m(.n(.o(.p(.q(.r(.s(.t(.u(.v(.w(.x(.y(.z(.A(.B(.C(.D(.E(.F(.G(.H(.I(.J(.K(.L(.M(.N(.O(.P(.Q(.R(.S(.T(.U(.V(.W(.X(.Y(.Z(.`(. _.._.+_.@_.#_.$_.%_.&_.*_.=_.-_.;_.>_.,_.'_.)_.!_.",
"~_.[Y {_.}Y ]_.^_./_.(_.__.:_.<_.[_.}_.|_.;r 1_.2_.3_.4_.5_.6_.7_.8_.UW 9_.a!.0_.a_.,,.b_.c_.)..@^.m-.d_.tF e_.f_.g_.h_.=y i_.j_.k_.l_.m_.n_.o_.p_.q_.r_.s_.t_.8(.u_.5(.v_.s_.v_.s_.w_.x_.y_.z_.A_.B_.C_.%` D_.E_.F_.G_.H_.I_.J_.K_.L_.M_.N_.O_.P_.Q_.R_.u(.S_.T_.U_.V_.W_.X_.Y_.Z_.`_. :..:.+:.@:.#:.$:.%:.&:.*:.=:.-:.;:.>:.,:.':.):.!:.~:.{:.{:.]:.^:./:.(:._:.::.<:.[:.}:.|:.1:.2:.3:.4:.5:.",
"6:.7:.8:.9:.0:.a:.b:.c:.d:.e:.f:.g:.h:.i:.j:.k:.l:.m:.n:.o:.p:.q:.r:.s:.t:.%].DC u:.v:.w:.x:.y:.z:.A:.B:.f-.h!.C:.D:.E:.((.F:.G:.H:.I:.J:.K:.L:.M:.yo N:.5(.O:.P:.Q:.8(.R:.S:.T:.U:.N:.;U Pu V:.W:.X:.H+.Y:.Z:.`:. <..<.+<.@<.#<.$<.%<.&<.*<.=<.-<.;<.><.,<.'<.)<.!<.~<.{<.]<.^<./<.(<._<.:<.<<.[<.}<.|<.1<.2<.3<.4<.5<.6<.7<.8<.9<.0<.a<.b<.c<.d<.e<.f<.g<.h<.i<.j<.k<.l<.m<.n<.o<.p<.q<.r<.s<.",
"t<.u<.v<.w<.am }p x<.y<.z<.9%.A<.c%.B<.C<.D<.E<.F<.G<.H<.I<.J<.K<.L<.M<.N<.O<./Y P<.a!.b_.b_.Q<.0-.|).y:.b_.R<.S<.f!.T<.hZ ,,.U<.V<.wo W<.X<.Y<.Z<.`<. [..[.+[..[.@[.#[.$[.%[.&[.*[.=[.-[.;[.>[.,[.'[.)[.![.~[.{[.][.^[./[.([._[.:[.<[.[[.}[.|[.1[.2[.3[.4[. l 5[.6[.7[.x(.8[.9[.0[.a[.b[.c[.d[.e[.f[.g[.h[.i[.j[.k[.l[.m[.n[.o[.p[.q[.r[.s[.t[.u[.v[.w[.x[.y[.z[.A[.B[.C[.D[.E[.F[.G[.H[.I[.J[.",
"K[.L[.M[.N[.O[.P[.Q[.R[.S[.T[.U[.V[.W[.X[.Y[.Z[.`[. }.`[..}.LC MC +}.@}.#}.$}.%}.&}.a-.S<.*}.'^.b!.=}.-}.;}.;}.hZ }).Z>.T<.hZ U<.>}.,}.'}.)}.!}.~}.{}.]}.^}./}.(}.^z _}.:}.<}.[}.}}.|}.1}.2}.3}.4}.5}.6}.7}.8}.9}.0}.a}.b}.c}.[[.d}.e}.f}.g}.h}.i}.j}.k}.l}.m}.n}.o}.p}.q}.r}.s}.t}.u}.v}.w}.x}.y}.z}.A}.B}.C}.D}.E}.F}.G}.H}.I}.J}.K}.L}.n[.M}.N}.9<.O}.P}.Q}.R}.S}.T}.U}.V}.W}.X}.Y}.Z}.`}. |.",
".|.+|.@|.#|.$|.%|.&|.*|.=|.-|.;|.>|.,|.'|.)|.!|.~|.{|.]|.^|.-)./|.(|.^p m:._|. /.:|.<|.[|.c_.}|.||.1|.b_.2|.3|.4|.5|.2|.b_.6|.vo 7|.8|.9|.0|.a|.b|.c|.]}.d|.e|.f|.g|.h|.i|.^z [}.&[.j|.k|.l|.m|.n|.o|.p|.q|.r|.s|.t|.u|.v|.w|.x|.y|.z|.A|.B|.C|.D|.E|.F|.G|.H|.I|.J|.K|.L|.M|.N|.O|.P|.Q|.R|.S|.T|.U|.V|.W|.X|.Y|.Z|.`|. 1. 1.H}..1.+1.@1.#1.$1.%1.&1.*1.=1.-1.;1.>1.,1.'1.)1.!1.~1.{1.]1.^1./1.",
"(1._1.:1.<1.<1.[1.gm }1.pm |1.11.21.31.41.51.51.61.71.81.91.01.a1.b1.c1.d1.e1.f1.g1.h1.i1.j1.k1.l1.m1.n1.o1.p1.q1.r1.s1.t1.u1.v1.uo mB w1.x1.y1.y` z1.A1.z1.B1.C1.D1.E1.F1.G1.3}.H1.I1.J1.K1.L1.M1.N1.O1.P1.Q@.Q1.R1.S1.T1.U1.V1.W1.X1.Y1.Z1.`1. 2..2.+2.@2.#2.$2.%2.&2.*2.=2.-2.;2.>2.,2.'2.)2.!2.~2.{2.]2.+1.G}.^2.H}./2.H}.H}.(2._2.:2.<2..1.[2.}2.|2.12.22.32.42.52.62.72.82.92.02.a2.b2.c2.",
"d2.e2.f2.g2.h2.i2.j2.k2.l2.m2.n2.o2.l2.p2.q2.r2.s2.t2.u2.v2.w2.x2.y2.z2.y2.61.A2.M[.B2.C2.D2.E2. u F2.G2.H2.I2.J2.K2.L2.M2.N2.O2.P2.Q2.v;.R2.S2.!z T2.LC IC U2.*[.}w L&.V2.W2.X2.Y2.Z2.`2. 3..3.+3.@3.#3.$3.%3.&3.*3.=3.-3.;3.>3.,3.'3.)3.!3.~3.{3.]3.^3./3.(3._3.:3.<3.[3.}3.|3.13.23.33.43.53.63.73.83.93.93.03.a3.03.b3.c3.c3.d3.c3.e3.f3.(2.g3.h3.i3.j3.k3.l3.m3.n3.o3.p3.q3.r3.s3.t3.u3.v3.",
"w3.x3.y3.z3.R[.A3.B3.C3.D3.E3.F3.G3.H3.I3.J3.K3.L3.M3.N3.O3.P3.Q3.R3.S3.T3.U3.V3.W3.X3.Y3.Z3.`3. 4..4.+4.@4.#4.$4.%4.&4.*4.=4.-4.;4.>4.,4.'4.)4.!4.~4.{4.]4.^4.&$./4.)$.(4.(4._4.:4.<4.[4.}4.|4.14.24.34.44.54.64.74.84.94.04.a4.b4.c4.d4.e4.f4.g4.h4.i4.j4.k4.l4.m4.n4.o4.p4.q4.r4.s4.t4.u4.v4.w4.x4.y4.z4.A4.B4.C4.D4.C4.E4.E4.E4.E4.F4.G4.H4.I4.J4.K4.L4.M4.N4.O4.P4.Q4.R4.S4.T4.U4.V4.W4.X4.",
"Y4.Z4.`4. 5..5.+5.@5.#5.$5.%5.&5.*5.S3.=5.-5.;5.>5.,5.'5.)5.!5.~5.{5.]5.^5./5.(5._5.:5.<5.[5.}5.|5.15.25.35.45.55.65.55.75.85.95.05.a5.b5.c5.d5.e5.f5.g5.h5.i5.j5.i5.k5.l5.m5.n5.o5.l5.p5.q5.f5.r5.s5.t5.u5.v5.w5.x5.y5.z5.A5.B5.C5.D5.E5.F5.G5.H5.I5.J5.K5.L5.M5.N5.O5.P5.Q5.R5.S5.T5.U5.V5.W5.X5.Y5.B4.Z5.`5. 6..6. 6.+6.@6.#6.$6.%6.&6.*6.=6.-6.;6.>6.,6.'6.)6.!6.~6.{6.]6.^6./6.(6._6.:6.<6.",
"[6.}6.|6.16.26.36.46.56.66.76.86.96.06.a6.b6.c6.d6.e6.f6.g6.h6.i6.j6.k6.l6.m6.n6.o6.p6.q6.r6.s6.t6.u6.v6.w6.x6.y6.z6.A6.B6.C6.D6.E6.F6.G6.H6.I6.J6.K6.L6.M6.N6.O6.P6.Q6.R6.N6.S6.T6.U6.V6.W6.X6.Y6.Z6.`6. 7..7.+7.@7.#7.$7.%7.&7.*7.=7.-7.;7.>7.,7.'7.)7.!7.~7.{7.]7.^7./7.(7._7.:7.<7.[7.}7.}7.Y5.B4.|7.Z5.17.93.27.37.47.57.67.77.87.97.07.a7.b7.c7.d7.e7.f7.g7.h7.i7.j7.k7.l7.m7.n7.o7.p7.q7.",
"r7.s7.t7.u7.v7.w7.x7.y7.z7.A7.B7.C7.D7.E7.F7.E7.G7.H7.I7.J7.K7.L7.M7.N7.O7.P7.Q7.R7.S7.T7.U7.V7.W7.X7.Y7.Z7.`7. 8..8.+8.@8.#8.$8.%8.&8.*8.=8.-8.3p ;8.>8.,8.'8.)8.!8.~8.{8.]8.{8.^8./8.(8._8.:8.<8.[8.}8.|8.18.28.38.2k 48.58.68.78.88.98.08.a8.b8.c8.d8.e8.f8.g8.h8.i8.j8.k8.l8.m8.n8.o8.p8.q8.r8.s8.t8.u8.v8.K}.w8.z[.x8.y8.z8.A8.B8.C8.S/.D8.E8.F8.G8.H8.I8.J8.K8.L8.M8.N8.O8.P8.Q8.R8.S8.T8.",
"U8.V8.W8.X8.Y8.Z8.`8. 9..9.+9.@9.#9.$9.%9.&9.$9.-l *9.=9.-9.;9.>9.,9.'9.)9.!9.~9.{9.]9.^9./9.(9._9.:9.<9.[9.}9.o6.|9.19.29.39.49.59.69.79.89.99.09.a9.b9.c9.-o d9.e9.f9.g9.h9.i9.j9.k9.l9.m9.n9.o9.p9.q9.r9.s9.t9.u9.v9.w9.x9.y9.z9.A9.B9.C9.D9.E9.F9.G9.H9.I9.J9.K9.L9.M9.N9.M9.O9.P9.Q9.R9.S9.T9.U9.V9.W9._2.X9.Y9.Z9.`9. 0..0.+0.@0.#0.$0.%0.&0.*0.=0.-0.;0.>0.,0.'0.)0.!0.~0.{0.]0.^0./0.(0.",
"_0._0. 9.Z8.Y8.+9.:0._0.V8.+9._0.<0.#9.[0.}0.|0.%9.10.[0.20.30.1t *9.26.40.50.60.70.80.90.00.a0.b0.c0.d0.e0.f0.g0.h0.i0.j0.k0.l0.m0.n0.o0.p0.q0.r0.s0.t0.u0.v0.w0.x0.y0.z0.A0.B0.C0.lp D0.E0.F0.G0.H0.I0.J0.K0.L0.M0.N0.O0.P0.Q0.R0.S0.T0.U0.V0.W0.X0.Y0.Z0.`0. a..a.+a.@a.#a.$a.%a.&a.*a.=a.-a.;a.>a.,a.'a.H}..1.)a.!a.~a.{a.]a.^a./a.(a._a.:a.<a.[a.}a.|a.1a.2a.3a.4a.5a.6a.7a.8a.9a.0a.aa.ba.",
"ca.V8.`8.da.ea.da.fa.ga.#9.ha.=l |6._0.;l ia.ja.ka.@9.la.ha.ma.na.oa.pa.qa.ra.sa.ta.ua.va.wa.xa.ya.za.Aa.Ba.Ca.Da.Ea.Fa.Ga.Ha.Ia.Ja.Ka.La.Ma.Na.Oa.Pa.Qa.Ra.Sa.Ta.Ua.Va.Wa.Xa.Ya.Za.`a. b..b.+b.@b.#b.$b.%b.&b.*b.=b.-b.;b.>b.,b.g].'b.)b.!b.~b.{b.]b.^b./b.(b._b.:b.<b.[b.}b.|b.1b.2b.3b.4b.5b.6b.7b.8b.9b.0b.ab.bb.cb.':.db.eb.fb.gb.hb.ib.jb.kb.lb.mb.nb.ob.pb.qb.rb.sb.tb.ub.vb.wb.xb.yb.zb.",
"Ab.Bb.Cb.Db.Eb.Eb.Cb.Fb.Gb.Hb.Cb.Ib._0.Jb.Kb.Lb.Mb.Nb.Ob.Pb.Qb.w7.Rb.Sb.Tb.Ub.Vb.Wb.Xb.Yb.Zb.`b. c..c.+c.@c. o #c.$c.%c.&c.*c.=c.-c.;c.>c.,c.'c.)c.!c.~c.{c.]c.^c./c.(c._c.:c.<c.[c.'7.}c.|c.1c.2c.3c.4c.5c.6c.7c.8c.9c.0c.ac.bc.cc.dc.ec.fc.gc.hc.ic.jc.kc.lc.mc.r%.').nc.oc.pc.qc.rc.sc.tc.uc.vc.wc.xc.c3.03.03.yc.zc.Ac.Bc.Cc.47.Dc.Ec.Fc.Gc.mb.Hc.Ic.Jc.Kc.Lc.Mc.Nc.Oc.Pc.Qc.Rc.Sc.Tc.Uc.Vc.",
"Wc.Xc.Yc.Zc.Zc.`c. d.Am .d.+d.@d.#d.$d.%d.&d.*d.=d.-d.;d.>d.,d.'d.)d.!d.~d.{d.]d.^d./d.(d._d.:d.<d.[d.}d.|d.1d.2d.3d.4d.5d.6d.7d.8d.9d.0d.ad.bd.cd.dd.ed.fd.gd.hd.id.jd.kd.ld.md.nd.od.pd.qd.rd.sd.td.ud.vd.wd.xd.yd.zd.Ad.Bd.Cd.Dd.Ed.Fd.Gd.Hd.Id.Jd.Kd.Ld.Md.Nd.Od.Pd.Qd.Rd.Sd.Td.Ud.C5.Vd.Wd.Xd.Yd.Zd.Z5.E4..6.`|.`d.':.db. e.47..e.+e.@e.#e.Ic.$e.%e.&e.*e.Lc.=e.-e.;e.>e.,e.'e.)e.!e.~e.{e.",
"]e.^e./e.(e._e.:e.<e.[e.}e.|e.1e.2e.3e.4e.5e.6e.7e.8e.9e.0e.ae.be.ce.de.ee.Sj Sj Xj fe.Rj ge.:d.he.ie.je.ke.le.me.ne.oe.pe.qe.re.se.te.ue.ve.we.xe.ye.ze.Ae.Be.Ce.De.Ee.Fe.Ge.He.Ie.Je.Ke.Le.Me.Ne.Oe.Pe.Qe.Re.Se.Te.Ue.Ve.We.Xe.Ye.Ze.`e. f..f.+f.@f.#f.$f.%f.&f.*f.=f.=f.-f.;f.>f.,f.'f.)f.!f.~f.{f.Y5.|7.c3./2.B4.]f.^f./f.(f._f.:f.h3.<f.[f.}f.H8.|f.1f.2f.3f.4f.5f.6f.7f.,e.8f.9f.0f.af.bf.",
"cf.df.ef.ff.gf.hf.if.jf.kf.lf.mf.nf.of.pf.pf.qf.rf.qf.sf.tf.uf.vf.wf.xf.-|.yf.zf.Af.Bf.|e.Cf.Df.Ef.Ff.Gf.Hf.xf.If.Jf.Kf.Lf.Mf.Nf.Of.Pf.Qf.Rf.Sf.Tf.Uf.Vf.Wf.Xf.Yf.Zf.`f. g..g.+g.@g.#g.$g.%g.&g.*g.cm =g.-g.;g.>g.,g.'g.)g.!g.*9.~g.{g.]g.^g./g.(g._g.:g.<g.[g.}g.|g.1g.2g.3g.4g.5g.6g.7g.8g.9g.0g.ag.bg.cg.b3./2.dg.eg.fg.4f.(f.gg.hg.ig.jg.kg.lg.mg.ng.og.pg.qg.rg.sg.tg.ug.vg.wg.xg.yg.zg.Ag.",
"Bg.Cg.Dg.Eg.Fg.Gg.Hg.Ig.Jg.Kg.Lg.Mg.Ng.Og.Pg.Qg.Rg.Sg.Tg.Ug.Vg.Rg.Wg.Xg.Yg.Zg.`g.`g. h.gf..h.+h.@h.#h.$h.%h.&h.*h.=h.-h.;h.>h.,h.'h.)h.!h.~h.{h.]h.^h./h.(h._h.:h.<h.[h.}h.|h.1h.u<.z3.2h.7l 3h.4h.5h.6h.7h.8h.9h.0h.|0.ah.bh.Tr $9.ch.#9.dh.eh.fh.gh.hh.ih.jh.kh.lh.mh.nh.oh.ph.qh.rh.sh.th.uh.vh.wh.xh.yh.zh.Ah..6.Bh.Ch. e.(f.Dh.ig.Eh.Fh.Gh.Hh.Ih.Jh.Kh.Lh.Mh.Nh.Oh.Ph.Qh.Rh.Sh.Th.Uh.Vh.Wh.",
"Xh.Yh.Zh.`h. i..i.+i.@i.#i.$i.%i.&i.*i.=i.-i.;i.>i.,i.'i.)i.!i.~i.{i.!i.;i.]i.^i./i.(i._i.:i.<i.[i.}i.|i.1i.2i.3i.4i.5i.6i.7i.8i.9i.0i.ai.bi.bi.ci.di.ei.fi.gi.hi.ii.ji.ki.li.mi.ni.Ea.oi.pi.qi.ri.si.ti.ui.vi.wi.-l xi.$9.<0.la.V8.yi.#9.&9.zi.Ai.Bi.Ci.Di.Ei.Fi.Gi.Hi.Ii.Ji.Ki.Li.Mi.Ni.Oi.Pi.Qi.Ri.Si.A4.17.`5.b3.eg.Ti.Ui.Vi.Wi.Vi.Xi.Yi.Zi.[:.`i. j..j.+j.+j.rg.@j.#j.$j.%j.&j.*j.=j.-j.;j.",
"y4.>j.,j.'j.)j.)j.)j.!j.~j.)j.)j.{j.]j.^j./j.(j._j.:j.<j.[j.}j.|j.1j.2j.3j.4j.5j.6j.7j.8j.9j.0j.aj.bj.cj.dj.ej.fj.gj.hj.ij.jj.kj.lj.mj.nj.oj.pj.ci.qj.rj.sj.tj.uj.vj.wj.xj.yj.zj.Aj.Bj.Cj.Dj.Ej.Fj.Da.em Gj.Hj.Ij.[0.Jj.Ib.Kj.Lj.@9.Z8.Mj.=9.Nj.Oj.Pj.Qj.Rj.Sj.Tj.Uj.Vj.Wj.Xj.Yj.Zj.`j. k..k.+k.@k.Ri.Qi.#k.$k.%k.+1.&k.*k.=k.-k.Ui.;k.>k.,k.'k.)k.!k.~k.@0.qg.rg.{k.Nh.]k.^k./k.(k.K^._k.:k.<k.",
"[k.}k.|k.1k.2k.3k.4k.5k.6k.7k.8k.9k.0k.ak.bk.]'.ck.T1 1d dk.ek.fk.gk.hk.ik.jk.kk.lk.mk.yy nk.ok.pk.qk.rk.sk.tk.uk.vk.wk.xk.yk.zk.Ak.Bk.Ck.Dk.Ek.Fk.Gk.Hk.Ik.Jk.Kk.Lk.Mk.Nk.Ok.Pk.Qk.Rk.Sk.Tk.Uk.Vk.Wk.Xk.*|.Yk.Zk.`k. l..l.+l.@l.#l.W8.ka.$l.=9.%l.&l.*l.=l.-l.;l.>l.,l.'l.)l.!l.~l.3c.{l.]l.^l./l.(l._l.:l.<l.[l.}l.|l.1l.2l.3l.=k.4l.=k.5l.6l.7l.8l.9l.0l.al.bl.cl.Kh.:f.dl.el.fl.gl.hl.il.jl.",
"kl.ll.ml.nl.ol.pl.ql.rl.sl.tl.ul.vl.wl.xl.yl.zl.Al.%,.Bl.#G Cl.Dl.El.Fl.Gl.Hl.Il.Jl.Kl.Ll.Ml.Nl.Ol.Pl.Ql.Rl.Sl.Tl.Ul.Vl.Wl.Xl.Yl.Zl.`l. m..m.+m.@m.#m.$m.%m.&m.*m.=m.-m.;m.>m.,m.'m.)m.!m.~m.{m.]m.^m./m.(m._m.:m.<m.[m.}m.|m.1m.2m.Lj.3m.4m.5m.6m.7m.8m.9m.0m.am.bm.cm.dm.em.fm.gm.hm.im.jm.km.lm.(l.f3.mm.nm.om.pm.qm.rm.sm.-k.tm.um.sm.vm.wm.xm.)k.ym.Zi.zm.gb.Am.g<.f<.Bm.Cm.Dm.Em.Fm.Gm.Hm.",
"Im.Jm.Km.Lm.Mm.Nm.Om.Pm.Qm.lb.Rm.Sm.Tm.Um.Vm.Wm.6r Xm.Ym.&0 Zm.`m. n..n.+n.@n.#n.$n.[W %n.&n.*n.=n.-n.;n.>n.,n.'n.)n.Vl.!n.~n.{n.]n.^n./n.(n._n.:n.<n.[n.}n.|n.1n.2n.3n.4n.5n.6n.7n.;m.8n.9n.0n.an.bn.cn.dn.en.fn.gn.hn.in.jn.kn.ln.mn.nn.on.pn.[0.qn.rn.sn.tn.un.vn.wn.xn.yn.zn.An.Bn.Cn.Dn.En.Fn.Gn.f3.Hn.In.Jn.Kn.qm.Ln.Mn.3l.Nn.On.Pn.Qn.Rn.Sn.Tn.Un.Gh.Wi.Vn.Pn.Wn.Xn.Yn.Zn.`n. o..o.+o.@o.",
"#o.$o.%o.&o.*o.=o.-o.;o.>o.,o.'o.)o.!o.SC ~o.{o.]o.^o./o.(o._o.:o.<o.[o.}o.|o.1o.2o.3o.*y 4o.5o.6o.7o.8o.9o.0o.ao.bo.co.do.eo.fo.go.ho.io.jo.ko.lo.mo.no.oo.po.qo.ro.so.to.uo.vo.wo.xo.yo.zo.Ao.Bo.Co.Do.Eo.Fo.Go.Ho.Io.Jo.Ko.Lo.Mo.No.0e.Oo.v<.Po.Qo.Ro.Jm So.To.Uo.Vo.Wo.Xo.Yo.Zo.`o. p..p.+p.@p.[7.#p.$p.%p.&p.*p.=p.-p.-k.Fl.#n.;p.Wn.>p.,p.'p.o<.)p.kg.!p.~p.{p.]p.-p.^p./p.(p._p.:p.=0.<p.",
"[p.}p.|p.1p.2p.3p.4p.5p.6p.7p.8p.9p.0p.ap.bp.cp.dp.ep.fp.gp.hp.ip.jp.kp.lp.mp.np.op.pp.qp.y1 rp.sp.tp.up.vp.wp.xp.yp.zp.Ap.Bp.Cp.Dp.Ep.Fp.Gp.Hp.Ip.Jp.Kp.Lp.Mp.Np.~j.Op.Pp.<7.Qp.Rp.z4.Sp.Tp.n[.Up.Nk.Vp.Wp.Xp.Yp.Zp.`p. q..q.+q.@q.#q.$q.%q.&q.*q.R[.=q.-q.;q.Of.;l.>q.,q.'q.)q.!q.~q.{q.]q.<7.^q.M9./q.(q._q.:q.sm.<q.Pn.[q.-k.}q.|q.|q.1q.2q.3q.4q.5q.6q.7q.Fh.8q.9q.0q.Vn.aq.bq.cq.dq.eq.fq.",
"gq.hq.iq.jq.kq.lq.mq.nq.oq.pq.qq.rq.sq.tq.uq.vq.wq.xq.yq.zq.Aq.Bq.Cq.Dq.Eq.Fq.Gq.Hq.Iq.Jq.y1 Kq.Lq.Mq.Nq.Oq.Pq.Qq.Rq.Sq.Tq.Uq.Vq.Wq.Xq.Yq.Zq.`q. r..r.+r.@r.#r.$r.%r.Op.&r.{q.*r. p.bg.xh.=r.-r.;r.>r.,r.'r.)r.!r.~r.+1.{r.]r.^r.&i./r.(r._r.:r.<r.[r.}r.|r.1r.2r.3r.4r.5r.6r.7r.8r.9r.Gn.{q.<7.9r.Ri./q.0r.ar.br.cr.Pn.dr.Pn.{p.#n.er.2l.fr.gr.hr.ir.jr.kr.8q.lr.8q.]k.mr.nr.or.pr.qr.rr.sr.tr.",
"ur.vr.wr.xr.yr.zr.Ar.Br.Cr.Dr.Er.Fr.Gr.Hr.Ir.Jr.Kr.Lr.Mr.Nr.Or.Pr.Qr.Rr.Sr.Tr.Ur.Vr.T2.Wr.Xr.Yr.Zr.`r. s..s.+s.@s.#s.$s.%s.&s.*s.=s.-s.;s.>s.,s.'s.)s.!s.~s.{s.]s.^s./s.<7.(s._s.{q.:s.<s.[s.x4.ab.}s.|s.1s.2s.3s.4s.5s.6s.7s.8s.9s.0s.as.bs.cs.ds.es.fs.gs.hs.is.js.ks.ls.ms.ns.os.ps.Gn.Gn.:s.qs.rs.}s.ss.b<.ts.us.]p.Wn.vs.ws.Fl.'r.xs.us.ys.zs.As.Bs.Gh.Cs.V}.Cs.Ui.Ds._f.Es.Fs.Gs.Hs.Is.Js.",
"Ks.Ls.Ms.Ns.Os.Ps.Qs.#0.Rs.Ss.Ts.Us.Vs.Ws.Xs.Ys.Zs.`s. t..t.+t.@t.#t.$t.%t.&t.*t.=t.-t.Wr.;t.>t.,t.'t.)t.!t.!t.~t.{t.]t.^t./t.*s.(t._t.:t.<t.[t.}t.|t.1t.2t.3t.4t.5t.8s.6t.6t.<7.{q.<7.@k.7t.8t.bg.bg.}7.9t.A4.0t.at.bt.ct.dt.et.ft.:s.k8.gt.En.ht.it.jt.kt.xh.}7.Rp.lt.ab.mt.nt.ot.{q.Gn.<7.ag.pt.a3.H}.qt.rt.Xn.|q.|q.st.cr.^f.tt.Pn.ut.vt.wt.xt.7l.yt.Gh..j.Wi.zt.At.Bt.Ct.Dt.Et.$j.Ft.Gt.Ht.",
"It.Jt.Kt.Lt.Mt.Nt.Ot.Pt.Qt.Rt.Fs.St.Tt.Ut.Vt.UW Wt.Xt.Yt.Zt.`t. u..u.+u.@u.#u.$u.%u.&u.*u.=u.-u.;u.>u.,u.Pr.'u.)u.!u.~u.{u.&s.]u.^u./u.(u._u.:u.<u.[u.}u.|u.1u.2u.3u.~j.ht.ht.Gn.{q.4u.{q./l.Gn./l.5u.o8.km.6u.7u.8u.9u.0u.au.#k.yh.wo.bu.D4.cu.du.eu.fu.gu.B4.hu.hu.iu.ju.8s.ps.ku.ku.@p.o8.p8.lu.a3. 1.qt.rt.mu.nu.ou.pu.Fl.qu.Mn.qu.vs.ru.su.tu.uu.vu.wu.zt.xu.qg.yu.zu.5l.Au.y[.Bu.Cu.Du.Ht.",
"Eu.Fu.Os.Gu.,o.Hu.Iu.Ju.k<.Qs.Ku.Lu.Mu.Nu.Ou.Pu.Qu.Ru.Su.Tu.Uu.>u.,u.Vu.Wu.Xu.Yu.Zu.`u. v..v.+v.@v.#v.$v.%v.&v.*v.=v.-v.;v.>v.,v.'v.)v.!v.~v.{v.]v.^v./v.(v._v.:v.<v.En.ht.ht.8s.{q.{q.{q.{q.@p.@p.@p.{q.(l.[7.M9.M9.M9.[v.}v.}v.|v.du.}v.1v.2v.D4.3v.4v.5v.6v.7v.jt.~j.8v.9v.ku.0v.ot.Gn.Si.8u.lu.(2.av.bv.cv.dv.2l.2l.ev.xj.fv.^f.gv.hv.iv.jv.kv.lv.mv.nv.ov.pv.qv.rv.Fh.Dc.Xi.rg.~:.sv.+o.tv.",
"uv.vv.wv.xv.yv.zv.Av.Bv.Cv.Dv.Ev.Fv.Gv.Hv.Iv.Jv.Kv.Lv.Mv.Nv.Ov.Pv.Qv.Rv.Sv.Tv.Uv.Vv.Wv.Xv.Yv.Zv.`v. w..w.+w.@w.#w.$w.%w.&w.*w.=w.-w.;w.>w.,w.'w.)w.!w.<u.~w.{w.]w.4j.~j.^w.~j.!j.Gn.nt.{q.{q.{q.{q.Gn.{q.Gn.{q.Gn.Gn.Gn.N9.E4.2v.D4.cg.|7.D4./w.E4.8t.(w.(w.@k.M9.N9.^w.9v._w.:w.<w.[w.{q.}w.2v./w.|w.1w.2w.3w.9<.4w.pu.4w.3l.>p.5w.nu.2l.6w.7w.8w.lv.[:.9w.0w.aw.:f.qv.bw.bw.xu.bl.Dt.cw.dw.Fm.",
"ew.fw.gw.hw.iw.jw.kw.lw.mw.nw.::.ow.pw.O#.qw.rw.sw.tw.uw.vw.ww.xw.yw.zw.Aw.Bw.Cw.Dw.Ew.Fw.Gw.Hw.Iw.Jw.Kw.Kw.Lw.Mw.Nw.Ow.Pw.Qw.Rw.Sw.Tw.Uw.Vw.Ww.)w.Xw.Yw.Zw.`w. x..x.ag./l.{q.)j.+x.nt.Gn.{q.Gn.Gn.Gn.Gn.{q.Gn.Gn.Gn.Gn.@x.M9.@k.7t.Ri.Ri.Si.Si.#x.M9.M9.Ri.Ri.Ri.N9.$x._w._w.%x.ot.{q.<7.iu.2v.&x.*x.=x.-x.;x.>x.2l.pu.,x.'x.'x.)x.2l.pu.!x.~x.{x.]x.^x./x.(x._x.:x.<x.8q.zu.[x.zt.}x.|x.1x.2x."};
